P2 452 312 255 101 99 99 99 99 98 98 100 99 99 99 100 100 100 99 98 98 98 99 99 100 100 101 101 99 99 99 99 99 99 99 99 100 100 100 99 99 99 100 101 100 101 101 100 98 98 99 100 101 100 100 99 99 99 99 100 98 99 100 101 101 101 100 99 100 100 100 100 100 100 100 100 100 100 100 100 101 101 101 101 103 102 101 100 100 100 101 102 101 101 101 101 101 101 101 101 101 101 102 102 102 102 101 100 101 101 102 103 103 103 102 102 103 102 103 105 104 102 101 103 99 104 105 102 101 104 103 100 101 100 102 103 102 102 104 102 105 101 105 102 87 96 110 105 107 109 105 106 110 105 102 109 106 106 104 104 102 101 102 105 106 106 106 106 105 105 104 104 106 105 105 105 105 105 104 103 106 105 104 103 103 104 105 106 103 103 103 103 103 104 105 106 104 104 105 105 105 105 105 105 105 105 104 104 105 105 104 104 103 103 104 104 105 106 106 107 107 106 105 104 104 104 104 105 107 104 103 104 106 105 105 106 106 105 105 105 106 107 106 106 108 108 107 107 107 107 108 108 106 106 107 108 109 109 108 108 107 106 106 107 108 108 106 104 106 106 106 106 106 106 105 105 107 108 109 109 108 108 109 110 109 109 109 109 109 108 107 106 109 109 109 109 109 108 108 108 108 108 108 108 108 108 108 107 108 108 108 108 109 108 108 108 107 106 92 107 103 112 108 109 110 104 109 106 102 95 111 111 110 110 108 106 107 108 110 111 110 113 96 91 108 105 109 115 108 113 93 98 109 105 94 109 117 90 102 119 122 109 90 87 72 85 121 101 120 113 112 118 117 111 70 78 102 79 145 192 232 178 209 215 231 204 234 242 237 230 237 149 213 215 202 171 217 225 232 179 206 248 218 206 157 177 162 132 106 88 120 128 126 128 131 123 124 123 117 121 118 123 120 123 128 114 108 128 114 110 118 120 133 114 103 131 119 123 106 117 119 120 123 121 123 118 105 83 116 113 127 130 116 108 111 125 100 99 98 100 100 99 99 100 100 100 100 100 100 100 99 99 100 100 100 100 100 100 100 100 100 100 100 100 100 100 100 100 100 100 100 99 99 99 99 100 100 100 100 100 99 99 99 100 100 100 100 99 99 99 100 100 99 99 100 101 101 101 100 99 100 100 100 100 101 101 101 101 100 100 100 101 101 101 102 102 102 102 101 101 100 101 101 101 101 101 101 101 101 101 101 101 101 101 102 102 102 102 101 101 102 102 102 102 102 102 102 102 103 102 103 104 103 101 101 103 105 101 101 103 102 97 97 101 104 100 102 105 103 101 101 99 104 93 118 155 215 121 90 98 110 103 109 112 103 105 109 100 105 107 106 104 106 109 108 102 105 105 105 104 104 104 105 105 106 105 106 105 105 105 104 104 106 105 104 104 104 104 105 106 104 104 105 105 105 105 105 106 104 105 105 105 105 105 105 105 105 105 104 104 105 105 105 104 104 104 105 105 106 106 106 106 105 105 105 105 105 105 105 105 107 105 104 106 106 106 106 107 107 107 106 106 107 107 106 106 108 108 107 107 107 107 108 108 107 107 107 108 108 108 108 108 106 106 106 107 107 107 106 105 106 106 106 106 106 107 107 107 107 108 109 109 108 108 109 110 109 109 109 109 108 108 107 107 109 109 109 109 109 109 109 109 109 109 109 108 108 108 108 107 110 110 108 109 109 108 107 108 108 105 90 109 104 109 104 109 109 109 108 111 120 97 95 111 106 105 106 108 110 109 107 105 109 106 119 82 92 122 111 105 112 104 77 119 115 93 87 114 86 109 118 108 113 96 117 124 112 82 73 95 102 117 118 96 99 50 84 112 129 165 195 232 224 156 149 206 200 202 210 233 235 188 190 137 122 168 147 175 221 220 214 178 191 213 156 136 214 233 215 202 127 121 123 129 114 105 131 117 125 118 123 118 123 124 128 117 102 116 131 121 125 119 119 112 124 107 118 118 117 115 111 123 119 127 122 127 122 129 101 89 109 115 112 115 87 118 110 127 99 98 99 100 100 99 99 101 101 101 100 100 100 101 100 100 101 101 100 100 100 99 99 99 101 101 101 101 101 101 101 101 101 101 101 100 99 99 99 100 100 99 99 100 100 101 100 100 99 100 100 100 100 100 100 100 99 100 100 101 101 101 100 100 100 100 101 101 101 101 102 102 101 101 101 101 101 102 102 102 101 101 101 101 101 101 101 101 101 101 102 102 102 102 101 101 101 101 101 102 102 102 102 102 103 102 102 102 102 102 102 102 104 103 103 103 102 101 101 103 102 100 101 106 106 102 101 104 102 108 103 99 104 99 97 112 113 114 96 73 208 251 194 126 85 95 106 107 106 110 110 102 103 106 108 105 104 105 106 105 104 104 104 104 104 105 105 105 106 105 105 105 106 106 105 104 106 106 105 104 104 105 106 106 104 106 107 107 106 106 105 105 105 105 105 106 106 106 105 105 105 105 105 105 106 106 106 106 105 106 106 107 107 106 105 104 103 104 105 106 106 106 105 104 107 106 106 107 107 106 107 109 108 108 107 107 107 107 107 106 106 106 107 107 107 107 106 106 107 107 107 107 107 107 107 107 105 105 106 106 106 106 107 107 107 107 106 106 107 107 108 108 107 108 109 109 108 108 109 110 109 109 109 108 108 108 108 108 109 109 109 109 109 108 108 108 108 108 108 108 108 108 108 108 110 110 109 108 108 107 108 108 113 105 92 111 109 108 105 111 107 105 105 102 108 106 101 91 117 110 107 112 115 112 109 112 110 107 110 121 75 100 115 119 118 78 96 97 81 113 102 93 100 114 110 118 96 110 117 104 114 129 94 63 111 99 58 67 91 59 73 189 208 225 234 216 227 202 164 221 198 239 186 182 169 170 193 204 229 245 139 207 215 199 205 217 210 190 215 137 221 231 231 188 155 139 131 107 90 138 125 119 127 119 103 116 120 112 101 109 127 128 119 120 123 126 117 110 104 89 116 105 89 90 124 118 123 129 113 117 122 123 81 104 135 112 95 82 93 145 121 115 99 99 99 101 101 100 99 100 102 101 100 99 100 101 101 101 101 101 101 100 100 100 99 99 101 101 101 101 101 101 101 101 101 101 101 100 100 99 99 100 100 99 99 100 101 102 100 99 99 99 100 101 101 101 100 100 100 100 100 100 101 101 101 101 101 101 101 101 102 102 102 102 101 101 101 101 102 102 102 102 101 101 101 101 101 101 101 100 101 101 102 103 103 102 101 101 101 101 101 101 102 102 103 103 103 103 102 102 101 101 102 102 104 103 103 102 102 101 102 103 101 104 104 99 98 101 101 97 101 101 100 99 104 112 120 127 100 86 89 73 115 250 249 246 186 108 82 110 109 96 103 113 110 106 105 107 106 101 104 107 104 104 104 104 104 104 104 104 106 106 106 106 106 107 107 106 106 106 105 105 105 105 106 106 106 106 107 107 106 106 106 106 105 105 106 106 106 106 106 105 106 105 105 106 107 107 107 107 105 106 107 108 107 107 105 105 104 105 106 106 106 106 105 104 106 106 107 108 107 105 106 109 108 107 107 107 107 107 107 106 106 107 107 108 108 107 107 106 108 108 107 106 106 106 107 107 105 106 107 106 105 105 106 108 107 107 106 106 106 107 108 109 107 108 109 109 108 108 109 110 109 109 108 108 108 109 109 110 110 110 109 109 109 109 109 109 109 109 109 109 108 108 108 108 110 109 108 107 107 108 108 109 114 106 94 110 111 110 108 111 111 113 115 106 106 117 110 90 97 107 113 108 104 107 110 110 113 117 103 109 91 85 115 108 82 113 99 73 92 114 81 85 108 91 119 114 100 104 119 115 111 117 91 88 128 89 91 145 133 136 104 164 239 194 226 238 127 123 179 217 178 178 84 161 232 234 233 213 196 178 163 137 180 193 183 140 234 239 233 123 202 216 214 165 168 128 126 116 131 108 118 114 105 116 125 92 84 112 110 105 118 109 106 134 126 127 112 130 115 100 103 102 92 126 117 111 113 111 129 118 126 87 104 108 89 73 107 94 110 96 89 127 100 99 100 101 101 99 99 100 101 100 99 99 100 100 101 100 101 101 101 100 100 100 100 100 101 101 101 101 101 101 101 101 100 100 101 101 100 100 100 101 101 100 100 100 102 102 100 98 99 100 100 101 101 101 101 100 100 100 101 101 101 101 101 101 101 101 101 101 102 102 102 102 102 102 102 102 101 101 101 101 101 101 101 101 101 101 101 101 101 101 102 103 103 102 101 101 102 102 102 102 102 103 103 104 103 103 102 102 101 101 102 102 102 103 103 102 101 102 103 103 101 104 103 98 98 103 107 106 107 93 102 115 115 124 113 75 87 80 93 97 70 184 253 252 247 234 168 100 93 110 110 104 113 107 104 105 109 110 107 104 106 105 105 105 105 104 104 104 107 106 106 107 107 108 107 106 106 106 105 105 105 105 106 106 106 106 106 106 105 105 106 106 106 106 106 106 106 106 106 106 106 106 105 106 107 108 108 107 105 106 107 108 108 107 106 106 107 106 106 105 105 105 105 105 106 106 107 108 107 105 106 108 107 106 106 106 107 108 107 107 106 107 107 108 108 107 107 106 108 108 107 107 106 106 107 107 106 107 107 107 105 105 106 107 108 107 106 106 106 106 107 108 107 108 109 109 108 108 109 110 109 109 108 108 108 109 110 110 110 110 110 110 109 109 109 109 109 109 109 109 109 109 108 108 108 108 107 107 107 108 109 109 109 104 94 105 109 110 109 107 105 111 108 107 115 102 83 103 73 99 116 111 105 109 112 108 103 112 112 107 108 106 69 97 114 79 62 98 111 113 79 91 125 97 106 100 112 102 107 117 120 105 91 106 77 89 97 174 152 172 166 72 161 123 156 169 105 108 162 135 132 126 152 228 111 140 191 165 151 110 139 144 207 190 139 54 79 134 183 130 194 184 139 154 146 117 101 114 104 96 123 110 119 132 99 90 122 118 124 129 122 118 114 102 94 125 124 111 104 126 130 126 80 122 131 118 102 117 103 124 117 69 92 61 81 104 104 96 103 54 52 72 101 100 100 101 101 99 99 100 101 100 99 100 100 101 101 100 100 100 100 101 101 101 101 101 100 100 100 100 100 100 100 100 99 100 101 101 101 101 101 101 101 101 101 101 101 101 100 100 100 100 101 101 101 101 101 101 100 101 101 101 102 101 101 101 102 102 102 101 101 101 101 101 102 102 102 101 101 101 101 101 101 101 101 101 102 102 102 102 102 102 102 103 103 102 102 102 102 102 102 102 103 103 103 103 103 102 102 102 102 102 102 102 101 103 103 102 102 103 103 103 100 99 102 106 104 100 101 105 94 119 129 117 104 92 87 91 88 93 88 89 78 101 240 246 248 252 253 228 160 99 90 110 102 110 112 107 106 109 109 105 107 106 106 106 105 105 105 104 107 106 106 106 107 108 107 106 106 106 106 106 106 106 106 106 106 106 106 105 104 105 106 107 106 107 107 107 107 106 106 106 106 106 106 106 107 108 107 107 104 105 106 107 108 107 107 107 108 107 106 105 104 105 106 106 106 105 106 107 107 105 106 107 107 106 106 106 107 108 108 107 107 107 108 108 108 108 107 107 108 108 107 107 107 107 107 107 107 107 108 107 106 106 106 106 108 107 107 106 106 107 107 107 107 108 109 109 108 108 109 110 109 109 109 109 109 109 110 110 110 110 110 110 109 109 109 109 109 109 109 109 109 109 108 108 107 107 107 107 107 108 109 110 107 103 95 103 110 111 111 107 114 106 102 108 115 106 90 114 104 94 97 113 120 112 108 114 117 110 109 113 83 116 69 112 97 99 113 89 102 100 85 92 111 102 94 117 110 100 100 95 81 92 91 106 66 115 104 83 142 123 56 46 177 209 144 134 223 228 133 184 158 125 216 209 82 141 176 114 103 105 117 129 98 106 145 130 146 108 133 98 87 77 64 90 77 54 83 101 111 123 109 128 115 93 79 120 110 97 114 122 99 101 117 108 86 111 133 106 118 135 135 129 107 111 113 99 122 124 107 96 67 68 78 85 106 117 111 93 84 81 87 54 101 100 100 101 101 100 100 101 101 100 100 101 101 102 101 100 100 100 101 101 101 101 101 101 101 101 101 101 101 101 101 101 100 101 102 102 101 100 100 100 100 101 101 101 100 100 101 102 101 101 101 101 101 101 101 101 100 101 101 102 102 102 101 101 102 102 102 101 101 100 100 100 102 102 101 101 101 100 100 100 102 102 102 102 102 102 103 103 102 102 102 102 102 102 102 102 102 102 103 103 103 103 103 102 102 102 102 102 102 102 102 102 101 103 104 102 102 104 104 102 102 101 103 104 100 95 99 107 144 144 112 87 91 83 75 93 86 91 85 80 91 68 166 253 249 248 246 253 252 217 147 96 105 107 107 107 106 104 105 108 108 108 106 106 106 106 106 106 106 106 106 106 106 107 107 106 106 106 106 106 106 106 106 106 105 105 106 106 105 106 106 107 107 107 107 107 107 107 106 106 107 106 106 106 107 107 107 106 105 105 106 106 107 107 107 107 108 107 106 105 105 105 106 107 106 105 105 107 108 107 106 106 108 107 107 107 108 108 108 107 108 108 107 107 107 107 108 108 107 107 107 108 108 107 107 107 107 107 107 108 108 108 107 106 107 107 107 107 108 108 108 108 107 108 109 109 108 108 109 110 109 110 110 110 110 109 109 109 110 110 109 109 109 109 109 109 109 109 109 109 108 108 108 108 107 108 108 108 108 109 109 109 109 101 95 104 113 110 111 108 111 107 111 108 103 112 101 106 126 98 83 97 111 106 104 111 108 107 118 98 98 115 100 73 106 125 120 111 116 75 98 82 61 66 90 105 86 69 93 93 82 92 41 68 104 104 120 72 129 176 75 199 199 146 182 230 140 125 166 214 233 180 134 105 124 165 142 154 189 194 223 210 176 188 199 179 157 168 116 137 116 100 104 97 98 74 100 88 72 112 100 91 108 104 120 115 117 122 114 91 81 99 114 112 134 91 93 89 105 95 101 116 96 91 140 105 115 118 102 81 62 114 66 82 124 109 97 111 125 132 122 89 101 100 99 100 101 100 101 102 101 101 101 102 102 102 102 101 101 101 101 101 101 101 101 101 101 101 101 101 101 101 101 101 101 102 102 102 101 100 100 100 100 101 101 101 100 100 102 104 102 102 101 100 100 100 101 101 100 100 102 103 103 102 101 100 102 102 102 101 101 100 99 99 101 101 101 101 100 100 100 100 103 103 102 101 102 102 103 104 103 103 102 102 102 102 103 103 102 103 103 104 104 103 102 101 101 101 102 103 103 103 102 102 101 104 105 103 102 103 102 100 101 104 102 95 99 116 138 151 106 81 81 90 85 88 95 87 88 87 95 79 80 86 77 228 251 244 245 245 246 252 250 214 128 103 91 106 115 107 103 109 106 106 108 107 107 107 107 107 106 106 106 106 106 106 105 105 106 106 106 106 106 106 106 106 104 105 106 107 107 107 107 107 107 107 107 107 107 107 106 106 107 107 106 106 107 107 106 106 105 105 106 106 106 107 107 107 107 106 106 105 105 106 107 107 107 105 105 107 109 108 106 106 109 109 108 108 108 108 108 107 108 108 107 107 107 107 108 108 106 107 107 108 108 108 107 107 107 107 107 108 110 110 108 106 106 107 107 108 109 109 109 109 107 108 109 109 108 108 109 110 109 110 110 110 110 110 109 108 109 109 109 109 109 109 109 109 109 109 109 108 108 108 108 108 108 108 109 109 109 109 109 109 110 98 92 105 114 107 108 108 101 135 144 128 120 117 90 109 108 114 104 86 87 107 116 109 115 119 106 67 90 82 79 91 119 113 111 122 63 101 150 114 128 106 75 95 95 115 84 95 96 41 103 133 132 127 144 125 197 63 122 219 198 238 254 156 151 245 254 254 148 75 112 209 240 199 189 203 230 220 208 175 179 188 180 152 187 175 131 132 133 138 124 133 109 109 91 101 96 89 89 85 77 84 63 105 114 103 94 102 116 119 116 118 99 98 125 120 106 110 116 107 61 65 74 71 64 112 118 69 105 136 80 56 97 109 84 107 97 132 134 116 100 103 102 100 101 104 103 99 103 103 102 102 101 101 101 101 102 102 102 102 102 102 102 102 102 102 102 102 102 102 102 102 103 102 101 101 102 102 101 100 101 101 101 101 101 101 101 101 99 100 100 101 101 101 101 100 101 102 102 102 102 102 102 102 102 104 104 102 101 102 102 101 101 101 101 102 102 102 102 102 103 103 102 102 102 102 103 103 102 101 101 102 103 104 104 103 103 103 103 103 103 103 102 102 103 104 103 101 102 105 105 102 105 100 101 106 107 105 102 100 109 93 98 114 144 139 105 73 77 83 88 87 87 90 89 86 94 87 93 86 91 91 73 142 253 249 243 248 242 250 253 251 249 199 129 91 98 113 111 108 104 110 110 108 110 108 107 108 107 105 105 106 107 107 107 107 105 105 105 106 106 106 106 106 107 107 107 107 107 108 108 108 108 107 107 107 106 106 106 106 109 108 108 108 108 108 107 107 107 107 107 107 107 107 107 107 108 108 108 108 107 107 107 107 106 107 107 107 107 107 107 108 108 108 109 108 106 107 108 105 110 106 106 106 113 95 110 111 109 105 109 107 105 110 109 105 108 106 107 110 111 109 108 108 107 107 106 106 106 107 108 109 109 109 108 108 109 110 110 111 113 111 109 109 111 112 112 111 108 111 113 110 108 109 111 110 104 115 106 110 109 107 105 113 108 113 112 107 112 108 115 105 108 115 89 85 115 100 118 111 120 147 156 172 119 104 100 116 93 108 118 91 86 107 94 118 119 94 61 64 88 98 98 86 106 96 67 82 169 185 195 167 198 195 139 57 93 97 52 101 90 118 164 131 139 124 168 215 235 90 178 185 241 250 166 167 253 228 171 78 77 144 111 185 179 179 207 233 200 184 180 171 165 172 100 91 135 150 119 115 124 129 128 123 107 116 119 117 121 118 108 100 90 88 97 95 93 88 84 113 100 105 110 109 117 127 111 103 105 103 92 75 85 91 100 97 96 72 70 48 96 96 90 74 116 126 131 104 91 86 102 113 102 101 101 102 103 102 101 101 103 103 102 102 101 101 101 101 102 102 102 102 102 102 102 102 103 103 103 103 103 103 103 103 102 101 100 100 101 102 101 100 102 102 102 102 102 102 102 102 102 103 103 103 103 103 102 102 102 102 102 102 102 102 102 102 102 104 104 102 102 102 103 102 102 102 101 101 101 101 102 103 103 103 103 102 102 102 103 103 102 101 102 103 104 105 105 105 103 103 103 103 102 102 102 102 101 102 105 108 107 104 105 108 101 107 103 99 102 101 100 105 98 122 149 132 103 78 75 82 88 91 92 87 86 88 90 90 89 92 94 86 89 94 80 95 214 254 243 245 251 248 239 253 250 253 243 192 126 92 97 112 111 108 103 105 111 110 106 109 104 104 105 106 106 106 107 108 105 105 105 106 106 106 107 107 107 107 107 107 107 108 108 108 108 108 107 107 107 107 106 106 108 108 107 107 108 108 108 107 108 107 107 107 107 107 107 107 107 108 108 108 107 107 108 108 106 107 108 108 107 108 108 109 109 109 108 108 108 107 107 107 107 106 111 111 103 96 99 109 107 109 108 100 110 106 110 111 110 110 109 108 107 108 109 109 107 107 107 108 108 108 108 108 110 109 109 109 109 110 110 111 112 110 109 109 111 112 112 111 108 109 108 107 107 109 110 110 108 112 109 114 110 109 112 108 117 103 107 109 110 111 101 111 109 107 122 82 88 129 130 142 133 141 140 99 90 120 95 99 112 111 115 119 73 110 111 98 70 51 97 114 118 111 100 91 107 71 105 204 236 195 181 135 78 106 115 50 30 69 84 95 50 113 164 176 156 135 218 202 192 68 184 209 237 206 144 227 132 68 73 154 230 239 187 91 101 108 120 185 206 181 153 142 149 136 79 119 123 113 117 116 132 123 115 99 103 122 126 121 114 109 104 112 124 132 135 125 118 128 109 99 87 103 108 100 99 85 98 91 106 91 82 82 114 112 104 112 100 111 109 96 87 73 68 54 99 101 96 80 106 118 95 109 104 100 100 103 104 101 100 103 103 103 102 102 101 101 101 102 102 102 102 102 102 102 102 102 103 103 103 103 103 103 103 103 102 101 101 101 102 102 102 101 102 102 102 102 102 102 102 102 103 103 103 103 103 102 102 102 102 102 102 102 102 102 102 102 102 104 104 103 102 103 103 102 103 102 101 100 100 101 102 103 103 103 103 103 103 102 102 102 103 103 103 104 105 106 106 105 104 104 104 103 103 102 102 101 106 102 100 101 103 104 102 100 103 100 106 107 103 110 110 96 116 105 98 79 82 87 88 83 83 88 90 88 86 89 91 92 81 89 89 84 84 88 88 64 114 253 250 244 244 249 244 246 241 247 251 252 242 180 112 88 103 114 117 108 104 108 110 108 107 108 109 108 106 105 106 106 106 106 106 106 106 107 107 107 107 107 107 107 107 108 108 108 108 108 108 108 107 107 107 107 107 107 107 107 108 109 108 108 108 108 108 107 107 107 107 107 107 107 108 108 108 108 108 109 107 108 108 108 108 108 109 109 109 110 107 108 111 107 103 109 112 105 109 111 100 109 98 106 109 112 103 96 117 107 112 107 107 110 110 107 105 108 109 108 107 108 109 109 110 109 109 108 110 110 110 110 110 111 111 111 111 109 109 109 111 112 112 111 111 110 109 110 111 111 111 112 110 107 109 111 107 106 112 98 111 109 114 117 107 111 102 115 111 95 105 110 80 123 126 122 121 135 119 87 117 108 76 95 109 111 108 115 93 65 114 80 83 116 104 96 105 102 83 48 70 71 134 173 166 155 142 81 128 118 83 93 89 88 120 121 155 96 52 88 150 218 217 223 150 53 186 210 218 129 152 60 77 141 218 179 161 159 123 179 191 143 149 92 147 128 158 134 157 122 142 118 118 136 124 133 105 92 101 104 119 111 104 108 113 119 119 122 122 121 125 122 127 132 129 133 120 92 79 87 105 103 101 115 130 93 118 97 88 107 110 100 120 133 123 115 109 101 87 83 73 91 109 84 113 151 122 67 103 101 101 103 104 102 101 102 103 103 102 102 102 102 102 102 102 102 102 102 102 102 102 102 103 103 103 103 103 103 103 103 103 103 103 103 103 103 103 103 102 102 102 102 102 102 102 102 103 103 103 103 102 102 102 102 102 102 102 102 102 103 103 103 102 104 104 102 101 102 102 102 102 102 101 101 101 101 102 102 103 103 104 104 103 103 102 101 106 105 105 105 105 105 104 103 104 104 104 103 103 103 102 102 97 105 108 103 101 105 107 106 103 108 101 99 108 94 64 49 76 79 89 84 88 86 83 80 86 88 87 84 83 84 85 85 86 87 88 85 85 81 93 79 67 178 250 247 248 243 246 251 253 248 246 247 253 252 224 173 106 97 97 110 115 112 108 107 111 111 109 106 106 106 106 106 107 107 107 107 107 107 107 107 107 107 107 107 107 108 108 108 108 108 108 108 108 108 108 108 108 107 107 107 108 108 108 108 108 108 108 108 108 107 107 107 107 108 108 108 108 108 108 109 108 108 109 109 108 108 108 109 108 111 107 108 114 106 100 109 103 105 110 108 94 105 104 107 102 108 98 102 114 105 113 102 98 106 110 108 107 109 109 106 108 108 109 109 110 110 109 109 110 110 110 111 111 112 112 112 111 110 109 110 111 111 111 111 109 107 108 110 110 108 108 109 113 109 109 106 110 109 116 102 95 114 105 108 106 110 112 94 116 114 100 112 93 86 115 106 98 119 89 111 118 65 83 110 100 113 113 91 101 51 65 98 113 119 118 114 94 103 76 84 58 159 179 141 162 154 157 173 153 206 175 117 100 126 148 163 153 120 126 142 97 115 240 228 76 85 187 167 81 33 58 107 163 190 191 191 197 214 214 216 199 176 204 210 93 72 136 116 121 107 122 104 122 123 121 131 90 113 125 122 130 130 131 125 118 129 128 125 118 113 119 122 112 116 119 111 109 101 113 126 136 146 151 136 124 110 119 87 131 114 132 121 129 118 124 124 122 104 97 96 108 83 58 54 79 92 96 64 102 103 103 101 102 104 103 100 103 103 102 102 102 102 102 102 102 102 102 102 102 102 102 102 102 102 102 102 102 102 102 102 104 104 104 103 103 103 103 103 102 102 102 102 102 102 102 102 103 103 103 103 104 104 104 104 102 102 102 103 103 103 103 103 102 104 104 102 101 102 102 101 102 102 103 103 103 103 102 102 103 103 104 104 103 103 102 102 106 105 105 104 104 104 103 103 104 104 104 103 103 103 103 103 103 105 106 105 105 106 103 99 107 99 109 106 69 48 68 92 90 81 84 80 88 85 84 85 87 85 82 80 81 86 88 89 85 82 85 80 85 79 86 94 92 97 232 245 245 246 244 250 239 251 246 238 246 241 232 238 232 161 104 97 106 109 108 107 108 109 106 104 105 108 109 107 108 108 108 108 107 107 106 106 107 107 107 107 107 108 108 108 108 108 108 108 108 108 109 109 109 108 107 108 108 108 108 107 108 108 108 108 108 108 108 108 108 109 109 109 108 108 108 108 108 109 109 108 108 107 107 108 107 110 107 109 115 106 99 107 106 107 110 107 105 105 114 97 94 101 98 112 100 102 114 102 97 105 110 109 108 110 110 106 109 108 108 108 108 109 110 110 110 110 111 111 112 112 113 113 112 111 111 111 111 111 110 110 111 110 111 111 110 109 111 113 110 111 104 98 112 110 115 111 89 110 111 111 108 98 113 104 95 111 127 107 126 70 80 101 95 115 100 109 82 76 112 100 113 111 84 109 67 88 95 105 107 87 77 91 96 64 65 94 104 195 167 150 188 192 198 198 225 224 153 132 132 133 155 160 181 176 175 229 229 122 114 137 7 48 47 17 17 75 137 180 222 227 224 227 237 218 213 202 199 191 161 169 163 138 79 97 115 132 81 81 80 90 102 89 103 131 126 128 124 122 129 124 125 127 119 121 130 130 127 121 127 114 123 124 131 141 169 178 203 185 161 136 129 128 146 114 114 122 126 115 130 119 103 114 113 113 136 109 74 63 34 44 23 34 92 47 102 105 104 101 101 105 104 99 103 103 103 102 102 102 102 102 102 102 102 102 102 102 102 102 102 102 102 102 102 102 102 102 103 103 103 103 102 101 101 102 102 102 102 102 102 102 102 102 102 102 102 102 103 103 104 104 103 103 103 103 103 103 103 103 102 104 104 102 101 102 102 102 102 103 104 104 104 103 102 102 103 103 103 103 103 103 103 103 104 104 103 104 104 105 104 104 104 104 104 104 104 104 104 104 110 102 98 101 104 103 103 106 111 120 94 58 64 90 94 88 86 79 87 84 89 82 82 88 81 81 82 84 86 88 87 86 78 78 83 78 88 89 85 96 103 80 169 254 234 246 247 242 249 252 242 221 215 234 237 217 248 246 217 149 96 97 116 116 110 111 109 107 107 109 109 107 109 109 108 108 108 107 107 107 107 107 107 107 107 108 108 108 108 108 108 108 108 109 109 109 109 108 108 108 108 108 107 107 109 108 108 108 108 108 108 108 109 109 109 109 108 108 108 108 108 109 109 108 108 107 107 108 107 109 108 109 113 107 102 107 104 102 111 109 110 94 109 89 105 102 99 116 97 107 113 97 104 108 110 108 108 110 110 108 109 109 108 108 108 109 110 111 110 110 111 112 112 112 113 113 112 112 112 112 111 111 110 110 113 114 112 109 109 111 112 113 112 114 101 96 108 106 109 112 106 102 113 116 114 96 106 122 96 96 102 89 101 88 77 87 80 61 76 76 82 96 88 106 107 89 99 83 30 84 81 89 79 78 77 72 111 92 150 190 194 197 198 223 216 215 201 216 212 163 133 137 149 149 140 166 149 163 176 183 190 211 90 7 102 188 74 121 203 199 175 195 226 213 204 208 197 192 191 168 174 176 156 145 134 121 123 94 82 81 85 120 122 127 116 103 99 102 92 122 125 115 118 123 124 132 124 125 132 128 126 126 121 118 126 115 139 194 233 225 188 160 159 184 179 112 132 123 128 113 119 108 117 118 129 120 111 89 107 111 66 49 112 128 73 58 27 17 103 103 103 103 103 103 102 101 103 103 103 102 102 102 102 102 103 103 103 103 103 103 103 103 102 102 102 102 102 102 102 102 102 103 103 103 101 101 101 102 103 103 103 103 103 103 103 103 102 102 102 101 101 102 102 103 103 103 103 103 103 103 103 103 103 105 105 103 103 103 103 103 103 104 104 105 105 104 103 103 103 103 103 103 103 103 104 104 104 104 103 104 105 105 105 104 104 104 104 104 104 104 103 103 98 104 107 105 103 105 108 109 72 60 64 82 89 91 89 81 81 79 88 84 84 78 81 87 85 86 88 87 84 80 78 77 86 87 90 92 95 99 94 98 97 86 98 240 246 235 242 246 247 240 223 217 222 219 220 237 245 230 242 250 206 139 104 96 107 112 113 110 107 109 109 107 108 108 108 108 108 108 108 108 107 107 107 107 107 108 108 108 107 107 108 108 108 109 109 109 108 108 107 107 108 108 108 107 109 109 109 108 108 108 108 108 108 109 109 109 108 108 109 109 108 108 109 109 108 108 109 110 108 109 108 109 110 109 109 109 89 84 112 112 99 72 95 101 104 102 104 113 100 107 108 99 110 110 109 108 108 109 109 110 109 109 109 110 110 110 111 111 111 111 112 112 112 112 111 111 112 113 113 113 112 111 111 111 108 110 108 104 105 107 102 94 113 111 100 104 104 104 108 112 118 100 90 102 115 111 105 101 124 81 75 147 148 121 80 117 79 72 106 52 73 88 71 71 75 76 55 46 105 103 88 93 109 95 73 120 110 124 199 175 185 186 198 199 209 211 171 187 155 148 141 137 124 105 117 131 155 188 168 164 164 164 102 20 170 90 83 165 190 156 120 195 176 159 168 198 194 182 155 135 133 128 145 120 126 110 125 123 135 124 117 97 89 110 125 110 113 106 102 99 100 106 103 98 99 112 108 106 113 119 133 147 134 142 179 204 219 221 213 205 185 164 200 199 158 90 94 130 123 99 95 99 115 83 89 99 102 96 76 66 116 70 125 102 135 131 82 19 105 102 101 104 105 102 101 103 103 103 103 102 102 102 102 102 103 103 103 103 103 103 103 103 103 103 103 103 103 103 103 103 102 103 104 103 102 102 103 104 103 103 103 103 103 103 103 103 105 104 104 103 103 103 103 104 103 103 103 103 103 103 103 104 104 106 106 104 103 104 104 104 105 105 105 104 104 104 104 104 103 102 102 102 103 104 104 105 106 105 105 104 105 105 104 104 105 105 105 104 104 103 103 103 107 110 104 98 110 117 85 42 41 69 92 93 85 80 79 84 79 76 85 79 88 89 89 85 85 85 84 81 78 80 87 95 96 95 92 101 90 91 94 94 93 91 92 168 254 249 247 241 241 225 221 235 243 237 235 242 244 244 244 242 249 251 207 134 94 102 109 108 106 108 110 110 108 108 108 108 109 109 109 109 107 107 107 107 107 108 108 108 107 107 107 108 108 109 109 109 108 107 107 107 108 109 108 108 109 109 109 109 108 108 108 108 108 108 109 109 109 109 109 110 107 108 109 109 109 110 111 111 109 108 109 108 107 111 114 112 107 74 97 109 112 94 101 111 78 94 114 112 98 97 102 113 111 109 108 109 110 108 108 109 109 110 111 111 112 111 111 111 112 112 112 112 112 111 110 110 112 112 113 113 113 112 112 112 112 115 113 110 111 111 98 82 97 91 87 101 93 97 107 108 103 120 96 103 105 110 116 90 73 86 97 112 141 137 77 122 60 47 118 90 82 42 73 54 60 39 40 94 109 89 77 84 92 92 100 150 91 189 179 176 174 158 170 188 182 139 178 183 210 138 115 111 103 105 132 137 145 146 142 133 130 138 45 60 69 69 129 105 111 133 163 162 138 149 180 189 191 143 137 111 128 127 127 132 123 117 130 132 131 125 135 126 101 110 83 94 115 102 124 114 114 117 112 117 114 115 98 102 131 155 175 189 197 210 224 216 215 214 206 213 199 210 193 156 110 101 106 94 105 106 88 95 82 104 120 120 74 99 99 116 121 96 73 98 106 110 133 95 103 103 103 103 103 103 103 103 103 103 103 104 104 104 103 102 102 102 102 101 102 102 103 103 103 103 104 104 104 104 103 103 101 102 103 103 103 103 104 105 103 103 104 104 104 104 104 104 105 105 105 105 104 104 104 104 103 103 104 104 104 104 103 103 105 104 104 104 104 104 104 104 104 105 105 104 102 102 104 106 105 105 105 103 102 103 104 105 105 105 106 106 104 102 104 108 108 104 103 108 103 102 110 106 110 97 104 120 98 53 44 70 96 93 86 80 79 83 85 84 79 82 85 87 88 90 90 89 86 82 80 85 91 92 87 83 92 90 94 97 93 90 90 91 95 97 92 106 228 254 251 250 252 237 226 236 250 246 240 247 246 247 247 248 247 245 249 252 202 127 90 104 111 113 113 108 113 108 107 110 109 108 110 109 108 110 110 108 108 108 109 107 108 108 109 110 110 110 109 109 109 108 107 107 109 110 110 110 110 110 110 110 109 109 109 109 108 110 111 110 108 107 108 110 110 110 107 109 114 110 106 112 108 109 109 111 111 102 101 114 112 102 106 92 90 104 94 105 85 107 108 111 82 95 112 107 107 113 108 108 111 109 110 111 112 112 111 110 109 110 111 112 111 112 113 112 111 111 111 112 112 112 112 112 111 111 112 113 101 102 113 101 112 106 109 120 110 105 90 106 98 101 90 88 85 86 88 73 104 118 104 61 61 70 68 78 112 95 99 62 37 44 46 65 51 59 86 71 75 73 44 98 98 87 76 99 85 124 151 94 149 169 143 141 117 120 163 172 139 175 218 176 155 132 124 129 127 125 126 127 124 123 116 127 125 95 14 42 87 125 116 116 119 134 137 129 130 153 169 170 145 138 129 118 130 125 119 114 113 121 118 107 108 109 115 126 98 109 129 81 102 119 123 125 134 125 131 128 115 112 105 144 155 149 167 190 193 189 198 189 182 198 206 205 192 163 154 166 169 118 123 140 113 101 126 106 94 100 95 64 94 129 104 97 85 96 122 62 91 129 97 100 104 104 104 104 104 104 104 104 103 103 103 104 104 104 103 102 101 101 102 102 102 103 104 104 102 103 103 104 104 104 104 103 102 103 103 103 103 103 104 104 102 103 103 103 104 104 105 105 105 105 105 105 104 104 104 104 103 103 104 104 104 104 103 103 104 104 104 104 104 104 104 103 104 104 104 104 104 105 106 107 104 104 104 103 103 103 104 105 106 105 104 105 105 104 104 106 100 113 104 102 109 102 97 100 109 118 97 54 34 55 81 88 88 81 77 78 82 84 86 88 78 83 88 89 89 87 83 79 84 87 91 93 89 86 87 90 97 91 90 92 88 86 88 88 95 91 96 91 162 254 247 251 252 249 245 244 244 238 236 240 244 246 247 246 248 252 250 246 251 244 195 124 92 102 113 110 108 112 109 106 111 109 107 112 109 110 109 108 108 109 109 108 108 108 109 109 109 109 108 108 109 108 107 107 109 110 110 110 110 110 110 110 109 109 109 109 108 109 110 109 108 107 108 109 110 110 108 108 111 109 106 107 113 110 106 108 110 108 104 105 111 100 104 83 103 105 112 115 88 79 124 94 101 98 114 110 109 111 110 107 108 109 108 110 111 111 111 110 110 110 112 113 110 111 112 112 111 111 112 113 112 111 109 107 106 105 106 107 98 98 103 85 100 101 93 103 109 109 92 90 90 99 90 94 97 53 65 58 60 46 34 67 87 72 73 80 89 114 90 113 157 155 176 102 121 105 88 59 87 79 38 22 92 73 107 106 106 72 86 49 103 127 140 140 155 162 145 136 161 196 201 173 135 119 116 122 123 123 126 126 127 119 131 116 138 44 13 101 134 120 126 130 123 111 124 123 130 126 133 133 137 111 112 90 104 96 82 91 99 107 103 96 100 100 104 108 102 87 113 127 106 117 121 120 98 113 109 101 102 113 130 141 136 140 139 149 163 143 145 156 169 182 184 187 170 178 161 139 153 144 120 132 94 88 93 83 76 74 75 92 72 72 74 56 70 58 68 79 74 114 118 124 104 104 104 104 104 104 104 104 103 103 103 103 104 104 103 102 101 101 102 103 103 104 104 104 103 103 104 104 104 104 104 103 104 104 105 104 103 103 103 103 103 103 103 103 103 104 104 105 105 105 106 105 104 104 104 104 104 104 104 104 104 104 104 104 104 104 104 104 104 104 104 103 105 104 104 105 106 106 106 106 104 104 104 104 103 103 104 105 107 104 103 105 107 106 105 105 113 105 97 102 101 101 117 127 95 62 34 37 60 79 87 87 82 75 74 82 87 84 82 84 85 87 87 85 85 86 87 86 91 91 92 92 89 87 89 93 101 93 91 92 90 88 89 89 95 93 100 92 101 218 254 247 254 253 252 248 244 243 239 232 232 242 252 251 249 251 252 248 250 251 252 243 190 117 88 106 116 107 111 114 108 112 115 106 110 110 109 108 108 109 109 108 109 109 109 109 108 108 107 107 109 108 108 108 109 110 110 110 109 109 109 109 108 108 108 108 109 109 109 108 108 108 109 108 110 110 110 108 108 112 113 107 108 109 111 110 108 109 112 110 111 93 112 81 111 119 106 116 105 93 113 90 100 103 123 106 111 107 113 107 104 110 107 110 110 110 111 111 110 111 112 113 110 111 112 112 111 112 112 113 113 113 112 112 111 111 112 112 116 114 119 105 108 112 96 94 110 89 106 117 106 104 81 50 72 56 79 75 78 91 87 116 99 131 97 133 154 141 121 177 176 212 205 210 178 139 121 92 122 121 98 88 39 80 88 70 99 55 85 137 115 137 146 172 164 126 96 121 157 160 150 144 125 118 117 121 121 122 124 122 121 118 116 127 112 11 93 134 111 123 127 112 123 120 120 125 117 125 126 113 105 90 99 121 112 116 122 121 115 114 134 128 120 126 122 117 118 117 80 107 105 83 98 99 115 114 119 129 135 142 155 151 131 135 145 160 146 133 135 149 166 166 155 156 156 139 179 143 89 109 74 80 83 93 102 114 104 105 92 88 86 90 65 83 115 104 109 123 86 59 72 91 104 104 104 104 104 104 104 104 103 103 103 103 103 104 103 102 101 102 103 104 104 104 104 104 103 104 104 105 104 104 103 103 105 105 105 105 104 103 103 104 106 105 104 103 102 103 103 103 105 106 106 105 105 104 104 105 104 104 105 105 105 105 104 104 105 105 105 105 104 104 104 104 107 105 105 105 106 106 105 103 104 105 105 105 104 104 104 105 106 105 104 105 107 107 106 105 101 109 105 96 107 134 127 78 27 45 59 65 77 91 89 76 81 79 81 88 90 84 79 77 87 87 86 83 84 90 95 97 96 93 89 87 86 87 92 97 99 93 93 96 93 92 92 92 95 100 98 107 88 145 254 246 250 249 251 250 246 249 249 239 227 238 249 252 251 252 254 254 247 243 247 251 249 237 186 119 95 106 108 110 116 107 103 117 110 111 111 108 108 109 110 109 109 109 109 109 109 108 108 108 109 109 109 109 109 110 110 110 109 109 109 109 108 108 108 108 109 109 108 108 109 109 110 109 108 109 110 106 100 108 114 108 106 106 112 113 107 109 114 113 108 110 95 90 109 115 108 108 114 74 69 101 102 93 102 116 113 105 116 107 101 112 109 112 110 111 111 111 112 112 112 113 111 111 112 112 112 112 113 113 109 109 110 111 112 112 111 110 110 105 108 105 88 96 114 113 113 119 102 68 93 99 70 74 94 98 94 109 115 122 122 116 106 107 87 82 93 59 108 89 181 199 199 170 122 118 78 76 101 88 109 108 60 58 93 82 61 85 130 108 117 86 91 106 101 115 135 141 135 152 159 127 124 123 124 123 121 122 121 119 125 119 126 128 47 41 120 123 126 116 105 114 123 127 122 122 133 126 118 79 82 127 123 114 117 124 107 124 120 122 121 126 133 121 131 129 146 105 82 86 124 125 106 97 107 115 108 131 146 146 134 134 117 111 129 122 129 127 136 150 146 121 120 153 124 140 113 86 85 108 90 88 115 105 61 78 90 80 86 88 99 72 80 103 122 85 101 116 85 81 71 45 103 103 103 103 103 103 103 103 104 103 103 103 103 104 103 103 103 103 104 105 105 104 104 103 105 105 105 105 105 104 103 102 105 105 105 105 104 104 104 105 107 106 105 103 103 103 103 104 106 106 106 106 105 104 105 105 105 105 105 105 105 105 105 105 106 106 106 106 106 105 105 105 106 105 104 105 106 106 104 103 104 105 106 105 105 105 105 105 106 106 106 105 105 105 105 104 105 102 102 130 139 94 51 37 60 63 75 87 91 85 80 79 81 85 88 88 86 83 79 77 81 85 89 91 93 95 96 95 92 93 93 89 85 85 94 104 95 91 92 94 91 89 92 94 94 101 97 105 100 93 202 254 247 247 252 253 246 246 252 252 242 238 238 244 251 254 254 254 254 247 243 245 247 253 248 231 171 116 93 112 118 113 113 113 110 111 111 110 109 110 111 109 109 109 109 109 109 109 110 110 111 110 109 109 110 110 111 111 110 110 110 110 110 110 110 110 111 110 110 110 111 111 111 110 108 108 109 102 93 98 107 105 115 104 104 110 110 111 111 106 116 107 94 79 93 119 103 117 107 68 90 112 117 103 90 114 115 106 117 107 101 114 110 112 111 111 113 113 112 112 112 112 113 113 113 113 113 113 113 112 112 111 110 110 110 110 109 109 91 102 103 120 107 91 103 99 106 64 78 85 87 88 98 108 96 98 76 101 105 104 115 110 85 80 90 92 93 93 79 158 171 194 158 137 113 61 50 55 70 69 70 52 53 29 126 77 55 92 100 92 95 117 123 127 136 132 122 122 122 125 128 120 117 123 124 122 121 122 121 120 120 108 122 116 19 88 140 135 126 129 106 105 124 121 120 128 107 71 95 101 113 117 121 100 122 118 101 99 137 111 111 128 121 127 126 132 108 84 123 109 102 133 130 133 129 110 97 109 104 111 109 119 122 122 126 93 121 141 137 125 131 131 114 98 93 89 83 100 94 78 76 72 72 91 90 100 110 111 117 74 97 80 64 104 67 76 107 82 73 84 105 117 104 104 104 104 104 104 104 104 105 104 103 103 104 104 104 104 104 105 105 105 105 104 104 104 105 105 105 105 105 104 103 103 105 105 106 105 105 105 105 106 105 105 104 104 104 105 105 105 106 106 106 106 105 105 105 105 105 105 106 106 106 106 105 105 107 107 107 107 106 106 106 106 105 105 104 105 105 106 105 105 105 105 106 106 106 105 105 106 107 107 106 104 103 104 104 104 103 124 134 115 65 26 40 74 83 84 88 88 85 82 82 84 87 90 89 83 79 79 80 80 85 90 95 97 98 98 95 93 92 91 91 92 93 93 96 99 97 92 91 92 88 87 93 97 97 97 99 92 104 90 124 248 253 249 249 252 249 246 248 250 254 246 240 243 246 246 248 254 252 253 244 245 254 243 240 253 253 230 164 101 91 108 114 115 109 111 111 111 110 111 111 109 109 109 109 109 109 110 110 111 111 110 109 109 110 111 111 111 110 110 110 110 110 110 110 110 111 111 111 111 111 111 111 111 110 109 110 107 100 99 106 112 112 105 105 111 112 111 111 111 113 115 85 78 104 99 118 102 76 96 108 108 102 104 96 94 112 107 112 104 104 113 111 110 111 111 113 113 113 112 112 113 113 113 112 112 113 113 112 112 116 114 112 111 112 114 114 114 104 110 87 101 118 90 77 66 69 89 122 106 89 86 93 96 98 104 99 104 96 100 106 112 81 104 123 103 92 80 97 112 126 124 86 83 82 89 100 109 116 112 99 101 76 19 65 76 72 116 112 128 137 130 109 119 111 124 123 121 122 120 122 123 114 121 123 120 121 121 120 122 113 135 123 24 9 119 113 100 103 109 129 102 103 120 137 92 79 112 128 135 129 119 128 126 121 116 130 104 113 103 129 129 126 133 130 126 72 117 133 122 112 115 125 131 131 110 133 137 123 121 133 129 124 122 120 114 106 123 126 123 109 80 75 92 83 92 105 80 90 104 104 128 109 115 99 93 93 69 110 111 103 54 19 73 60 48 111 76 71 104 75 52 105 105 105 105 105 105 105 105 105 105 104 104 104 105 105 105 105 105 105 105 105 105 105 105 104 104 105 105 105 105 104 104 105 106 106 106 105 105 105 106 105 105 105 105 105 106 106 106 106 106 107 106 105 105 105 105 106 106 106 106 106 106 106 106 107 107 107 106 106 106 106 106 105 106 106 105 105 105 106 107 105 105 106 107 106 106 106 106 107 107 105 104 105 109 110 108 125 103 73 48 37 60 89 85 80 78 80 85 90 88 85 84 88 87 84 81 79 79 83 87 95 97 98 97 96 96 96 95 94 90 88 93 98 99 96 93 98 92 91 92 89 90 94 97 98 97 99 92 99 102 90 186 253 251 248 250 253 250 247 247 253 252 250 248 244 241 243 249 248 253 249 240 248 248 242 248 245 249 252 228 161 107 97 108 107 110 111 111 111 112 112 110 110 109 109 109 109 109 110 110 111 110 109 109 110 111 111 111 111 111 111 111 111 111 111 111 110 111 112 111 110 110 111 112 113 110 109 112 110 102 102 112 102 105 106 108 110 111 112 116 108 105 96 86 118 100 110 78 75 115 92 114 100 101 111 119 104 105 102 98 106 114 114 112 110 111 113 113 113 113 114 114 112 111 111 111 112 113 112 111 110 109 110 112 113 113 111 109 125 102 78 72 92 89 97 97 101 104 89 81 107 112 110 122 112 104 110 111 105 104 95 107 110 80 96 80 70 101 99 98 79 40 74 118 135 128 106 99 75 100 126 93 127 68 40 100 74 109 111 112 97 104 123 115 114 119 117 116 117 123 124 109 114 122 123 122 123 121 118 121 123 121 33 6 55 53 38 55 32 43 84 82 123 119 83 61 125 139 115 121 116 123 107 129 124 124 128 124 82 126 127 118 128 109 125 102 109 135 121 125 130 138 128 124 108 132 132 120 129 124 132 121 113 103 115 133 82 93 86 80 75 69 81 94 85 113 93 101 140 121 103 111 91 60 77 50 109 107 34 62 69 49 45 53 26 38 44 62 40 52 42 55 106 106 106 106 106 106 106 106 106 105 104 104 104 105 105 105 105 105 104 104 105 105 106 106 103 103 104 105 106 106 106 105 106 106 107 106 105 105 105 106 106 106 106 106 106 106 105 105 106 107 107 106 105 105 105 106 106 106 106 106 106 106 106 106 106 106 106 106 106 106 106 106 107 108 108 106 104 104 105 107 105 106 107 107 107 106 106 106 108 106 104 104 109 115 116 114 84 52 23 45 80 86 83 83 80 82 83 84 84 85 88 89 82 77 77 81 84 84 89 97 94 96 97 96 95 95 94 92 91 91 93 95 94 93 94 97 95 89 89 93 92 92 94 94 95 99 94 102 92 100 96 112 239 251 253 251 252 248 248 253 249 251 252 252 250 248 243 237 241 246 251 252 248 249 250 248 246 245 247 252 250 214 151 103 107 109 110 111 111 112 112 110 110 110 109 108 108 108 109 109 111 110 110 110 110 111 111 111 111 111 111 111 111 111 111 111 109 110 112 111 110 109 110 112 113 108 105 112 112 96 88 99 101 105 100 98 108 114 108 105 100 106 91 95 127 96 112 62 86 115 95 95 92 103 105 122 95 102 94 94 106 115 117 114 109 110 112 113 114 114 115 116 111 110 109 110 112 112 112 111 109 111 115 118 118 114 107 101 79 66 105 104 90 88 104 97 99 88 98 121 120 110 117 117 109 102 90 77 86 103 94 77 78 95 79 91 114 118 114 111 76 79 119 129 114 111 90 103 131 128 110 110 120 118 33 64 83 119 121 124 124 111 123 118 108 126 121 116 119 120 116 108 112 120 121 121 125 121 117 123 130 36 20 87 125 118 131 128 115 97 89 45 66 73 53 118 125 101 130 128 109 131 111 112 122 125 130 114 114 122 108 128 106 131 116 93 128 134 126 124 125 124 122 103 113 125 124 131 123 137 130 122 122 106 114 99 86 102 96 97 111 120 122 105 111 144 112 76 70 54 60 99 102 78 104 131 109 63 96 117 96 121 138 116 97 64 52 98 120 123 106 119 105 105 105 105 105 105 105 105 104 105 105 105 105 105 105 104 108 107 106 106 107 107 106 104 104 104 105 105 105 106 106 106 105 105 105 105 105 105 105 105 106 106 106 106 106 106 106 106 106 106 105 106 106 106 106 105 104 105 106 107 107 106 105 104 106 106 106 106 106 106 106 106 107 107 107 107 106 107 108 109 103 107 109 107 104 105 105 106 104 103 106 115 121 102 92 67 30 38 61 86 93 83 78 83 76 80 86 87 89 90 88 86 77 84 93 96 94 92 92 93 94 96 98 98 96 94 93 93 93 93 93 95 94 93 95 99 89 90 91 92 93 93 92 91 90 95 98 99 100 100 95 89 165 254 244 253 254 253 245 251 251 251 250 249 248 250 250 249 241 241 242 247 250 252 250 248 242 248 249 245 249 253 244 219 139 94 105 113 111 110 113 110 109 111 109 109 115 107 118 109 112 108 109 104 114 108 111 114 111 110 113 108 110 116 111 110 100 103 108 107 118 110 112 109 106 119 110 113 116 112 87 82 101 113 117 102 85 98 103 104 118 114 92 87 105 108 80 59 86 86 95 84 89 92 108 93 93 101 104 112 103 117 115 88 107 114 113 121 108 109 116 110 112 113 111 112 108 112 119 109 109 106 104 107 101 92 96 100 109 107 107 108 109 108 105 101 104 111 111 106 103 104 100 91 79 102 85 87 93 98 103 104 108 105 94 113 117 110 93 84 82 102 127 118 93 105 112 122 143 115 110 125 122 128 93 12 74 128 122 116 127 118 125 109 117 119 122 121 122 123 112 110 128 109 121 122 117 120 132 127 61 8 97 121 123 127 118 123 129 124 134 118 86 86 58 40 81 66 82 67 63 95 95 74 42 93 105 72 57 58 78 82 66 83 88 98 111 106 101 117 108 92 116 137 121 118 128 124 134 105 94 104 86 101 115 112 132 124 133 122 143 131 134 115 88 86 82 59 86 77 82 125 123 120 86 57 76 113 118 101 114 122 96 86 83 60 16 92 120 94 109 125 106 106 106 106 105 105 105 105 105 105 105 105 105 105 105 105 105 104 104 104 105 105 105 105 106 106 106 106 107 107 107 107 105 105 105 105 105 105 105 105 106 105 105 106 106 106 107 107 107 106 106 106 107 107 106 106 104 105 106 107 107 106 105 104 106 106 106 107 107 106 106 106 105 106 106 106 105 105 105 105 107 104 105 108 108 104 104 104 111 123 95 79 79 78 55 45 69 83 91 87 83 84 84 79 79 82 85 86 85 84 84 82 94 96 97 96 95 94 94 95 95 96 97 97 96 95 94 94 94 93 93 95 96 95 95 96 93 92 91 91 92 93 95 95 92 93 95 96 97 99 98 97 107 230 248 252 250 245 254 249 249 250 249 247 247 249 249 247 251 248 242 240 243 246 249 251 248 251 252 249 246 250 251 244 253 204 129 96 109 114 116 113 111 106 112 115 106 115 105 111 113 114 97 103 114 113 113 111 111 112 108 112 108 100 110 116 106 95 93 117 110 109 116 103 114 108 110 108 107 112 121 84 102 115 107 108 99 79 99 112 95 121 109 87 122 103 56 106 70 91 67 98 97 98 81 101 106 84 113 113 96 105 81 120 108 102 106 118 116 109 116 117 114 113 113 119 113 104 110 114 116 109 102 105 106 105 109 112 109 106 103 102 105 109 112 113 114 113 110 109 107 110 111 112 101 85 99 105 88 75 114 108 105 114 115 119 90 75 97 130 96 81 88 99 117 118 126 158 116 102 126 124 105 124 126 74 28 92 131 126 111 114 116 115 124 114 120 129 119 125 89 113 118 124 110 121 124 111 121 66 8 83 124 121 123 122 127 123 117 129 122 122 130 129 122 60 132 130 116 104 109 112 105 94 84 68 90 109 88 123 112 116 114 88 99 131 124 104 104 103 94 121 115 111 110 111 124 115 100 93 121 88 89 108 111 121 101 112 113 108 123 124 101 84 88 104 97 97 131 144 95 65 84 77 83 90 97 92 79 80 88 73 87 103 115 121 77 28 113 113 134 115 106 106 106 106 106 106 106 106 106 106 105 105 105 105 106 106 103 104 104 105 105 105 106 106 106 106 106 106 106 106 106 106 106 106 106 106 106 106 106 106 105 105 105 106 106 107 108 108 107 107 106 107 107 107 107 106 105 106 106 106 106 106 106 105 106 106 107 107 107 107 106 106 106 107 107 108 107 106 105 104 110 110 107 103 102 107 116 123 110 92 78 79 62 55 57 83 93 88 86 86 82 76 78 84 81 82 82 81 83 87 91 92 98 96 94 94 95 96 97 97 96 97 97 97 96 95 96 96 95 94 94 96 98 98 96 95 93 92 91 91 91 93 95 96 99 97 97 96 94 92 92 93 89 157 254 246 251 253 254 248 249 250 250 248 248 250 248 248 252 251 247 246 245 244 244 245 253 247 247 249 248 249 250 248 245 246 249 174 88 118 109 111 117 102 101 105 105 122 112 109 102 112 96 113 113 108 110 108 115 112 108 111 114 113 112 109 110 111 75 100 98 116 112 106 115 95 115 117 116 114 112 112 87 123 105 102 89 117 79 101 89 104 97 84 106 75 88 125 99 104 66 92 97 86 83 94 94 106 88 114 78 73 122 105 98 96 112 112 116 113 116 112 113 116 110 111 113 109 108 103 102 100 98 101 106 105 102 104 105 105 104 106 110 113 115 116 117 112 111 116 115 110 108 112 114 114 91 98 110 95 82 86 83 73 80 66 80 126 109 91 75 116 109 106 119 130 139 129 89 108 133 107 102 110 117 118 40 25 72 120 95 111 97 88 107 121 113 108 129 105 98 122 119 133 90 99 112 94 47 8 67 107 122 131 119 113 120 118 121 124 109 120 117 140 80 90 138 117 126 131 124 126 125 141 127 83 81 116 110 106 129 130 120 149 98 67 115 142 136 126 94 139 113 102 88 99 95 65 91 118 107 72 97 121 114 119 115 127 100 127 118 75 93 118 121 122 104 119 131 117 95 70 61 52 69 83 80 75 88 120 112 98 134 121 125 132 141 43 66 111 106 111 105 105 106 106 107 107 108 108 106 105 105 105 105 105 105 106 104 105 107 107 106 106 107 109 105 105 105 105 105 106 106 106 107 107 107 107 107 107 107 107 106 106 106 106 106 107 108 108 108 107 107 107 108 108 107 107 107 106 106 106 106 106 106 107 107 107 107 107 107 107 107 107 108 108 108 108 108 108 106 105 101 105 106 106 111 113 104 90 78 85 93 57 50 75 91 83 84 86 83 80 84 90 88 81 77 81 85 87 91 96 100 101 91 91 92 93 96 97 96 95 98 98 97 97 97 97 98 98 94 95 95 96 97 97 97 96 90 91 92 93 93 93 94 94 93 92 95 98 97 94 95 99 102 96 215 252 248 254 247 253 251 251 250 250 250 250 250 248 247 250 252 252 250 246 243 241 240 241 247 253 248 244 246 248 246 246 253 249 133 84 119 112 111 114 115 109 102 95 115 108 104 101 100 117 110 105 111 110 107 106 117 111 107 110 105 114 112 117 108 93 112 101 102 98 111 116 100 108 105 106 114 116 90 97 87 96 97 110 101 112 109 86 87 79 80 70 127 101 79 106 107 78 110 61 103 110 98 111 112 85 55 106 126 82 97 103 119 111 111 115 112 111 111 122 116 112 114 112 113 111 107 111 116 115 116 112 105 109 107 109 110 114 116 115 112 110 113 111 114 120 119 110 106 107 114 124 101 95 88 100 97 91 96 101 101 98 74 64 75 72 100 96 89 125 109 116 118 115 121 97 121 128 119 99 100 83 67 124 27 37 132 131 104 102 116 121 98 101 84 96 117 112 117 96 83 104 88 27 15 77 139 114 114 105 122 132 121 120 118 130 125 123 112 104 59 115 128 125 112 129 121 114 114 85 88 131 119 100 101 128 106 101 127 75 72 60 61 80 87 103 89 88 81 87 108 84 66 125 97 82 85 97 138 113 128 111 104 116 112 105 84 84 116 103 94 119 90 95 71 55 68 76 92 91 101 116 120 120 117 105 82 119 111 112 97 107 121 99 38 111 86 95 105 106 106 107 107 108 108 108 105 105 105 104 104 105 105 105 106 107 108 108 107 106 108 109 106 106 107 107 107 108 108 108 107 107 107 107 107 107 107 107 107 107 106 106 106 107 107 107 108 108 107 107 108 108 108 107 107 107 107 106 106 107 107 107 107 108 108 108 108 108 108 107 107 107 106 107 107 107 106 105 112 105 110 119 110 87 75 78 84 85 80 62 81 85 78 84 85 84 84 84 86 86 83 78 79 85 93 98 100 99 95 91 91 93 96 98 97 96 95 95 99 99 98 98 98 98 99 99 93 95 96 95 95 96 97 99 91 93 94 95 95 95 96 96 94 93 95 98 97 95 95 99 94 88 129 249 252 244 246 254 250 251 250 250 250 249 249 247 248 249 251 250 248 247 247 249 242 238 238 245 248 252 252 248 250 246 240 253 236 113 105 110 105 109 114 116 109 91 109 112 118 89 103 113 110 110 115 112 114 110 111 111 111 112 110 113 111 105 123 96 84 83 91 101 114 87 101 114 106 111 98 118 84 66 105 117 100 109 103 95 126 105 98 70 71 86 104 91 114 117 105 105 62 82 124 109 100 97 95 91 86 89 86 97 116 112 114 116 112 114 108 121 117 112 102 110 120 113 112 117 115 112 114 110 109 109 105 113 115 114 113 112 112 113 114 114 114 114 113 115 115 114 116 116 114 113 122 105 92 94 116 102 109 108 105 79 81 116 117 90 79 107 103 103 94 89 60 109 60 79 108 104 97 105 120 56 44 141 100 25 41 118 122 100 127 100 86 97 98 108 92 97 73 102 129 63 7 14 96 130 114 119 129 117 103 107 126 119 125 120 133 117 94 66 73 141 108 111 117 125 124 116 87 96 124 125 129 130 95 98 122 117 44 76 119 127 124 115 108 84 67 88 79 81 113 85 118 78 95 87 68 91 99 96 85 104 120 107 112 73 102 124 64 96 94 75 41 83 77 66 66 131 127 135 121 113 102 106 130 121 100 86 90 107 79 50 84 67 22 56 86 44 107 107 107 107 107 107 106 106 105 105 105 105 105 105 105 105 107 107 107 107 107 106 107 107 106 106 107 107 107 107 107 107 107 107 107 107 107 107 107 107 107 107 107 107 107 107 107 107 108 107 107 107 108 108 108 107 108 108 107 107 107 107 108 108 108 108 108 108 108 108 108 108 109 108 107 107 108 109 108 106 112 123 116 89 75 83 88 83 84 83 77 80 84 92 81 85 87 80 80 86 83 72 75 87 91 94 98 98 98 97 94 92 93 95 98 98 97 96 97 98 99 99 98 98 99 99 98 97 91 95 96 94 93 95 98 99 92 93 94 93 93 94 96 98 100 97 95 93 91 89 90 92 93 97 84 191 254 243 250 250 251 251 251 250 251 252 251 249 247 248 249 249 248 249 250 251 252 244 238 237 239 249 253 249 242 249 254 235 252 205 97 114 115 99 98 110 109 109 98 116 109 86 112 114 112 110 109 111 105 117 104 107 116 117 115 84 97 97 104 65 69 100 102 117 106 100 88 87 117 119 92 50 79 114 89 91 82 100 122 84 90 116 103 88 87 91 74 75 94 115 101 126 52 98 101 117 80 70 90 111 105 76 88 122 116 116 111 116 114 119 107 110 110 107 101 108 115 112 113 114 121 105 110 111 112 117 112 117 116 115 113 112 112 113 115 116 113 115 114 112 112 117 118 117 116 118 115 116 125 112 103 108 108 115 101 101 87 63 74 52 76 80 72 71 50 38 64 86 87 77 60 74 111 128 122 48 116 88 125 115 47 24 79 102 86 101 127 105 78 80 96 88 119 129 130 30 9 102 136 120 120 129 116 121 123 109 102 117 128 128 98 74 120 97 88 127 121 131 123 128 100 93 111 130 117 130 121 125 136 109 115 68 77 113 108 90 117 115 110 95 81 82 69 50 74 78 59 47 62 68 51 61 73 61 75 86 84 75 53 98 89 56 52 75 70 59 114 109 75 110 134 129 128 134 126 134 124 104 99 81 110 130 98 67 33 39 58 53 32 18 65 97 108 107 107 107 106 106 106 106 106 106 106 106 106 106 106 106 107 107 106 106 107 107 107 106 107 107 107 106 106 105 105 105 107 107 107 107 107 107 107 107 107 107 107 107 107 107 108 108 108 107 107 107 108 108 107 107 108 108 108 108 108 108 108 108 108 108 109 109 109 109 108 108 110 109 108 109 110 110 108 105 113 88 76 83 89 81 79 85 80 79 79 88 73 78 84 80 77 87 87 79 80 90 95 91 97 97 95 92 91 94 95 97 93 95 97 97 96 96 98 100 98 98 98 98 99 98 96 95 91 94 95 94 94 96 97 96 90 92 93 93 93 93 95 97 91 91 89 88 90 94 96 96 100 93 87 118 233 253 249 246 252 253 253 252 252 253 252 250 245 247 249 250 250 249 248 247 247 251 254 246 233 230 241 250 249 248 241 249 253 252 155 94 110 109 107 103 102 108 92 106 92 100 117 114 113 111 104 112 80 100 115 103 94 91 84 75 91 87 94 56 106 119 109 112 106 90 94 77 91 85 59 67 84 101 97 72 102 109 116 101 88 106 88 62 73 83 101 92 91 82 115 120 87 90 73 55 72 87 115 114 94 80 126 111 102 116 113 110 112 113 107 99 98 113 121 119 107 104 115 117 112 92 107 116 114 118 113 113 112 113 115 115 115 115 114 114 112 114 114 113 113 114 113 111 116 114 109 121 113 116 109 117 115 92 90 86 90 86 100 122 108 100 78 96 116 117 131 105 106 110 117 108 75 73 86 39 112 128 94 142 132 83 8 78 129 125 71 93 129 129 90 101 119 124 121 25 29 120 104 123 118 116 134 126 113 120 123 120 103 78 86 126 130 33 100 119 133 125 127 102 75 125 136 126 131 125 124 132 130 140 78 50 140 119 128 98 125 104 46 81 119 119 124 139 122 134 115 131 113 75 51 90 56 53 75 69 77 106 110 100 82 79 57 64 85 114 108 70 104 132 132 112 122 127 133 136 132 118 103 100 79 40 21 34 69 77 94 92 43 79 58 46 106 106 106 106 106 106 106 106 106 107 107 108 108 107 107 106 108 107 106 107 108 109 108 107 110 109 109 108 107 106 106 105 106 106 106 106 106 106 106 106 106 106 106 107 107 108 109 109 108 107 107 107 108 108 107 107 108 108 108 108 108 108 108 108 108 109 109 109 109 109 109 108 108 107 107 108 109 108 105 103 83 88 89 84 82 84 84 80 77 87 80 74 87 79 86 85 82 81 81 84 91 98 98 95 90 92 93 91 90 90 90 90 97 98 99 98 97 96 96 96 97 97 97 98 99 97 95 92 93 94 94 93 95 97 96 92 89 92 96 98 97 95 95 96 93 94 92 90 93 97 97 94 95 90 88 86 176 251 248 252 248 251 251 250 251 252 251 249 250 249 248 247 246 246 246 247 253 244 243 249 249 244 237 229 239 250 247 254 244 243 244 121 85 110 102 92 115 118 112 86 95 120 109 103 112 119 108 117 96 76 114 102 83 75 50 92 107 84 63 97 89 110 80 103 102 64 66 89 95 118 111 100 103 95 111 101 89 114 115 112 89 78 100 46 89 111 124 93 113 108 100 89 57 93 67 100 111 97 110 115 97 47 86 97 103 115 111 107 109 94 104 110 109 100 100 114 115 107 105 98 108 87 109 120 111 114 113 116 115 115 115 114 113 113 114 114 117 116 116 116 116 116 117 119 115 118 121 107 112 115 107 87 89 100 117 107 117 122 119 115 124 121 137 120 107 123 108 133 121 113 103 114 127 115 72 28 24 45 27 55 73 31 88 42 20 97 117 81 108 111 78 129 129 104 90 7 63 113 113 99 98 107 110 93 128 131 123 87 92 124 125 128 96 65 90 122 105 97 99 109 108 134 125 127 122 121 127 124 81 29 15 69 72 70 75 72 81 64 99 146 129 133 124 112 124 131 116 115 130 122 118 101 102 106 65 59 100 102 88 71 107 119 102 100 99 114 56 118 140 129 127 139 117 110 112 99 110 116 75 55 43 58 86 107 87 78 60 58 126 91 76 60 108 108 109 109 109 109 108 108 106 106 106 106 106 107 108 108 109 109 109 109 109 108 108 108 110 109 109 109 108 108 108 108 109 108 109 110 108 105 106 108 106 107 108 107 108 109 110 109 111 110 110 109 109 108 108 107 106 107 108 109 110 109 109 108 109 108 107 107 106 107 107 108 108 108 108 107 108 110 101 83 89 82 81 86 88 84 81 84 84 80 78 80 83 82 81 81 78 85 93 95 95 96 94 92 94 94 91 90 91 95 95 93 100 98 97 97 99 99 97 95 88 95 99 99 97 96 94 91 93 95 96 99 97 96 100 95 95 98 96 94 95 95 93 95 96 96 94 94 94 93 91 90 90 101 87 96 93 227 254 248 247 253 249 253 249 251 253 251 249 249 248 247 247 248 248 248 248 248 250 250 246 243 245 250 234 238 237 246 251 249 247 224 107 108 96 86 88 110 116 116 86 82 118 117 102 106 111 104 120 79 63 91 107 104 65 60 104 55 87 115 83 82 121 92 69 78 91 107 110 108 94 94 115 90 84 113 72 104 116 107 115 86 63 69 118 99 100 107 95 99 93 83 34 63 94 109 113 108 112 96 55 80 87 110 108 90 102 80 99 95 119 118 111 110 81 90 113 105 84 98 112 87 98 119 113 115 121 112 115 115 115 115 115 115 115 115 118 117 116 115 114 115 114 114 113 121 123 113 96 89 98 109 104 116 122 118 118 121 117 109 109 112 121 121 119 121 112 125 120 133 131 117 105 78 92 109 91 24 73 74 73 60 42 46 11 9 77 142 111 117 129 119 102 116 44 13 114 131 123 111 104 111 90 91 66 95 82 50 123 118 132 85 94 81 50 125 109 118 140 105 125 125 126 125 123 137 141 63 29 92 51 73 122 80 88 122 124 113 109 126 127 123 130 125 137 118 122 125 121 126 132 132 128 97 107 88 85 57 56 90 101 72 112 120 117 85 123 141 119 126 119 113 105 115 83 51 56 71 46 76 80 117 94 78 116 130 75 103 103 66 96 57 108 108 108 108 108 108 108 108 107 107 107 107 107 107 108 108 108 108 108 109 109 109 109 109 109 109 109 109 108 108 108 108 108 108 108 109 108 106 107 109 106 107 108 107 108 110 110 109 110 110 109 109 109 108 108 108 107 108 109 109 110 109 109 109 109 108 108 107 107 107 108 108 109 109 109 108 108 108 99 83 87 88 86 84 84 86 85 82 83 83 85 86 84 82 83 87 86 91 95 95 95 96 96 94 94 94 93 92 93 96 97 96 96 97 98 98 98 97 95 93 99 94 91 93 93 91 90 91 93 95 94 97 95 95 99 93 90 94 92 90 93 95 94 95 94 94 94 95 96 96 93 93 91 98 91 96 88 159 253 244 247 251 247 248 252 253 248 248 247 247 247 247 248 248 249 250 248 248 250 250 248 245 246 250 247 240 244 237 237 249 248 251 187 96 113 101 70 55 80 113 118 72 111 101 97 81 94 91 90 90 58 47 83 94 92 103 87 59 106 91 87 67 84 58 96 115 95 84 95 94 95 90 82 87 65 118 107 99 99 76 116 86 45 118 97 112 102 104 86 92 99 102 62 76 125 103 116 110 81 72 117 112 106 100 106 122 117 111 69 88 100 111 115 107 117 115 83 67 102 115 93 112 101 110 115 117 114 117 115 115 115 115 115 115 115 115 116 116 116 115 115 115 115 115 119 115 112 112 115 117 116 115 121 123 123 119 118 121 121 120 120 125 107 123 106 114 110 102 112 106 97 83 99 117 120 126 80 82 132 126 130 127 114 102 113 52 2 25 129 132 114 99 110 116 19 49 127 127 107 118 136 84 125 106 80 121 59 68 141 124 85 127 89 90 63 86 127 126 122 100 114 127 135 125 139 121 44 48 127 152 98 62 135 99 84 141 128 108 135 123 127 139 122 120 124 112 132 132 128 124 120 112 82 59 115 120 62 97 124 97 82 98 128 122 64 86 110 94 98 90 108 115 106 77 85 65 90 69 73 101 80 73 99 122 119 97 76 101 109 130 126 76 108 108 108 108 108 108 108 108 108 108 109 109 108 108 108 108 106 106 107 108 109 109 109 109 109 109 109 109 109 109 108 108 107 107 108 109 109 108 109 110 107 108 108 108 108 110 110 109 109 109 109 109 109 109 108 108 109 109 109 109 109 109 109 109 108 108 108 108 108 108 108 108 109 110 109 108 108 106 96 84 83 86 87 86 87 89 88 86 87 84 81 80 80 84 90 96 95 96 96 95 95 96 96 95 92 94 94 94 94 96 97 97 96 97 98 97 95 94 93 94 99 92 92 97 96 89 87 92 96 97 95 97 97 97 100 92 90 94 92 90 92 92 91 93 94 94 94 95 96 94 93 91 91 95 95 99 91 101 217 254 246 248 247 247 254 254 246 251 247 247 247 247 248 249 250 250 248 248 250 251 250 248 247 248 251 246 247 236 236 243 241 253 253 145 66 99 99 90 88 92 119 101 94 115 92 115 105 116 107 106 97 111 100 63 95 106 77 59 80 67 94 55 63 104 121 109 98 92 73 98 116 111 105 65 113 90 101 63 69 100 77 41 62 116 83 77 94 67 91 120 111 84 83 62 127 118 79 86 41 104 125 113 109 94 93 111 83 75 96 120 105 75 102 92 99 118 79 85 115 102 83 119 99 110 118 118 111 118 115 115 115 115 115 115 115 115 115 115 115 116 116 115 115 115 112 109 109 113 119 122 121 118 116 115 115 118 119 120 121 123 118 120 123 122 123 118 128 104 84 105 108 119 121 113 100 84 50 63 86 105 123 105 100 109 49 25 61 13 20 122 90 110 115 79 5 90 124 120 114 126 95 117 119 102 122 116 31 103 102 104 109 107 104 133 127 60 93 108 115 94 127 116 122 102 62 36 75 135 124 114 123 36 115 137 125 94 110 124 127 129 125 123 118 120 127 126 109 117 105 102 99 112 122 94 93 78 114 125 118 129 110 77 98 106 97 108 95 122 135 96 87 70 69 82 101 139 103 79 95 58 99 75 100 91 79 92 123 117 144 112 77 134 109 108 108 107 107 108 108 109 108 109 109 109 109 109 108 108 105 106 107 108 109 109 109 109 109 109 109 109 109 109 109 109 108 108 108 109 109 109 109 110 107 109 109 108 109 110 110 109 108 108 108 109 109 109 109 109 110 110 109 108 108 108 109 109 108 108 108 109 109 109 109 109 108 109 108 108 109 106 95 87 85 83 86 93 93 87 86 89 89 83 78 80 86 92 96 97 97 96 95 94 94 94 93 92 90 92 94 94 94 94 96 97 99 98 96 94 92 93 95 96 94 93 96 99 94 86 89 98 97 97 94 97 97 98 100 91 86 92 93 91 90 89 88 91 94 93 93 92 93 92 91 90 92 94 95 97 98 88 143 249 250 244 248 250 254 251 247 253 248 248 248 247 247 248 248 249 249 249 250 251 252 250 248 246 247 253 241 243 246 237 240 241 245 240 118 97 118 110 107 100 98 81 74 115 88 79 78 85 94 67 82 114 81 113 83 79 98 56 63 118 77 56 88 85 94 75 82 94 82 110 80 95 109 92 106 108 73 78 53 84 72 36 105 88 55 86 84 64 92 110 82 70 95 69 75 65 65 65 84 99 107 95 77 80 76 85 94 67 84 74 106 78 79 97 86 88 91 81 85 78 76 85 87 110 116 115 118 118 115 115 115 115 115 115 115 115 115 115 116 117 117 117 116 116 113 116 118 119 118 118 119 120 120 118 118 120 121 120 118 118 120 120 130 129 110 106 87 86 103 120 134 103 78 93 77 82 112 110 82 72 87 98 114 127 115 87 93 93 17 29 142 122 124 53 17 105 114 108 101 106 117 111 69 120 108 80 16 70 115 116 117 117 123 123 132 85 72 107 108 113 128 112 66 49 58 119 136 133 125 115 138 92 74 142 136 119 96 140 115 125 116 122 140 130 127 125 98 115 109 97 122 114 121 105 84 127 140 130 118 99 105 123 90 72 123 132 114 123 103 92 75 123 140 120 125 98 78 117 72 119 106 73 90 99 101 82 96 99 130 94 73 97 109 108 108 108 108 108 108 109 108 108 109 109 109 109 108 108 107 107 108 108 109 109 109 109 109 109 109 109 109 109 110 110 109 109 109 109 109 110 110 109 108 110 110 109 109 110 111 109 108 108 108 109 109 109 110 110 110 110 109 108 108 108 108 109 108 108 109 109 110 110 110 110 109 110 108 109 110 102 92 89 93 89 89 93 91 85 84 88 85 85 88 93 99 100 96 92 96 95 95 95 95 94 92 90 92 94 95 96 96 95 96 98 99 96 93 93 95 97 98 98 93 95 95 90 86 87 94 100 94 95 92 95 96 98 99 88 79 88 92 91 90 89 89 93 91 91 91 91 93 94 95 95 95 95 94 90 93 92 83 189 254 247 248 251 249 249 249 249 249 248 248 247 247 248 248 248 250 250 250 251 252 252 248 245 246 253 242 244 247 240 246 248 239 251 195 89 100 100 106 81 108 105 64 70 105 107 82 101 87 94 93 82 95 102 97 81 77 52 100 73 75 70 59 74 50 58 97 97 68 88 76 103 123 97 86 110 105 65 43 70 57 34 61 78 74 65 80 80 78 59 56 81 40 49 57 88 90 82 91 68 59 88 105 36 52 74 65 60 84 75 83 81 74 79 67 91 78 94 109 112 115 98 116 124 120 112 114 113 116 116 116 116 116 116 116 116 116 116 117 118 118 118 118 117 119 118 117 117 118 118 117 115 120 120 118 116 118 120 121 119 125 121 105 83 87 106 107 125 119 103 76 93 106 116 121 113 108 126 125 107 89 90 91 87 123 123 113 108 89 4 44 152 122 15 50 123 98 110 98 81 93 65 90 97 117 28 3 11 32 31 98 134 134 125 95 112 105 103 115 80 63 37 64 112 146 124 132 118 119 133 130 131 48 123 125 139 119 120 131 121 125 128 117 115 131 127 112 94 103 103 101 125 123 96 122 135 126 121 139 122 101 101 78 122 107 105 95 87 100 124 134 94 127 134 117 67 78 71 63 76 73 87 112 128 139 110 96 87 95 75 38 31 109 109 109 108 108 109 109 109 108 108 109 109 109 109 109 109 108 108 108 108 108 109 109 109 109 109 109 110 110 110 110 110 110 110 110 109 109 110 110 108 109 111 111 109 109 111 111 110 109 109 109 109 110 110 110 110 110 110 109 109 108 109 109 109 109 109 109 110 110 110 110 110 110 112 109 109 110 99 88 90 92 93 91 86 86 89 91 89 85 91 97 98 97 95 94 92 96 95 96 97 96 94 92 92 97 97 97 98 98 97 97 98 94 93 93 95 99 100 99 97 94 96 94 88 88 94 96 93 92 95 93 95 96 98 99 87 84 91 94 92 93 92 92 95 93 92 92 92 94 95 96 96 94 93 94 85 85 93 78 115 242 254 248 250 247 253 252 247 248 248 247 247 247 248 249 249 250 250 250 250 251 252 250 246 247 247 254 245 242 245 242 253 251 245 249 176 74 74 101 92 80 93 95 46 123 117 79 77 116 128 104 89 77 98 67 96 116 83 88 71 83 75 92 89 54 61 90 82 65 97 114 90 78 84 74 112 83 57 99 44 57 34 82 72 99 81 68 101 119 84 67 47 23 89 106 96 118 110 94 91 43 63 59 95 101 78 72 116 113 103 110 127 117 97 70 81 94 106 111 119 105 95 121 111 114 112 114 122 117 117 117 117 117 117 117 117 117 117 118 118 118 118 118 118 117 115 114 115 117 118 118 117 116 117 118 117 118 119 117 114 116 107 93 97 133 111 118 127 123 93 92 118 131 129 118 123 131 111 113 126 124 120 101 76 92 107 116 110 80 68 13 70 80 5 75 129 107 131 103 97 105 125 99 89 75 5 62 111 101 52 38 53 53 48 57 61 38 22 32 40 44 115 131 122 116 142 121 118 133 123 115 118 76 76 144 125 134 107 123 134 134 114 100 97 106 104 109 117 99 104 109 91 100 124 128 135 129 133 131 126 112 107 98 120 140 97 69 126 124 114 91 76 77 99 83 97 87 94 118 75 114 139 128 96 91 98 102 75 97 39 47 120 109 109 109 110 110 109 109 109 110 110 110 109 109 109 109 110 110 109 108 108 108 109 110 110 109 109 109 110 110 110 111 111 110 111 110 109 109 111 110 108 110 111 111 110 110 111 111 110 110 110 110 110 110 110 110 111 111 110 110 110 110 110 110 110 111 111 110 110 109 110 110 111 111 112 109 110 112 98 86 91 86 88 87 87 89 94 95 93 91 96 97 93 89 90 93 96 97 96 97 97 95 93 93 96 98 96 95 97 97 95 94 95 91 92 93 96 98 98 97 95 91 95 95 91 92 97 95 89 92 96 95 97 96 98 98 85 92 95 93 91 95 96 94 94 94 94 94 94 95 95 95 94 93 92 92 89 86 93 97 79 180 252 249 248 247 254 250 251 249 249 248 247 247 248 248 248 249 250 249 248 250 252 251 249 247 246 254 248 241 246 240 242 246 247 252 253 115 67 74 87 71 56 82 100 81 90 99 109 78 113 119 85 56 81 95 118 119 59 52 91 79 107 107 103 55 78 79 72 71 94 83 72 74 74 70 68 81 62 80 101 31 90 128 110 112 117 73 49 80 51 26 31 65 88 91 91 90 75 56 56 31 63 108 128 106 112 100 80 86 100 110 107 116 120 102 49 122 98 94 113 102 99 119 113 114 115 116 118 118 118 118 118 118 118 118 118 118 118 118 118 118 118 118 118 118 119 120 119 118 118 120 122 122 121 123 124 121 113 108 108 89 120 106 100 109 123 115 96 63 107 127 137 119 103 129 119 120 120 128 127 119 125 130 109 80 98 103 116 96 103 87 10 7 19 86 88 96 99 66 100 116 112 109 142 53 19 130 127 129 130 116 72 21 79 69 83 104 70 101 139 128 114 116 121 120 112 114 118 119 116 116 117 128 50 113 141 116 123 105 123 111 93 103 117 118 118 100 102 115 125 107 82 104 133 129 128 125 126 128 109 110 129 112 109 121 100 131 102 132 91 54 86 115 99 64 116 104 135 132 119 85 97 109 128 135 110 108 92 65 96 126 129 109 109 110 110 110 110 109 109 112 112 111 110 109 109 110 110 110 109 108 108 108 109 110 111 109 109 109 110 110 110 111 111 110 111 110 109 110 112 111 108 110 111 111 110 110 111 111 110 110 110 110 110 110 111 111 111 111 111 111 111 111 111 111 111 112 111 110 109 109 109 110 111 109 112 108 110 112 97 86 93 86 82 85 94 98 94 91 93 95 96 95 93 92 94 95 94 98 97 96 96 93 91 94 98 97 93 92 93 93 91 90 91 93 94 95 94 94 93 94 94 90 93 93 88 85 90 94 95 89 94 95 96 94 95 95 82 92 91 85 85 94 98 96 94 89 90 92 94 96 96 96 95 95 92 90 95 90 92 101 78 113 239 248 245 245 254 246 254 251 250 249 248 247 246 246 246 248 249 248 247 249 252 253 251 250 252 246 249 245 244 250 234 248 244 247 252 234 118 77 77 92 72 52 81 75 64 92 96 64 74 127 74 68 97 78 85 79 53 111 66 77 60 93 90 97 75 66 83 58 98 76 83 112 94 117 118 102 46 74 103 61 111 101 100 100 100 93 66 40 72 23 25 39 66 70 78 30 26 98 123 112 93 86 98 109 87 98 98 113 108 115 108 117 109 115 93 75 116 123 96 97 89 105 122 115 115 122 110 118 118 118 118 118 118 118 118 118 118 117 117 117 117 118 118 121 118 116 115 115 114 112 110 111 106 107 113 113 108 111 120 128 112 127 119 113 82 81 105 112 111 106 116 112 97 125 124 121 124 122 119 118 120 129 100 110 122 128 113 76 67 118 52 1 31 126 95 70 73 97 101 89 115 128 99 12 88 117 125 111 112 120 114 82 119 91 147 140 112 100 138 135 117 101 108 103 109 112 105 111 111 120 119 134 100 36 88 101 122 116 84 84 109 102 112 87 99 117 106 125 119 110 121 109 98 115 124 134 119 90 119 126 103 114 111 78 77 91 118 79 78 123 134 123 86 123 125 99 128 135 115 85 119 127 117 121 95 90 59 75 110 113 103 109 110 110 109 109 109 110 111 109 110 110 111 110 110 109 109 108 108 108 109 109 109 110 110 111 111 111 111 111 111 110 109 110 112 112 110 110 112 112 110 112 112 111 111 111 111 111 111 110 110 110 110 111 111 111 111 112 111 110 110 110 111 112 113 111 111 111 111 111 111 111 111 113 111 110 114 106 79 88 82 87 92 93 92 95 95 94 95 91 91 93 95 97 97 95 93 95 95 96 96 96 95 95 95 93 93 92 92 94 96 95 93 96 95 93 93 93 93 92 91 92 93 85 84 93 96 90 89 94 86 94 95 90 92 90 87 89 89 90 93 97 98 97 95 92 94 97 96 93 92 92 94 89 91 94 93 91 90 91 92 82 160 253 245 244 250 254 250 251 251 251 250 248 247 247 247 248 249 250 249 248 249 251 252 250 249 249 251 250 247 246 246 235 247 253 250 250 193 53 59 99 78 74 76 60 68 62 43 57 73 102 77 87 87 102 73 37 96 59 78 101 99 69 66 81 85 87 86 64 101 113 110 112 106 114 78 43 87 95 107 58 84 61 78 84 96 91 113 72 27 42 74 53 84 80 43 60 111 114 105 98 91 85 100 71 79 98 118 122 115 106 100 101 113 123 121 85 93 119 113 101 90 98 123 120 111 101 118 117 119 119 117 117 119 119 117 117 118 119 119 119 119 119 119 121 121 120 119 119 119 120 120 124 111 113 121 119 122 125 120 114 119 125 120 82 111 132 122 126 126 115 100 103 120 125 117 121 127 115 121 124 120 117 96 116 127 129 124 90 80 116 91 2 17 86 95 88 88 131 124 96 89 128 29 30 132 123 124 120 125 130 126 139 128 86 134 132 111 100 117 104 113 130 122 123 118 114 156 172 136 117 139 96 62 100 99 93 88 75 93 99 124 141 125 127 146 99 126 125 114 121 134 131 102 84 111 122 109 126 125 121 106 128 88 89 105 97 115 109 112 107 112 87 127 128 117 118 94 123 117 104 97 96 99 109 75 72 105 109 95 102 59 110 110 111 110 110 109 110 111 111 111 111 110 110 110 110 110 109 110 110 110 111 111 112 112 112 112 112 112 112 112 111 110 111 112 112 111 111 112 112 111 112 112 112 112 111 111 111 111 111 111 111 111 111 111 111 111 111 110 110 109 109 110 111 111 111 111 111 111 111 111 111 112 111 112 110 113 105 81 90 86 89 93 93 92 95 95 93 94 95 93 92 92 93 94 95 95 95 95 95 96 96 96 96 96 95 94 93 94 95 95 95 94 96 95 93 93 93 93 92 91 96 90 87 93 98 94 91 95 97 91 98 98 93 96 92 89 90 91 92 95 97 97 96 95 100 99 96 92 90 90 94 97 90 89 89 89 90 92 94 95 93 103 223 252 245 248 248 248 249 251 252 251 249 247 248 248 248 249 249 249 248 248 249 251 251 249 247 247 247 247 248 250 238 240 254 246 252 253 140 77 111 112 104 93 75 68 87 77 53 43 67 47 93 106 83 40 112 117 44 94 109 116 125 120 92 62 57 82 72 50 71 67 89 113 43 41 78 95 108 78 59 82 91 76 101 104 129 110 24 38 42 39 37 75 81 69 108 117 103 101 110 115 117 124 110 108 114 122 122 120 120 119 120 120 114 117 92 113 110 86 103 109 101 77 77 107 116 114 118 119 119 118 118 119 119 118 117 118 119 119 119 119 119 119 120 119 119 119 119 120 120 121 118 118 121 120 113 113 112 103 114 115 89 82 108 126 119 122 115 126 128 118 109 113 120 125 124 122 121 128 122 119 96 113 108 120 123 109 110 97 128 110 20 1 80 115 134 119 83 118 116 110 77 7 87 128 118 126 124 123 127 132 116 110 92 128 127 102 89 159 173 197 203 212 233 236 228 233 225 221 182 121 59 120 136 123 128 141 122 126 106 100 111 120 128 100 97 120 108 121 130 122 130 142 115 85 82 99 144 114 117 146 80 81 142 131 110 87 130 146 77 100 104 120 127 126 121 110 92 101 86 91 101 100 91 71 97 125 102 89 116 99 111 111 112 111 110 110 110 110 112 112 111 110 110 111 111 112 110 110 110 110 111 111 111 112 112 112 111 112 112 112 111 110 112 113 113 112 112 113 113 112 111 112 112 112 112 112 111 111 112 112 111 111 111 111 111 111 110 110 110 110 111 111 111 111 110 110 111 111 111 111 111 112 109 111 111 113 102 84 93 91 92 95 93 91 95 96 93 93 95 95 93 91 91 92 94 96 94 95 95 96 96 97 97 97 96 93 93 95 96 95 94 95 96 95 94 93 93 93 92 92 95 89 90 96 96 94 95 98 97 94 101 98 95 98 93 88 91 92 93 95 96 96 95 95 93 93 92 92 92 93 95 96 94 90 87 88 92 96 98 96 98 82 159 254 249 249 244 254 248 250 252 251 250 248 249 250 248 249 249 249 248 247 248 249 252 249 247 246 246 246 248 249 248 223 240 254 247 250 251 111 88 82 61 93 102 96 55 81 95 77 84 37 80 64 38 102 115 92 72 86 107 101 91 71 76 81 59 62 85 48 54 81 63 49 61 52 60 97 114 58 60 89 78 100 123 119 72 32 12 102 125 96 99 116 115 114 108 116 119 122 124 119 122 118 123 118 118 121 118 116 118 118 112 120 118 115 85 113 115 110 103 103 111 111 117 118 117 119 118 119 119 118 118 119 119 118 118 118 119 120 119 119 119 120 118 118 119 119 120 120 120 121 127 121 117 118 120 122 123 122 131 90 96 117 129 120 129 123 119 122 126 126 121 117 119 123 121 119 125 124 125 99 115 121 101 112 121 120 133 95 108 120 31 1 86 130 107 119 100 73 97 102 15 65 118 135 132 124 129 119 110 114 155 160 185 212 206 208 208 230 251 252 254 248 233 208 243 247 239 248 204 89 151 153 129 122 116 117 113 115 142 132 119 97 95 84 106 88 109 89 94 110 117 115 115 124 120 90 95 138 109 103 101 114 121 104 102 120 109 90 125 120 102 97 114 119 89 120 120 108 109 123 110 79 80 128 118 134 122 106 116 119 111 112 112 112 112 111 111 111 112 112 112 111 111 111 111 112 111 111 111 111 111 111 111 111 112 111 111 111 111 111 110 109 112 113 113 112 112 113 113 112 111 112 112 113 113 112 112 111 113 112 112 112 112 112 111 111 112 112 112 113 113 112 112 112 111 110 111 111 110 112 112 113 110 113 113 110 99 86 93 94 94 95 92 90 94 96 93 93 93 94 94 93 92 91 93 95 95 95 95 95 95 96 96 96 96 92 92 96 97 95 93 95 96 95 94 93 93 93 93 93 91 90 93 92 90 96 100 94 92 93 98 95 94 97 91 87 90 91 93 94 94 94 95 96 91 90 91 92 94 96 96 95 96 93 90 91 95 98 98 97 92 101 98 208 254 245 247 254 248 248 251 251 251 250 249 249 248 249 250 250 249 248 248 250 251 249 249 250 249 246 245 245 253 231 218 254 252 242 253 206 49 76 84 102 104 94 89 112 115 115 124 87 18 60 100 80 103 94 52 80 80 71 83 96 94 95 123 128 117 124 97 39 41 73 102 92 80 76 103 36 94 107 92 86 112 70 15 8 98 113 113 118 129 120 121 116 121 123 115 102 112 116 125 117 120 117 119 122 119 117 118 117 120 120 120 111 90 115 118 121 124 119 124 117 121 117 119 121 119 119 119 119 119 119 119 119 118 119 120 120 119 119 120 120 118 118 119 120 120 120 120 120 115 123 125 121 120 121 124 129 88 98 119 117 124 116 123 121 128 122 119 123 126 125 122 121 118 127 116 125 101 109 132 123 120 123 120 126 125 90 97 133 68 5 46 135 117 125 125 118 107 24 35 141 128 100 125 124 111 146 180 206 250 227 242 239 243 246 217 226 230 234 227 230 226 217 215 238 218 186 124 175 208 144 130 127 120 114 116 108 125 120 112 103 90 110 130 123 115 119 118 106 97 95 99 107 103 113 69 50 71 93 93 84 84 97 111 107 96 86 134 103 94 109 88 105 107 99 104 113 110 94 63 89 118 137 121 121 111 122 133 118 111 112 113 113 113 112 112 112 111 112 112 112 112 111 111 111 114 114 114 113 113 112 112 112 112 112 111 111 111 111 111 110 113 113 113 113 113 113 113 113 111 112 113 113 113 113 112 112 113 113 113 113 112 112 112 112 112 112 113 113 113 113 112 112 112 112 111 112 111 112 112 113 112 115 113 110 95 88 92 93 93 94 91 89 94 96 94 94 92 93 93 93 92 92 94 96 96 96 95 94 94 94 94 94 96 94 94 97 99 97 96 96 96 95 95 94 93 93 92 92 88 88 92 93 91 97 98 88 89 91 96 93 95 98 91 90 91 92 93 93 94 95 97 98 100 96 93 91 92 94 95 96 94 93 94 95 97 97 96 95 88 105 79 122 242 249 248 248 250 248 248 250 252 252 250 247 249 249 251 253 251 249 249 251 249 249 250 251 250 247 245 245 248 251 187 233 252 250 239 253 152 84 122 109 101 71 100 109 105 80 97 49 34 58 94 66 84 102 86 114 106 112 108 99 94 112 117 110 107 78 48 64 100 51 63 99 116 96 44 48 93 73 85 57 66 10 20 96 103 95 115 129 117 103 127 122 117 124 113 105 124 123 121 114 121 118 119 120 118 119 122 122 123 116 122 115 113 121 117 116 119 120 128 116 119 119 117 112 119 119 119 119 119 119 119 119 119 119 120 120 120 120 120 121 119 119 120 120 120 120 120 120 121 123 119 118 129 132 110 84 101 132 129 114 127 125 117 126 125 124 124 123 123 123 123 124 124 125 123 104 102 126 128 121 129 129 125 124 121 106 118 132 103 10 6 118 130 119 114 153 65 23 108 101 127 112 103 182 217 239 244 253 229 219 230 216 220 238 225 236 242 240 231 233 233 241 207 197 221 193 173 230 195 188 178 145 139 142 135 113 105 115 120 129 106 108 114 121 130 130 123 122 119 100 92 103 86 70 86 78 70 77 78 74 73 106 130 114 115 99 121 91 92 132 103 83 90 77 109 106 103 49 81 124 139 142 136 149 125 120 146 140 112 112 113 113 113 113 113 114 111 112 112 113 113 112 111 111 114 114 114 113 113 112 112 111 114 114 113 112 113 113 113 112 113 112 112 113 113 112 112 113 112 112 113 113 113 113 113 113 113 113 113 113 113 113 113 113 112 112 113 113 113 112 112 111 113 113 112 112 111 112 113 113 113 116 113 108 91 91 91 91 90 93 91 89 93 95 94 94 94 93 92 91 91 93 96 98 96 96 95 94 93 93 93 93 97 97 97 98 100 100 98 97 95 95 96 95 94 93 92 93 88 86 91 98 98 95 91 88 92 93 97 95 99 99 91 94 94 94 94 94 95 96 97 97 96 94 94 93 94 94 93 92 89 92 94 96 97 96 95 95 96 88 90 76 186 254 246 244 250 248 248 250 251 252 250 248 249 249 251 253 252 249 249 251 249 248 248 250 250 249 248 250 245 250 199 168 249 246 254 246 252 139 68 76 87 112 119 108 97 111 86 27 118 95 81 98 106 60 64 93 100 105 102 108 124 93 106 108 60 44 100 93 76 101 66 46 55 113 67 54 109 96 100 41 7 54 93 91 94 124 113 84 103 117 122 117 125 122 103 102 120 117 117 125 118 117 119 120 118 118 120 118 115 115 125 120 123 117 119 123 120 113 117 118 121 118 119 127 120 119 119 120 120 119 119 120 119 120 120 120 120 120 121 122 120 120 120 120 120 120 120 121 117 119 124 124 113 102 102 107 134 125 120 127 120 120 118 119 121 124 125 123 122 123 124 123 122 123 119 90 133 119 127 121 123 118 128 126 126 100 126 125 132 39 11 77 138 123 142 93 10 81 132 122 104 137 226 219 239 241 224 230 223 232 244 235 215 226 222 212 227 222 238 240 231 240 221 179 210 142 226 247 213 212 172 156 145 144 143 130 107 127 130 133 124 122 132 120 117 124 117 121 133 129 124 122 121 121 134 138 104 84 93 101 44 82 67 75 90 66 123 126 135 142 129 126 140 104 108 95 57 80 85 108 82 88 99 98 94 83 98 98 113 114 114 114 113 113 114 114 113 113 113 113 113 112 112 112 113 112 112 112 112 112 111 111 115 114 113 113 113 114 114 113 113 112 112 113 113 112 112 113 113 113 113 113 113 113 113 113 113 113 114 114 114 114 114 114 113 113 113 113 113 112 112 112 115 115 114 113 113 113 114 114 112 115 111 106 90 92 90 92 88 93 91 89 93 94 93 94 93 93 92 92 93 95 96 96 95 94 94 93 93 94 95 96 97 100 99 98 98 100 98 94 94 95 96 96 95 93 92 92 88 90 92 95 97 92 89 91 96 96 97 97 101 98 89 96 95 95 95 95 96 95 93 91 85 88 90 94 97 96 93 91 90 92 94 96 96 96 96 95 100 86 96 83 120 238 247 248 247 248 248 250 250 250 249 250 249 248 250 253 252 247 246 249 249 248 248 250 250 249 250 252 249 248 250 125 206 253 245 246 253 231 93 124 133 118 117 115 121 102 28 77 93 86 102 91 76 63 44 94 100 115 120 115 104 117 61 33 75 92 98 96 97 106 101 99 45 48 55 100 114 106 47 4 64 104 98 98 87 113 96 75 113 125 113 127 115 108 96 108 119 120 117 115 119 119 122 124 121 120 120 116 124 125 118 116 123 119 117 115 116 119 123 120 117 122 115 114 120 119 119 120 120 119 119 120 120 120 120 120 120 120 121 122 120 120 120 120 120 121 122 122 121 111 111 111 99 97 114 130 119 127 122 120 123 132 128 126 124 123 122 123 125 125 124 121 119 125 96 115 129 122 125 121 125 114 116 118 114 87 126 129 137 80 5 17 123 135 121 29 62 134 132 134 211 232 233 224 201 209 217 222 240 233 230 234 246 232 204 222 216 208 200 204 230 192 166 172 150 143 239 176 179 139 111 132 129 128 135 133 113 111 128 129 126 126 133 126 126 131 135 143 137 131 133 122 128 138 133 115 121 142 132 128 100 77 53 37 36 61 93 68 99 95 113 115 72 60 91 69 51 113 114 125 112 130 112 130 89 110 111 87 115 115 115 114 113 113 114 114 114 114 113 113 112 113 113 114 113 113 113 113 113 113 114 114 115 114 113 112 113 113 113 113 113 112 112 113 113 112 112 113 113 113 113 113 113 113 114 114 113 113 114 114 114 114 115 115 114 114 114 114 114 113 113 113 116 116 114 114 114 113 114 114 110 113 111 104 89 95 91 91 87 92 92 90 92 93 92 94 92 92 93 95 97 97 95 93 94 93 93 93 94 96 97 98 96 100 100 96 96 99 97 90 93 95 97 97 95 94 92 92 87 98 96 87 88 91 92 93 98 96 96 96 101 95 86 95 95 94 94 95 96 93 88 84 86 88 89 91 94 95 96 96 94 94 94 95 96 97 96 96 95 94 95 93 85 181 252 247 244 247 250 250 248 248 250 253 248 247 249 252 250 245 244 247 249 249 250 252 252 250 249 250 247 253 248 170 114 247 245 252 245 252 197 83 122 120 121 119 124 60 57 125 116 107 91 99 80 65 62 63 88 84 87 116 101 40 65 112 71 88 119 118 114 109 108 101 121 66 8 97 124 56 8 49 124 114 109 127 125 112 117 102 90 103 103 90 77 99 120 136 119 118 123 119 121 118 118 117 114 117 119 118 113 127 116 119 120 119 119 118 121 118 118 122 117 121 115 123 120 119 119 120 120 119 119 120 120 120 120 120 120 120 121 122 120 120 120 120 121 122 123 124 118 126 128 112 99 116 130 121 123 122 121 123 124 120 120 125 125 122 122 124 123 121 123 126 132 108 105 129 113 127 121 117 115 116 104 115 115 106 133 122 130 115 21 5 47 132 63 14 109 162 185 227 245 236 228 221 222 204 208 215 205 212 211 223 222 222 217 210 215 218 238 225 144 167 203 245 182 142 186 163 161 129 133 116 118 131 129 121 126 125 178 165 139 158 142 138 135 132 140 145 125 126 143 127 114 129 121 115 136 135 134 113 95 120 113 101 128 117 71 81 43 46 31 79 88 91 105 105 87 140 136 122 140 135 148 137 125 114 123 151 113 114 115 114 112 112 114 116 115 115 115 114 114 114 115 115 115 114 113 113 113 113 114 114 111 111 112 112 113 114 114 114 113 113 114 114 114 113 112 112 111 112 113 114 114 114 113 112 112 112 113 114 115 116 116 116 114 113 113 114 115 115 115 114 114 114 114 113 114 113 114 114 114 112 118 94 91 93 93 88 89 94 95 91 90 94 95 94 94 94 95 96 96 94 92 90 98 97 95 94 95 96 95 94 94 95 97 99 98 96 93 92 99 98 95 93 94 95 93 88 92 93 92 88 89 95 99 98 96 99 99 100 101 94 87 87 91 94 94 90 90 93 93 90 96 93 93 95 95 94 96 98 90 92 94 96 97 98 99 99 97 100 96 101 93 104 234 247 248 247 250 253 252 246 246 253 252 248 246 250 251 249 246 246 248 248 248 249 250 250 249 248 252 246 253 238 86 154 254 250 246 249 249 114 86 135 102 83 105 63 77 100 88 111 99 66 44 65 33 47 104 70 49 65 56 34 78 82 103 117 111 89 104 97 109 102 80 105 32 56 123 14 14 99 96 61 76 82 81 76 79 93 104 104 105 109 111 108 103 102 109 118 121 118 117 119 120 122 120 120 119 120 117 118 118 119 120 120 120 120 119 119 119 119 119 119 119 119 120 120 120 120 120 121 121 122 120 120 120 121 121 121 122 122 121 122 121 120 121 123 124 124 123 116 98 107 124 125 126 124 123 123 123 123 123 124 124 124 121 127 124 120 125 125 124 130 99 111 124 127 125 124 125 127 127 127 122 128 113 99 135 121 122 138 64 3 13 19 6 78 163 216 234 230 230 227 228 225 225 216 217 204 215 213 200 203 202 199 209 204 218 236 186 179 205 240 238 194 119 119 171 180 178 176 167 182 179 132 134 138 144 162 162 151 140 148 142 136 130 134 136 133 129 127 130 134 139 114 110 133 141 120 104 107 137 131 129 130 130 133 96 74 86 114 109 77 55 76 107 147 93 119 124 112 118 127 126 117 109 132 111 133 113 114 115 114 113 113 115 116 115 115 115 114 114 114 114 115 115 114 114 113 113 113 114 114 113 113 113 113 114 114 115 115 113 114 114 114 114 114 113 113 113 113 114 115 115 115 114 114 113 113 114 114 115 115 115 116 115 115 114 114 115 116 115 115 115 115 115 115 114 114 115 115 114 113 116 93 91 93 92 90 88 93 93 90 89 92 94 94 97 97 97 97 98 97 96 95 97 96 96 96 97 98 98 98 97 97 97 96 95 94 93 92 97 96 95 93 94 96 93 90 88 92 94 93 94 97 96 93 97 99 98 98 98 93 89 91 95 94 94 94 94 93 93 93 97 95 94 95 96 95 96 98 95 97 98 98 98 97 98 99 99 95 99 93 93 89 156 254 244 250 251 247 252 249 251 249 251 249 248 249 250 248 246 245 248 248 248 248 249 250 249 249 249 249 250 252 139 82 209 253 245 247 250 230 103 50 100 118 126 30 88 101 92 88 72 77 81 110 92 37 60 58 71 38 80 91 101 116 125 111 121 124 116 116 116 116 116 116 63 40 15 23 99 107 99 122 109 121 122 119 116 113 113 113 117 121 124 123 118 113 112 113 108 101 115 116 118 119 120 120 120 121 119 119 119 119 120 119 119 119 122 122 121 121 121 120 120 120 121 121 120 121 121 121 122 122 121 121 121 121 121 121 121 121 118 123 125 123 119 117 117 118 106 110 109 121 127 121 121 118 123 123 123 123 124 124 124 124 124 121 126 126 121 129 130 110 112 120 126 127 126 126 127 127 127 127 124 129 119 107 134 127 128 131 129 25 9 0 25 152 233 239 222 216 222 217 214 211 213 221 221 225 213 205 221 214 211 231 223 233 214 192 192 193 202 169 152 138 105 127 160 164 181 192 187 186 185 175 131 141 153 137 111 108 130 136 130 132 135 134 132 130 128 124 120 117 112 116 117 114 111 116 130 143 138 117 110 110 106 101 117 147 133 85 100 132 128 88 62 46 37 126 140 123 148 136 134 126 110 122 135 115 114 115 116 115 114 114 115 117 115 115 115 114 114 114 114 115 115 115 114 114 114 114 114 114 115 115 115 115 115 115 115 115 114 115 115 115 115 115 114 114 115 115 115 115 115 115 115 115 114 114 114 114 115 115 115 116 116 116 115 115 116 116 115 115 115 114 115 115 115 115 116 116 114 116 110 90 92 93 90 91 89 93 93 90 89 92 95 95 97 96 95 95 96 97 97 96 98 99 98 98 97 97 97 98 99 97 95 93 92 93 94 95 96 96 95 95 95 95 93 90 87 92 95 96 96 97 95 91 97 99 97 95 95 91 91 96 98 95 94 97 96 92 92 95 97 96 95 96 96 95 96 97 98 99 100 99 97 96 97 98 97 94 98 92 97 88 98 223 254 245 253 248 249 250 247 244 248 249 249 248 248 248 247 245 248 247 247 247 248 249 250 250 246 250 242 254 205 81 135 244 254 249 241 253 195 53 40 113 90 38 89 86 93 94 62 102 116 122 131 101 66 57 45 73 82 117 119 125 118 111 118 114 119 116 127 115 123 138 57 7 16 101 133 122 118 121 129 117 119 123 121 113 108 109 108 104 119 121 122 121 123 124 122 118 117 118 119 120 119 119 120 121 120 120 120 120 120 119 119 118 121 121 121 120 120 120 120 120 121 121 121 121 121 122 122 123 122 122 122 121 121 121 121 121 122 122 121 121 122 122 115 108 118 120 123 131 128 122 125 123 122 123 123 124 124 125 125 125 123 126 125 123 127 127 118 109 126 127 128 126 126 128 128 127 127 126 127 128 123 111 122 127 125 129 141 103 10 10 10 181 223 225 219 220 217 212 215 215 199 185 173 175 208 213 212 220 240 220 234 187 169 231 217 183 121 125 185 195 133 186 151 165 189 174 184 172 178 181 141 121 131 144 134 110 127 130 133 138 133 132 131 132 132 129 123 119 124 135 138 132 133 137 125 104 97 117 135 135 142 140 146 136 144 150 100 82 115 125 130 89 63 59 93 96 112 109 122 152 144 108 92 118 115 116 116 116 115 115 116 117 116 115 115 115 114 115 115 115 116 116 115 115 115 115 115 115 116 116 116 116 116 115 115 115 115 115 116 116 116 116 116 115 116 116 115 115 115 116 116 116 116 115 115 114 114 115 115 116 117 116 116 116 116 116 115 115 115 115 116 116 116 116 116 116 116 117 105 88 93 92 87 91 91 94 94 91 91 94 96 97 95 95 94 94 95 95 95 95 97 98 98 97 96 95 95 97 95 94 93 92 92 94 96 98 96 96 97 96 95 93 91 88 91 94 95 94 94 96 95 93 96 98 96 94 93 91 92 98 99 97 96 98 97 94 94 96 97 96 96 96 96 96 97 97 98 97 96 95 96 97 97 97 94 100 94 97 98 98 96 146 254 241 251 254 246 251 243 246 245 249 250 248 247 248 249 247 248 247 246 246 247 249 250 250 251 250 245 252 238 124 85 167 254 240 254 249 253 215 122 54 13 22 113 113 92 86 119 123 115 95 80 64 25 16 74 127 88 95 125 125 113 123 122 120 123 114 126 115 125 97 14 23 103 130 124 116 124 120 115 119 120 124 125 122 124 126 121 111 113 116 117 118 118 123 124 124 121 121 121 120 120 120 120 120 121 121 121 121 120 120 119 119 119 119 120 120 121 121 121 122 122 121 121 121 121 122 122 122 122 122 122 122 122 121 121 121 124 121 119 120 125 127 120 111 131 123 121 123 119 120 126 124 123 123 124 124 124 125 125 125 125 127 122 123 126 115 110 124 130 129 127 126 126 127 127 126 127 125 128 126 126 116 111 127 127 121 121 140 40 8 14 189 210 205 198 192 189 196 199 188 153 151 151 141 198 210 208 219 206 188 185 179 198 191 144 155 177 182 187 205 153 193 179 179 181 165 172 167 156 135 140 125 121 125 124 123 134 123 120 127 132 133 134 133 131 127 125 124 122 127 126 125 126 127 115 101 127 128 120 124 133 130 132 120 109 85 94 101 73 63 84 156 153 123 40 108 152 124 109 103 126 128 116 125 116 116 117 117 116 116 117 117 116 116 115 115 115 115 115 115 116 116 116 116 116 116 116 116 117 117 116 116 116 115 115 115 115 116 117 117 117 117 117 116 117 116 115 115 115 115 116 116 117 116 115 115 115 115 115 116 117 116 115 115 116 116 115 114 115 115 116 116 116 115 116 116 117 117 100 88 91 91 87 91 93 95 95 93 92 94 97 98 96 96 96 96 97 96 96 95 91 93 94 95 95 95 97 98 91 92 92 93 94 96 97 97 95 96 97 97 95 92 90 89 94 95 94 92 93 94 95 95 95 97 96 94 93 91 92 98 97 99 99 96 96 98 97 95 95 95 95 95 96 97 97 97 98 94 92 93 96 99 98 96 96 104 93 98 95 95 101 89 206 254 251 252 248 253 249 250 243 248 250 248 247 249 250 249 248 247 246 246 247 249 250 250 250 245 254 253 251 167 90 102 215 254 248 247 252 247 193 127 104 37 34 114 89 95 113 116 101 99 73 64 92 100 63 88 114 74 106 109 120 126 116 119 125 121 111 130 112 9 4 80 137 116 120 113 118 128 116 128 122 120 118 120 122 123 121 118 120 120 120 117 116 118 121 122 124 123 121 121 120 120 120 120 121 121 121 121 121 121 120 120 121 121 121 122 122 123 123 124 121 121 121 121 121 121 122 122 122 122 122 122 122 122 122 122 120 123 125 123 121 122 124 124 125 118 120 122 120 123 125 122 124 124 125 125 125 125 125 125 130 118 123 128 115 112 122 128 126 126 126 127 126 126 126 127 126 125 128 127 129 124 110 132 131 126 130 143 73 1 14 172 194 183 171 155 149 158 159 145 146 178 180 179 192 191 202 172 158 173 159 171 184 141 121 145 181 194 189 150 137 165 192 190 175 176 154 169 153 135 136 145 136 121 112 126 130 135 130 126 132 133 135 135 134 134 136 138 136 127 115 107 102 102 106 111 116 109 95 107 104 97 100 103 122 121 132 134 136 141 93 70 112 127 120 65 119 139 145 130 130 105 117 106 116 116 117 117 117 117 117 117 117 117 116 116 116 116 116 116 117 117 117 117 117 117 116 116 117 117 116 116 116 115 115 115 115 116 117 117 118 118 118 117 117 116 116 115 115 115 116 116 117 116 116 116 116 115 116 116 116 116 115 115 116 116 116 115 116 116 117 116 116 115 115 116 118 115 93 91 90 91 88 90 93 94 94 93 92 92 95 96 96 96 96 97 98 97 96 94 92 93 94 95 95 95 95 96 91 92 93 95 96 96 96 95 94 94 96 97 95 92 91 91 94 94 94 94 94 95 95 95 95 97 96 95 95 91 91 96 92 95 96 92 93 96 96 93 94 95 96 95 96 97 98 97 99 95 92 93 97 99 97 95 98 99 95 94 94 90 90 91 132 254 251 246 252 251 254 246 245 247 249 249 248 249 250 250 249 248 247 246 247 249 249 250 248 247 252 247 254 223 97 93 131 235 254 244 249 246 225 131 115 115 51 30 85 118 85 92 85 45 63 134 111 129 122 62 91 88 118 98 115 119 124 120 121 122 119 139 45 12 43 99 126 126 118 128 120 113 129 116 122 121 122 123 120 118 120 125 122 123 124 123 123 123 125 127 122 121 120 120 120 121 121 121 120 121 121 121 122 122 121 121 121 121 121 121 122 122 122 122 122 121 121 121 121 121 122 122 122 122 122 122 123 123 123 123 122 124 124 122 121 123 125 126 123 121 127 126 124 126 124 125 125 125 125 125 125 125 125 125 125 124 124 121 119 123 127 126 123 124 126 128 128 126 126 128 127 128 129 125 127 125 107 128 130 129 132 137 90 9 2 121 149 145 150 143 130 131 140 146 174 193 180 186 175 161 148 140 145 123 134 136 127 117 122 144 153 163 192 152 184 233 189 150 150 134 127 137 142 140 134 126 126 128 132 133 116 128 133 127 134 131 128 129 132 134 135 135 128 124 120 121 127 132 131 127 126 139 134 134 127 138 140 137 134 140 132 137 128 117 148 130 71 53 127 89 57 128 129 146 84 111 124 125 116 116 116 117 117 117 117 116 118 117 117 117 117 117 117 117 117 117 118 118 118 117 117 116 117 117 117 117 116 116 116 116 115 116 117 118 118 118 118 118 117 117 116 116 116 116 116 116 116 116 116 116 116 116 116 116 117 116 116 116 117 117 117 116 118 117 118 117 117 117 116 116 118 110 89 93 89 91 91 90 93 94 94 93 92 91 93 95 95 95 95 97 97 97 96 95 97 97 97 96 96 95 94 93 92 93 94 95 96 96 96 96 94 94 96 97 95 91 90 92 93 93 94 95 96 95 95 95 96 97 95 94 95 92 90 93 89 90 91 91 92 94 94 94 95 97 97 96 96 98 98 96 97 96 94 94 95 96 96 95 98 96 98 95 95 95 89 105 94 199 247 246 252 250 250 246 247 247 248 250 250 249 249 250 250 249 248 247 248 249 249 249 252 252 246 240 250 254 119 88 87 169 254 243 252 250 251 185 94 109 126 86 33 72 88 125 91 67 118 115 124 114 122 135 58 74 121 102 97 91 119 127 123 120 137 99 4 76 70 104 123 125 120 125 123 117 121 119 120 121 124 126 124 120 121 124 123 123 123 123 121 120 119 120 122 121 120 120 121 122 121 121 121 121 121 122 122 122 122 122 119 120 120 120 120 121 121 121 122 122 122 122 122 122 122 122 123 123 123 123 123 123 123 122 125 123 121 120 124 127 125 121 124 123 126 121 121 124 119 124 125 125 125 125 125 126 126 126 122 131 124 119 129 130 123 127 126 125 126 128 129 127 127 128 128 130 126 122 122 122 104 121 126 117 125 117 100 13 5 104 141 127 129 128 126 131 135 146 155 157 151 149 143 124 116 150 118 137 137 135 134 116 126 128 143 165 179 171 155 169 148 144 132 118 141 134 134 134 142 130 134 130 135 144 135 126 126 133 136 134 128 126 124 122 121 120 125 131 136 136 136 139 139 137 134 133 135 134 132 134 130 132 132 137 136 125 138 122 112 130 151 123 58 44 33 54 108 59 87 133 97 115 116 116 116 117 118 117 117 116 118 118 118 117 117 117 117 117 117 118 118 118 118 118 117 117 117 117 117 117 117 117 117 117 115 116 117 118 118 118 118 118 117 117 117 117 116 116 116 116 116 116 117 117 117 117 116 116 117 116 116 117 118 118 118 117 119 119 118 117 117 117 116 116 117 107 86 93 89 92 94 91 94 94 94 94 92 91 92 94 95 95 96 97 98 98 98 97 98 97 97 98 99 99 97 96 93 93 93 94 95 96 97 98 95 96 97 98 94 89 89 91 94 93 94 95 95 95 95 96 97 97 95 94 95 92 89 92 92 89 90 95 96 94 95 98 96 98 98 97 97 98 98 96 94 95 95 95 94 93 94 96 98 99 98 98 96 105 95 97 91 122 238 252 249 253 245 253 250 247 248 251 251 248 248 250 250 249 248 248 248 249 249 249 250 248 249 248 251 253 193 84 96 97 209 254 248 247 254 247 159 117 129 130 128 61 17 83 105 44 112 132 123 117 131 121 133 56 94 124 121 90 103 123 122 119 126 29 9 83 47 126 121 132 118 116 128 121 118 125 124 123 122 121 122 123 122 120 123 123 123 123 123 123 124 125 124 123 122 122 122 122 121 120 121 122 122 122 122 122 122 122 119 119 120 121 122 123 123 124 123 123 123 122 122 122 123 123 124 124 124 123 123 122 122 122 121 124 126 125 123 123 124 123 124 122 124 120 127 131 121 125 124 124 125 125 126 126 127 127 129 123 127 132 126 125 128 127 129 126 125 127 128 127 127 128 125 129 122 120 119 122 107 121 117 125 132 141 105 5 8 111 139 129 131 129 131 133 126 131 132 132 130 128 132 106 140 130 127 138 133 135 129 116 144 130 145 141 151 129 116 140 131 127 132 142 137 137 132 134 128 132 134 136 134 124 134 134 135 132 130 134 137 136 132 131 134 138 136 134 132 131 133 135 134 133 133 129 140 130 135 136 133 134 134 130 134 139 127 137 134 129 105 107 107 108 73 18 45 65 61 102 85 78 117 117 118 118 118 117 116 116 117 117 117 117 117 117 117 117 119 119 119 117 116 116 117 118 118 118 118 117 116 116 117 118 118 117 117 117 118 118 117 116 117 116 116 117 117 117 116 115 118 118 118 118 118 118 118 118 117 117 117 117 117 117 117 117 116 117 117 118 117 117 116 117 124 103 90 92 92 93 93 88 95 95 93 98 89 86 99 96 95 95 95 96 96 98 99 100 99 98 97 98 98 98 96 94 94 96 96 95 96 97 97 96 93 93 94 95 92 87 89 93 94 93 93 93 95 96 97 98 97 93 100 97 97 89 95 94 97 98 99 99 98 97 97 98 98 99 99 96 96 97 96 94 92 91 92 94 97 99 100 101 96 96 97 98 99 98 97 96 90 83 160 249 250 249 250 250 251 249 248 250 249 247 247 249 251 249 248 248 249 250 250 249 245 249 249 247 245 253 244 108 92 90 125 243 254 246 249 250 241 131 118 119 132 135 114 50 40 40 92 115 133 118 127 126 125 120 39 115 135 121 85 106 95 127 62 9 79 100 56 134 122 111 109 122 119 114 124 123 123 122 127 118 126 120 118 124 122 126 124 121 122 121 119 120 121 121 122 123 123 122 122 122 121 122 123 122 121 120 121 122 121 120 121 122 122 122 121 121 123 123 123 123 122 121 121 121 122 122 123 123 123 123 123 123 123 123 124 124 124 125 125 125 125 125 125 125 125 125 125 125 126 126 126 126 126 126 126 126 124 127 128 125 124 126 128 128 127 126 126 128 129 129 128 126 127 125 129 133 129 125 122 120 114 122 135 146 99 5 5 125 136 127 130 134 128 128 129 131 129 128 134 142 110 125 128 118 140 129 120 137 102 137 131 132 137 127 143 142 87 130 136 134 134 135 134 132 132 134 133 130 130 134 132 132 137 133 128 131 132 131 133 133 131 133 136 135 135 136 132 134 133 131 136 136 129 132 134 136 133 131 134 131 134 138 130 142 138 143 113 99 94 122 138 146 129 110 56 42 104 95 96 117 117 118 118 119 119 118 117 117 118 118 118 118 118 118 118 118 120 119 119 118 117 117 118 119 118 118 118 118 117 117 118 119 118 117 117 117 118 119 118 117 118 117 117 118 119 118 117 116 118 118 118 118 118 118 117 117 118 118 118 118 118 118 118 118 117 117 118 119 118 118 117 118 120 97 88 92 92 92 92 87 94 93 92 97 91 89 99 95 94 95 96 97 97 98 98 98 97 98 98 98 97 96 96 96 95 97 97 96 96 97 97 96 94 94 95 94 90 88 90 94 93 94 94 94 95 95 96 97 97 93 100 97 96 90 96 95 94 95 96 96 95 95 95 96 96 97 96 93 92 92 91 89 92 93 94 96 98 99 98 96 98 98 98 98 98 96 93 93 88 82 100 225 254 250 251 253 250 248 248 249 249 248 248 249 251 250 249 249 250 250 251 251 249 248 250 249 248 253 253 157 81 102 94 164 253 250 240 249 252 212 109 134 122 123 128 129 100 42 3 27 99 120 114 115 123 126 82 69 124 113 131 98 90 63 5 62 147 83 72 117 103 114 128 125 135 127 102 121 122 126 125 121 117 122 118 124 120 124 123 122 125 124 120 121 121 121 122 123 123 123 122 122 122 122 122 122 122 122 122 123 122 122 122 123 123 124 123 122 123 123 123 123 122 122 122 122 122 123 123 124 124 124 124 124 124 124 124 124 125 125 125 125 126 126 126 126 127 127 127 127 126 126 126 126 126 126 126 126 125 127 127 126 127 128 128 126 130 130 128 127 126 125 124 124 131 125 125 126 132 132 131 128 123 103 114 127 102 1 13 119 133 126 133 124 126 130 140 133 129 140 126 100 124 136 130 129 120 119 142 121 127 128 124 141 116 129 138 131 87 140 132 126 134 135 135 133 132 133 133 131 133 134 133 130 128 126 126 132 121 120 133 139 133 136 139 128 131 133 130 135 137 133 133 127 136 132 133 137 134 131 137 142 137 131 145 142 128 103 112 141 144 137 123 92 96 113 95 49 58 107 122 123 118 118 119 119 119 119 118 118 118 118 118 118 118 118 118 118 119 120 119 119 118 118 119 120 118 119 119 119 118 119 120 120 118 117 117 118 119 119 119 119 119 119 119 119 120 120 118 117 119 119 119 118 118 118 117 117 118 118 118 118 118 118 118 118 118 118 120 119 119 119 118 119 116 93 83 90 91 91 92 89 94 92 90 94 91 90 96 93 95 96 97 98 99 98 97 97 95 97 98 98 96 95 96 97 95 97 97 96 95 96 96 95 95 96 95 92 89 90 93 94 94 95 97 97 95 95 96 98 97 94 100 97 95 91 96 95 98 98 97 97 98 98 98 97 93 94 94 93 93 95 95 94 97 97 97 97 98 97 96 95 97 97 97 98 98 98 96 94 101 95 81 165 254 246 248 248 249 247 247 248 248 248 249 251 250 250 250 250 249 250 250 251 250 245 249 247 248 247 254 214 88 97 101 99 206 254 239 250 248 251 184 106 131 124 118 116 121 124 83 18 43 116 134 119 118 112 131 47 74 118 110 124 86 8 43 106 118 49 66 122 110 118 107 100 88 93 118 108 123 128 121 121 105 127 121 124 126 126 122 121 124 123 122 125 122 122 123 123 123 122 121 121 124 123 122 122 122 123 123 123 121 121 121 121 122 122 122 121 122 123 123 123 123 122 123 123 123 123 124 124 125 125 125 125 125 125 125 125 125 125 125 125 124 124 125 125 126 126 127 127 126 126 126 126 126 126 126 126 126 127 127 127 129 130 128 125 130 130 130 129 127 126 126 126 128 124 122 118 128 126 129 130 133 135 113 105 60 7 3 120 140 132 125 135 139 134 124 126 132 124 106 106 138 123 140 124 120 138 129 109 148 135 101 119 134 137 140 113 108 137 136 133 133 134 136 133 132 132 133 134 127 134 141 139 135 145 164 177 165 151 141 138 138 139 137 133 138 140 135 135 134 133 140 140 133 143 134 125 137 142 134 132 127 133 109 99 118 139 151 126 125 119 102 82 72 82 99 96 39 31 134 149 118 119 119 119 119 119 118 118 118 118 118 118 118 118 118 118 119 119 119 119 118 119 120 120 119 119 120 119 119 119 120 120 118 118 118 119 119 120 120 120 120 120 120 120 120 120 119 119 120 120 120 119 118 118 118 117 119 119 119 119 119 119 119 119 118 119 120 120 119 119 118 119 114 90 80 87 89 89 93 94 96 94 93 94 91 90 93 94 97 98 99 99 99 98 97 96 96 97 97 97 96 95 96 97 94 96 96 95 95 96 96 94 95 98 97 92 91 93 95 94 96 97 99 97 94 94 97 100 98 96 100 98 94 92 96 95 96 95 93 93 94 95 95 94 92 93 94 95 96 98 99 99 100 98 96 94 94 94 95 95 98 98 98 99 100 100 99 98 100 101 97 101 216 254 248 250 249 248 248 248 249 249 250 251 248 249 250 250 248 248 249 250 250 246 250 244 247 244 250 249 124 91 106 105 118 240 252 247 248 246 248 148 99 120 101 110 114 103 116 82 14 37 120 122 119 126 100 121 49 106 132 94 8 32 85 83 73 24 51 62 75 81 85 82 101 125 110 84 93 103 105 114 104 132 125 121 121 123 122 122 124 122 122 126 124 124 124 124 123 122 120 120 125 123 121 121 123 124 123 123 121 121 121 121 122 122 121 121 122 123 123 123 123 123 123 124 122 123 124 124 125 125 125 125 126 126 126 126 126 126 126 126 124 125 125 125 126 126 126 127 127 127 127 127 127 127 127 127 127 127 128 128 129 129 128 126 124 125 126 128 130 130 130 130 126 126 127 116 120 111 115 119 119 102 87 78 38 2 13 129 139 122 122 127 112 122 142 133 137 119 138 119 119 131 129 102 136 144 124 121 135 91 102 128 137 124 126 111 123 130 131 136 133 135 136 134 133 133 135 137 148 166 190 202 206 208 196 173 190 183 159 146 149 141 134 143 133 137 135 137 137 135 137 133 137 136 140 139 138 136 136 143 143 126 106 130 118 125 104 89 88 87 68 60 78 68 65 56 105 51 24 95 118 118 119 119 119 119 119 118 118 118 118 118 118 118 118 118 118 119 119 119 118 118 119 120 119 120 120 120 119 119 119 119 119 119 120 120 120 120 120 120 120 120 121 121 120 120 119 119 121 120 120 120 119 118 118 118 119 119 119 119 119 119 119 119 118 119 120 120 119 119 119 119 110 88 82 90 90 91 96 97 98 98 98 95 92 91 93 99 99 98 98 97 97 96 96 95 98 97 96 96 97 97 96 95 95 96 97 96 96 98 98 96 96 98 97 94 93 96 96 94 97 98 97 94 92 92 96 100 99 99 100 99 92 93 95 95 95 93 92 92 94 95 95 95 95 94 94 94 94 93 93 93 95 94 93 92 92 93 95 96 100 100 99 99 99 98 97 96 96 99 105 85 134 248 250 248 249 249 249 249 249 250 251 251 249 250 251 250 248 247 248 249 249 248 251 245 250 248 245 254 184 88 98 106 92 157 254 248 252 245 253 229 110 116 131 131 121 124 91 115 46 20 57 90 92 103 92 97 68 47 82 17 28 102 110 105 69 20 93 90 74 71 84 79 73 98 113 109 113 101 89 89 96 126 124 113 111 119 124 125 126 123 120 122 123 124 124 124 123 122 121 121 124 122 121 121 123 123 123 122 124 123 123 123 123 124 123 123 122 122 123 123 123 123 123 124 122 123 123 124 125 125 125 125 127 127 127 126 126 126 126 126 127 127 127 127 127 127 128 128 127 127 127 127 127 127 127 127 128 128 129 129 128 127 128 129 124 122 121 122 126 129 130 129 130 132 135 126 123 115 116 116 99 115 33 9 9 8 4 81 132 136 134 120 133 125 136 130 132 138 130 115 137 137 134 110 116 126 96 112 84 121 141 122 110 115 116 128 118 141 129 133 132 133 135 135 134 134 137 140 172 186 197 193 192 205 203 182 150 166 160 127 112 128 143 142 141 141 133 133 135 136 137 130 142 125 135 134 125 140 144 128 111 101 135 141 119 128 93 70 93 98 109 109 127 107 137 154 132 146 110 25 118 118 119 119 119 119 119 119 119 119 119 119 119 119 119 119 118 119 119 119 119 118 119 119 120 120 121 121 120 119 119 119 120 120 121 121 120 120 121 121 119 120 121 121 121 120 120 120 121 121 120 120 120 119 119 119 119 119 119 119 119 119 119 119 119 119 121 120 120 120 119 120 99 86 86 94 94 94 96 95 95 96 97 93 92 91 90 101 98 97 96 95 94 94 94 95 99 98 96 96 97 97 96 95 96 98 99 98 98 100 100 99 98 97 96 94 95 96 96 94 96 96 95 92 90 91 95 98 99 100 99 99 90 94 95 96 95 94 94 95 96 97 98 98 94 93 92 93 92 91 90 91 91 93 95 96 97 97 97 98 97 96 96 96 97 97 96 96 102 92 103 97 86 201 254 244 248 249 249 249 249 251 251 250 250 251 251 251 250 249 249 249 248 248 251 246 252 252 244 253 233 105 99 96 104 88 199 254 250 245 253 247 205 112 126 126 122 127 117 109 129 44 2 39 54 73 68 64 61 44 5 40 126 134 120 129 59 54 127 118 117 84 78 93 70 74 105 80 94 108 126 122 107 100 91 86 120 127 127 121 121 122 122 124 122 122 123 124 124 124 123 123 123 122 122 122 123 123 123 122 124 124 123 123 123 124 123 123 122 123 124 124 123 123 124 124 123 123 124 124 124 125 124 124 126 126 126 126 126 126 126 126 127 127 127 127 127 127 127 127 128 128 128 128 128 128 128 128 128 128 129 130 128 126 127 129 131 127 123 122 124 126 128 129 131 129 132 135 132 135 134 128 152 72 4 76 19 0 37 89 52 112 120 123 136 139 130 131 128 134 149 116 123 96 82 103 112 91 88 94 108 105 97 81 114 130 132 123 107 141 141 134 133 133 134 136 135 135 137 140 146 159 166 164 175 202 212 204 201 175 174 166 128 119 138 142 144 147 140 133 127 127 138 141 139 135 132 125 131 132 113 113 122 130 106 77 124 91 101 134 139 102 100 141 133 126 117 105 102 98 136 85 119 119 119 119 119 120 120 120 120 120 120 120 120 120 120 120 119 120 120 120 119 119 119 119 120 121 122 122 121 120 120 120 119 120 121 121 121 121 122 123 120 121 122 122 121 120 120 121 121 121 120 120 120 120 120 120 120 120 120 120 120 120 120 120 120 120 122 121 121 120 120 120 92 86 90 96 94 94 97 94 93 94 96 91 93 92 87 97 96 96 95 94 94 95 95 96 98 98 97 96 97 97 97 97 97 99 99 98 99 100 100 98 99 96 93 93 94 94 94 95 96 96 95 94 93 94 96 98 98 100 98 99 89 95 97 98 93 93 94 93 93 92 92 92 92 90 91 93 94 93 93 95 95 96 98 99 98 97 97 97 92 92 92 94 95 96 97 97 96 88 98 99 90 134 238 254 245 247 249 248 249 251 251 249 250 250 250 250 251 251 250 249 247 247 249 247 250 252 245 246 252 157 89 108 92 94 114 228 254 245 247 246 252 148 88 117 121 113 100 93 84 101 41 51 98 89 57 96 44 6 21 53 83 130 131 133 47 89 112 98 134 123 132 124 122 122 106 112 107 106 111 119 126 120 98 89 124 130 124 113 115 123 126 125 122 122 123 124 124 124 124 123 122 123 124 124 124 123 123 123 125 124 123 122 123 123 123 123 124 125 125 125 124 124 125 125 124 124 125 125 125 125 124 124 126 126 126 126 126 127 127 127 126 126 126 126 126 127 127 127 128 128 128 128 128 128 128 128 128 127 128 130 129 127 126 127 131 131 131 129 127 127 128 130 129 123 122 131 119 133 135 129 134 131 66 17 9 2 42 123 107 70 51 100 119 112 108 102 130 123 84 75 92 92 117 111 96 114 123 118 129 116 103 127 133 137 128 106 108 129 137 133 135 133 132 134 135 135 136 138 135 134 129 136 164 190 192 182 189 185 182 160 133 130 120 88 115 132 141 142 136 130 133 131 132 135 139 136 135 109 95 138 120 124 120 106 100 78 139 144 132 106 105 131 96 124 134 134 145 145 134 152 120 120 120 120 120 120 121 121 121 121 121 121 121 121 121 121 120 121 121 121 120 119 119 119 120 121 122 122 122 122 122 122 119 120 121 122 121 122 123 124 120 122 123 123 121 121 121 121 120 120 120 120 120 120 120 120 120 120 120 120 120 120 120 120 120 121 122 122 122 121 121 121 89 85 90 95 91 93 97 94 96 96 98 93 97 96 86 95 95 95 95 95 96 97 98 98 97 98 98 97 96 96 98 99 97 99 99 98 97 98 98 97 100 94 91 92 93 92 93 96 97 97 96 96 97 97 98 98 97 99 97 99 89 96 98 99 98 99 99 97 94 92 91 91 92 91 91 94 94 93 94 96 99 99 99 96 94 92 93 93 93 93 93 93 94 95 94 94 92 104 98 94 96 83 190 252 243 246 247 248 249 251 251 249 248 247 247 249 251 251 250 249 249 248 250 250 249 251 247 246 254 199 85 106 95 105 85 159 254 248 244 248 249 239 113 76 88 112 105 96 113 98 74 41 128 90 119 129 27 11 43 110 55 49 89 114 28 117 96 102 118 125 124 123 124 131 132 113 127 125 122 128 131 133 124 137 108 117 115 109 116 127 127 120 124 124 124 124 124 123 122 122 121 123 125 126 124 123 123 123 127 126 124 124 125 125 125 125 125 126 126 126 125 125 125 126 125 126 126 126 125 125 125 124 125 125 126 126 126 127 127 127 127 127 127 128 128 129 129 129 129 129 129 129 129 129 129 129 128 127 127 130 131 128 125 125 121 127 134 135 132 129 128 130 129 121 117 122 96 112 116 113 108 120 130 60 11 6 17 123 139 144 100 40 109 104 122 106 82 97 80 135 146 131 134 140 142 122 106 99 123 117 139 138 136 125 105 117 127 135 121 132 136 133 132 133 135 134 135 137 134 139 137 137 144 147 148 155 155 154 149 159 174 161 145 156 110 120 127 138 147 146 140 126 117 114 128 110 96 125 136 130 147 143 140 115 95 135 122 112 136 80 93 117 140 134 141 142 136 140 135 154 120 120 121 121 122 122 122 123 122 122 122 122 121 121 121 121 123 122 121 121 121 121 121 122 123 123 122 122 122 123 124 124 122 122 121 121 121 122 122 122 121 121 121 122 122 122 122 122 120 120 121 121 121 122 122 122 121 121 122 122 122 122 121 121 124 122 128 119 123 123 124 110 81 89 94 93 91 94 97 96 97 97 96 98 97 98 82 94 92 96 98 98 97 97 98 97 94 95 98 99 98 96 97 100 97 97 98 98 98 98 97 97 98 91 89 92 93 90 92 97 100 99 98 99 101 100 97 94 96 101 97 98 91 97 94 94 96 96 95 95 94 93 93 93 92 92 91 92 93 95 95 95 92 93 94 94 94 93 92 92 92 92 93 94 93 91 93 96 95 92 95 96 93 97 113 235 253 241 247 251 242 253 248 250 248 247 247 248 252 252 251 249 247 248 249 249 249 249 250 250 244 250 112 92 97 102 101 89 202 254 250 245 241 254 201 101 127 118 128 135 124 134 97 37 57 87 136 121 22 5 81 138 132 96 39 48 48 144 110 115 125 116 129 122 130 130 122 124 106 114 120 123 106 120 106 100 108 87 88 116 125 109 126 122 127 121 121 126 126 122 122 126 125 125 124 124 124 124 125 125 125 125 125 125 125 125 125 125 125 125 124 124 124 125 125 125 126 127 128 127 125 124 125 127 129 124 128 126 127 124 128 124 128 128 128 128 128 128 128 128 128 130 130 130 129 129 128 128 129 129 130 130 131 131 132 132 127 123 120 123 129 131 127 121 127 126 135 125 114 92 96 122 116 109 121 135 26 5 23 115 130 114 107 81 30 61 89 81 108 121 121 120 124 137 141 118 118 120 135 141 127 119 125 128 109 111 125 136 134 132 133 128 128 131 136 138 138 137 136 137 140 139 138 139 137 137 136 134 138 135 140 142 137 140 145 144 127 110 106 105 104 122 143 144 148 147 119 96 146 140 142 130 127 140 118 130 127 128 126 130 93 105 145 136 136 134 137 145 140 146 130 141 121 121 121 121 122 122 122 122 121 121 121 121 121 121 121 121 122 122 121 121 121 121 121 121 123 122 122 122 122 122 123 123 122 122 122 122 122 122 122 123 123 123 123 123 123 123 123 123 122 122 122 122 122 122 122 121 120 121 121 122 122 122 122 122 122 122 126 120 123 123 125 104 82 90 93 93 91 93 96 95 97 98 97 98 95 95 83 94 96 97 97 95 95 96 96 96 96 95 96 97 96 94 95 98 98 98 98 98 97 97 97 98 94 91 90 93 94 93 95 99 97 98 99 98 97 95 95 95 92 99 97 96 88 93 93 95 96 94 93 92 92 93 93 94 94 94 93 93 94 95 95 94 94 94 94 94 94 93 93 93 90 89 90 91 90 89 91 94 92 93 95 97 95 96 87 156 251 244 244 251 244 250 250 253 251 250 248 250 251 251 249 247 249 250 250 250 249 249 250 250 245 254 163 87 99 95 94 92 115 232 253 249 247 247 250 188 109 129 129 122 127 121 137 61 43 104 142 88 5 24 131 124 130 131 119 24 55 82 78 110 129 129 95 130 124 117 95 87 72 65 102 95 97 109 113 119 131 133 115 110 117 118 130 122 113 114 118 124 126 123 124 126 125 125 124 124 124 124 125 125 125 125 125 125 125 125 125 125 124 124 124 124 125 125 126 126 124 125 127 127 125 126 125 126 128 126 129 129 129 128 130 128 129 128 128 128 128 128 128 129 127 129 130 129 129 129 130 131 130 130 130 130 130 131 131 131 131 131 128 123 117 116 119 123 104 117 119 115 122 133 128 123 125 145 120 117 25 5 7 92 129 108 69 101 103 59 110 130 141 135 128 110 105 101 103 128 139 136 134 136 138 133 127 126 129 125 130 134 130 128 130 127 128 131 135 137 137 136 136 137 138 138 137 138 138 138 138 137 137 135 134 134 131 130 130 127 134 121 125 132 115 96 92 91 107 112 109 132 150 150 142 149 130 113 131 123 120 137 104 115 132 153 138 143 147 147 133 141 131 130 118 123 122 122 122 122 122 122 122 122 121 121 121 121 121 121 120 120 122 122 121 121 121 121 121 121 122 122 122 122 122 122 122 123 122 122 122 122 122 122 123 123 123 123 123 123 123 124 124 124 124 124 124 123 123 122 122 121 120 120 121 122 122 123 123 123 121 123 124 122 122 123 126 97 84 90 93 93 91 94 95 95 97 98 98 97 94 93 85 93 98 98 95 93 93 95 96 96 99 97 96 96 96 95 96 98 98 99 99 98 96 96 97 98 90 91 93 94 95 97 99 101 97 98 98 98 97 96 97 98 95 99 97 95 89 94 95 96 94 93 92 92 93 94 94 93 94 93 93 93 94 94 93 92 94 94 93 93 93 93 93 94 91 90 90 90 91 90 91 93 94 97 93 93 91 96 78 94 218 254 241 248 248 247 248 250 251 250 250 250 251 250 249 247 250 251 251 250 250 249 250 250 251 254 227 100 102 100 97 101 86 154 254 246 244 248 253 245 142 117 126 126 133 135 142 76 5 92 136 28 6 64 132 128 125 129 135 57 22 103 102 103 113 102 92 99 77 105 113 112 109 88 118 133 121 129 130 116 94 137 130 112 106 106 109 111 114 119 123 126 125 123 123 123 125 125 125 125 125 125 125 125 126 126 126 126 126 126 126 126 124 124 124 125 125 126 127 127 126 126 127 127 126 126 127 127 126 127 128 130 128 129 128 128 130 129 129 129 128 130 129 130 128 128 129 129 129 130 131 132 132 131 131 131 130 131 130 130 131 131 132 132 131 132 134 136 141 140 127 135 134 135 131 136 129 105 126 138 51 1 9 27 108 88 123 141 148 84 64 129 131 129 128 131 102 100 124 147 127 132 125 122 130 130 127 135 140 135 136 138 136 139 142 142 133 135 137 138 138 137 138 139 136 136 136 137 138 138 138 137 143 144 141 141 143 141 137 136 139 146 148 138 127 121 117 110 113 105 97 111 97 108 93 92 112 136 135 146 144 111 129 154 144 141 142 137 141 136 149 141 148 137 122 106 122 122 122 122 123 123 123 123 121 121 121 121 121 121 121 121 122 122 122 122 122 122 122 122 122 122 122 122 122 122 123 123 123 123 123 122 123 123 123 124 123 123 123 123 123 123 123 123 124 124 124 124 123 123 122 122 121 121 122 122 123 123 123 123 121 124 123 125 123 125 125 91 87 91 93 93 93 96 96 96 97 97 97 96 95 93 89 91 99 97 94 92 93 97 98 97 98 96 95 96 97 97 98 99 97 98 99 98 96 95 95 97 87 93 96 95 95 98 100 99 97 95 95 96 99 100 99 97 99 99 95 92 92 96 96 93 93 93 94 96 97 97 94 91 93 93 93 94 94 94 93 92 91 91 91 92 92 93 94 94 95 94 93 92 93 93 94 96 95 97 92 95 89 97 93 88 146 254 245 242 247 247 247 247 250 250 250 250 250 251 250 249 249 249 250 250 250 250 250 251 250 251 253 135 91 103 99 100 102 85 190 251 247 251 243 252 233 120 131 135 129 117 128 84 12 68 88 5 11 111 133 124 124 126 133 51 87 113 81 70 85 102 110 127 119 115 113 123 129 124 102 109 101 97 116 113 118 130 105 98 104 113 114 122 126 129 129 126 123 124 124 123 125 126 126 127 126 126 125 125 126 126 126 126 126 126 126 126 125 125 125 125 126 126 127 127 128 127 126 126 127 126 127 128 125 129 128 129 128 129 126 127 130 131 130 129 130 129 130 130 131 131 130 129 129 129 130 131 132 132 132 131 132 130 130 130 133 132 131 133 136 136 132 128 127 135 130 133 128 127 130 131 131 122 117 112 36 12 18 41 48 104 137 128 116 137 74 127 134 122 135 134 113 143 114 118 136 143 142 136 132 127 125 132 139 135 134 134 134 135 135 133 137 138 139 138 138 137 138 138 137 137 137 137 137 137 136 136 133 137 134 134 140 139 135 139 140 136 130 128 129 125 131 145 138 135 143 132 108 107 99 99 102 107 100 88 85 107 141 133 151 143 138 137 134 148 127 138 119 119 130 127 122 122 122 123 123 124 124 124 122 122 122 123 123 123 123 123 123 123 123 123 124 123 123 123 124 124 124 124 124 124 123 123 123 123 123 123 123 123 124 124 123 123 124 124 124 124 124 124 124 124 124 124 124 123 123 123 123 123 123 123 123 123 123 123 122 125 124 127 124 127 119 87 90 92 93 94 95 97 98 98 96 95 95 96 98 96 94 88 98 97 95 94 95 98 98 96 96 94 94 95 96 95 95 96 95 97 98 98 96 95 94 94 89 95 98 96 95 97 98 96 93 94 95 96 97 96 96 96 97 98 96 90 89 90 92 91 93 93 94 96 97 96 93 91 95 95 95 95 95 95 93 92 88 89 91 92 94 94 94 94 93 93 93 93 93 95 97 97 95 94 92 103 96 97 102 94 89 202 254 242 244 248 248 247 248 250 250 250 249 251 252 251 247 247 248 249 249 250 251 252 250 245 254 192 87 102 102 98 102 94 107 234 254 240 247 245 252 200 102 102 114 77 71 99 28 68 36 13 50 131 129 123 128 131 142 50 51 94 123 122 135 80 90 125 104 105 81 101 117 124 90 86 139 122 121 112 122 108 90 108 124 131 127 129 127 128 126 122 122 126 126 124 125 126 126 127 127 126 126 125 127 127 127 127 127 127 127 127 126 127 127 127 126 126 127 127 127 126 125 126 127 127 126 125 126 131 129 126 130 130 127 128 130 130 129 129 129 129 131 131 131 131 130 130 129 129 130 131 133 132 133 132 132 132 132 132 133 132 131 129 128 128 128 129 131 131 132 131 136 134 138 134 130 104 95 123 62 1 2 123 37 94 137 114 146 129 52 102 125 135 111 106 120 126 113 125 130 123 121 122 122 129 137 136 138 139 137 137 139 139 136 135 136 136 136 136 136 136 137 137 138 138 137 137 138 137 136 135 139 144 140 137 138 135 133 138 137 130 120 129 146 148 137 136 134 122 130 135 152 154 145 148 152 143 123 93 95 110 96 101 83 87 116 131 114 127 116 125 139 136 144 141 122 122 123 123 124 124 125 125 123 123 124 124 124 124 124 124 124 124 124 125 125 125 124 124 124 125 125 125 125 125 124 124 124 124 124 124 124 124 124 125 125 125 125 125 125 126 126 126 124 124 124 124 125 124 124 124 125 125 124 124 124 124 124 124 124 126 126 127 126 128 109 86 92 92 92 94 96 98 97 98 97 94 94 96 99 97 99 86 98 98 97 96 96 97 97 95 98 96 96 96 96 94 94 95 95 96 97 98 98 96 94 93 92 96 98 96 95 96 96 95 93 97 100 99 94 92 95 98 94 98 101 91 87 84 91 93 94 93 93 92 92 92 93 93 96 95 94 94 93 93 91 90 90 91 92 94 95 95 95 95 88 89 90 90 92 96 97 97 100 94 89 101 97 92 97 92 86 132 250 251 246 248 248 247 248 251 251 248 248 250 251 250 246 247 248 249 249 250 251 252 252 248 253 242 113 96 102 101 96 106 96 150 253 247 241 246 250 248 118 43 50 92 106 85 44 27 1 10 112 129 119 134 126 134 113 19 72 110 107 98 102 99 81 106 123 104 103 86 90 111 128 125 130 121 113 113 97 100 116 136 134 128 124 124 125 126 125 123 124 127 126 123 126 126 127 127 127 127 126 126 127 127 127 127 127 127 127 127 128 128 128 127 126 127 127 127 126 126 127 129 131 130 128 126 126 130 127 119 131 129 129 129 130 130 130 130 130 130 130 131 131 130 130 130 130 130 131 131 133 133 133 133 133 133 133 133 131 131 131 133 136 136 134 132 135 125 136 134 136 126 122 118 102 102 140 152 70 4 11 103 109 49 95 141 134 134 46 98 133 115 125 106 123 103 90 118 111 104 114 127 130 137 145 141 130 134 132 132 136 137 135 136 135 135 135 136 137 138 139 139 138 137 137 138 139 139 138 138 140 142 139 134 130 126 126 130 116 139 146 139 136 137 139 143 145 147 143 137 139 142 138 149 136 113 101 144 149 136 149 137 126 138 109 66 62 44 73 123 145 151 156 152 123 123 123 124 124 124 125 125 124 124 124 124 124 124 124 125 123 124 124 125 125 125 124 124 125 125 125 126 125 125 124 124 124 124 124 124 124 124 125 125 125 126 126 126 126 126 126 126 125 125 125 125 126 125 125 125 126 126 125 125 124 125 125 125 125 125 127 126 127 130 96 87 92 92 92 93 95 97 96 97 97 96 96 95 99 95 102 86 96 97 98 96 95 96 96 96 99 98 97 97 95 93 95 97 96 96 96 97 98 98 96 93 95 95 96 96 96 97 96 96 97 98 99 97 95 95 97 100 97 100 103 92 91 87 94 94 93 93 93 92 90 91 94 96 95 94 93 93 93 93 93 92 94 94 94 94 94 94 93 93 91 92 92 92 94 98 99 97 98 96 88 91 92 89 94 94 101 99 196 253 247 248 244 247 246 251 251 248 247 249 251 250 248 249 250 250 249 249 250 251 250 247 249 254 164 89 97 99 95 90 111 86 190 254 243 253 243 253 245 139 94 62 70 65 87 1 3 48 140 135 133 123 69 49 74 45 62 117 122 109 99 106 113 85 101 122 140 109 113 108 116 119 88 110 115 116 134 131 133 128 127 127 130 131 128 129 129 129 127 126 126 125 128 127 127 127 127 127 127 127 128 128 128 128 128 128 128 128 127 127 127 127 128 128 129 129 130 127 124 125 129 131 130 130 127 128 126 112 133 127 131 127 130 130 131 131 131 132 131 131 130 131 131 131 130 130 130 130 135 134 134 134 135 134 134 134 133 133 134 135 134 131 124 119 109 113 137 127 122 131 116 106 118 145 147 139 44 14 6 69 112 49 21 45 87 76 53 72 144 117 120 123 132 118 145 140 141 132 125 121 113 112 124 137 136 142 140 136 139 138 135 137 136 136 136 137 138 139 140 140 138 138 138 139 140 140 140 140 141 140 140 138 133 133 135 135 154 142 133 138 146 142 138 142 139 144 137 138 139 141 137 131 116 132 134 137 137 128 146 147 151 119 89 115 136 145 117 85 73 95 112 134 124 124 124 124 124 124 124 124 124 124 124 124 124 124 125 125 123 123 124 125 125 125 124 124 125 125 125 126 126 125 124 124 124 124 124 124 124 125 125 125 125 125 125 125 125 125 125 125 126 126 126 126 126 126 126 125 126 126 125 125 125 126 126 127 125 125 128 125 127 129 90 89 94 92 91 92 95 96 96 96 98 97 98 96 97 93 103 87 93 95 97 95 95 96 97 98 97 96 95 94 92 92 95 99 98 96 95 97 99 99 97 95 96 95 95 96 97 97 97 97 101 95 90 91 96 100 100 97 102 99 99 90 96 94 97 91 90 93 95 94 93 92 95 97 95 95 94 95 97 98 99 99 96 96 95 93 92 91 91 91 98 99 98 97 99 101 101 98 87 94 91 88 93 94 98 100 100 97 129 245 246 250 241 248 245 249 251 247 246 249 252 251 251 251 251 250 249 249 249 249 254 249 252 253 215 95 100 103 101 101 98 99 111 231 254 242 250 244 253 216 124 125 84 45 29 9 1 90 111 92 75 51 53 109 135 56 50 117 109 134 112 127 134 133 138 143 104 79 101 112 108 117 127 128 135 135 126 128 130 121 132 131 129 128 130 130 130 130 127 125 128 132 128 127 127 126 126 127 127 128 128 128 128 128 128 128 128 128 126 126 127 127 127 129 130 130 130 125 118 117 121 127 131 132 132 130 129 109 136 127 132 128 130 131 132 132 132 132 131 131 132 132 133 132 130 129 128 128 134 134 135 135 135 135 135 135 129 136 139 133 122 117 121 128 139 106 109 106 94 103 92 111 127 112 105 112 51 2 9 54 67 39 75 119 132 73 118 78 55 84 120 133 125 125 131 125 130 136 138 142 139 120 110 120 120 130 131 131 137 137 135 139 137 137 136 137 137 137 137 137 139 139 139 140 140 141 140 140 142 138 141 142 139 142 145 143 137 140 138 132 133 139 143 144 143 137 139 144 134 111 123 127 144 145 149 142 149 142 148 113 93 79 137 153 148 149 156 147 132 123 91 93 126 126 126 125 125 125 125 125 124 125 126 127 127 126 125 124 124 125 125 125 125 125 126 126 125 125 125 125 126 126 126 126 129 127 126 126 127 128 128 127 124 125 126 126 127 126 126 126 124 125 126 127 127 127 126 125 127 126 126 125 125 125 125 125 130 123 130 128 130 123 94 90 92 93 94 95 95 95 96 96 95 95 95 96 98 99 95 90 95 97 98 96 95 95 95 94 93 94 94 94 95 95 95 95 100 98 98 99 98 95 94 95 98 96 95 97 98 96 95 97 95 92 93 96 95 93 94 98 101 103 96 89 101 95 97 93 100 97 94 93 93 96 98 100 97 97 97 98 98 98 97 96 95 94 93 93 94 96 97 98 98 97 98 99 97 95 95 98 92 94 94 94 97 99 97 94 100 92 92 179 254 247 239 248 245 247 248 247 246 246 249 252 251 251 250 250 251 251 251 250 254 249 250 248 245 139 90 108 103 100 93 109 90 135 253 246 246 250 250 253 169 104 147 85 1 3 35 126 73 59 98 116 117 107 114 50 35 130 97 109 108 118 131 138 106 84 110 118 124 132 135 132 133 132 128 127 129 130 129 129 128 129 131 131 128 130 128 126 126 128 129 127 126 129 130 127 127 130 129 126 129 130 129 128 129 131 131 129 128 124 131 133 125 127 131 125 125 133 136 125 116 110 127 117 121 129 123 117 101 131 137 128 133 137 115 132 131 133 129 136 131 132 134 132 130 132 134 122 129 123 132 134 137 137 133 131 129 131 113 100 119 140 141 137 117 106 122 116 101 113 118 116 107 121 79 134 86 1 6 28 75 62 118 113 105 70 131 105 62 86 70 74 105 136 129 119 144 136 124 129 128 140 142 139 137 135 134 136 137 137 138 141 137 137 138 139 139 139 139 139 138 139 139 140 140 140 141 141 141 142 141 141 143 144 141 136 140 142 143 139 133 130 134 138 136 146 150 138 120 115 128 144 139 139 144 139 119 107 102 95 134 148 148 143 140 143 148 140 146 144 135 120 126 126 126 126 126 126 125 125 125 125 126 126 126 126 125 125 124 124 125 125 125 125 125 126 126 126 126 126 126 126 126 126 127 126 125 125 126 127 127 127 126 126 126 126 126 127 127 127 124 125 126 127 127 127 126 125 126 126 126 125 125 125 126 126 127 125 127 127 130 115 93 90 93 94 93 93 92 92 93 92 95 96 96 96 97 97 95 91 91 94 96 95 95 96 97 96 94 95 96 96 95 95 95 96 97 95 94 96 97 95 94 94 94 96 96 94 95 97 97 94 91 92 92 93 95 97 97 96 93 98 94 90 101 95 97 95 97 96 96 97 97 98 97 97 101 99 98 99 101 101 99 97 98 97 97 97 98 98 98 98 100 99 99 100 98 96 96 98 99 100 98 96 94 95 95 94 94 99 92 122 229 242 250 240 244 246 247 247 246 246 248 250 251 250 250 250 251 251 250 250 252 251 251 252 254 187 92 108 102 95 98 98 98 99 185 253 247 241 250 252 250 154 58 21 15 7 60 81 76 103 126 126 120 112 100 66 57 115 106 117 92 103 117 79 102 106 109 107 128 129 126 124 125 125 127 133 129 130 129 129 128 129 130 131 128 129 129 127 128 129 129 128 127 127 128 129 130 129 129 129 128 129 128 127 127 128 126 124 131 128 128 129 130 132 131 127 130 124 127 131 121 141 119 122 123 125 112 110 86 110 126 131 124 122 102 122 137 133 131 124 135 121 127 133 140 133 142 140 133 120 122 124 112 111 108 132 104 102 121 137 122 104 102 104 109 134 127 128 133 126 131 133 136 103 141 156 94 5 1 73 107 105 101 121 76 77 109 131 134 54 108 118 100 100 105 109 121 110 116 133 141 137 136 139 140 138 137 138 138 136 136 138 137 138 138 139 139 139 139 139 139 139 140 140 140 140 140 141 141 140 138 136 138 142 144 143 139 140 141 143 144 141 136 132 140 139 127 114 121 137 132 112 114 108 105 103 100 117 138 150 140 146 143 144 141 141 144 141 142 143 137 130 126 126 126 126 126 126 126 126 126 126 126 126 126 126 126 126 125 125 126 126 126 126 126 127 127 127 126 126 126 126 126 125 125 125 126 125 125 126 127 128 128 128 127 127 126 127 127 128 126 127 128 128 129 128 127 127 127 127 127 127 127 127 127 127 127 129 127 127 135 106 94 93 94 93 93 93 94 94 94 95 95 97 97 96 96 96 95 94 90 94 96 96 96 97 97 97 94 95 97 97 95 94 94 95 96 94 93 95 95 95 93 93 91 96 97 93 94 99 98 93 96 98 97 95 97 101 99 94 92 99 95 93 101 96 98 98 98 98 99 100 100 100 98 97 99 96 95 96 99 101 98 96 97 97 98 98 98 97 95 94 97 96 96 95 94 92 91 93 91 93 93 91 90 91 94 94 92 94 99 88 163 254 252 243 243 245 246 247 247 246 247 248 250 250 249 249 250 250 250 249 249 253 252 253 254 234 105 99 102 97 96 99 96 94 112 232 247 250 250 244 254 224 37 5 3 55 100 36 50 121 113 120 125 120 140 123 12 76 123 117 127 93 75 114 133 120 114 110 104 117 131 140 138 126 122 129 130 129 128 128 128 129 130 130 128 129 129 129 129 130 129 128 130 126 127 130 130 127 126 129 130 131 130 129 130 132 131 130 126 131 131 129 128 126 128 134 130 131 131 126 125 116 127 136 113 125 119 133 117 117 103 89 98 111 103 111 125 122 133 120 108 150 121 121 129 127 117 121 147 132 135 125 143 141 118 105 125 128 131 120 107 120 136 136 135 143 132 143 141 127 141 139 119 128 138 113 53 7 5 55 77 100 124 143 92 113 118 117 115 95 75 114 132 101 90 91 111 116 136 130 135 140 141 137 140 140 140 141 141 139 139 139 138 138 139 139 140 140 139 139 140 140 141 141 140 140 140 141 142 141 138 135 136 139 142 144 147 144 141 142 146 147 145 142 134 117 117 137 143 131 132 147 144 145 149 152 146 145 145 143 146 143 137 145 146 142 145 147 148 148 149 151 126 126 126 126 126 126 126 126 126 126 126 126 126 126 126 126 126 127 127 127 127 127 128 128 128 127 127 127 126 126 126 126 125 126 127 126 125 125 126 128 128 128 128 127 127 127 127 127 127 128 128 129 129 128 128 127 126 127 127 128 128 128 128 128 127 132 127 128 136 97 94 94 94 95 94 94 95 96 95 96 93 97 98 96 95 96 97 96 92 96 98 98 96 96 96 95 94 94 95 95 95 94 92 91 97 97 96 96 95 93 93 93 93 97 98 96 97 100 99 94 100 101 100 99 101 103 101 97 98 103 94 92 99 95 97 99 100 99 97 97 97 97 97 97 93 92 92 94 96 98 97 96 97 96 96 96 96 95 93 91 95 94 93 92 91 90 90 91 91 93 93 93 92 92 94 94 92 90 99 93 104 223 254 245 243 244 246 247 248 247 247 247 250 249 249 249 249 250 249 249 244 250 251 252 246 254 148 89 106 100 98 101 94 112 92 155 254 247 250 250 243 254 157 2 14 74 87 137 98 45 62 123 147 122 131 109 19 111 138 130 108 85 140 134 124 123 115 97 118 119 114 108 104 103 110 123 130 129 129 129 129 129 130 130 129 130 129 129 129 129 128 127 130 127 127 129 129 128 129 131 129 131 131 128 127 128 129 129 133 129 128 129 130 131 130 128 130 138 121 134 135 131 129 125 138 136 112 124 139 136 131 135 125 123 119 119 108 83 86 93 87 104 131 123 116 77 112 113 87 101 93 106 88 105 100 121 112 122 119 121 138 145 137 132 141 134 131 123 120 138 144 123 101 114 86 108 83 6 2 63 113 111 128 99 104 141 122 103 105 132 129 82 63 87 116 90 118 101 108 104 113 124 124 131 132 132 133 135 137 137 138 139 139 139 140 140 140 140 140 140 140 141 141 141 140 140 141 141 141 142 142 140 138 138 138 138 136 140 145 146 141 133 126 122 129 142 147 141 141 149 148 140 143 142 143 143 143 144 147 147 148 143 137 144 146 140 143 144 147 143 142 145 126 126 126 126 126 126 127 127 127 127 126 125 125 126 127 127 126 126 127 127 127 127 127 128 128 128 128 127 127 127 126 126 126 127 128 128 126 125 126 127 127 127 128 129 128 127 126 125 128 128 129 129 129 129 128 128 127 127 128 129 129 129 128 128 126 131 126 127 130 89 93 93 95 94 94 94 94 94 93 92 92 96 97 96 95 96 97 98 90 94 98 97 96 95 95 95 95 94 93 94 95 95 92 89 96 98 99 96 93 92 93 94 96 96 97 99 99 98 97 96 95 94 96 100 101 99 100 102 98 101 89 91 97 96 95 97 98 97 95 93 93 93 93 93 92 93 94 95 95 96 98 99 98 97 96 96 96 95 94 93 97 96 94 93 92 94 95 95 97 95 91 90 90 89 88 87 90 96 90 99 91 139 254 247 246 246 246 247 248 248 248 247 249 249 248 249 249 249 249 248 245 245 248 251 246 254 208 93 103 100 108 95 100 103 101 96 197 254 240 251 250 251 253 97 18 111 123 127 123 119 74 49 97 106 122 84 21 93 87 74 66 52 91 77 82 100 106 135 115 118 116 116 125 132 133 135 130 129 129 129 129 129 130 130 129 129 129 130 129 128 127 127 128 129 128 126 126 130 132 131 124 129 133 134 133 133 135 136 135 127 134 138 129 130 135 132 128 131 137 126 129 141 132 140 125 138 111 93 124 132 133 132 136 135 139 137 130 134 126 128 147 64 81 68 73 68 66 54 59 92 106 114 100 95 112 125 135 139 136 138 145 138 129 134 123 125 130 133 131 120 96 81 89 94 125 112 88 11 1 82 150 103 149 123 94 143 140 130 128 142 142 144 93 141 111 121 104 108 119 108 106 132 129 132 134 135 136 136 138 139 141 141 140 140 140 140 140 140 140 140 141 141 141 141 141 141 142 143 141 142 143 144 142 140 138 138 127 129 130 130 130 135 142 149 147 144 144 148 148 143 139 139 142 143 142 142 144 143 141 141 146 146 141 143 141 137 139 136 138 134 133 136 126 126 126 126 127 127 127 127 127 127 126 126 126 126 127 127 125 126 126 126 126 126 127 127 128 128 128 128 128 127 127 127 128 128 129 128 127 127 127 127 126 127 128 129 129 128 126 125 129 129 129 129 129 129 129 128 128 128 129 129 129 129 129 129 128 131 128 129 123 88 93 92 94 92 93 94 96 97 95 95 91 95 96 94 94 95 96 96 84 90 95 96 95 96 97 97 97 96 94 95 97 96 94 91 94 96 97 95 92 92 94 95 97 95 95 98 99 96 95 96 95 93 95 99 99 96 97 101 95 98 87 93 99 98 95 96 96 96 96 96 96 95 94 92 94 96 97 96 95 94 96 98 98 97 95 94 94 94 94 93 93 93 91 90 91 93 94 93 91 87 83 84 87 89 90 91 91 100 90 98 96 97 205 254 248 247 246 247 248 249 249 248 249 249 248 249 249 249 249 248 251 245 245 250 250 252 247 118 91 102 105 101 101 90 102 97 108 233 254 245 242 249 254 229 115 128 136 116 123 118 107 73 44 40 86 132 27 72 94 78 115 87 69 101 99 134 141 119 120 129 132 130 131 132 130 129 131 130 130 130 130 130 130 130 130 129 129 130 130 128 127 128 129 131 129 124 122 125 126 123 116 120 123 122 118 115 112 108 123 114 116 117 107 104 105 100 117 110 106 85 105 116 123 114 135 130 113 102 137 141 136 137 135 135 137 136 132 140 132 124 115 59 28 79 108 129 125 93 86 105 111 144 117 106 93 95 97 105 129 138 121 113 128 142 116 117 111 108 90 86 119 140 114 116 113 135 87 1 6 50 149 100 142 120 102 145 137 147 113 134 140 147 100 140 147 128 141 123 118 124 110 113 117 146 141 142 141 140 140 141 142 141 142 141 141 140 140 140 140 140 141 142 141 142 142 142 143 144 141 141 142 143 144 143 143 143 142 143 144 145 146 145 141 139 141 144 145 142 141 144 145 145 146 146 142 140 143 145 145 149 143 147 144 145 144 141 144 140 142 141 143 148 126 126 126 127 127 127 127 127 127 127 127 126 126 127 127 127 126 127 127 127 127 127 128 128 128 128 128 128 128 128 128 128 128 128 128 128 129 128 127 126 126 127 128 129 130 129 128 127 130 130 130 130 129 129 129 129 130 129 129 129 129 129 129 129 131 130 130 132 115 90 94 93 92 91 92 94 97 99 97 95 90 93 94 93 92 93 93 92 83 89 95 97 96 96 97 97 97 97 97 97 96 96 95 95 94 95 94 93 93 95 96 95 94 95 95 95 96 97 97 95 98 97 97 98 98 97 97 97 96 100 88 95 97 97 93 97 95 96 97 99 99 99 96 95 96 96 96 95 95 94 95 96 96 95 93 92 92 91 91 90 86 87 88 88 89 91 89 87 88 87 88 92 96 98 100 103 96 97 99 100 96 101 128 238 249 247 245 245 247 249 249 249 250 249 249 249 249 250 249 249 253 250 246 247 251 246 254 173 91 104 102 110 101 97 99 109 94 135 251 251 241 250 251 248 233 111 117 115 93 102 120 103 128 102 31 55 30 60 73 125 122 111 62 70 107 111 112 127 117 126 132 134 135 132 130 132 131 131 131 131 132 131 131 131 131 129 129 131 131 130 130 131 131 131 130 128 127 125 124 122 134 130 124 117 114 111 107 102 110 102 93 103 125 129 122 121 86 110 91 105 77 94 96 91 107 67 64 87 109 123 121 131 140 120 114 133 128 98 105 110 70 50 127 147 136 135 130 141 135 79 79 93 125 126 140 144 134 96 81 99 115 118 108 92 114 114 113 110 122 143 131 94 125 134 161 162 70 12 1 58 148 120 169 158 105 138 142 137 133 132 144 141 91 137 129 132 147 140 138 141 143 143 126 108 133 135 136 135 136 138 138 137 142 142 141 141 140 140 141 141 142 143 143 143 142 142 143 143 144 141 140 143 144 144 144 145 149 144 140 139 142 144 145 144 148 145 142 141 145 148 145 140 139 144 143 143 147 145 140 143 144 147 144 147 148 147 150 148 148 148 150 150 126 126 126 127 127 127 128 128 127 127 127 127 127 127 127 127 128 128 129 129 129 129 129 130 128 128 128 128 128 128 129 129 128 127 127 128 129 129 128 126 127 128 129 129 129 129 129 129 130 130 130 130 129 129 129 129 131 130 129 129 128 129 129 129 131 127 129 131 108 90 93 91 93 93 93 94 95 94 90 88 91 92 92 91 91 92 91 89 87 93 98 99 97 96 96 96 96 98 100 98 95 94 95 98 96 95 93 92 95 98 97 93 92 96 96 93 94 99 99 95 95 96 95 93 96 100 100 96 99 103 89 93 91 91 89 95 94 94 95 96 97 98 97 96 98 97 96 96 97 97 97 97 96 95 93 92 92 91 89 88 85 88 90 90 92 92 90 85 90 92 96 100 100 96 95 96 99 95 102 101 98 93 80 188 250 247 244 244 246 249 250 249 250 249 249 249 250 250 249 249 248 253 248 246 250 246 254 229 104 97 110 104 108 107 100 94 99 92 183 254 249 249 245 252 250 184 116 131 130 131 133 125 69 98 114 54 10 67 137 107 112 116 48 94 66 68 127 113 142 130 118 120 132 135 131 131 131 131 131 132 132 132 131 131 131 129 130 132 132 131 132 134 130 130 131 137 137 134 133 135 127 120 113 113 123 134 139 137 127 140 129 119 123 109 99 120 129 127 120 123 103 130 113 108 105 91 78 38 25 110 132 105 117 115 103 112 121 101 128 106 46 113 136 130 132 130 135 133 141 126 143 74 71 107 143 138 138 157 133 85 82 115 133 132 126 137 145 117 121 119 100 150 156 164 157 144 72 2 2 50 134 123 131 153 98 147 140 144 134 124 149 125 105 135 136 147 136 142 147 139 140 139 146 132 127 131 134 136 139 143 143 142 143 142 142 141 140 140 141 141 142 143 144 144 142 142 142 143 147 143 142 144 145 144 143 142 141 142 143 144 144 143 142 140 138 138 143 151 148 140 140 148 144 149 145 143 148 146 143 149 149 148 143 148 149 145 147 146 144 145 146 145 127 128 128 129 129 129 128 128 130 129 129 128 128 128 128 129 127 128 128 128 128 129 129 129 128 128 128 128 128 129 130 131 130 129 128 128 128 128 128 129 129 129 129 129 129 129 129 129 130 130 130 130 130 130 130 130 130 130 130 130 129 129 129 129 130 131 131 134 91 92 96 91 92 92 92 93 95 94 91 88 95 87 87 94 97 91 87 89 97 85 97 93 96 97 98 95 96 95 93 93 94 95 96 97 94 96 94 94 99 94 89 93 96 94 94 97 99 98 97 98 94 93 94 96 99 101 100 98 102 96 82 94 90 92 97 96 96 97 97 96 95 97 99 102 100 98 96 95 96 96 95 93 85 87 88 88 88 88 89 90 93 91 88 88 91 94 96 96 98 96 94 93 95 96 97 97 98 98 95 99 102 94 92 102 237 251 243 247 244 249 251 250 251 250 248 247 248 250 250 249 250 251 251 249 246 247 250 254 141 90 114 96 103 104 98 94 102 101 100 232 254 250 247 246 249 251 162 123 127 132 90 85 128 135 142 111 6 107 145 145 111 49 111 119 111 86 61 99 117 127 107 112 123 109 132 137 132 135 130 129 136 132 127 133 133 132 132 131 132 133 134 134 134 135 130 127 128 128 117 104 101 127 126 138 129 134 132 131 135 127 119 120 122 119 140 129 124 141 140 139 121 78 36 68 112 108 93 118 92 38 130 128 126 147 114 91 132 119 139 43 87 121 122 114 130 132 125 134 134 129 94 137 136 91 67 117 126 122 120 148 137 109 94 129 122 125 133 154 162 128 151 153 160 141 142 137 69 7 4 45 148 120 146 121 88 130 148 139 144 127 139 109 110 158 136 142 141 141 140 140 140 142 143 144 141 142 143 144 143 142 142 142 141 142 143 143 142 141 142 143 143 142 142 142 144 144 144 143 143 143 143 143 144 144 144 144 145 145 145 145 145 145 145 145 145 145 142 138 139 145 149 151 146 145 147 143 143 148 147 148 146 145 147 146 147 148 148 147 149 149 148 148 127 127 128 129 129 129 128 128 129 128 128 128 128 128 129 129 128 128 128 128 128 128 129 129 130 130 129 128 128 129 129 129 130 129 129 128 128 128 129 129 129 129 129 129 129 129 129 129 130 130 130 130 130 130 130 130 130 130 130 130 130 130 129 129 130 129 130 128 90 93 94 92 90 92 94 95 94 89 86 85 93 93 94 95 91 88 91 96 96 86 98 96 98 99 100 97 94 94 95 95 96 97 97 97 95 94 92 93 97 96 94 96 96 94 94 96 97 97 97 98 99 98 98 98 100 100 99 98 99 94 86 99 96 96 96 94 97 97 98 97 97 96 96 97 97 96 96 97 98 98 95 93 92 91 91 89 88 88 90 92 95 94 93 93 94 94 92 90 93 92 91 90 91 93 94 94 90 92 94 97 97 92 87 91 151 254 242 248 247 242 247 250 252 252 250 248 248 250 249 248 248 250 251 249 247 247 250 253 198 93 104 104 107 105 100 104 100 99 95 145 248 251 250 246 245 253 231 133 123 115 107 125 112 101 116 111 7 83 149 106 60 109 135 123 102 148 113 58 64 97 138 139 132 107 139 129 131 134 132 130 131 133 131 128 132 132 130 131 133 133 133 131 120 126 124 117 110 112 119 123 133 139 132 134 132 132 130 130 133 131 130 128 144 131 125 137 93 120 115 124 106 47 105 125 104 93 65 71 105 101 28 99 160 115 97 141 136 154 84 61 131 116 124 124 103 119 143 131 140 107 112 142 145 147 125 90 95 111 112 108 98 130 121 91 116 89 105 151 142 147 149 134 139 135 142 105 78 5 1 62 161 124 145 140 100 109 126 149 134 151 131 88 136 140 141 140 143 142 141 141 141 142 143 144 142 143 144 144 143 143 142 143 142 143 143 143 142 142 142 143 144 143 143 143 144 145 144 143 143 143 143 143 144 144 144 144 146 146 146 145 145 145 145 145 145 146 144 141 139 138 136 134 146 142 144 144 145 146 144 149 151 149 147 145 148 151 149 145 146 149 150 148 127 127 128 129 129 128 128 128 127 128 128 128 129 129 129 129 129 129 129 129 129 129 128 128 130 130 129 129 129 129 129 129 130 129 129 129 129 129 129 129 129 129 129 129 129 129 129 129 130 130 130 130 130 130 130 130 130 130 130 130 130 130 130 130 131 128 132 120 89 94 91 93 90 90 90 88 85 84 87 91 91 95 95 90 86 88 94 99 95 87 97 98 98 99 100 97 93 93 95 96 97 97 97 96 96 91 91 94 95 98 100 99 98 97 97 98 98 98 99 101 99 99 99 99 99 99 99 99 103 96 88 97 95 95 97 96 97 96 96 96 97 97 96 96 98 97 97 97 97 96 94 91 96 96 95 93 92 92 94 95 96 95 94 94 94 92 90 87 86 87 87 87 87 88 89 90 93 94 99 100 97 96 93 90 89 222 253 242 248 245 248 247 252 252 250 248 248 250 250 248 247 249 250 250 248 247 249 250 241 116 96 105 101 106 103 101 100 99 103 96 186 254 250 250 246 249 251 204 103 101 107 110 116 139 145 91 38 28 87 68 123 127 123 136 129 130 142 142 108 88 100 117 134 117 134 130 136 132 132 131 128 130 135 135 130 133 134 132 128 125 126 127 125 133 137 132 124 123 132 142 138 133 132 129 134 132 129 135 132 129 120 124 124 133 143 133 141 106 99 102 58 113 113 53 67 84 102 114 96 75 30 34 102 103 136 112 146 116 57 145 149 135 146 151 129 121 121 104 101 87 132 132 135 145 147 137 123 112 132 138 89 103 121 104 102 126 119 139 135 141 136 134 113 124 136 117 106 3 0 61 134 131 150 107 98 149 129 117 149 134 149 95 135 146 145 139 144 143 143 142 142 143 143 144 142 143 144 144 143 143 143 143 144 143 143 143 143 144 143 143 145 144 144 144 145 145 145 144 143 143 143 144 144 144 144 144 146 146 146 146 146 146 145 145 147 149 150 149 148 145 141 138 130 126 133 140 146 148 148 156 141 149 155 151 146 144 147 148 146 147 147 148 127 127 128 129 129 129 128 128 127 128 128 129 129 129 128 128 130 130 130 129 129 129 129 129 129 129 129 129 130 130 131 131 130 130 130 129 129 129 130 130 130 130 130 130 130 130 130 130 131 131 131 131 131 131 131 131 130 130 130 130 131 131 131 130 133 129 135 112 86 93 88 94 90 90 88 85 84 85 91 97 94 92 90 88 90 93 96 97 98 89 94 98 97 97 99 94 93 93 93 93 95 95 95 96 97 91 93 96 95 99 103 99 98 99 100 100 99 99 100 102 94 95 97 98 98 98 99 100 106 96 90 95 94 95 96 96 96 95 93 94 96 98 98 98 98 96 94 93 94 94 95 95 95 96 97 98 97 97 96 96 93 92 91 91 91 91 90 90 90 91 93 93 93 94 96 97 99 95 98 97 92 93 96 94 89 148 254 244 242 246 247 247 248 249 249 248 248 250 250 249 247 248 250 250 249 248 248 248 254 164 95 107 102 103 104 99 103 105 105 107 114 223 254 248 248 246 253 249 128 69 124 128 143 87 33 74 122 13 72 141 129 130 143 124 134 124 133 133 136 142 117 80 81 109 129 143 133 128 127 133 136 132 130 135 134 134 133 131 128 127 127 127 132 132 134 136 136 133 132 133 130 132 140 138 135 132 120 127 126 135 135 134 119 122 128 140 116 103 120 110 59 65 80 98 130 135 137 91 78 100 122 93 20 94 125 130 155 45 110 146 137 139 133 133 142 138 135 147 101 94 124 115 138 130 119 129 134 123 98 95 101 118 121 128 105 88 124 144 147 135 112 122 126 127 109 131 98 1 5 42 144 121 134 110 115 146 145 137 129 152 135 120 143 130 137 150 144 143 143 142 143 143 144 144 143 144 144 144 144 143 144 144 144 143 142 143 145 145 145 144 145 145 145 145 145 145 145 145 144 144 144 144 144 145 145 145 146 146 146 146 146 146 145 145 144 145 146 147 148 148 148 147 149 142 145 144 140 136 129 132 156 151 147 148 151 152 150 148 151 146 145 151 127 128 129 129 129 129 128 128 129 129 129 130 129 129 128 128 130 130 130 130 130 129 129 129 129 129 130 130 130 131 131 131 131 131 131 131 131 131 131 131 131 131 131 131 131 131 131 131 132 132 132 132 132 132 132 132 130 131 131 131 131 132 132 131 131 131 135 104 87 92 89 96 91 92 94 94 95 94 93 93 95 90 89 94 97 97 97 98 101 91 90 98 96 98 99 94 96 94 93 91 92 93 95 97 96 93 96 99 96 99 101 95 96 98 100 99 98 98 99 99 94 96 98 99 99 99 99 99 100 90 92 97 99 96 94 92 96 95 94 95 97 97 97 95 91 91 90 91 92 95 97 98 94 95 96 97 97 96 95 94 92 92 91 91 92 93 94 94 92 94 96 97 97 97 99 101 104 95 96 98 92 92 97 99 97 96 211 254 240 239 244 246 246 248 249 248 248 249 250 248 248 249 250 250 250 249 247 246 254 217 103 108 111 100 105 108 105 107 96 110 96 146 248 251 244 243 247 253 231 135 126 135 137 49 21 125 137 18 101 142 138 132 134 135 137 138 126 135 128 135 141 139 125 103 92 115 142 144 133 127 134 133 129 136 137 131 127 128 134 137 135 132 139 135 133 135 136 136 134 134 132 136 135 131 119 125 111 119 135 113 119 91 81 106 123 110 75 122 66 21 78 129 96 139 120 80 57 76 125 136 122 136 105 21 123 172 60 69 154 137 134 136 138 139 140 140 138 138 134 137 155 140 135 127 130 134 122 130 125 113 105 127 137 132 138 94 68 68 88 85 111 126 122 111 87 124 80 1 6 35 140 150 128 102 147 145 144 142 132 135 99 128 145 138 135 139 143 143 142 142 143 144 144 145 144 144 145 144 144 144 144 145 144 143 143 144 146 147 146 145 145 145 145 145 145 145 145 145 144 144 145 145 145 145 146 146 146 146 146 146 146 146 145 145 146 146 145 146 146 146 147 148 147 145 149 145 144 146 140 140 139 134 136 145 150 147 147 150 150 148 147 148 128 129 129 130 130 130 129 129 130 130 130 130 130 129 129 129 131 131 130 130 130 130 130 130 130 131 131 131 131 130 130 130 130 131 132 132 132 132 132 132 132 132 132 132 132 132 132 132 132 132 132 132 132 132 132 132 131 131 132 132 132 132 132 132 130 133 131 95 90 92 92 96 92 92 93 94 98 97 96 94 90 89 92 98 98 94 94 99 101 92 87 99 96 98 101 97 97 96 93 91 92 94 96 97 95 96 99 100 97 97 97 94 97 99 100 99 99 99 99 98 99 100 100 100 100 99 98 97 99 86 91 92 97 96 96 96 95 96 97 98 97 95 92 89 90 90 91 92 93 93 93 93 95 94 93 92 93 93 93 93 94 95 96 97 97 97 97 97 94 95 96 96 97 97 98 99 101 95 96 99 96 94 96 100 96 92 127 252 251 243 244 240 246 248 249 248 248 248 248 247 250 250 250 250 251 250 248 247 250 254 136 95 106 105 109 108 101 101 101 94 102 101 177 254 250 249 248 249 252 209 113 108 28 15 88 145 143 25 65 151 129 136 125 139 135 134 133 136 144 126 134 135 142 133 119 93 98 124 131 120 120 125 128 133 130 131 132 131 130 131 133 135 131 134 137 136 133 133 136 139 132 141 138 145 134 134 105 97 101 125 115 85 88 62 91 81 74 44 44 88 96 92 121 83 62 88 118 156 149 133 142 136 154 105 34 73 50 136 137 136 136 137 139 136 133 138 144 140 144 142 137 137 132 138 143 139 139 142 138 141 143 133 118 122 107 116 155 138 104 102 97 106 134 123 134 159 98 4 1 60 161 117 139 121 131 140 142 130 141 125 82 122 155 146 144 134 142 142 143 143 144 144 145 145 145 145 145 145 144 144 145 146 145 144 144 145 146 147 147 147 145 146 146 146 145 145 145 146 145 146 146 146 146 146 147 147 147 147 147 146 146 146 146 146 151 150 149 150 150 148 148 148 148 149 152 148 147 152 148 148 141 139 138 134 126 123 139 157 148 156 156 149 129 129 130 130 131 130 130 130 131 130 130 130 130 130 130 130 130 130 131 131 131 131 131 131 131 131 131 131 131 131 130 130 130 130 131 132 132 132 131 131 131 131 131 131 131 131 131 131 132 132 132 132 132 132 132 132 132 132 132 132 132 132 132 131 130 134 124 87 93 92 96 92 92 91 90 91 93 95 94 93 87 91 95 97 95 93 93 95 98 93 88 102 95 95 100 97 95 94 94 93 94 94 95 95 95 100 101 97 96 95 95 97 99 100 99 98 99 100 100 98 100 99 97 97 97 98 97 96 102 86 90 87 94 94 96 99 94 95 96 96 94 92 91 90 92 92 92 92 91 91 91 91 95 94 92 92 93 93 93 93 97 97 97 97 96 97 98 98 101 100 100 99 100 100 100 99 91 93 93 93 94 93 92 94 97 97 80 186 254 251 249 242 245 248 250 249 248 248 248 247 251 250 249 250 251 252 251 250 244 254 191 92 100 111 111 102 99 99 108 93 97 101 107 220 253 238 247 243 253 252 159 41 23 36 144 140 135 67 43 131 141 145 133 127 126 119 139 137 135 134 138 128 129 135 139 116 85 105 129 135 131 138 143 135 125 132 137 136 131 126 128 131 130 135 138 136 135 136 137 135 136 131 113 116 114 115 106 101 131 102 81 105 79 53 83 51 52 113 120 139 145 137 77 84 140 134 145 128 123 129 136 137 135 147 120 14 96 160 126 146 139 142 141 138 139 139 138 138 135 142 136 145 145 145 133 139 149 138 140 144 142 144 149 143 143 152 129 131 143 134 119 131 108 109 140 151 81 3 2 96 144 124 155 116 113 139 134 145 147 89 140 138 119 148 146 148 144 144 144 144 144 145 145 145 145 146 145 145 144 144 145 146 146 146 146 146 146 146 146 147 146 147 148 147 146 145 146 147 146 147 147 147 147 147 148 148 148 148 148 148 147 147 147 147 147 146 147 149 149 147 146 147 148 146 149 148 149 153 149 153 151 153 155 156 153 144 130 120 137 145 151 150 129 130 130 131 131 131 130 130 131 130 130 130 130 131 131 132 130 130 130 131 131 131 131 132 129 130 131 131 132 132 132 131 130 131 131 132 132 132 131 131 131 131 131 131 131 131 131 131 133 133 133 133 133 133 133 133 133 133 133 132 132 132 132 132 132 136 117 84 96 92 97 87 91 93 95 97 96 93 88 84 90 95 96 94 95 98 96 92 95 94 89 104 93 91 97 95 91 92 93 94 95 95 94 93 95 103 100 94 95 94 95 101 98 98 97 95 96 99 98 96 97 94 91 91 94 96 97 97 100 85 93 90 97 95 93 94 92 92 92 91 90 91 94 96 91 91 90 89 90 92 94 96 92 92 94 96 97 97 95 93 99 97 94 92 91 94 97 100 99 97 95 94 95 94 93 92 91 99 97 93 97 99 96 98 99 91 86 115 244 246 249 252 244 247 250 249 249 250 250 249 252 250 249 250 252 253 253 252 250 246 236 112 108 112 106 108 103 107 97 102 95 104 90 145 249 253 246 251 241 254 241 65 11 122 147 132 148 95 12 139 135 121 119 133 136 125 127 138 131 139 127 136 135 134 129 137 156 118 108 113 108 120 129 113 130 129 131 136 141 139 129 123 122 118 110 107 113 120 116 106 105 107 104 122 137 132 133 131 130 81 94 119 71 138 112 53 115 141 131 126 138 102 110 133 127 129 123 113 117 138 125 122 140 138 153 88 22 135 149 133 142 135 139 143 137 140 144 138 138 141 140 139 134 144 139 142 136 148 142 134 143 140 134 140 140 141 145 143 143 151 150 138 97 119 136 135 49 9 11 67 99 145 133 117 140 144 128 121 133 104 149 135 117 141 142 146 145 145 145 145 145 145 145 145 146 146 146 145 144 145 146 147 146 148 148 147 146 145 145 146 147 148 149 148 147 146 147 148 147 147 147 148 148 148 148 148 149 149 149 149 148 148 148 148 150 149 149 150 150 149 149 151 155 147 149 151 151 148 146 152 148 151 148 144 148 156 154 146 103 107 120 135 130 130 131 132 132 132 132 131 130 131 131 131 131 131 130 130 132 131 131 131 133 134 133 131 131 132 132 131 132 135 134 132 132 132 131 131 131 132 132 133 133 133 133 133 133 132 132 132 134 133 133 132 132 133 133 134 132 132 133 134 134 134 133 132 132 135 108 86 95 98 87 89 96 96 97 97 95 90 88 88 94 93 93 94 96 96 95 94 95 96 86 99 93 95 97 95 92 96 96 93 95 98 96 90 98 99 97 95 96 99 102 102 102 100 100 102 101 98 95 95 95 95 96 96 96 98 101 102 101 87 90 91 88 92 92 92 92 92 93 94 95 94 91 88 84 89 92 92 93 95 93 89 93 91 95 100 97 93 95 96 94 94 94 94 94 95 97 97 96 94 99 96 95 96 92 95 95 97 99 97 95 95 93 91 93 95 93 90 172 254 251 251 252 244 251 252 248 254 254 247 248 247 248 250 250 248 250 252 250 250 254 159 98 111 110 109 101 100 98 98 101 102 96 88 182 254 242 248 252 245 254 211 78 136 148 134 142 114 13 118 146 97 131 122 108 136 145 134 139 134 139 133 132 134 135 136 131 139 136 115 107 101 112 132 141 128 137 136 127 145 131 135 133 132 128 138 143 129 139 131 119 109 151 141 137 144 127 127 88 130 131 67 114 88 83 151 137 133 143 149 114 86 147 141 137 136 135 134 135 135 136 137 140 132 142 152 44 33 147 144 139 142 134 140 139 140 138 144 139 139 139 140 141 141 142 142 139 139 138 140 141 143 142 139 139 146 146 134 130 144 142 117 150 119 105 119 20 2 9 106 106 121 126 96 109 131 118 143 131 97 144 144 143 125 140 135 141 143 145 147 147 146 145 144 147 147 147 147 146 146 146 146 147 148 148 148 147 147 147 148 149 149 149 149 149 149 149 149 151 149 148 147 148 148 149 149 150 150 149 149 149 150 151 151 150 150 150 150 151 151 151 151 146 150 151 149 150 151 151 150 152 152 146 155 153 148 155 151 163 145 116 103 130 131 131 131 132 132 132 132 131 131 132 132 132 132 131 130 132 132 132 132 133 133 132 131 132 133 132 131 132 134 134 131 133 133 132 132 132 133 133 134 133 133 132 132 132 132 133 133 134 133 133 133 133 133 133 134 135 134 134 134 135 135 134 133 132 131 100 85 93 98 91 96 98 97 95 94 92 90 90 92 96 95 94 94 95 96 96 96 94 95 86 94 95 95 98 98 97 97 95 91 92 96 97 96 99 100 99 97 98 100 101 100 100 98 98 99 99 97 96 96 95 95 96 96 96 98 100 101 99 86 89 91 89 94 94 94 93 92 91 90 90 89 88 87 89 90 92 94 95 95 94 94 86 84 85 87 87 92 95 93 91 92 93 93 93 92 91 90 94 95 101 97 92 93 91 97 92 92 92 88 87 89 91 91 90 90 96 91 111 236 245 249 254 247 244 249 253 247 251 248 248 247 248 249 249 248 249 252 248 250 254 213 108 108 107 110 104 104 104 105 105 106 102 98 100 225 254 242 245 250 245 253 216 126 131 144 143 127 19 75 131 93 88 62 112 129 114 151 129 129 134 141 128 144 139 135 139 135 137 145 129 103 138 137 133 144 130 127 141 142 131 139 134 147 138 131 137 126 127 140 142 127 116 131 91 107 90 79 97 104 77 82 66 102 149 131 124 133 132 157 90 135 141 137 139 140 139 139 139 139 140 139 139 140 133 146 119 13 104 154 136 141 142 142 138 140 140 142 140 140 140 140 141 141 142 142 140 141 142 142 142 141 142 141 144 140 136 141 144 122 108 126 147 134 159 115 4 13 19 132 146 140 107 101 134 134 153 155 116 120 155 141 146 131 141 145 137 139 142 145 146 147 148 148 147 147 147 147 146 146 146 146 147 148 148 148 147 147 147 148 148 148 148 149 149 149 149 149 150 149 149 148 148 148 149 149 151 150 150 150 150 150 150 151 150 150 150 150 150 150 150 150 154 150 150 153 153 149 148 150 147 152 149 152 153 150 152 146 144 152 145 132 131 131 131 131 132 132 132 133 132 132 133 133 133 132 132 131 133 133 134 133 133 132 132 132 133 134 133 132 133 134 133 132 134 134 134 134 134 134 134 135 134 133 132 131 131 132 133 134 134 134 134 133 133 134 134 134 135 135 134 134 133 134 134 134 137 128 92 88 91 93 91 96 96 95 93 91 90 90 92 95 97 96 96 96 97 97 96 95 95 96 89 88 98 94 98 99 94 94 94 95 96 97 97 98 100 101 101 100 99 100 100 98 97 96 95 96 96 96 96 97 95 95 96 96 96 97 99 100 99 87 92 96 94 95 91 87 84 85 86 87 88 89 90 91 94 91 92 97 97 94 94 98 87 85 85 84 86 95 98 92 86 88 91 93 93 91 89 87 96 90 91 89 91 94 88 87 82 85 88 89 90 92 92 91 90 98 96 96 86 166 254 246 251 253 249 248 254 244 250 247 248 248 248 249 249 248 249 251 251 251 248 252 131 100 111 109 107 109 110 108 105 103 99 97 88 140 254 234 249 243 245 252 252 175 124 139 138 150 58 18 84 143 137 136 92 121 116 105 125 133 140 131 136 136 134 138 133 134 125 127 125 142 120 128 131 132 134 134 140 126 142 128 130 134 140 138 139 112 107 131 113 117 101 105 75 103 109 104 86 82 83 57 112 143 137 125 141 134 130 92 105 141 141 144 139 140 142 141 142 141 140 140 142 136 141 135 155 74 32 145 145 136 140 137 138 145 144 136 141 141 141 141 142 141 142 142 142 143 145 145 143 142 141 142 143 141 151 147 136 127 109 103 113 152 159 94 1 2 78 139 131 126 115 132 154 144 147 143 113 124 147 144 150 132 136 142 141 143 145 146 146 146 147 147 148 148 147 147 147 147 146 146 147 148 148 148 147 147 148 148 148 148 148 149 149 149 150 150 149 150 150 149 148 147 149 150 151 151 151 151 150 150 150 150 150 150 150 150 150 150 150 150 149 147 147 148 148 152 155 152 150 157 153 149 151 150 152 148 140 145 143 143 133 132 132 132 132 132 133 133 132 133 133 133 133 133 132 132 132 134 135 134 133 132 133 134 134 134 134 133 134 134 134 133 135 134 134 134 134 134 135 135 133 133 133 133 133 133 134 135 134 134 134 134 134 134 134 134 135 135 135 134 134 133 134 134 140 122 87 93 90 88 91 93 93 94 93 93 93 93 95 97 96 97 98 99 99 97 94 92 98 99 94 83 99 92 96 98 94 93 95 97 98 95 95 97 100 101 100 99 98 98 97 97 96 95 94 94 95 96 97 98 95 96 97 97 97 98 98 99 94 81 85 86 85 88 85 80 79 82 87 90 92 93 95 96 95 93 94 96 97 95 95 97 94 91 91 91 91 95 95 88 89 90 92 93 93 92 89 88 94 87 87 87 92 95 87 84 86 89 93 96 97 97 95 94 96 104 93 104 98 101 228 251 245 248 254 248 251 247 253 248 248 248 249 249 248 248 249 250 250 250 248 254 178 97 113 104 107 108 108 106 103 100 96 96 105 85 178 254 244 246 249 244 249 242 149 125 144 148 91 20 143 139 141 148 127 80 145 125 112 138 138 148 129 133 111 130 152 145 135 122 111 116 139 119 151 134 113 127 136 141 132 140 142 137 131 136 119 142 101 74 98 98 126 127 88 85 87 94 105 96 55 134 154 139 121 136 131 125 118 86 151 149 134 136 139 140 141 141 140 139 140 139 136 148 136 139 150 136 23 92 153 141 142 141 137 139 146 144 142 142 142 141 142 142 141 141 142 143 143 144 143 143 142 142 139 136 141 123 119 145 141 121 110 102 154 68 1 4 96 171 113 119 126 148 139 144 135 140 127 129 145 151 147 137 148 145 148 148 149 148 147 146 146 146 148 148 148 148 147 147 147 147 148 148 149 148 148 147 148 148 148 148 148 149 149 150 150 151 148 150 151 150 148 147 149 151 150 150 151 151 151 151 151 151 150 151 151 151 151 151 151 151 151 150 153 153 149 148 150 146 143 152 153 153 155 153 153 156 158 154 151 153 134 133 133 132 132 132 133 133 132 132 133 133 133 133 132 131 132 134 135 135 134 133 134 135 134 134 134 135 134 134 134 135 135 135 136 136 136 135 135 135 134 135 136 136 136 136 136 136 135 135 135 135 135 135 135 135 136 137 138 138 137 136 136 135 141 111 85 95 89 87 95 96 94 96 95 95 95 97 99 100 95 96 97 97 97 96 96 95 100 99 98 81 99 92 96 97 99 95 94 94 93 91 94 100 100 99 98 97 96 95 95 96 97 96 95 94 95 97 98 98 96 97 98 98 98 98 99 100 95 81 81 79 79 88 91 91 85 88 92 94 94 95 96 96 93 96 97 95 95 97 96 94 95 91 92 95 91 88 88 87 96 96 95 94 93 91 90 90 92 93 100 97 95 95 92 96 101 101 99 98 98 97 97 98 101 99 97 106 100 95 150 252 249 239 254 249 246 250 252 247 248 248 249 248 248 249 250 250 247 250 253 253 232 111 103 104 106 105 105 105 105 103 102 100 97 96 98 226 253 240 248 252 249 253 216 135 137 146 108 17 103 145 138 138 135 106 122 146 131 116 129 137 154 149 111 56 95 79 84 123 113 100 114 122 101 102 137 122 129 141 140 137 137 132 146 128 104 116 123 135 111 64 90 113 91 116 122 90 90 63 116 151 135 121 121 119 141 133 101 110 146 141 143 142 140 141 141 141 140 140 140 141 140 138 146 141 139 153 64 42 158 149 141 146 145 142 144 143 143 143 143 143 142 142 142 142 142 142 141 142 142 142 141 139 142 138 131 128 145 153 145 155 126 109 117 32 8 12 140 142 131 129 122 150 139 143 148 148 121 138 150 142 135 142 158 152 148 148 148 148 148 148 148 149 149 149 148 148 148 148 147 147 148 148 149 149 148 148 148 149 148 148 149 149 150 150 151 151 148 150 151 150 148 148 149 151 150 150 150 151 151 152 152 152 151 151 151 152 152 152 152 152 149 148 153 159 155 149 148 151 156 153 151 150 147 145 147 157 146 153 156 150 134 134 133 133 133 133 133 133 132 133 133 134 133 133 132 132 133 134 135 135 135 135 135 135 135 134 135 136 135 134 135 136 135 136 136 136 136 135 135 135 135 136 137 138 138 137 136 135 135 135 136 136 136 136 135 135 135 136 138 139 137 136 136 135 142 101 88 94 88 86 96 98 95 96 94 91 91 94 98 100 95 95 94 93 94 95 98 100 98 96 98 82 97 95 97 96 91 91 93 95 95 94 97 103 100 98 96 95 95 94 95 97 97 97 96 96 97 99 99 98 97 98 98 98 98 99 100 101 94 84 88 88 87 94 95 93 89 90 90 91 91 93 95 96 93 97 98 95 95 97 97 93 96 91 92 95 90 87 91 94 96 95 94 94 94 95 96 97 97 97 104 102 100 101 98 101 101 101 101 101 101 99 98 99 101 101 101 97 101 102 101 213 254 243 246 252 248 249 246 244 247 248 249 248 248 249 250 250 248 251 248 251 253 147 93 112 109 106 105 106 107 106 104 103 100 98 90 136 248 247 248 247 244 247 254 193 120 151 137 9 75 147 132 135 142 134 118 113 153 129 97 112 119 86 47 79 113 121 90 95 75 123 99 112 112 77 111 101 109 127 140 127 127 130 134 96 104 112 102 91 84 90 106 113 123 103 112 119 126 102 114 119 124 137 140 148 127 141 104 133 149 134 141 141 141 140 140 140 139 139 139 141 140 142 137 143 144 150 115 12 122 151 141 148 143 137 139 138 144 144 144 144 143 143 143 143 144 143 141 142 142 142 139 137 133 137 140 146 150 145 139 140 146 149 117 2 2 57 160 109 149 121 140 150 154 149 145 150 108 130 141 133 146 147 145 148 146 147 148 148 147 147 148 149 149 149 149 149 148 148 148 148 148 149 149 149 148 148 148 149 149 149 149 149 150 150 150 151 149 150 151 150 149 149 150 151 150 150 150 150 151 151 151 151 152 152 152 152 152 152 152 152 151 157 150 138 144 154 153 148 155 144 151 157 154 151 149 153 157 151 153 157 134 134 134 134 134 133 133 133 133 134 134 134 134 134 133 133 135 135 135 135 136 136 135 134 136 135 136 137 136 134 134 137 135 135 135 136 135 135 134 134 135 135 136 136 136 136 135 136 136 136 136 137 137 136 136 136 134 136 137 137 136 136 136 137 135 85 91 93 88 86 95 97 95 96 94 91 90 92 94 93 97 96 95 94 93 94 97 99 96 92 97 83 92 96 97 94 86 91 96 98 98 97 98 100 100 97 96 96 96 95 96 98 96 97 98 97 98 100 100 98 97 97 97 97 98 99 100 102 88 83 91 93 90 93 91 86 89 89 88 90 92 94 96 96 95 95 95 94 93 94 94 93 96 93 95 95 91 92 97 99 94 94 95 96 97 99 100 101 102 97 99 98 101 104 99 98 95 97 99 103 104 101 98 99 98 105 100 95 103 101 98 144 237 254 241 253 250 247 246 245 246 248 248 247 248 250 251 251 250 250 247 250 250 204 102 112 111 108 107 108 108 105 104 104 106 87 93 92 175 253 249 248 252 247 247 248 160 135 138 30 83 154 145 148 134 151 135 96 102 79 88 66 65 86 127 121 109 115 116 140 123 104 102 74 85 133 113 103 80 107 102 109 119 95 68 92 106 136 118 129 135 91 91 89 87 73 107 133 80 131 152 150 139 143 134 119 115 135 98 146 142 146 139 151 141 142 141 141 140 139 141 142 145 137 147 143 142 160 77 7 49 145 147 145 126 125 139 148 144 144 144 144 143 144 144 144 143 143 143 143 143 142 141 140 140 146 148 149 138 141 159 145 148 157 104 11 3 91 145 139 147 118 153 145 147 150 138 157 119 125 142 139 156 152 143 147 147 148 148 148 148 147 147 148 150 150 149 149 149 149 148 148 148 149 149 149 148 148 149 149 149 149 150 150 150 150 150 150 149 149 150 150 150 150 150 150 151 151 150 150 150 150 150 150 153 153 153 152 152 151 151 151 148 160 151 149 183 215 218 213 184 155 148 147 152 176 197 207 203 182 181 197 134 134 135 135 135 135 134 133 135 135 136 135 135 134 134 134 137 135 135 136 137 137 136 134 138 137 137 137 136 133 134 136 136 136 137 136 136 135 136 134 136 136 136 135 135 135 135 136 136 136 137 137 137 137 136 136 136 137 139 138 137 137 139 141 120 69 90 93 92 89 96 96 96 99 98 96 94 94 93 91 97 98 99 98 96 94 94 94 95 90 97 84 89 96 96 91 96 99 100 96 93 92 95 98 100 97 96 98 97 96 97 99 94 97 98 98 99 101 101 98 96 97 97 96 97 98 100 102 93 87 94 93 90 97 99 97 93 92 93 95 97 98 97 95 96 92 91 92 92 89 90 94 93 94 96 93 90 94 98 94 97 98 99 99 100 99 99 98 99 98 101 98 96 98 96 101 102 101 99 99 99 97 98 101 95 101 97 102 95 109 97 94 193 254 237 248 249 248 254 250 245 247 248 247 247 250 251 251 247 247 251 254 250 254 121 101 109 108 107 109 109 107 107 109 106 103 101 100 106 227 250 249 244 250 249 253 231 122 101 19 66 119 111 102 100 122 64 67 44 73 115 121 136 134 137 135 143 140 123 111 135 154 150 141 85 97 89 118 97 33 80 132 124 90 107 109 111 90 100 95 48 79 85 89 125 150 70 69 135 146 129 125 124 125 127 136 145 121 112 149 138 140 141 136 145 145 145 146 143 143 144 145 142 150 143 153 151 126 21 4 16 134 128 126 125 143 152 140 142 143 143 144 144 145 144 145 141 143 145 145 144 143 144 146 136 139 125 137 137 114 125 137 130 137 49 3 11 126 135 147 132 133 148 151 144 147 151 152 133 131 158 138 134 145 155 150 145 146 148 149 150 150 151 151 150 150 150 149 149 149 149 148 148 149 149 149 149 148 149 149 150 150 150 150 150 150 150 150 150 149 149 150 151 151 150 150 153 152 150 149 149 148 149 149 154 154 153 152 151 150 150 149 156 151 145 172 220 231 222 228 211 180 177 177 181 208 221 218 208 201 207 218 133 137 133 134 133 133 140 136 140 134 134 134 133 133 137 136 132 131 130 130 127 125 125 128 127 131 126 131 124 123 141 135 133 140 137 134 135 139 142 136 134 137 138 137 136 137 138 137 138 139 138 138 138 139 139 139 139 136 140 135 137 134 138 144 117 76 91 91 89 89 90 97 97 95 96 96 93 90 94 102 100 98 96 95 95 96 95 95 98 90 95 86 83 96 99 96 98 96 92 94 85 95 97 94 96 93 91 91 95 98 100 101 96 96 96 98 99 99 97 96 98 99 96 97 96 99 105 98 85 92 95 94 93 91 92 98 90 94 97 97 95 93 94 94 92 92 93 95 94 92 91 91 96 93 90 91 94 97 98 98 101 97 95 96 97 97 98 100 96 99 100 98 97 97 98 97 98 101 100 98 100 100 99 102 99 98 99 102 102 101 100 100 123 243 253 245 249 248 252 252 245 249 251 249 247 248 250 251 246 253 242 252 251 254 174 92 110 106 108 107 103 113 113 105 106 99 99 99 101 127 246 249 251 247 251 247 253 179 84 27 45 135 89 89 91 44 85 140 126 121 139 133 111 102 131 141 134 142 141 127 114 114 120 124 130 135 120 84 47 82 97 74 56 92 97 85 92 98 95 89 118 113 128 154 141 96 97 143 142 138 126 137 127 139 144 148 149 116 118 145 147 143 142 135 119 133 136 130 137 144 127 136 150 106 67 85 122 36 16 17 84 159 121 140 155 138 145 145 145 147 139 150 142 142 143 148 145 145 145 145 146 146 146 145 146 154 134 128 132 132 131 105 143 147 18 1 32 135 152 153 121 140 147 147 148 143 143 156 122 132 147 141 148 132 140 148 146 155 150 145 147 150 151 151 146 151 148 150 153 142 144 153 151 153 146 153 152 149 153 148 149 151 152 152 152 151 151 152 153 150 149 152 154 153 151 150 148 147 147 156 171 184 185 179 158 148 152 158 172 183 171 156 150 150 185 218 221 214 214 221 224 219 219 211 189 176 177 180 189 198 202 195 137 138 137 135 143 142 131 135 131 143 139 140 129 148 136 119 135 162 168 150 154 181 186 168 178 155 154 197 205 165 140 119 131 131 128 134 138 137 141 140 141 142 142 138 136 137 139 140 138 138 138 139 139 140 139 139 139 136 140 135 137 135 140 143 107 79 90 92 90 88 91 97 94 97 98 96 95 96 99 101 95 95 95 95 94 94 94 95 96 93 98 92 83 94 94 92 92 89 89 87 88 93 97 94 96 97 98 99 99 98 96 94 103 100 96 93 93 94 95 96 94 97 96 96 94 96 103 98 85 89 90 91 95 94 91 91 95 96 97 97 97 96 96 96 97 98 100 100 97 94 94 95 91 93 95 97 99 100 100 101 100 97 95 96 97 97 98 99 99 100 100 98 99 101 100 99 97 102 100 97 98 99 98 99 104 102 100 102 102 100 99 98 95 149 254 235 254 254 243 250 253 250 247 247 252 254 253 248 251 246 252 250 247 254 221 107 105 116 109 105 106 106 108 102 101 104 104 100 97 93 166 254 242 244 250 244 252 253 164 84 55 75 131 148 84 61 142 141 139 122 126 123 117 118 138 142 142 133 138 149 138 113 106 119 140 139 149 145 130 113 138 125 113 109 83 93 79 113 105 135 132 122 143 135 94 113 153 144 137 148 140 147 143 146 137 127 128 103 161 138 140 146 142 152 151 130 132 112 112 114 130 78 76 96 86 23 61 17 9 65 158 127 138 147 140 148 146 142 137 145 151 141 143 153 143 143 146 145 145 145 146 146 147 145 149 133 149 138 139 142 102 104 112 75 14 9 17 123 156 151 121 144 152 147 150 150 148 151 112 130 137 159 151 156 150 134 147 154 142 155 164 142 151 151 148 152 144 144 153 152 150 147 148 153 152 153 154 149 156 151 150 151 153 153 152 151 151 151 153 152 152 154 155 153 150 151 157 167 184 202 217 222 218 211 197 188 206 212 203 215 211 184 148 168 202 207 193 191 200 211 207 203 199 190 173 159 158 159 152 159 161 157 135 132 139 134 133 137 133 145 137 138 131 136 145 123 133 186 214 233 238 223 221 235 237 224 226 234 232 237 232 223 214 189 178 166 152 154 146 133 136 139 133 137 138 136 135 136 137 137 138 139 139 140 140 139 139 139 139 137 140 136 138 138 143 139 94 85 90 93 93 87 92 96 91 96 97 93 94 97 98 96 92 94 96 95 94 93 94 95 93 94 97 95 79 91 90 91 96 94 95 89 98 95 98 97 98 99 99 97 95 93 94 95 98 96 94 92 92 94 96 99 93 97 96 97 94 95 103 98 87 91 91 93 97 96 93 94 98 97 96 96 97 97 97 97 96 97 98 98 93 89 89 92 89 93 97 98 96 94 95 96 97 95 95 97 98 99 100 101 98 97 95 95 96 99 99 97 96 102 101 99 101 103 102 102 103 97 92 90 93 96 100 102 98 95 229 253 247 254 247 250 253 252 250 248 249 250 249 247 252 245 252 247 246 251 254 145 96 118 110 104 109 104 108 105 108 111 110 105 103 89 101 214 254 252 248 248 244 251 245 127 9 93 111 110 44 131 140 132 99 103 124 139 144 140 141 137 141 143 139 135 142 147 136 117 110 128 129 130 134 134 148 134 145 130 119 134 95 98 118 118 122 131 102 85 122 149 141 135 140 145 132 139 145 139 137 141 123 97 159 143 135 128 136 133 138 135 165 147 151 137 75 89 133 149 159 51 33 63 35 151 151 126 146 144 154 146 136 148 161 125 135 152 141 138 150 143 146 146 146 146 148 148 146 145 149 140 146 147 149 142 119 122 137 71 2 4 82 152 130 122 135 149 149 141 145 148 149 152 116 146 158 141 144 152 153 154 149 147 155 147 135 148 132 147 150 158 151 149 150 151 152 150 153 153 152 149 154 149 155 150 152 152 153 153 152 151 151 151 150 151 152 154 154 155 158 162 219 224 227 226 222 219 217 216 224 222 226 218 204 193 175 160 151 158 167 161 160 167 165 162 162 163 161 160 157 151 152 158 156 158 159 158 136 129 135 138 134 138 139 131 135 128 137 136 129 154 204 227 224 222 226 233 228 216 215 225 233 246 237 213 194 203 230 238 225 210 191 181 163 139 136 140 142 142 141 139 138 140 140 140 138 139 139 140 140 139 139 139 139 137 139 136 139 139 145 132 83 90 90 94 93 86 92 93 91 94 95 94 94 95 94 91 95 96 96 96 95 94 94 95 93 96 94 96 78 92 94 96 92 92 91 88 97 93 92 94 97 97 97 95 94 94 96 98 89 92 95 97 97 96 97 97 95 99 98 98 95 97 102 96 88 95 97 96 95 93 95 101 97 96 95 95 96 96 95 96 97 97 97 96 93 90 90 92 93 95 97 96 93 92 94 96 98 98 97 98 99 99 99 100 99 99 98 98 99 100 100 99 98 99 99 100 102 99 98 102 98 93 89 89 92 97 101 102 107 100 157 254 238 242 254 246 251 254 254 251 249 249 251 253 250 252 245 250 248 249 254 200 99 108 114 107 110 109 110 109 108 108 109 106 103 104 88 134 248 245 254 244 244 247 254 202 35 52 111 46 85 106 94 97 113 118 124 126 127 125 134 144 139 141 141 139 138 143 146 149 138 92 131 121 144 142 147 130 135 146 146 110 121 119 117 145 134 105 108 143 153 146 142 144 137 148 141 135 138 141 150 145 113 129 138 138 155 150 140 137 125 143 121 115 134 96 113 151 135 139 90 5 56 42 73 129 141 102 157 150 136 153 144 120 125 145 108 153 149 150 139 150 145 145 146 148 147 146 146 146 145 157 142 148 151 144 154 144 128 55 5 1 87 146 139 119 156 153 147 146 148 147 149 158 128 125 158 146 154 147 149 142 157 152 162 152 119 139 163 155 139 149 149 154 150 149 150 151 151 151 151 153 153 149 151 152 152 153 153 153 152 152 152 152 152 153 152 152 153 157 166 173 205 209 213 212 210 211 214 217 209 201 195 189 183 168 151 153 158 155 152 149 154 157 151 154 152 154 152 154 158 155 154 160 156 155 156 157 125 139 129 129 132 130 141 139 149 165 153 154 145 219 226 199 206 208 216 224 223 219 221 227 239 233 213 197 188 186 191 192 190 189 184 180 167 153 155 155 164 157 149 140 138 141 141 140 139 139 139 140 139 139 138 139 139 138 139 137 139 139 145 121 75 92 89 94 93 87 93 93 95 94 95 97 98 94 94 95 99 97 95 94 94 95 94 93 95 97 93 99 84 96 98 98 86 90 85 91 94 95 90 97 95 97 99 100 101 99 97 95 93 96 98 99 97 96 95 95 99 100 97 98 97 98 100 91 87 94 97 96 95 92 93 98 96 95 96 98 98 95 95 97 96 94 93 94 94 93 92 93 97 98 98 98 98 99 101 103 101 101 101 100 99 98 97 97 98 99 100 100 99 98 98 99 101 97 95 99 99 89 86 94 98 98 99 100 102 102 99 95 95 104 96 213 254 243 254 248 250 250 249 248 249 251 251 248 247 253 248 253 248 250 250 243 127 97 118 112 106 113 110 107 106 109 108 108 100 105 102 92 174 247 248 238 254 254 246 254 133 3 46 79 162 140 129 155 147 148 144 143 144 143 139 142 141 139 142 147 140 132 136 148 149 145 102 129 145 137 145 128 121 142 104 113 149 147 120 114 112 136 151 145 136 141 145 140 145 137 139 147 150 145 130 108 147 128 133 154 142 143 138 126 154 112 113 97 71 143 159 139 156 120 11 12 23 36 81 121 77 110 118 130 151 150 151 145 121 140 112 131 153 143 145 146 143 147 149 148 146 145 146 148 144 148 153 143 145 153 147 151 149 24 2 23 122 150 136 126 153 150 147 150 152 148 147 153 137 136 130 142 155 141 155 155 150 150 121 67 80 76 97 125 138 142 131 133 131 146 155 153 154 152 153 158 153 152 150 155 153 153 152 153 153 153 153 153 155 157 156 154 154 159 167 173 176 175 173 169 168 166 165 165 164 148 155 157 148 153 158 155 159 155 158 158 158 157 153 162 158 161 157 156 161 156 152 156 159 157 157 159 173 207 180 177 193 176 177 185 187 206 181 184 198 218 193 198 191 201 210 210 211 216 218 216 203 199 186 181 194 203 194 181 188 196 192 181 170 166 172 174 177 170 162 154 149 146 142 136 141 140 140 140 139 139 139 140 139 140 139 137 140 139 143 111 76 91 89 95 92 91 95 95 95 93 94 98 98 94 95 99 99 96 94 93 93 94 93 92 92 95 91 100 88 95 97 92 92 94 91 100 96 98 93 101 99 98 97 96 97 96 95 95 101 99 98 95 94 95 96 98 98 99 96 97 97 97 98 87 90 93 94 96 99 96 92 92 96 96 98 101 100 97 97 100 95 92 91 92 95 95 94 95 99 98 99 99 100 100 100 99 98 99 100 99 99 100 101 100 98 98 100 100 98 95 95 97 101 96 94 98 98 89 86 95 97 98 98 97 97 98 97 94 88 89 82 118 246 249 236 247 249 252 253 250 247 246 246 247 246 243 254 250 244 249 254 254 169 95 115 113 106 114 111 108 113 113 100 106 105 98 107 98 98 218 254 243 250 241 247 252 253 80 3 135 143 140 156 130 142 143 136 138 140 145 142 143 140 146 144 139 141 148 145 134 136 149 136 101 133 151 149 140 100 100 124 152 149 147 116 113 142 146 145 145 147 144 142 148 140 140 153 146 129 128 117 118 152 138 125 145 151 144 155 135 90 122 159 84 111 154 148 146 143 145 43 3 15 36 72 100 101 125 120 104 117 122 111 156 146 126 117 102 150 147 153 144 145 147 150 150 147 146 147 148 149 143 155 147 147 152 140 156 145 14 5 44 152 136 106 144 149 149 149 148 148 151 152 151 157 135 163 128 139 165 156 160 117 59 74 137 176 170 107 79 159 167 154 147 135 155 162 155 163 153 148 147 151 157 152 152 154 153 152 153 154 154 154 154 153 156 157 156 157 161 166 168 179 171 161 155 152 152 154 156 153 155 158 149 145 155 157 158 156 150 153 152 156 160 154 151 153 155 155 154 157 156 156 158 157 156 157 158 219 238 222 228 243 214 188 180 182 178 187 186 183 172 179 181 185 191 198 202 205 208 210 211 205 196 185 185 193 192 188 194 186 197 194 185 179 184 199 202 196 194 185 176 166 158 149 142 143 142 141 140 140 140 141 141 141 142 140 139 139 141 142 102 81 92 91 96 90 94 96 97 93 94 94 94 92 92 95 98 95 94 93 93 93 94 94 94 91 93 91 97 89 89 95 87 95 92 95 100 95 91 92 97 100 98 95 91 90 91 95 98 101 99 97 95 96 97 98 98 95 96 95 97 96 96 97 87 93 96 95 95 98 96 92 93 96 94 95 99 100 98 97 99 98 95 94 96 97 97 98 100 98 98 98 98 97 97 96 95 96 98 99 98 98 100 101 101 101 99 99 99 98 95 94 95 91 92 90 91 93 90 89 94 88 89 89 86 86 89 91 91 86 80 87 67 172 243 225 235 241 248 253 251 246 246 249 253 248 240 252 248 245 249 251 253 218 111 109 112 111 112 112 110 114 108 99 104 106 101 99 106 89 131 246 251 242 248 252 250 251 205 57 151 140 142 139 144 136 143 141 144 139 144 139 139 136 141 144 144 139 139 145 149 150 144 148 143 113 116 115 105 113 145 158 144 125 100 124 155 145 148 139 138 149 145 139 146 148 149 142 117 127 162 131 126 145 151 138 126 131 145 152 105 147 161 141 90 108 144 145 143 151 149 151 55 15 56 41 10 92 146 133 132 137 117 107 103 102 113 143 143 87 136 161 150 147 147 148 149 150 150 150 148 152 149 147 151 152 148 151 164 114 8 6 57 138 130 148 155 154 153 153 152 148 149 151 149 141 131 151 149 141 138 150 87 58 103 123 146 117 145 156 114 154 163 158 165 145 148 144 137 119 131 155 140 150 152 156 151 155 154 153 153 154 154 154 154 152 154 154 155 158 161 162 161 164 163 162 161 160 156 154 154 153 161 156 149 158 158 148 160 155 153 162 160 155 160 160 158 159 159 159 158 154 157 161 160 156 158 159 159 195 202 215 222 203 180 182 189 194 191 196 199 191 179 172 167 181 184 188 192 195 198 199 200 200 199 192 186 194 197 189 191 211 224 223 216 208 208 214 211 216 210 198 179 163 154 149 147 144 143 142 141 140 141 142 143 142 144 141 140 140 140 141 96 90 94 94 97 89 96 94 95 93 97 97 91 88 91 95 96 91 93 94 95 94 94 95 96 93 94 93 95 89 86 98 90 94 87 97 99 97 88 97 99 93 95 97 95 92 92 96 99 99 99 100 100 100 98 94 91 91 95 95 98 95 95 98 89 94 98 97 94 91 90 92 99 95 90 89 94 98 96 95 96 94 93 93 93 93 92 94 97 99 99 99 99 99 100 101 103 101 103 102 98 95 96 96 95 95 91 88 88 88 85 84 84 81 86 84 80 82 84 84 84 79 84 89 88 87 86 84 81 86 88 94 84 102 246 239 231 220 223 227 232 240 247 248 247 253 249 242 251 254 253 242 254 254 133 106 112 117 106 109 109 112 108 120 116 107 116 99 108 109 82 178 254 244 248 252 244 250 254 193 118 145 148 139 145 143 144 141 145 138 146 143 140 136 139 139 137 136 138 137 137 125 136 125 124 132 96 106 138 132 133 128 106 109 136 151 144 142 145 144 142 143 141 138 139 133 128 134 140 150 148 102 145 146 146 152 128 151 157 106 138 152 157 108 87 113 126 144 151 148 148 157 159 46 18 27 24 63 163 159 144 142 128 139 117 128 113 99 112 112 131 139 125 150 148 147 150 152 153 150 148 149 148 149 148 150 150 153 164 83 3 3 98 148 91 144 137 147 142 146 152 145 131 128 132 120 128 116 109 107 94 48 98 182 159 146 101 97 134 160 103 78 56 36 55 46 52 56 64 40 97 174 154 153 138 156 157 156 155 153 153 154 154 154 153 157 157 154 152 154 157 156 152 151 153 156 159 158 156 156 159 163 144 146 158 164 159 154 160 159 146 153 158 155 159 159 155 158 155 157 156 149 153 161 163 153 157 159 157 181 189 196 194 186 181 181 184 195 198 200 195 183 171 165 165 167 169 173 177 181 184 187 189 187 189 193 197 198 198 202 211 226 229 232 230 221 211 207 208 211 205 183 157 142 145 146 144 145 143 141 143 146 147 145 142 141 144 144 154 151 149 136 88 93 98 96 93 94 94 94 95 96 97 92 86 88 95 95 92 92 94 96 98 97 95 92 92 93 92 96 100 99 83 96 96 89 94 99 99 93 88 90 97 95 95 94 90 88 92 97 101 98 100 101 99 98 97 97 97 94 96 95 97 101 98 90 87 96 95 94 93 94 95 96 96 100 97 93 91 92 93 95 96 93 90 88 88 89 89 88 87 85 85 86 86 85 85 84 85 84 78 75 81 85 82 76 72 75 78 83 87 89 89 87 86 82 83 86 90 91 91 92 94 92 95 94 87 84 87 88 85 83 94 90 85 80 176 252 247 254 249 240 226 224 223 221 232 242 244 247 250 253 253 250 245 254 192 94 120 109 108 111 108 111 114 113 109 109 112 112 109 95 115 109 221 253 248 245 248 250 250 253 172 137 144 143 148 144 148 141 139 150 145 138 148 141 144 142 136 138 142 133 117 125 136 140 150 151 149 120 159 121 88 128 138 141 149 141 146 144 145 145 145 144 143 141 140 139 138 154 155 144 145 111 158 147 144 138 140 149 104 120 161 148 140 83 121 145 151 149 153 138 137 136 134 128 16 20 75 22 48 141 130 150 152 145 153 152 153 120 102 107 108 124 110 142 154 147 150 147 143 154 147 146 147 147 147 156 150 142 167 60 0 20 96 120 147 123 134 133 133 135 143 133 141 137 133 100 128 111 115 144 127 81 159 134 100 152 160 137 132 54 27 28 76 114 131 124 97 45 142 171 83 91 175 148 155 157 154 157 157 157 152 155 156 160 156 155 154 159 136 153 159 154 154 157 156 155 156 158 159 159 158 141 149 157 160 159 158 158 158 153 160 148 149 162 158 155 161 152 160 166 154 141 160 154 148 156 155 157 160 165 175 185 190 187 187 190 196 194 193 193 192 188 178 169 165 162 162 164 166 170 172 173 174 175 176 179 184 190 197 204 210 208 211 217 218 212 201 190 186 170 161 152 148 145 139 140 146 145 144 142 143 145 146 144 142 144 144 140 147 151 151 127 82 94 96 92 88 91 94 93 95 96 94 90 87 90 96 95 93 98 97 96 96 95 95 94 93 94 95 98 99 96 82 93 93 93 94 97 97 95 92 95 100 100 101 99 94 92 93 95 96 95 96 98 99 99 98 96 94 97 101 100 97 96 90 85 85 103 100 97 94 93 93 94 94 94 93 90 83 76 71 72 75 75 74 73 74 76 78 78 77 85 86 86 86 85 85 85 85 93 93 94 94 92 89 88 90 94 94 93 92 90 89 88 88 87 86 86 88 90 90 92 94 88 85 85 89 90 87 88 93 97 82 86 96 89 104 236 248 247 249 251 254 239 243 248 232 226 227 230 232 235 239 244 248 254 234 119 111 105 112 120 115 111 114 115 112 111 113 113 111 100 107 105 146 251 249 250 245 249 245 249 248 148 134 144 142 147 136 143 148 138 141 148 141 146 144 139 135 140 146 149 148 155 156 150 142 135 139 107 101 104 136 139 147 151 145 150 143 143 143 144 144 145 145 146 146 153 148 143 139 157 129 131 135 136 146 147 151 90 130 166 145 147 153 115 89 150 148 148 133 146 97 99 126 143 127 28 60 5 5 66 123 127 156 148 149 154 144 161 148 129 72 69 110 82 153 162 152 146 156 145 151 152 150 151 151 145 148 154 147 24 2 16 150 169 149 118 130 117 131 115 110 123 114 120 118 147 156 166 140 124 96 103 138 112 144 122 100 66 10 57 121 169 171 157 169 151 170 81 64 168 178 86 89 157 154 160 164 149 159 157 156 166 160 147 159 158 161 166 152 144 145 168 162 155 158 162 162 159 152 144 139 152 156 159 157 155 155 156 157 166 157 139 144 159 156 153 157 162 159 155 164 150 150 143 161 159 157 156 157 158 164 172 177 179 183 188 193 198 196 196 196 196 192 185 180 178 176 175 177 180 184 187 187 182 179 175 174 178 184 188 189 198 198 198 198 192 182 172 168 145 137 138 147 149 142 141 147 145 145 143 143 144 144 143 144 145 144 139 143 146 150 111 81 95 94 88 85 91 94 94 94 95 91 89 90 94 96 95 95 96 95 93 92 92 93 93 92 91 94 96 96 95 86 94 94 87 87 89 93 96 97 99 101 93 95 95 95 95 98 98 98 98 94 89 88 89 91 92 92 92 94 91 87 86 82 78 79 83 81 79 78 78 78 78 78 78 81 83 83 81 83 87 90 88 89 90 92 95 95 94 93 94 94 94 93 92 92 93 94 93 96 98 94 89 88 90 92 89 88 88 88 89 90 92 94 89 86 85 88 91 93 95 97 89 87 89 95 98 96 96 99 93 81 86 95 91 79 158 254 244 245 249 250 251 250 247 242 247 244 237 230 226 227 230 232 242 254 160 104 112 109 118 109 110 113 115 115 113 111 111 112 111 102 110 100 185 251 251 251 252 240 249 253 219 140 141 145 148 145 146 144 140 144 148 147 147 145 145 151 155 159 166 173 178 157 150 154 149 140 122 102 148 160 144 147 140 142 148 147 146 145 145 145 146 147 148 148 143 149 151 146 159 113 150 151 146 133 154 129 106 147 153 143 150 152 107 76 145 153 152 146 129 113 150 125 113 136 96 23 34 10 37 94 142 119 166 153 133 144 149 124 133 141 127 88 82 85 101 158 163 149 135 131 148 148 146 155 146 150 162 122 3 7 57 135 131 139 140 127 145 127 117 110 128 123 144 139 142 141 111 107 139 95 158 108 51 36 54 12 70 163 162 188 217 178 146 123 140 167 144 97 66 139 155 69 72 169 159 148 124 130 162 151 157 153 155 146 148 149 153 147 150 142 131 143 145 144 143 141 142 146 152 157 161 162 162 159 158 160 161 161 154 163 156 146 145 154 166 164 147 153 157 153 133 147 167 163 163 161 160 160 144 148 152 156 161 169 178 184 191 192 193 196 197 197 199 203 197 193 188 187 189 191 190 189 185 181 174 164 162 163 164 161 175 176 177 176 169 158 151 148 145 147 147 148 149 151 149 146 146 146 144 143 142 142 143 145 142 146 144 142 144 145 100 86 96 94 87 86 93 96 93 92 94 90 89 93 97 97 94 94 90 91 92 92 92 93 93 91 91 94 93 93 95 92 93 93 84 86 90 95 98 99 97 96 100 101 101 99 97 95 91 88 93 88 84 83 84 86 89 92 87 84 78 78 84 85 80 79 90 90 91 92 93 94 93 92 99 97 95 93 93 93 91 88 88 90 92 95 96 94 91 88 94 94 93 92 92 92 93 95 95 96 93 89 88 90 90 87 93 93 93 92 92 91 90 90 89 86 85 88 91 93 93 93 85 89 92 92 94 96 93 86 82 90 93 87 89 96 88 216 254 244 250 241 254 248 239 250 245 250 252 250 249 246 236 224 217 238 193 97 115 105 113 108 109 111 114 115 111 107 106 108 114 106 109 109 114 218 254 249 249 250 238 239 252 197 133 147 139 148 144 141 147 146 140 143 144 142 144 148 146 143 143 148 153 150 149 148 149 151 154 125 151 150 142 149 149 150 146 146 147 147 147 147 147 147 146 146 150 144 144 146 143 123 134 137 132 120 131 102 157 145 128 152 140 160 74 109 132 143 148 124 140 149 139 152 108 108 138 117 34 16 35 54 138 137 125 122 113 127 126 151 154 170 176 142 142 144 84 62 117 162 165 103 147 153 150 155 149 134 141 80 9 1 63 133 94 112 106 127 132 129 162 133 134 141 137 122 137 103 140 160 133 68 61 26 110 121 157 231 227 197 190 171 163 157 142 146 153 117 115 142 111 49 58 100 45 112 130 124 147 147 153 142 151 164 154 149 160 159 121 138 155 131 134 143 148 149 149 150 151 155 159 162 156 157 158 157 158 157 155 152 154 156 160 166 153 142 151 155 143 154 131 126 173 164 154 154 150 152 155 158 140 140 140 141 144 150 156 161 159 160 163 168 173 178 183 188 192 189 185 181 179 174 167 161 161 161 156 149 146 148 149 148 149 157 166 169 160 149 144 143 145 149 148 143 147 152 151 145 146 147 145 145 142 142 144 146 143 146 147 141 146 138 94 92 95 92 87 88 95 95 91 89 93 89 91 96 99 96 93 93 89 93 96 95 94 95 96 95 96 96 92 91 96 96 88 89 92 94 96 96 96 94 92 90 94 95 94 92 89 87 82 78 79 79 82 85 85 83 83 85 91 89 83 84 90 92 90 89 97 97 96 97 97 98 97 96 93 92 92 92 95 98 97 94 94 94 96 97 97 96 94 93 95 95 94 93 92 93 94 96 95 94 91 87 88 91 89 84 95 94 94 93 92 90 88 87 91 89 88 90 91 88 85 83 86 91 94 93 93 94 89 81 89 96 96 91 91 95 86 132 251 248 252 254 251 247 249 238 244 249 246 237 239 250 254 253 246 246 239 120 103 103 101 102 109 110 112 112 108 104 103 105 104 109 102 113 109 151 248 247 247 248 245 251 248 243 169 134 147 144 144 144 143 147 149 147 150 150 149 146 147 146 147 147 143 148 147 144 149 144 155 141 116 158 148 140 157 147 147 143 144 145 146 147 149 149 148 148 143 150 140 132 122 144 137 120 123 138 104 120 149 135 140 140 159 118 76 126 116 121 118 138 138 151 136 147 94 132 147 158 85 8 6 38 25 97 61 128 138 145 146 133 119 123 111 137 145 146 165 123 61 81 147 124 149 153 155 151 143 130 135 44 1 17 105 121 134 139 138 137 140 139 153 135 146 145 128 137 135 158 156 131 99 33 14 174 242 236 241 243 229 222 190 170 143 130 133 148 134 120 128 113 129 134 159 157 141 52 98 91 140 166 164 124 149 159 157 161 129 109 113 130 140 150 159 171 160 159 160 162 163 161 158 156 157 158 158 158 159 157 151 146 138 145 149 151 152 156 147 115 147 165 130 113 155 165 151 141 143 148 154 158 145 144 143 142 141 140 140 140 141 138 139 145 152 155 155 154 163 164 164 165 164 159 150 144 143 145 145 144 143 144 147 147 147 152 159 160 154 148 146 148 145 144 144 145 146 147 146 145 147 147 146 145 145 144 145 147 148 144 145 141 151 131 90 94 93 91 88 89 95 93 89 89 92 91 93 97 97 94 92 92 94 97 97 94 93 95 96 95 94 93 88 90 96 98 84 88 90 91 90 87 86 86 87 87 81 83 86 87 88 89 89 88 95 95 96 98 96 92 92 95 94 97 95 92 92 90 90 94 95 94 91 91 92 93 95 96 92 96 96 92 90 91 92 91 93 93 92 92 93 95 97 98 97 97 97 96 95 96 97 99 92 93 92 89 88 88 88 87 86 86 86 86 88 89 91 93 93 92 92 94 94 90 86 84 95 93 95 100 100 94 91 92 97 95 92 94 92 96 93 84 198 254 244 254 247 249 254 235 236 246 251 246 241 243 248 250 249 244 254 166 97 118 111 118 111 112 112 110 106 104 104 105 99 103 105 94 115 110 181 254 251 240 254 249 245 251 233 148 144 146 147 149 150 146 144 145 142 146 146 144 145 151 152 148 151 147 143 150 157 140 147 152 127 144 152 134 143 147 149 148 147 147 148 149 149 148 148 147 140 136 128 145 136 124 142 153 156 142 105 150 137 139 147 145 135 80 125 150 151 125 110 135 136 124 147 133 113 148 152 154 173 81 7 38 52 47 70 102 152 151 150 37 10 6 7 136 165 151 153 165 153 79 56 171 164 152 152 147 145 155 136 20 1 25 126 143 145 164 146 165 149 146 138 144 146 137 145 153 176 155 133 91 19 28 175 227 184 217 217 197 202 204 207 185 159 159 155 124 88 99 146 167 157 154 155 157 177 127 80 152 89 78 111 130 114 107 121 106 132 146 148 160 163 157 167 149 160 158 154 154 156 159 160 160 160 161 161 161 162 162 158 154 165 154 150 159 154 143 138 128 128 125 121 128 111 131 149 150 154 158 161 161 140 142 142 143 145 145 144 145 149 146 145 148 150 149 147 144 142 143 146 149 150 149 146 143 143 143 146 147 146 144 146 148 149 147 147 146 144 143 144 147 147 145 145 149 148 144 143 145 147 147 146 145 146 145 146 147 149 143 147 143 152 117 88 95 93 91 89 90 94 92 90 93 92 93 94 95 93 92 91 92 94 96 95 93 94 96 93 88 88 87 84 88 94 96 79 89 83 84 83 81 83 87 90 91 93 96 97 95 94 95 97 97 99 94 91 91 89 88 90 95 93 97 97 93 91 87 86 90 89 88 87 88 90 92 93 94 93 96 96 92 91 94 96 95 91 91 92 93 94 96 97 98 95 95 94 94 93 94 95 96 97 96 95 94 92 90 91 93 93 92 91 90 90 91 93 94 94 93 94 96 96 93 92 92 94 91 91 94 93 90 90 94 94 94 92 92 93 99 88 89 130 236 247 246 252 252 252 248 241 242 245 247 243 239 245 254 247 243 251 216 106 102 104 109 111 112 111 106 105 107 109 108 106 99 110 93 104 109 117 220 251 249 242 247 243 253 253 206 136 141 147 151 147 134 125 127 146 149 150 147 147 148 146 141 141 148 148 143 145 149 155 145 144 116 141 147 143 155 149 151 150 150 150 150 149 148 146 145 137 150 144 134 136 132 155 144 158 120 128 153 152 151 148 162 109 135 139 150 155 132 147 124 159 158 132 126 145 160 144 148 149 165 81 18 75 13 57 85 130 160 150 40 38 33 23 116 165 151 147 147 162 147 97 88 161 162 151 153 152 158 91 2 10 58 172 159 153 152 146 153 158 157 149 155 159 164 158 110 142 183 107 8 55 122 157 113 95 94 120 108 113 113 107 134 163 147 102 116 149 150 116 163 167 165 164 161 154 166 104 86 177 115 84 147 134 147 156 162 144 151 167 149 156 160 154 153 159 159 160 160 160 159 158 157 156 157 156 156 159 161 159 158 152 161 161 159 155 159 171 171 175 173 150 113 97 117 140 161 158 161 162 159 143 143 143 143 142 142 144 144 145 145 146 145 143 141 143 146 148 147 146 144 144 143 145 146 146 144 145 148 148 144 144 146 149 144 141 143 148 149 148 147 146 147 147 146 145 145 146 145 148 147 146 146 146 147 147 147 146 142 151 146 149 103 84 98 94 93 90 90 93 91 92 98 92 94 95 92 90 90 92 93 93 94 94 94 98 99 92 82 87 87 84 88 91 91 72 87 87 87 86 86 90 94 96 95 95 97 97 94 91 92 95 96 95 91 90 94 97 97 98 101 93 95 93 92 93 91 87 88 88 89 90 92 93 93 91 89 97 96 92 88 91 96 95 90 91 94 97 100 100 98 96 94 97 98 98 97 97 97 98 99 98 92 88 90 91 90 89 90 91 91 91 92 93 94 95 96 96 95 95 94 93 91 91 93 92 95 93 87 85 90 93 92 89 93 97 91 98 82 99 95 79 177 254 241 251 248 246 247 243 234 237 252 254 243 241 251 253 249 250 254 131 88 108 114 110 112 109 103 104 110 112 110 115 104 103 112 105 115 107 145 246 250 245 251 248 242 250 253 178 145 146 142 107 114 144 143 143 147 148 146 145 147 149 151 150 145 151 153 145 145 150 147 155 138 125 149 147 140 145 149 149 149 149 149 149 149 149 150 155 146 152 156 158 132 147 166 122 121 155 147 148 145 153 145 113 147 122 153 146 155 131 150 131 111 97 137 160 147 151 151 150 144 164 74 10 41 13 90 112 136 69 23 40 28 35 48 151 149 160 151 147 160 167 77 121 160 147 157 155 137 34 5 2 109 162 148 147 144 152 139 138 147 153 134 113 92 115 157 187 81 3 94 184 160 33 50 66 78 73 78 83 78 78 122 131 118 174 166 160 143 131 106 132 138 142 164 151 169 179 83 117 163 111 66 174 171 158 152 128 120 149 140 130 134 160 160 157 158 159 159 158 158 159 161 159 160 160 159 160 161 160 157 155 152 147 154 155 147 144 141 142 127 155 142 132 102 129 163 156 160 163 162 143 144 144 144 144 144 143 143 144 145 145 145 144 143 143 144 144 144 144 144 145 146 146 146 147 146 146 146 146 145 145 145 148 148 147 146 145 145 145 146 147 148 148 148 147 147 147 147 148 148 148 148 147 148 148 148 148 147 143 153 143 93 92 92 90 99 91 91 92 90 98 97 90 91 92 93 94 97 100 102 96 94 92 90 84 78 78 83 91 95 98 104 106 93 85 91 89 88 85 83 85 90 94 95 91 90 88 89 90 93 96 97 94 89 93 98 95 95 96 90 89 90 90 92 91 85 82 86 96 94 92 92 94 96 97 97 98 94 92 93 93 91 89 88 92 92 93 95 94 93 97 102 99 97 99 100 98 97 97 93 95 94 94 94 94 93 90 88 91 92 92 93 94 94 94 94 93 93 91 88 89 93 97 97 96 96 91 89 94 95 90 87 95 95 96 95 94 94 95 96 89 114 236 250 245 249 252 247 244 237 236 245 250 247 245 248 254 247 253 254 198 104 107 109 111 106 103 103 106 109 111 113 107 110 108 107 108 108 108 112 189 254 243 250 239 245 246 251 243 165 137 120 124 141 149 154 151 146 145 149 147 147 151 150 151 146 148 145 151 145 151 152 150 146 151 126 124 157 144 149 148 150 146 150 146 152 148 147 149 150 146 153 146 140 148 135 124 151 144 146 151 140 140 128 107 159 134 152 153 149 135 138 143 107 108 142 152 143 140 141 134 144 156 151 30 26 31 16 41 128 73 2 25 15 13 30 160 166 151 150 153 152 143 157 58 145 168 147 139 139 15 6 23 144 158 157 154 150 148 147 147 144 147 109 103 147 158 123 20 24 143 178 175 136 64 55 74 109 98 84 74 98 84 86 65 68 65 154 179 175 157 129 119 114 157 158 164 139 157 142 45 109 150 127 83 155 158 136 163 164 145 123 154 155 160 159 161 157 160 165 158 170 148 164 157 164 158 158 158 156 163 156 157 162 162 159 158 154 150 150 136 158 163 159 175 172 122 112 171 151 164 159 143 143 143 143 144 144 144 143 145 145 146 145 144 144 145 145 145 145 146 146 146 147 147 147 147 147 147 147 147 147 147 146 148 148 147 146 146 147 147 148 147 148 148 148 148 147 148 148 148 148 148 148 147 148 148 148 144 144 146 155 134 90 91 96 90 93 92 93 92 91 94 91 93 94 96 96 94 91 88 86 86 84 86 89 89 88 89 94 94 96 99 101 100 92 86 88 88 87 86 85 89 93 94 92 85 87 89 92 94 93 91 88 95 90 93 97 93 93 95 91 94 94 93 94 95 90 88 93 92 92 92 94 96 96 96 95 95 92 91 93 95 95 94 93 95 95 96 97 97 96 99 102 100 97 99 100 96 95 95 91 94 93 93 93 93 92 92 91 91 92 93 94 94 92 90 88 88 89 89 88 89 92 92 91 91 89 86 87 89 87 84 88 96 96 96 96 95 95 95 95 94 93 160 254 244 246 248 250 244 241 239 242 247 250 248 246 250 251 254 254 233 119 110 112 109 107 106 107 109 111 112 112 114 113 112 112 110 105 104 111 97 197 254 245 254 236 246 241 253 196 118 145 142 138 154 125 135 142 123 131 150 142 145 151 149 150 151 150 152 150 150 147 147 154 148 145 132 134 142 153 153 145 144 147 154 152 152 151 148 158 145 153 155 142 138 118 155 148 151 153 147 149 166 115 135 164 148 147 159 154 163 121 143 136 147 157 152 150 156 157 152 149 157 146 118 3 34 42 18 41 80 36 99 48 10 54 145 131 165 163 147 160 134 161 125 79 143 139 164 120 7 7 40 156 167 150 151 141 161 151 146 130 112 124 161 186 88 10 69 164 179 142 66 57 73 33 71 71 68 57 54 90 49 53 50 29 61 107 104 110 127 166 160 153 168 160 153 138 146 133 138 85 89 142 137 111 120 154 148 137 140 140 155 154 162 162 153 163 161 164 167 145 135 162 164 159 157 165 165 157 157 159 160 162 159 158 163 165 161 161 160 163 159 135 158 151 155 101 82 151 152 160 144 144 143 143 144 144 144 144 145 145 146 146 145 145 146 146 146 146 146 147 147 148 148 148 147 147 147 147 147 147 147 147 148 147 147 147 148 148 149 150 147 147 148 149 148 148 148 149 149 149 149 149 148 148 148 148 151 149 149 158 122 87 86 90 100 92 95 95 90 91 89 86 86 86 87 87 86 85 85 86 98 95 95 97 97 94 92 94 97 97 99 98 93 92 91 89 89 91 91 88 85 86 89 90 86 86 87 90 94 95 94 93 95 92 94 95 92 91 94 93 96 95 92 92 94 91 90 96 94 93 93 93 94 94 92 91 92 91 91 94 97 97 97 97 96 95 95 96 96 96 96 98 95 94 96 97 95 95 96 93 93 92 92 91 91 92 93 95 93 93 91 92 92 91 89 87 89 90 90 90 91 92 91 89 91 90 88 90 91 86 87 96 94 95 95 95 94 93 94 93 98 90 104 225 253 246 251 249 246 247 243 240 244 252 252 246 246 247 251 254 254 159 106 116 108 109 110 110 111 110 110 109 109 103 100 106 108 100 95 99 84 122 238 225 229 230 236 242 253 253 170 99 124 113 89 113 116 125 141 142 147 154 149 150 144 151 151 147 144 148 152 152 151 154 146 158 150 141 146 152 151 148 154 150 154 145 150 151 148 145 154 150 139 127 124 152 160 150 156 152 152 155 153 97 156 152 155 130 151 143 139 140 152 154 159 154 141 141 143 134 156 155 135 131 169 79 2 19 64 14 26 78 62 55 62 81 68 35 70 138 163 146 164 148 169 85 97 152 139 60 1 3 89 164 139 155 165 166 161 128 107 150 172 166 169 75 15 121 182 153 156 81 18 49 47 52 53 28 61 44 51 30 24 48 59 66 56 17 36 33 51 171 165 158 152 147 144 156 166 167 170 182 100 91 129 119 78 104 166 155 169 163 161 169 162 158 165 165 156 140 141 152 144 167 157 156 158 156 156 160 159 161 154 160 161 159 161 162 162 166 161 156 155 144 152 141 136 170 134 105 181 164 145 144 144 143 144 144 145 145 145 145 146 146 146 146 146 147 146 146 147 147 147 148 148 148 148 148 148 148 148 147 147 147 148 148 148 148 148 149 150 150 147 148 149 149 149 148 149 149 149 149 149 149 149 149 149 149 148 143 144 153 110 92 90 94 97 82 88 86 80 85 84 83 87 88 89 89 91 92 95 97 96 94 94 96 96 94 93 94 97 96 99 96 91 95 98 92 92 91 88 84 83 86 89 90 92 91 90 92 96 98 98 96 95 94 95 95 93 91 93 94 94 92 89 90 92 90 89 95 96 94 92 91 92 92 92 92 91 90 91 94 96 96 96 96 94 93 92 93 95 95 94 94 93 92 94 96 93 93 94 92 91 92 92 91 91 91 93 95 95 93 89 89 90 91 91 91 94 93 91 90 91 92 92 90 88 89 87 87 88 86 88 96 93 94 95 95 94 94 95 95 100 98 98 153 254 248 249 248 249 250 246 241 243 249 251 248 248 243 249 251 254 214 108 113 107 110 113 112 110 108 107 106 108 114 119 120 114 104 103 112 107 81 184 252 242 246 227 225 229 230 251 163 130 153 138 139 148 151 136 135 126 123 151 146 158 152 148 147 156 152 142 128 137 136 141 150 152 159 149 152 152 153 153 148 152 152 154 150 158 147 157 166 129 119 155 162 149 152 154 152 152 159 127 107 167 151 154 135 136 126 112 145 159 154 154 155 152 151 149 140 131 139 152 165 167 102 21 30 40 45 22 32 47 41 73 54 44 50 43 107 159 153 156 157 154 174 72 139 170 39 11 5 94 117 74 104 111 121 114 102 168 155 148 157 73 19 134 171 141 151 159 60 50 46 49 45 55 52 54 55 64 57 60 40 41 45 53 46 58 54 81 156 159 160 156 159 159 163 158 156 156 155 156 95 159 108 98 68 129 189 156 156 166 151 158 146 144 144 140 160 153 140 162 161 166 162 165 156 158 166 155 150 157 163 165 163 162 159 156 157 129 140 144 151 164 153 162 154 174 131 97 145 146 146 145 145 145 146 146 147 145 146 147 147 146 146 147 148 146 146 146 146 146 146 146 146 147 147 147 147 147 147 147 147 149 149 148 148 148 148 149 149 149 149 150 150 149 149 149 149 150 151 150 150 149 149 149 149 151 147 152 152 101 94 93 97 89 76 85 85 82 91 92 92 93 95 98 99 98 96 93 92 95 95 96 96 95 95 96 99 97 97 100 96 92 99 102 95 90 85 80 82 89 96 95 91 96 96 97 98 99 97 93 90 95 96 96 96 95 92 92 95 93 93 91 92 95 92 92 97 93 91 90 90 92 94 94 94 90 89 90 93 94 93 93 94 95 94 93 93 95 97 96 94 96 94 96 95 90 89 90 87 91 92 93 92 91 91 92 93 93 91 88 88 89 91 92 92 94 92 91 90 91 90 89 88 88 92 90 87 89 92 93 95 95 96 97 98 98 98 98 99 101 98 97 102 216 254 243 251 252 250 248 246 244 243 247 251 251 247 249 251 252 250 139 102 106 111 114 113 111 109 108 107 113 117 115 111 109 106 102 102 114 98 108 220 253 240 241 240 248 234 242 222 152 150 156 152 155 149 147 145 155 142 119 132 136 137 146 137 133 119 133 143 142 145 151 153 147 153 148 154 152 154 152 154 149 153 155 160 152 163 153 116 136 167 149 151 152 153 154 157 147 162 121 142 155 155 149 162 152 153 166 154 153 152 155 158 157 156 157 158 150 151 150 137 167 118 34 30 40 31 34 29 4 47 35 48 91 63 67 108 154 159 159 148 155 161 128 81 126 16 9 6 35 27 7 20 35 27 29 33 128 142 147 82 6 134 185 149 164 149 151 54 43 37 47 46 29 56 63 64 51 37 61 44 44 50 32 46 76 59 68 156 163 159 154 156 162 160 161 168 164 156 167 121 102 182 180 105 53 82 117 161 157 151 149 139 148 155 178 149 145 152 163 153 163 153 159 164 167 163 148 149 164 161 154 154 161 160 147 138 144 134 99 117 135 140 122 119 134 116 83 70 146 146 146 146 146 146 147 147 146 147 147 147 146 146 147 147 147 147 146 146 146 146 146 145 147 147 147 147 147 147 148 148 150 150 149 148 148 148 149 149 150 150 151 150 150 149 149 149 151 150 150 150 150 150 150 150 146 147 154 136 80 78 78 84 86 85 94 96 94 99 101 100 95 96 97 97 96 95 93 93 102 102 101 99 97 96 97 99 97 99 100 96 94 100 101 95 85 88 90 91 92 94 96 95 96 96 95 95 95 95 93 92 96 98 96 95 97 94 92 96 93 94 94 96 97 93 93 98 92 92 92 93 94 93 90 88 89 88 90 92 93 92 91 92 93 93 93 92 94 96 96 94 94 93 95 95 90 89 90 89 91 92 93 93 92 91 90 90 88 89 89 90 91 90 89 89 92 92 93 94 92 88 85 85 91 97 95 90 94 99 98 96 96 97 99 99 99 99 100 100 97 102 95 95 143 254 251 250 253 249 248 250 246 241 244 252 249 253 248 250 252 252 190 99 107 112 116 114 114 114 113 111 118 119 112 105 107 111 108 106 98 118 87 144 247 248 239 242 247 242 237 252 207 144 149 147 145 160 148 153 160 151 152 137 148 136 137 140 152 149 157 163 153 153 144 158 153 148 152 156 162 147 137 156 160 158 139 133 138 118 113 146 156 149 160 153 152 161 149 154 155 152 107 162 154 159 153 153 154 152 158 144 148 152 153 150 150 152 152 151 164 156 158 139 140 102 36 36 48 47 25 40 37 17 16 25 55 41 65 84 104 144 145 165 157 145 176 154 42 32 0 7 24 24 29 55 78 80 65 63 157 176 157 9 82 177 153 158 155 164 124 58 53 50 34 48 36 39 66 61 57 25 45 48 47 49 41 50 64 62 65 159 160 158 161 163 168 155 154 157 161 152 151 167 86 157 141 136 126 134 84 64 85 121 143 155 160 167 140 147 158 160 151 148 149 154 163 161 154 152 154 164 163 160 153 151 157 157 149 144 151 155 140 168 168 165 76 89 126 145 157 183 145 145 146 146 146 146 146 146 146 147 147 147 146 146 146 147 148 148 148 148 148 148 148 148 148 148 148 149 149 149 149 149 151 151 150 149 149 149 150 150 149 150 151 151 150 150 150 150 151 151 151 151 150 150 150 150 149 151 159 131 84 93 92 96 79 92 98 99 96 95 99 94 98 98 97 96 96 98 100 102 94 94 94 94 95 97 97 98 97 100 98 94 95 98 96 95 87 94 99 97 92 90 92 95 93 93 93 92 93 95 98 101 97 98 94 93 97 95 92 97 95 97 97 97 96 90 89 95 93 92 92 92 92 91 88 85 90 90 91 93 92 90 90 91 91 92 91 90 91 93 94 93 90 90 93 94 90 91 94 93 93 92 92 92 92 91 90 89 85 88 90 92 91 90 90 90 93 93 95 95 92 86 84 85 90 95 94 92 95 96 95 95 97 98 99 100 100 99 99 99 98 104 100 102 96 198 254 246 252 248 247 251 250 245 245 250 247 252 250 249 251 249 233 122 109 114 117 116 115 116 116 112 105 116 118 109 100 96 104 116 109 118 107 99 184 252 241 246 238 244 253 244 244 185 146 152 150 153 160 150 142 155 157 142 142 143 144 158 155 155 144 143 152 140 132 152 161 162 154 153 116 127 139 142 129 119 116 123 101 117 147 163 159 157 158 149 142 158 149 150 167 126 108 161 156 153 153 147 161 158 146 166 152 155 153 152 157 161 159 157 147 161 155 158 170 78 38 59 50 47 43 17 27 28 3 11 9 10 50 95 65 157 135 124 156 160 138 123 36 11 28 32 18 26 21 40 51 56 44 44 147 177 37 63 159 156 154 160 156 137 118 75 59 61 43 47 31 43 67 59 40 36 37 48 47 49 45 44 53 61 69 159 162 158 156 154 157 155 162 166 164 158 147 167 116 139 133 108 164 159 174 160 118 84 68 105 138 133 109 100 125 166 143 154 156 166 164 155 149 153 163 164 162 167 166 161 160 160 162 168 169 153 169 168 130 98 127 163 167 166 136 146 145 145 146 146 147 146 146 146 147 148 148 148 147 146 146 147 148 148 148 148 149 149 149 149 148 148 149 149 149 149 149 149 151 151 150 150 150 150 151 151 149 150 151 151 150 150 151 151 151 151 151 151 151 150 150 150 154 152 154 120 84 99 93 88 76 97 99 99 97 94 101 96 95 96 97 97 96 94 93 92 99 98 96 96 98 98 96 93 95 100 95 91 96 97 94 96 96 93 90 91 95 98 95 89 89 93 97 99 98 98 98 99 97 98 92 90 96 95 92 98 99 101 100 98 94 86 85 91 90 89 88 89 90 91 91 91 92 92 93 94 93 90 88 89 91 93 92 89 89 92 93 93 91 91 94 94 90 91 94 93 94 92 91 91 92 92 90 89 85 88 91 91 91 90 93 95 95 94 94 92 88 83 84 87 95 98 98 99 101 98 96 100 100 101 102 102 101 100 100 100 103 94 102 102 91 118 244 244 251 247 246 250 252 249 247 248 249 249 254 251 246 254 254 154 110 116 119 117 117 117 115 110 112 111 107 107 108 102 98 100 110 100 113 103 110 232 252 242 247 242 244 234 253 244 154 147 152 154 140 148 160 153 152 157 145 147 132 146 133 145 130 131 134 111 119 121 127 137 99 97 87 92 95 85 99 113 117 103 130 149 149 158 148 131 145 147 143 142 156 161 165 106 141 164 149 144 136 154 155 155 153 155 155 155 153 155 156 151 150 158 159 149 157 160 162 125 32 27 29 40 31 50 25 21 18 21 10 13 14 76 80 67 155 155 147 125 102 39 7 0 4 42 49 42 30 36 72 63 73 64 78 40 15 91 81 117 142 127 149 152 165 76 50 38 44 49 35 36 68 54 54 22 40 56 50 53 33 44 74 60 64 159 162 161 161 161 157 159 159 156 153 164 167 164 162 85 128 137 168 157 161 173 163 160 147 96 103 101 132 112 132 115 127 135 153 143 130 146 164 166 166 154 159 164 164 161 162 163 166 171 156 138 135 76 88 156 175 168 166 169 158 117 146 146 146 147 147 147 147 147 146 147 147 147 148 148 149 149 148 148 148 148 148 148 148 148 149 149 150 150 151 151 152 152 150 151 151 151 151 151 152 152 150 151 153 154 153 152 151 150 151 151 151 152 152 152 152 152 151 154 154 104 89 95 91 92 84 98 100 95 99 100 96 97 98 98 98 98 98 98 98 98 95 95 94 93 96 99 97 93 98 93 94 99 101 97 93 95 96 90 89 96 98 93 90 93 93 99 97 97 97 97 100 94 95 97 98 98 98 98 97 97 95 94 92 95 91 88 95 93 95 95 94 92 92 93 93 92 94 91 90 92 91 88 88 92 92 93 93 93 92 92 93 94 90 93 96 96 94 92 93 94 94 96 93 89 88 91 91 88 89 95 100 92 88 93 91 91 98 91 96 96 81 78 90 96 95 97 98 98 100 102 101 98 96 95 95 96 97 97 95 94 93 97 92 94 88 76 175 253 242 248 247 246 250 252 247 242 248 253 245 254 252 250 254 206 111 109 112 112 106 103 111 115 117 114 96 94 111 112 104 108 107 112 113 113 104 136 248 246 242 247 247 241 239 252 212 111 145 133 140 126 145 145 164 151 153 147 151 159 156 150 153 160 156 161 156 110 37 49 54 91 107 117 132 122 104 113 146 124 112 135 116 126 117 158 155 152 138 157 168 153 93 92 150 133 147 158 159 148 154 161 154 155 154 157 157 158 154 149 154 158 154 163 154 153 172 118 33 29 27 44 34 48 50 40 47 25 31 26 19 26 67 98 124 132 113 47 33 81 36 30 12 56 46 37 36 50 54 59 58 71 60 6 49 53 53 97 166 162 159 164 167 73 48 55 52 59 39 39 61 48 48 27 40 55 49 54 40 46 67 61 58 162 166 159 158 160 159 161 164 162 162 162 158 144 148 109 78 158 169 154 168 156 157 165 170 176 144 76 121 178 164 135 143 149 141 142 134 143 150 163 160 145 153 163 153 174 163 162 174 143 152 111 78 145 187 172 160 156 154 126 117 139 146 146 146 147 147 147 147 147 147 147 148 149 149 149 148 148 148 148 149 149 149 149 149 149 149 149 150 150 151 151 152 152 151 151 151 151 152 152 152 152 151 151 151 152 151 151 150 150 152 152 152 152 152 152 152 152 152 154 148 98 95 91 92 89 86 98 100 95 98 99 97 98 100 99 99 98 98 97 97 97 96 96 95 93 94 95 93 91 99 95 94 96 98 98 96 98 94 94 94 92 90 89 91 94 97 98 94 97 98 96 100 99 97 98 98 98 97 97 97 97 103 99 94 96 94 93 100 98 96 96 94 90 90 92 93 93 96 95 93 90 88 90 92 93 89 91 94 95 94 92 92 91 92 94 95 95 93 92 92 92 92 94 94 91 92 95 96 94 98 95 95 90 90 93 91 93 91 102 93 80 88 97 96 95 98 100 101 100 101 101 99 95 96 96 95 95 94 93 91 89 88 92 88 93 92 89 120 228 248 245 249 244 250 247 254 243 243 251 243 251 253 251 254 236 124 107 106 113 105 111 120 114 120 125 113 100 106 112 110 111 105 108 115 104 112 102 180 254 248 247 243 248 249 240 250 199 102 135 132 110 120 122 138 156 139 147 156 119 121 162 130 158 169 153 57 72 104 91 98 143 149 147 130 124 120 93 86 136 131 133 131 142 117 120 140 140 155 154 111 86 75 122 127 158 157 147 152 161 160 154 151 161 162 156 151 154 159 160 160 157 157 156 148 139 157 110 36 37 35 38 35 36 49 51 46 49 38 20 32 39 51 117 123 36 30 48 48 36 39 52 39 65 36 28 70 70 47 89 65 68 17 19 75 70 65 113 163 149 160 159 162 76 56 61 49 49 37 36 58 46 47 27 41 56 51 54 40 46 66 60 54 156 165 160 161 161 156 155 154 151 147 150 151 165 143 143 126 89 170 166 154 159 168 163 154 161 171 159 106 101 138 140 159 131 150 173 169 168 154 137 136 161 166 140 166 167 168 160 121 132 104 100 147 164 165 143 157 135 125 154 173 168 146 146 147 147 148 148 148 147 147 148 149 150 150 149 148 147 149 149 149 150 150 150 150 150 150 150 150 150 151 151 151 151 151 151 151 151 152 152 152 152 153 152 151 151 151 151 152 152 152 152 152 152 152 153 153 153 152 156 135 93 100 88 93 84 90 98 99 95 97 98 97 98 98 98 97 97 96 95 94 94 94 95 94 93 93 95 95 95 97 95 94 95 97 99 98 98 90 93 92 86 86 92 94 91 90 88 85 93 96 93 97 98 99 99 100 100 100 100 99 99 92 89 86 91 90 90 97 94 91 93 93 90 89 90 92 92 95 98 98 93 91 94 93 90 89 92 96 98 98 96 94 93 97 97 97 96 95 94 93 92 91 93 94 92 93 97 98 97 98 92 91 90 90 91 89 95 93 94 85 85 97 98 93 98 98 100 101 101 100 99 95 92 96 96 98 97 95 94 93 93 95 93 91 95 97 97 77 163 254 243 253 243 246 251 245 247 243 250 246 249 253 249 252 254 172 107 113 117 112 117 121 116 128 131 123 106 98 103 112 119 111 107 102 106 114 106 113 222 254 241 244 248 244 238 247 253 146 59 86 116 154 155 90 129 107 125 126 107 131 117 96 102 99 68 109 142 158 164 121 149 161 148 150 157 158 160 139 110 116 106 103 131 145 135 120 84 95 62 72 78 171 152 116 129 145 150 163 157 151 164 163 148 154 155 157 158 157 157 157 159 157 155 161 151 166 119 38 37 33 32 37 43 51 39 40 86 82 29 22 29 28 21 107 67 38 35 41 10 13 0 14 38 43 34 14 61 64 50 54 46 5 50 87 72 63 122 166 152 161 160 164 76 49 49 43 48 39 36 56 45 49 29 43 57 47 48 36 43 62 59 55 155 164 161 162 163 159 156 155 153 148 144 149 150 145 122 145 130 113 179 154 163 161 162 165 160 162 169 154 135 147 126 119 126 123 123 114 137 150 139 133 154 146 157 152 126 119 114 119 105 115 169 147 151 146 156 136 138 170 165 162 164 147 148 148 148 148 148 147 147 147 148 149 150 150 149 148 148 150 150 150 150 150 151 151 151 152 152 151 151 151 150 150 150 151 151 151 151 152 152 152 152 154 153 153 152 152 153 154 154 153 153 153 153 153 153 153 153 151 161 122 91 100 90 93 78 94 98 98 95 96 97 98 98 96 96 96 96 96 95 95 95 95 96 96 95 95 97 98 99 92 94 96 97 98 99 96 93 91 92 89 86 90 95 91 81 91 92 91 98 101 98 100 97 96 96 97 97 96 95 92 90 87 88 89 95 94 90 94 90 86 91 95 95 94 94 94 93 96 97 96 93 91 92 93 91 93 95 98 100 100 99 98 97 102 100 99 98 98 98 96 95 91 94 94 93 93 95 95 94 93 91 94 94 92 93 91 97 94 80 87 100 94 86 91 97 98 99 100 100 100 98 96 94 97 98 100 99 97 95 95 96 102 93 96 93 99 92 82 94 221 254 243 248 245 247 240 249 244 247 250 250 251 248 247 254 232 112 122 121 123 117 115 128 132 122 121 119 105 95 104 116 119 110 99 105 106 122 101 144 243 253 246 247 241 250 236 253 238 83 68 94 98 82 85 55 64 99 108 126 147 88 73 76 89 112 136 119 113 140 146 152 153 157 151 147 158 161 152 119 162 140 127 146 143 133 113 102 117 146 125 122 119 109 108 77 162 141 150 166 159 141 140 157 157 155 156 153 153 156 155 157 163 153 158 156 169 130 34 27 29 60 61 47 38 32 44 63 58 37 0 13 25 2 41 54 37 27 42 13 8 5 32 26 33 59 42 77 38 5 7 37 35 76 82 74 66 131 174 167 158 160 168 76 42 45 43 49 41 34 52 43 49 29 38 49 44 45 36 43 61 60 59 159 166 160 161 163 162 161 162 160 163 156 180 135 135 131 173 188 104 159 174 160 162 160 166 161 165 161 174 139 143 181 164 167 162 158 144 142 139 155 155 134 158 153 142 129 127 126 128 108 166 142 170 171 184 148 137 176 169 163 158 159 150 150 150 150 149 149 148 148 148 149 149 149 150 150 150 150 150 150 150 150 151 151 151 151 152 152 151 151 151 151 151 151 151 151 151 152 152 152 152 152 153 153 153 154 154 155 155 155 153 153 154 154 154 154 154 154 153 163 108 93 95 94 92 76 98 97 97 96 95 97 98 97 96 96 97 98 98 99 100 100 99 99 98 97 96 96 96 98 89 93 96 97 98 98 94 90 98 94 91 91 93 93 87 80 97 101 98 100 101 99 99 93 100 98 96 94 93 92 91 90 92 96 98 102 95 88 91 88 89 93 98 98 97 97 97 97 98 94 90 89 89 90 94 100 97 97 97 97 98 98 98 97 101 99 98 98 99 99 97 96 93 95 95 94 94 94 95 95 95 94 97 95 96 101 96 96 86 88 96 95 85 90 98 93 101 101 101 101 100 99 98 98 95 96 97 96 93 91 91 92 95 88 96 92 94 91 96 74 147 254 240 249 251 238 250 248 245 241 249 250 248 252 251 252 254 142 114 121 121 116 122 136 126 115 123 133 121 102 98 100 118 117 116 102 101 106 116 107 184 254 246 247 242 246 249 244 245 228 121 96 94 106 113 70 75 89 50 84 74 85 135 115 120 163 132 147 138 79 113 138 160 159 146 145 158 160 137 137 163 163 153 120 102 123 128 136 150 114 140 166 165 152 144 130 122 129 129 119 126 144 155 168 152 156 164 158 153 156 155 160 153 154 160 159 155 120 29 36 24 48 52 43 40 50 58 50 48 62 51 10 2 18 13 61 33 50 38 4 4 12 21 14 42 47 9 26 15 67 38 26 48 73 70 73 66 127 168 157 158 160 169 80 48 54 48 44 47 38 56 49 56 34 39 47 43 46 40 50 64 61 60 158 169 161 160 162 161 161 160 156 158 160 148 98 132 175 160 145 107 108 173 144 158 169 161 162 160 160 166 171 143 148 149 163 167 172 173 173 151 148 146 133 135 135 119 130 147 152 155 169 160 160 160 153 123 146 174 169 157 165 171 170 151 151 151 150 150 149 148 148 149 149 149 150 150 151 151 152 150 150 150 151 151 152 152 152 150 151 151 152 152 153 154 154 152 152 152 153 153 153 153 154 151 152 153 154 155 154 154 153 154 154 154 154 154 155 155 155 156 157 96 95 92 94 90 79 100 95 96 98 96 97 99 97 95 95 96 97 98 99 100 101 98 96 96 96 97 96 96 98 92 93 95 96 96 96 93 93 99 96 94 94 93 89 89 92 96 101 97 95 95 96 100 94 98 95 91 91 93 96 99 100 96 99 100 102 93 86 92 92 94 96 97 96 95 96 97 97 95 92 93 97 98 95 97 101 99 97 95 93 93 94 94 94 96 95 95 95 97 97 96 94 94 96 96 96 95 95 97 98 100 95 93 90 97 104 96 90 86 100 95 83 90 98 97 98 101 100 100 100 98 96 96 97 89 90 92 92 91 91 92 93 90 88 98 95 92 95 90 93 97 208 254 245 251 249 248 251 249 243 247 247 247 254 254 249 254 197 113 122 116 121 134 132 126 121 127 133 125 115 107 96 110 123 121 118 109 99 115 111 123 210 254 249 244 241 247 243 254 237 148 63 47 71 97 126 80 134 138 71 84 165 130 94 122 130 139 155 166 146 118 108 90 102 149 175 153 159 119 124 134 122 118 128 150 92 42 68 59 52 50 152 169 159 164 166 123 148 159 152 161 168 157 153 167 158 155 140 140 155 159 168 167 162 148 139 137 104 25 38 42 33 41 43 42 45 37 39 62 49 68 39 5 10 13 37 46 45 11 7 5 4 20 50 79 63 0 20 75 72 34 9 74 90 84 77 73 130 173 162 161 161 172 82 44 47 45 43 46 38 57 51 58 34 40 49 38 42 39 53 66 62 59 153 169 161 160 163 163 162 158 152 148 138 130 140 180 155 126 142 163 118 103 131 144 165 160 171 167 167 164 170 132 151 173 159 164 166 157 165 156 139 127 133 138 161 173 150 165 176 132 174 170 162 165 144 149 175 164 164 167 157 153 156 150 150 150 150 150 150 150 149 150 150 151 152 152 152 152 152 151 151 151 152 152 153 153 153 151 151 152 153 153 154 154 155 154 154 154 155 155 155 155 155 153 154 154 155 155 154 154 153 154 155 155 155 155 155 155 155 159 144 88 96 94 89 87 86 101 94 96 100 97 97 99 96 95 95 95 95 96 96 96 97 96 93 93 96 98 98 97 98 95 93 95 98 98 96 95 97 97 95 94 93 91 90 93 98 96 100 97 98 97 95 101 100 89 87 87 89 93 97 99 100 100 101 101 103 96 92 99 100 97 97 96 94 94 96 97 97 93 95 99 101 101 98 96 95 97 96 94 93 94 94 94 94 94 94 95 96 96 96 96 95 96 97 96 95 92 91 92 94 95 89 90 91 95 97 90 88 96 97 89 87 96 94 90 97 96 96 96 97 95 92 92 93 90 90 91 92 93 94 95 95 94 92 97 99 93 97 89 101 91 134 243 247 246 254 243 252 250 251 246 246 251 250 248 248 251 242 138 119 121 131 136 127 130 128 127 122 120 124 120 108 109 116 113 128 117 115 105 116 111 142 241 253 246 249 239 248 241 254 251 131 110 74 70 16 27 80 73 13 59 63 30 77 148 140 129 141 144 137 131 120 121 110 97 110 133 135 123 156 154 144 129 148 156 83 46 73 64 65 46 90 143 168 150 169 154 155 156 152 157 164 162 164 152 142 145 139 148 158 140 130 126 127 126 137 171 127 36 23 28 37 39 37 41 44 42 43 58 48 56 94 19 7 14 17 29 23 4 9 3 9 42 52 77 57 15 4 76 31 1 53 79 90 83 64 71 121 163 161 163 156 168 82 41 39 40 46 36 32 55 48 50 25 34 48 42 39 35 50 64 61 59 150 166 160 160 163 165 164 164 160 148 157 163 136 125 136 173 173 176 171 116 175 167 132 130 154 167 163 165 155 133 151 170 170 161 169 149 135 133 152 159 156 171 178 157 157 173 156 141 166 167 158 158 167 174 166 172 169 166 171 172 167 149 149 150 150 151 151 151 151 151 152 153 154 154 153 152 151 152 152 152 153 153 154 154 154 153 153 153 153 153 153 153 153 155 156 156 156 156 157 157 157 156 156 156 156 155 155 154 154 155 155 155 155 155 155 155 155 163 132 83 96 97 83 86 91 101 93 96 101 98 98 100 96 97 97 97 96 95 95 94 94 99 95 94 97 99 98 95 95 95 93 95 101 101 97 96 100 100 97 93 91 91 92 91 89 94 96 94 98 94 87 90 92 93 94 96 99 102 103 100 98 99 100 99 101 95 90 96 95 98 99 99 98 99 101 100 98 98 99 97 91 89 92 93 92 95 95 94 96 97 98 98 97 95 96 97 98 99 98 97 97 98 97 95 92 88 85 85 87 87 85 93 98 97 91 85 91 101 90 92 97 90 87 90 85 93 93 95 97 95 92 91 93 97 95 94 93 94 93 92 91 98 93 92 98 94 93 100 91 94 88 186 254 244 247 254 248 245 254 244 246 254 247 243 251 252 254 167 111 132 140 132 129 128 128 123 119 120 127 126 119 113 100 113 113 117 122 104 110 121 99 187 250 243 248 244 249 248 245 250 223 61 23 36 65 76 56 79 86 62 66 73 52 108 89 46 106 103 99 155 94 138 154 110 94 143 120 142 152 135 127 136 167 92 40 56 57 50 52 58 17 121 184 152 153 166 141 139 145 143 144 146 150 139 143 151 126 109 116 121 138 148 164 166 145 156 86 20 27 34 50 30 47 57 33 41 48 68 38 57 107 57 4 2 17 22 25 11 2 5 20 58 46 25 51 27 1 43 56 31 88 60 73 73 57 80 117 147 150 158 143 156 85 53 48 42 44 40 38 63 55 53 27 40 58 54 45 35 46 60 60 59 148 169 162 161 162 162 164 167 166 180 155 121 134 155 178 160 170 162 181 134 109 180 174 157 120 142 160 144 144 170 140 133 166 160 141 138 158 156 170 180 169 177 154 167 167 166 155 148 163 168 177 175 169 169 171 164 168 172 169 169 173 152 152 152 153 153 153 153 153 152 152 152 153 153 154 154 154 154 153 153 152 153 153 154 154 154 154 154 155 155 155 155 155 156 156 156 156 156 156 157 157 157 158 157 157 157 156 157 157 156 152 155 157 153 154 157 153 164 108 86 97 92 93 81 101 97 98 98 98 98 98 99 100 96 95 94 93 94 95 96 97 95 94 99 101 98 100 100 94 90 98 96 97 98 100 102 96 98 98 94 89 88 90 91 92 92 94 97 95 91 89 95 104 97 100 103 103 100 99 98 98 98 100 100 98 89 96 92 99 101 101 100 99 98 97 95 94 90 89 88 88 90 93 96 99 97 95 96 99 98 95 96 100 98 96 96 98 99 98 98 98 100 97 92 89 91 95 96 96 98 100 98 96 92 81 84 102 90 91 92 91 88 87 86 86 86 90 94 96 95 93 92 92 96 96 94 93 92 93 95 97 94 96 97 97 98 98 96 92 90 93 102 241 251 244 251 250 252 249 246 244 247 251 251 249 246 254 218 115 138 131 130 130 123 127 123 125 122 123 127 113 116 116 103 98 112 122 114 106 107 115 118 214 254 248 246 247 251 238 248 249 183 137 157 156 160 161 177 136 112 145 169 146 98 41 61 36 84 114 73 108 106 91 84 106 75 60 84 93 131 150 126 122 87 47 64 60 50 64 53 46 66 134 169 157 161 165 144 137 121 127 127 130 135 148 143 146 166 160 164 166 164 158 162 161 127 48 49 29 23 38 32 46 65 44 15 58 58 47 52 97 73 75 20 11 24 20 14 7 7 35 45 9 51 117 11 3 22 42 58 85 66 82 83 71 65 130 179 159 162 165 173 90 42 43 43 43 41 35 60 50 58 38 19 75 77 52 47 42 74 68 61 166 188 181 181 181 161 153 167 161 138 124 143 175 176 162 162 169 164 164 170 128 133 181 179 171 146 144 158 163 161 173 148 133 143 159 178 172 172 167 172 172 150 159 166 168 168 170 169 166 162 162 161 161 166 168 167 168 169 170 168 178 152 152 153 153 153 153 154 154 153 153 153 154 154 154 154 155 154 153 153 153 153 153 154 154 155 155 155 155 155 155 155 155 156 156 156 156 156 156 157 157 157 158 157 157 157 157 157 158 157 155 157 159 156 155 156 157 162 102 90 97 91 89 79 99 99 99 99 99 98 98 98 99 97 96 95 95 95 96 97 98 99 99 102 102 101 101 98 94 93 97 94 95 96 95 100 99 93 95 95 94 95 97 97 96 97 95 93 94 96 96 97 100 98 99 99 98 96 96 96 96 99 99 97 95 89 97 93 98 95 95 95 96 96 94 93 92 92 93 94 95 96 96 97 97 102 99 100 101 99 96 96 99 97 96 97 99 99 96 94 93 87 87 87 87 89 92 92 90 96 89 90 88 81 92 100 89 93 94 94 93 91 91 92 92 87 90 92 94 93 92 92 92 90 91 92 93 94 95 98 99 100 100 98 95 95 97 97 96 94 99 90 175 249 249 247 249 251 251 250 247 247 250 251 250 249 254 246 154 133 136 132 131 130 123 119 128 124 115 122 123 115 119 113 108 113 117 118 120 105 115 115 152 242 248 245 249 244 254 244 244 254 175 131 163 155 160 110 97 151 141 140 151 158 143 155 129 84 75 118 110 140 164 152 143 124 107 131 104 120 125 156 87 23 47 54 65 53 59 66 49 33 105 173 157 158 157 166 159 164 155 171 159 153 160 165 168 149 165 157 147 162 167 166 90 95 126 36 31 24 36 33 57 60 34 24 54 62 40 51 89 77 142 80 3 14 6 2 22 28 6 8 28 66 103 17 7 7 40 54 68 55 62 61 69 61 120 165 158 159 163 171 89 42 42 41 40 35 35 66 47 52 33 39 59 66 58 63 46 51 50 40 97 111 96 84 91 160 148 132 128 150 166 175 165 159 172 175 158 168 169 173 152 138 130 159 152 170 157 162 165 155 151 135 144 166 158 150 163 163 164 157 160 160 166 170 169 167 169 170 167 168 169 167 166 169 170 168 171 158 192 187 173 153 153 153 153 153 154 154 154 155 155 155 155 155 155 155 155 154 154 154 154 154 154 155 155 155 155 155 155 156 156 156 156 157 157 157 157 157 157 157 157 157 157 158 158 157 157 158 158 157 157 157 160 160 155 154 162 151 89 93 96 91 87 82 102 101 100 99 98 98 98 98 97 98 97 97 97 98 99 100 100 100 102 102 99 101 100 96 96 93 95 93 97 96 93 98 101 92 94 96 96 96 98 96 94 98 95 93 94 97 98 97 97 101 99 97 96 97 97 98 98 99 98 97 95 92 99 94 96 94 93 93 92 92 93 93 93 96 96 95 95 95 97 98 99 100 98 98 99 97 94 94 96 97 96 96 97 97 94 91 90 86 87 88 87 87 88 87 85 90 95 90 82 86 97 99 95 94 93 92 91 91 91 93 95 90 91 92 93 93 93 93 93 90 91 93 95 95 95 96 96 95 97 98 99 100 101 99 96 95 94 93 100 228 254 244 247 250 252 253 250 247 248 249 250 246 246 254 199 121 136 126 126 130 121 118 128 124 115 125 133 125 121 116 117 114 106 109 124 111 109 117 113 183 254 243 249 239 247 247 248 253 225 91 76 97 80 143 144 132 166 164 150 162 116 169 150 134 132 81 64 127 121 133 168 116 116 142 134 123 96 63 55 46 47 67 53 53 44 45 49 39 49 115 172 160 168 154 156 163 163 158 161 159 161 162 156 166 153 158 141 128 165 115 86 167 146 29 26 40 37 48 50 40 38 35 60 63 66 60 74 57 46 117 35 5 17 11 0 5 29 53 55 74 90 1 3 8 63 40 63 65 68 59 72 58 113 155 151 160 163 173 94 50 51 51 50 42 30 59 48 41 75 33 18 24 21 32 19 14 21 11 15 6 11 15 27 137 156 151 170 169 169 169 167 163 162 164 167 166 166 164 162 151 146 157 119 137 159 173 161 156 169 151 139 160 150 142 157 159 160 157 166 168 171 171 168 166 168 169 168 169 171 170 168 170 169 168 172 183 123 76 52 153 153 153 154 154 154 154 155 155 155 155 155 155 155 154 154 154 154 154 155 155 155 155 156 156 156 156 156 156 157 157 157 158 158 158 158 158 158 158 158 158 158 159 158 158 157 158 158 157 158 156 158 161 155 155 166 137 79 97 95 91 86 87 104 101 100 98 98 99 99 98 97 98 98 98 99 99 100 101 101 98 102 100 97 101 99 94 99 87 94 96 101 100 97 100 100 95 96 95 93 93 95 94 94 93 95 97 96 95 93 95 98 100 97 95 97 99 100 99 99 95 95 98 96 94 98 93 93 95 94 92 90 89 91 94 97 94 95 95 94 94 95 95 95 94 92 93 95 95 94 94 96 98 95 93 93 93 91 91 92 94 95 93 89 88 90 91 92 93 97 91 89 98 95 92 101 92 91 90 90 90 90 91 93 91 91 91 92 94 94 93 92 88 91 93 95 94 93 91 91 92 95 98 100 101 101 99 95 97 96 105 86 171 254 247 248 248 251 252 250 247 247 248 248 251 251 252 236 131 134 129 128 123 122 122 123 122 124 133 134 134 119 112 120 118 104 103 117 119 108 116 119 126 220 254 242 252 248 242 241 244 253 220 127 106 83 86 121 122 121 100 87 86 95 87 77 105 122 125 114 125 109 146 115 130 117 136 133 62 119 67 23 54 60 57 48 48 57 45 45 60 39 83 174 155 153 165 161 152 143 163 159 160 162 145 159 164 159 160 157 139 130 83 166 184 116 35 38 28 50 47 50 44 43 56 42 61 55 48 74 43 96 87 59 2 0 0 12 24 32 38 34 51 58 7 11 40 90 49 65 71 82 74 74 61 122 174 162 150 153 163 86 42 45 45 45 38 33 61 55 90 93 28 25 22 17 25 28 25 29 26 16 23 26 28 30 97 167 170 172 171 168 165 166 171 171 169 169 160 181 165 160 113 173 172 181 153 144 153 171 175 157 138 152 148 152 162 160 167 164 171 170 168 170 170 167 165 168 169 169 167 169 169 168 170 168 169 175 162 38 15 28 154 154 154 154 155 155 155 155 156 156 155 155 155 154 154 154 155 155 155 156 156 156 156 156 157 157 157 157 157 157 157 158 157 157 157 157 157 157 157 157 159 160 160 159 158 157 158 158 158 159 156 157 161 157 158 168 125 79 102 95 90 85 90 100 100 100 100 100 100 100 100 99 97 98 99 99 100 101 101 101 97 101 100 99 101 96 90 94 87 99 102 102 101 102 105 99 96 95 94 92 92 94 96 96 91 96 100 98 94 93 95 98 95 93 93 97 99 98 96 95 94 93 98 92 92 94 92 93 93 93 92 91 91 92 95 97 91 95 97 96 96 95 92 88 93 92 93 94 95 95 95 96 96 93 91 92 92 92 93 94 97 97 96 93 93 96 100 102 99 83 87 98 96 95 95 89 92 91 91 93 93 91 90 91 91 91 91 93 93 93 92 90 84 87 91 93 94 94 93 92 100 100 98 96 96 97 97 95 95 97 97 101 106 219 254 245 249 251 251 249 249 249 248 247 251 254 248 252 168 121 133 129 119 121 124 121 121 129 130 127 130 121 117 120 120 115 112 112 121 116 111 119 119 143 245 248 247 247 249 253 249 248 253 196 165 180 123 76 57 87 147 159 151 157 157 157 143 111 108 109 95 67 59 73 96 119 83 90 85 100 86 41 44 57 56 47 43 45 41 41 43 29 80 157 149 164 159 157 159 144 135 136 161 153 164 152 145 172 146 108 136 92 146 127 116 115 41 43 30 42 49 35 41 55 47 39 52 52 60 60 29 49 53 42 23 36 16 11 36 45 40 43 34 34 25 2 28 68 57 45 60 79 77 63 57 113 178 160 164 165 173 94 48 47 46 47 44 33 61 100 81 31 23 19 22 23 26 29 24 19 24 26 28 22 25 26 60 162 174 157 166 171 168 164 168 173 168 162 151 144 160 133 156 175 169 166 177 170 151 131 136 148 153 160 161 168 175 167 171 170 172 162 167 168 169 168 168 169 170 170 168 170 170 170 171 170 172 179 175 56 29 24 154 154 155 155 155 155 155 156 156 156 155 155 155 155 155 155 155 155 156 157 157 157 157 157 158 158 158 158 158 158 158 158 158 158 158 158 158 158 158 158 160 160 160 160 159 158 158 158 160 160 158 158 160 160 160 166 109 83 103 93 89 88 96 97 98 100 101 102 102 101 101 101 97 98 99 100 100 100 100 100 94 99 102 101 97 88 83 84 94 106 105 101 100 104 107 100 95 95 95 93 93 93 93 91 95 97 99 98 98 99 99 97 96 93 94 98 100 97 94 93 99 96 100 90 91 93 95 98 91 93 96 97 97 97 97 98 99 100 98 94 92 94 94 92 94 93 93 93 94 94 93 93 93 91 92 94 95 95 95 96 96 97 97 96 97 99 99 98 87 87 91 94 94 94 92 88 90 89 91 95 96 93 90 91 93 94 95 95 95 94 93 92 89 91 94 96 97 97 96 96 98 99 98 97 97 98 97 95 95 91 91 98 91 152 254 246 250 250 250 250 251 252 251 248 244 252 250 249 212 116 128 122 123 119 124 124 122 125 121 121 123 129 130 120 116 124 123 109 121 120 116 108 127 111 180 254 253 243 252 248 239 250 242 248 166 141 169 153 162 177 165 155 160 165 161 161 164 165 167 152 143 155 138 97 102 154 174 158 139 136 82 31 47 46 52 57 62 45 43 56 44 26 88 175 161 163 153 172 153 169 163 154 158 158 136 134 122 79 96 71 67 75 77 69 70 95 49 44 42 55 34 32 40 32 47 36 59 53 14 61 57 58 113 44 10 19 13 20 30 25 31 47 36 64 33 6 29 77 66 53 54 76 82 70 66 109 181 164 166 167 176 95 46 43 42 44 44 23 56 102 52 30 43 31 20 26 22 20 20 18 20 22 21 20 31 33 65 159 178 166 166 163 165 167 163 157 158 163 165 168 166 156 170 175 168 170 166 175 177 165 169 174 175 167 172 175 170 173 165 170 165 167 168 169 170 170 170 170 170 169 170 171 169 170 172 170 171 178 159 50 28 23 154 154 154 154 154 155 155 155 155 155 155 155 155 155 155 155 155 156 157 157 158 158 158 158 158 158 158 158 159 159 159 159 159 159 159 159 159 159 159 159 159 159 160 160 159 159 159 160 160 159 160 160 159 160 162 157 93 87 101 90 87 91 102 94 95 98 101 102 100 99 99 99 98 98 100 101 101 101 100 99 97 99 102 100 90 83 84 87 101 108 104 101 101 104 108 102 95 96 96 95 93 93 92 91 98 98 99 99 101 103 101 98 99 96 96 99 100 97 96 97 102 97 100 90 94 94 96 97 95 98 100 101 99 98 98 98 101 101 97 91 90 94 96 96 91 90 90 90 92 93 93 92 94 92 93 95 97 97 97 98 96 98 98 97 97 96 92 87 81 97 96 90 94 91 86 93 88 86 90 96 98 95 92 92 96 96 97 96 94 92 93 94 94 95 96 96 96 96 96 97 95 97 99 100 101 102 100 97 100 96 102 97 107 103 203 252 248 249 250 250 251 253 252 250 249 250 254 253 244 147 124 122 124 117 125 126 122 123 120 124 124 130 132 123 116 122 124 111 115 117 121 111 117 120 122 214 253 250 251 245 254 242 254 249 232 157 158 167 151 155 162 161 155 158 157 160 164 158 156 169 167 168 173 162 152 97 110 165 167 140 82 28 53 54 44 48 58 62 54 59 46 37 90 173 156 168 168 149 152 141 148 147 120 110 90 83 103 136 105 109 116 94 134 154 168 128 28 25 38 42 46 40 37 28 35 33 30 29 58 86 73 98 133 76 11 6 6 11 2 0 26 44 25 82 20 17 47 85 63 62 31 59 69 65 59 107 178 163 162 165 177 98 48 43 41 44 44 35 50 32 58 39 22 24 24 25 22 20 25 29 28 24 22 20 21 26 71 159 177 165 165 168 173 168 160 165 171 166 174 177 174 164 172 168 172 168 167 169 173 168 170 168 175 169 168 171 169 173 164 167 167 174 171 171 170 170 171 171 171 171 171 170 168 169 171 168 169 175 163 42 28 29 154 154 154 154 155 155 155 155 155 156 156 156 156 156 156 156 155 156 157 158 158 158 158 158 158 159 159 159 159 159 159 159 159 159 159 159 159 159 159 159 158 159 159 160 160 160 161 161 160 158 161 160 158 161 161 151 87 94 101 89 85 90 102 87 91 95 100 100 98 95 95 96 98 99 100 101 101 101 100 99 104 101 102 98 86 84 94 100 102 105 102 103 104 103 107 103 94 95 95 95 95 98 100 100 96 99 101 100 100 101 102 101 100 96 95 98 99 97 98 102 99 93 98 90 96 94 93 90 100 100 100 98 95 94 95 97 90 95 98 96 96 97 95 90 87 87 88 89 92 95 96 95 98 95 93 94 95 96 99 101 96 97 97 97 97 95 89 83 98 91 92 94 90 90 91 84 87 86 90 97 100 98 96 96 94 95 94 92 89 88 90 92 91 92 92 92 92 93 94 95 103 102 100 98 98 101 102 101 97 102 101 104 98 84 117 243 246 248 249 249 250 251 252 251 253 244 250 254 252 182 116 121 120 119 129 125 121 127 126 130 130 123 126 128 122 119 121 118 103 116 118 121 107 117 117 145 244 251 249 251 243 254 241 246 251 202 144 164 157 167 159 158 161 169 160 162 159 159 166 156 164 146 146 158 155 172 130 113 94 127 90 42 63 55 56 51 51 56 55 67 48 38 81 153 137 141 140 141 146 142 127 99 96 88 106 158 170 128 131 143 111 157 168 153 177 157 27 23 24 37 42 37 25 18 46 39 53 47 41 92 72 48 118 85 35 25 3 3 8 6 31 70 61 92 31 18 44 46 62 62 38 75 77 71 59 113 180 161 163 167 180 101 50 45 42 44 46 41 33 34 53 40 29 26 24 21 25 24 20 22 25 26 21 26 20 23 53 149 176 167 171 164 168 172 167 169 174 169 171 162 168 174 169 170 168 174 176 166 168 170 173 166 174 169 169 169 174 168 174 171 172 167 173 170 168 169 170 170 171 173 172 170 168 169 171 169 169 176 183 55 28 25 155 156 156 155 155 157 158 157 157 157 157 157 157 157 157 157 157 157 158 158 159 159 159 160 159 159 160 160 160 160 159 159 162 161 160 155 159 159 162 162 161 164 155 157 165 161 167 157 159 160 161 156 160 162 165 135 85 92 97 96 86 97 92 90 94 95 96 96 94 95 98 100 100 100 100 100 100 100 100 99 105 102 107 94 85 97 98 98 108 110 105 103 109 108 106 112 94 97 92 91 99 90 98 94 99 98 96 97 99 101 101 100 98 99 100 101 99 96 96 98 96 97 92 87 92 97 95 93 97 95 96 97 93 88 89 95 96 95 93 93 93 94 95 95 99 98 97 97 98 99 99 99 98 98 97 97 97 95 94 94 90 105 99 92 99 89 79 93 93 95 96 95 95 97 98 98 93 92 96 101 98 90 88 92 92 93 96 99 97 92 90 91 88 91 92 91 91 94 97 98 100 100 100 101 100 98 100 102 106 95 97 103 89 92 82 179 254 249 246 249 247 251 240 242 250 251 251 247 254 228 117 115 121 124 127 124 129 131 123 128 129 126 126 127 125 122 123 126 108 109 115 124 113 111 125 114 181 254 249 246 247 252 244 248 242 252 178 151 168 155 156 162 162 155 161 165 157 169 157 157 161 162 155 149 153 149 166 164 86 158 81 29 55 52 54 45 52 49 52 42 40 33 80 164 166 170 141 152 162 167 129 103 127 149 174 134 127 148 136 111 158 161 170 158 176 146 33 29 18 40 36 28 33 33 43 27 53 38 40 100 64 55 186 73 16 36 3 7 10 7 31 32 66 19 14 20 81 69 61 64 33 40 68 65 64 107 180 175 174 174 172 105 50 39 44 42 53 38 26 65 68 39 24 28 25 22 21 17 19 22 16 17 21 20 18 22 71 156 179 170 169 169 170 170 170 170 171 171 170 170 171 171 171 171 170 170 170 170 173 164 179 172 167 173 173 173 168 173 168 165 175 165 171 172 163 168 169 171 170 172 172 175 170 167 175 164 174 178 161 54 23 31 156 157 157 156 156 158 158 157 157 157 157 157 157 157 157 157 158 158 158 158 159 159 159 159 160 160 160 160 160 160 160 160 161 162 163 155 167 162 160 155 162 160 168 157 164 161 156 157 160 159 164 156 163 160 166 122 84 90 95 93 85 97 94 93 91 92 93 94 93 94 96 98 100 99 99 98 98 98 99 99 102 98 99 94 92 99 100 101 106 109 105 103 108 108 106 111 100 97 95 92 98 93 99 97 99 99 99 101 102 101 99 97 100 100 101 102 99 96 96 98 96 98 94 88 89 91 90 89 90 88 88 90 89 86 86 90 88 90 93 96 99 100 99 99 97 98 98 99 100 100 98 97 97 97 98 98 98 96 95 95 101 92 99 102 87 84 93 94 95 98 99 99 99 100 100 99 96 99 100 97 93 91 92 93 97 95 95 95 93 91 90 92 96 97 97 95 95 97 100 101 99 99 99 100 100 100 102 105 102 99 100 99 94 98 92 127 240 251 249 248 246 251 242 241 245 253 247 249 251 246 146 111 127 126 127 132 129 131 126 124 133 131 130 129 126 122 120 119 126 112 112 118 119 116 119 128 127 211 251 251 249 247 251 248 249 246 237 166 158 162 164 161 165 166 165 160 165 151 168 172 167 165 156 160 170 166 133 92 142 178 90 28 52 54 48 46 56 53 49 57 40 23 82 182 157 153 139 135 118 110 148 176 181 147 115 112 157 169 122 160 169 172 163 169 167 131 42 27 26 42 34 31 32 34 42 34 36 31 50 89 25 99 183 72 18 49 41 5 4 8 30 15 92 39 4 50 86 68 70 72 73 31 57 69 57 63 128 125 139 137 184 104 39 46 45 40 52 53 22 52 62 36 35 12 21 18 21 24 28 25 18 26 21 21 20 23 69 153 177 169 169 169 170 170 170 170 171 171 170 170 170 171 171 170 170 170 175 171 171 173 163 174 171 172 181 180 160 178 188 192 180 194 181 183 194 189 174 169 173 169 169 172 171 177 173 173 175 172 172 40 19 33 155 157 157 156 156 158 158 156 156 156 156 156 156 156 156 156 158 158 158 158 158 158 158 158 160 159 159 159 159 159 159 160 163 162 161 164 152 160 163 160 155 157 162 159 163 167 160 165 161 158 165 158 163 161 164 104 84 91 96 92 90 100 96 95 93 94 95 96 97 97 98 98 101 100 100 99 99 99 100 100 102 100 92 95 100 98 101 103 107 109 105 103 106 108 111 115 107 98 101 95 95 94 96 97 98 99 100 101 100 98 96 95 100 100 100 101 99 96 95 97 92 96 92 87 88 89 88 89 85 84 85 90 92 91 92 94 95 96 98 99 100 98 95 93 92 93 95 98 99 98 96 95 92 95 98 99 99 99 99 100 104 91 99 101 84 89 105 100 99 100 100 98 96 97 97 96 94 101 102 93 90 96 100 97 98 96 93 93 93 92 93 94 97 99 100 99 99 101 102 101 100 98 98 100 100 100 100 102 97 99 101 95 99 102 109 92 174 254 240 254 248 249 253 241 243 251 249 246 252 254 192 112 128 127 126 135 125 128 128 122 128 128 129 128 127 126 121 117 125 112 112 112 121 122 111 122 121 146 242 247 254 240 250 244 248 247 253 221 148 168 156 163 152 163 167 155 163 163 160 157 156 162 159 154 142 147 128 118 148 166 87 30 51 57 51 60 54 44 47 47 34 44 73 154 157 143 155 144 152 185 175 143 142 133 116 164 130 104 165 168 164 160 163 157 146 143 45 19 15 34 35 25 30 28 38 27 23 35 37 55 59 42 103 82 18 50 61 14 4 12 35 36 40 0 0 54 85 52 74 78 71 46 47 46 52 101 163 139 99 101 170 116 51 45 53 39 37 34 32 32 41 38 32 28 24 34 34 22 23 26 17 17 21 23 21 23 65 151 176 168 170 170 170 170 170 171 171 171 170 170 170 170 170 170 170 170 169 170 173 175 168 178 174 177 169 161 136 133 129 125 102 112 93 100 109 107 162 177 170 171 174 170 175 174 170 182 164 175 183 80 46 24 155 157 157 157 157 158 158 156 157 157 157 157 157 157 157 157 158 158 158 158 159 159 159 159 161 160 159 159 159 159 160 161 160 161 160 163 158 160 159 161 162 168 152 162 158 162 161 158 162 160 163 161 162 165 157 91 85 92 98 93 94 100 94 94 97 97 98 99 101 101 100 99 100 100 100 99 99 99 100 100 102 101 89 97 105 96 100 105 107 108 105 101 102 108 115 120 108 96 101 96 90 92 91 98 96 97 98 96 94 93 94 95 97 96 97 98 96 94 94 96 92 95 92 88 90 91 90 91 90 90 92 96 97 97 98 100 101 100 98 96 95 93 91 89 93 93 94 96 96 96 94 93 94 97 99 99 98 99 100 101 100 103 96 87 91 97 99 99 96 96 94 91 90 93 96 96 94 101 100 94 93 99 100 96 95 94 93 95 97 98 98 97 98 100 101 100 100 100 99 97 98 98 98 100 100 97 95 95 95 94 96 94 99 95 110 95 105 225 250 250 248 247 254 249 247 246 252 241 254 254 235 132 123 130 127 133 123 127 129 128 123 125 127 127 129 131 128 122 121 122 123 115 119 127 120 115 126 115 175 254 251 250 246 253 248 244 250 251 200 150 158 163 167 164 155 163 170 158 166 163 165 162 165 164 158 165 162 174 163 177 98 42 53 50 44 47 50 64 57 61 51 42 66 104 125 107 107 141 144 150 145 128 153 174 152 119 148 169 172 162 158 148 159 148 150 157 48 15 44 33 35 29 50 27 41 39 31 44 32 62 74 124 184 81 30 32 31 20 14 26 36 57 41 1 3 51 86 69 76 74 73 75 58 79 58 71 139 176 160 105 131 87 50 48 36 47 50 32 27 65 76 30 30 37 34 29 28 29 30 21 14 30 22 22 20 25 62 151 177 168 170 170 170 170 171 171 171 171 171 171 170 170 170 170 171 171 169 168 170 162 188 176 171 183 81 47 47 50 59 56 48 48 46 46 44 41 154 185 172 175 172 168 172 179 157 158 179 185 162 57 64 74 155 157 157 157 157 158 158 156 158 158 158 158 158 158 158 158 158 158 158 159 159 160 160 160 161 161 160 159 159 160 161 161 156 159 162 159 173 162 160 165 162 160 167 166 166 163 166 163 162 162 159 165 159 171 145 88 86 91 95 88 94 98 92 93 99 99 99 100 101 100 99 97 98 98 98 98 98 97 97 97 99 101 90 98 104 96 102 109 103 104 104 101 100 107 115 119 106 94 97 93 87 88 85 97 94 95 95 94 91 91 92 94 94 93 94 96 96 94 95 97 98 98 93 91 94 94 91 91 95 97 99 99 97 94 95 97 94 93 92 92 93 95 96 96 99 98 96 95 95 95 95 95 100 102 101 98 96 97 97 96 98 101 87 82 97 96 86 91 88 90 90 90 92 96 99 100 99 100 99 97 97 97 93 88 95 94 95 96 99 101 102 101 104 104 101 98 96 96 96 94 93 94 96 99 98 95 91 91 95 94 95 93 95 92 97 102 87 151 254 241 244 250 247 254 253 244 251 246 254 248 254 173 116 133 132 132 129 131 129 135 129 131 131 129 130 133 131 125 124 128 124 115 106 117 131 117 116 123 126 218 254 246 249 248 249 244 249 251 252 173 157 163 166 153 168 161 162 162 162 162 166 154 160 160 170 170 162 162 164 177 88 35 50 54 57 50 43 38 59 51 42 34 66 152 151 166 179 136 108 145 155 173 174 187 135 124 174 170 164 164 167 162 154 161 179 149 53 21 26 33 41 28 37 24 33 28 29 47 48 98 64 118 166 75 12 25 33 37 22 25 40 81 21 6 1 53 76 76 61 61 56 73 39 60 57 69 118 98 147 171 150 98 47 35 47 36 47 38 34 56 63 27 27 30 27 35 34 21 23 32 26 24 22 21 19 25 59 153 179 169 170 170 170 171 171 171 171 171 171 171 170 170 170 170 171 171 172 175 199 194 169 76 29 36 23 52 82 57 54 73 78 60 67 59 64 51 155 177 175 173 175 180 174 180 119 85 165 166 173 61 53 58 156 157 157 157 157 158 158 157 158 158 158 158 158 158 158 158 158 158 159 159 160 160 161 161 161 161 160 160 160 160 161 161 170 160 161 170 111 140 164 169 127 111 178 152 163 156 157 163 161 164 159 166 159 172 128 90 88 92 93 84 95 98 95 99 99 100 100 100 100 99 98 97 98 98 98 98 98 98 98 98 99 100 96 99 99 96 100 104 101 103 108 107 104 109 117 117 114 104 92 90 86 84 78 90 93 95 96 96 94 94 94 95 95 94 94 96 97 96 96 98 99 98 93 92 97 98 95 95 94 97 99 98 96 94 95 98 94 94 95 97 99 99 99 98 95 94 93 93 95 97 99 100 98 100 99 96 95 97 97 95 95 83 80 92 99 93 88 92 89 92 95 96 96 98 98 97 97 95 96 98 98 95 91 89 97 98 97 96 98 100 101 100 101 99 94 90 90 94 97 97 88 90 93 96 95 93 92 93 93 95 97 93 98 99 90 99 89 99 211 254 243 254 247 249 254 249 246 254 249 249 254 218 124 127 134 130 133 132 127 134 133 133 131 130 130 130 130 128 125 124 121 121 104 104 127 122 117 125 126 133 238 252 250 245 245 249 248 251 248 238 161 162 164 162 156 172 162 171 164 162 163 164 171 160 163 161 164 162 163 182 91 30 41 45 51 43 33 30 25 31 36 19 80 172 165 141 131 149 173 150 155 159 166 120 134 183 169 162 167 164 171 170 169 163 183 152 50 28 22 36 36 28 36 47 42 29 58 52 32 92 76 59 131 110 16 30 33 29 39 49 33 36 0 7 10 69 91 71 74 72 68 79 59 57 62 77 149 85 96 147 164 109 61 68 58 49 49 41 42 34 44 48 31 21 31 21 24 29 27 24 20 27 22 21 19 26 53 151 180 170 170 170 171 171 171 171 172 172 172 171 171 171 171 171 171 172 174 152 124 87 41 37 29 23 32 37 25 20 37 53 45 49 47 47 48 43 167 178 170 172 169 167 169 180 181 155 165 165 170 63 14 9 158 159 159 158 158 160 160 159 159 159 159 159 159 159 159 159 160 160 160 161 161 161 162 162 162 162 162 162 162 162 162 162 163 154 161 181 73 142 190 191 105 87 185 162 168 163 158 164 162 164 162 162 163 168 109 92 89 93 94 85 100 101 97 101 99 100 101 101 99 98 98 99 101 101 99 99 98 99 100 101 95 95 100 97 94 98 98 96 104 108 113 112 106 112 120 119 124 113 84 86 90 85 77 89 96 96 97 96 96 96 97 98 97 96 95 97 97 96 96 97 97 96 93 92 96 98 97 99 94 96 98 98 97 97 98 100 100 100 101 101 101 99 97 95 92 91 92 93 95 97 98 99 94 95 95 93 95 98 96 91 86 78 86 97 95 92 95 95 93 95 96 95 95 95 94 93 92 93 93 94 94 94 94 95 97 99 100 98 97 97 96 95 93 92 89 87 90 94 98 98 91 92 93 92 90 89 92 96 93 92 96 94 99 99 95 95 88 91 132 248 248 250 252 246 252 253 246 254 248 252 253 246 152 119 131 127 130 129 127 130 131 130 129 129 129 127 128 129 129 125 128 131 118 110 120 129 120 120 120 103 167 254 251 254 248 245 252 246 245 252 204 158 167 176 118 153 163 141 174 170 161 165 165 166 166 164 167 162 158 180 103 35 44 50 47 48 46 45 45 37 42 32 55 140 138 155 180 167 170 159 157 149 127 132 155 162 160 173 158 169 165 165 175 160 172 163 45 26 21 32 49 37 29 18 42 70 63 49 35 98 77 124 170 52 15 37 42 29 37 58 7 4 12 2 15 48 71 50 66 54 62 73 73 45 57 89 188 144 111 81 85 75 50 55 50 48 56 37 14 51 68 41 25 10 17 15 25 23 19 31 35 30 23 23 20 25 45 145 178 173 171 171 171 171 171 172 172 172 172 172 172 172 172 172 172 172 194 92 9 22 11 43 30 35 26 44 34 30 49 59 43 25 25 32 19 29 179 185 168 175 175 175 180 165 180 180 161 197 177 50 27 85 159 160 160 158 159 160 161 160 160 159 160 159 160 160 160 160 161 161 161 161 161 161 161 161 162 162 162 163 163 162 162 162 160 165 167 149 64 95 117 103 74 67 159 163 162 167 163 163 162 163 167 159 168 164 98 93 86 91 95 87 103 101 94 97 97 99 100 100 98 96 97 99 102 101 98 97 96 98 100 102 86 86 98 95 94 105 102 97 110 110 114 111 104 111 122 121 124 114 75 81 95 93 84 96 100 98 96 94 94 97 99 102 99 97 96 97 97 95 95 95 98 98 95 92 94 93 93 97 99 99 98 97 97 97 97 97 98 98 97 97 97 97 96 95 97 97 97 97 97 96 93 92 94 96 95 93 94 95 91 84 77 90 96 92 88 90 91 90 91 92 91 89 89 91 93 93 93 95 95 91 89 91 95 98 93 98 102 101 98 96 92 89 92 93 93 93 95 96 95 93 98 97 94 90 86 85 90 97 96 89 92 93 95 89 98 92 96 94 96 198 254 240 250 254 250 253 252 248 252 250 248 254 181 116 128 124 127 127 130 131 133 130 130 131 130 126 126 130 128 125 128 124 120 114 111 130 125 123 119 121 117 204 254 244 252 245 243 254 248 247 252 160 114 130 141 66 119 122 138 130 172 169 155 168 165 162 163 166 165 177 101 29 46 58 41 44 32 50 44 43 36 30 70 171 171 174 164 165 166 170 177 157 156 154 172 172 173 166 168 168 164 165 159 169 176 157 51 20 19 34 59 21 47 40 52 30 28 41 59 93 65 86 101 105 10 29 36 41 46 89 17 31 7 4 46 72 64 73 79 81 67 77 82 56 64 88 181 184 134 103 167 112 41 56 48 50 48 43 47 63 59 52 45 65 30 19 29 29 18 24 33 34 23 25 22 24 40 139 176 174 171 171 171 171 171 172 172 172 172 172 173 173 173 173 172 172 191 104 11 22 23 59 30 29 32 41 40 23 45 65 78 36 29 29 26 41 169 170 171 174 172 171 167 179 172 176 177 168 191 76 18 54 157 158 159 159 160 159 159 159 160 160 160 160 160 160 160 160 160 160 160 159 161 162 162 163 162 168 156 162 161 164 162 162 162 164 166 139 22 48 60 52 37 52 173 167 164 161 165 160 165 163 164 161 170 151 85 97 95 94 85 99 97 100 100 93 104 103 101 100 99 99 101 102 101 100 99 100 100 98 98 99 87 84 84 88 100 111 110 104 108 105 116 114 110 109 121 118 131 95 77 92 85 92 93 91 101 98 96 93 92 97 99 94 94 97 100 98 95 93 94 97 100 97 95 96 97 97 95 95 100 98 96 96 97 97 97 97 96 100 101 99 99 100 98 94 99 100 100 99 98 98 98 97 92 94 94 92 94 95 87 77 95 97 89 81 84 84 85 92 95 94 92 90 88 88 88 88 90 90 92 93 95 96 98 98 101 101 101 98 95 93 93 94 93 94 96 98 97 94 93 94 94 92 91 91 91 90 91 94 91 92 93 94 95 95 96 97 100 103 101 139 246 250 247 254 250 250 251 253 252 251 251 253 235 126 131 132 127 134 134 130 129 129 130 130 130 130 129 129 131 131 128 130 133 123 114 116 123 139 120 110 129 128 237 252 254 244 245 251 247 248 248 235 151 126 127 55 160 146 82 128 173 159 160 169 162 168 168 163 163 181 102 31 52 51 45 44 42 40 34 37 41 30 64 190 170 161 164 165 170 171 145 153 168 180 205 206 186 156 165 165 167 167 148 155 166 165 44 27 35 29 26 28 35 51 7 46 32 38 37 87 91 18 119 102 34 52 49 23 90 77 21 15 27 10 57 39 65 77 79 69 66 55 72 69 34 78 195 174 158 164 189 111 42 43 56 41 48 47 46 40 53 50 57 62 53 39 30 32 36 28 21 35 25 21 21 19 60 152 179 168 171 167 169 176 170 172 170 174 172 175 173 174 177 175 165 174 189 108 10 24 22 28 34 16 26 35 41 23 32 46 64 59 15 32 21 41 166 174 178 170 173 176 172 171 177 179 177 179 182 55 18 33 159 159 160 160 160 160 158 158 159 159 159 160 160 160 159 159 160 160 160 160 162 162 162 162 161 160 161 166 169 162 163 164 162 165 174 179 30 25 103 147 42 65 160 167 160 171 162 168 156 164 162 167 172 136 81 98 94 92 85 101 100 102 101 97 102 102 101 100 99 100 101 102 97 98 97 97 99 102 100 95 96 99 91 80 83 100 110 107 110 114 119 115 121 118 123 124 124 101 90 90 91 93 94 86 97 100 99 96 96 98 96 94 95 97 98 98 96 96 98 100 100 98 96 98 98 97 94 93 97 96 95 95 97 98 99 99 101 99 98 97 97 96 96 98 100 99 98 100 99 95 93 94 88 86 88 92 90 85 85 89 88 92 90 89 93 92 90 94 95 94 93 92 91 91 91 91 92 92 93 95 98 99 98 97 101 100 99 97 96 95 96 96 92 91 92 96 97 96 94 93 94 93 93 94 93 91 92 93 96 96 96 96 98 98 98 98 101 89 101 99 183 254 244 250 252 251 252 253 251 250 252 253 250 164 123 136 129 133 130 131 127 126 129 130 131 131 131 131 131 135 129 124 128 129 122 117 118 122 119 121 123 113 157 252 247 254 242 247 250 247 247 252 207 133 152 99 141 139 100 170 120 133 182 167 170 161 170 170 162 181 100 30 49 50 45 44 43 41 41 43 40 36 69 176 164 176 168 166 161 144 177 147 150 174 160 163 143 167 162 173 171 162 167 161 171 159 50 37 40 32 37 89 30 19 27 35 38 26 44 99 61 83 149 81 38 35 50 56 47 15 48 3 14 12 17 5 69 68 64 72 48 63 68 69 43 63 152 178 165 170 186 120 51 59 41 55 50 38 36 47 62 39 29 35 31 26 28 22 32 50 41 32 29 24 24 18 41 142 184 172 171 177 172 179 174 170 175 168 179 176 169 177 167 173 174 169 186 101 20 20 22 59 56 71 38 21 9 30 28 7 30 62 32 27 39 44 173 181 173 180 180 181 188 190 181 182 185 180 197 80 17 27 161 161 161 161 160 160 159 159 159 159 159 159 159 159 159 159 160 161 162 162 162 162 162 162 162 163 168 159 155 161 165 162 154 161 190 152 30 60 129 71 88 74 164 148 169 168 155 164 164 169 159 158 173 118 92 100 92 88 84 101 101 100 101 100 100 100 99 99 97 97 99 99 95 97 96 95 100 106 101 92 92 89 84 84 85 88 94 101 105 112 111 104 117 112 110 112 107 102 100 87 92 91 91 78 89 99 100 97 100 100 95 97 97 97 97 96 97 98 100 102 101 97 94 94 95 95 95 97 95 94 94 95 97 98 99 99 101 97 96 98 98 96 97 102 102 98 96 97 97 93 91 92 93 93 94 94 88 84 89 99 90 93 93 94 97 96 93 95 95 95 95 95 95 95 95 95 94 93 94 96 99 100 99 96 101 99 97 96 97 98 99 99 95 93 93 97 100 99 96 95 95 96 97 99 98 96 95 96 100 99 98 98 99 100 99 98 95 91 100 89 105 230 253 247 253 252 252 253 251 250 252 253 254 209 118 135 134 135 129 134 134 133 134 133 132 130 128 127 128 133 130 125 127 128 125 121 122 120 125 124 121 122 112 203 254 247 253 243 249 245 250 254 244 185 152 178 154 82 55 131 112 168 161 170 177 168 164 162 163 183 101 29 47 48 45 45 40 37 40 39 31 35 72 167 156 152 154 152 151 172 143 143 153 145 155 157 169 170 167 152 177 176 183 174 185 166 42 34 16 20 74 62 45 22 19 24 54 48 43 55 61 36 112 124 23 53 67 81 35 1 44 33 3 17 1 40 65 59 79 58 51 68 80 71 69 87 130 127 168 167 186 121 49 56 57 40 56 22 39 67 56 37 44 44 37 26 39 38 39 49 30 12 22 31 19 21 63 145 167 179 172 170 173 125 165 172 178 175 165 183 178 168 178 170 185 173 196 107 6 21 14 34 97 128 37 28 18 22 28 22 44 72 28 17 26 40 156 173 160 160 165 184 144 75 88 81 78 86 77 65 45 40 161 161 161 161 161 160 160 160 159 159 159 159 159 159 159 159 161 162 162 162 162 163 163 163 164 155 160 170 168 168 159 164 178 112 160 99 124 148 89 122 93 65 187 122 121 161 181 156 157 166 170 165 170 94 102 95 93 86 88 102 102 98 99 101 101 101 100 98 96 96 97 97 96 96 96 97 102 104 99 91 98 91 93 108 115 108 105 108 110 112 111 104 116 115 113 109 91 101 101 88 92 91 84 75 83 97 99 96 100 99 95 100 98 97 96 96 97 99 100 101 97 93 92 94 95 95 96 98 95 95 96 97 97 97 96 96 93 93 95 97 99 98 98 99 102 99 96 94 95 94 93 93 89 93 92 84 80 85 91 93 96 95 93 92 93 93 93 96 95 95 96 97 97 97 97 97 94 94 94 96 97 98 97 96 100 98 97 97 99 100 100 99 101 99 99 101 102 101 98 97 98 99 100 102 101 99 98 99 99 97 95 96 97 98 97 95 91 99 94 100 78 156 254 243 251 251 251 253 252 251 252 252 253 240 136 125 137 136 129 131 127 128 130 132 132 132 132 132 125 128 131 133 131 124 123 128 121 121 122 117 118 125 119 130 234 250 251 247 248 244 251 248 252 249 164 109 173 184 113 106 128 91 84 160 111 161 173 168 166 184 102 28 45 46 44 46 39 39 41 40 32 32 69 171 164 156 164 170 176 151 142 169 167 174 172 167 175 173 154 154 156 168 123 127 112 70 51 34 29 84 31 32 32 56 37 51 35 61 17 75 39 71 160 77 43 91 34 40 66 6 32 77 2 1 28 43 82 64 67 60 66 69 64 71 61 79 187 100 128 171 189 131 44 53 35 49 32 42 30 43 72 46 33 78 62 29 31 24 15 24 22 26 23 26 23 22 42 144 184 170 169 177 147 135 177 177 160 172 177 168 172 174 178 164 77 143 193 101 18 23 19 41 75 48 35 23 23 12 21 15 27 62 37 24 20 44 109 89 105 96 62 50 31 19 18 19 18 14 22 26 22 26 160 160 160 160 160 161 161 161 160 160 160 160 160 160 160 161 164 163 162 162 162 163 164 164 165 166 167 159 158 153 166 190 168 114 167 165 74 101 180 170 47 77 179 142 121 159 159 165 166 159 160 170 154 82 104 92 97 89 95 103 104 99 99 102 102 101 100 99 98 97 97 97 98 95 96 101 102 98 93 92 89 91 96 104 111 113 108 103 116 111 114 111 119 124 128 114 88 102 100 96 94 93 81 78 84 99 100 96 98 96 93 100 99 99 98 98 99 99 98 97 92 91 94 99 101 97 95 95 97 98 98 98 97 94 92 91 88 93 96 94 95 98 96 91 97 99 98 95 95 98 96 92 88 87 83 79 82 89 92 89 94 91 91 92 90 89 92 95 96 96 97 98 98 97 97 97 93 94 94 94 93 94 95 97 99 98 98 99 100 101 100 98 101 101 102 103 102 99 98 99 100 100 100 101 99 97 96 96 95 93 91 92 93 94 93 91 94 93 91 94 96 97 220 251 248 248 250 253 253 251 250 251 250 254 179 118 133 132 127 125 125 126 128 128 128 127 126 125 123 123 127 130 130 127 128 130 121 121 119 123 119 114 128 113 164 254 243 251 249 247 247 250 252 250 242 123 138 158 186 131 84 112 99 159 117 159 162 173 166 185 102 25 40 42 41 43 36 40 40 42 39 26 59 178 172 185 180 170 152 145 177 166 175 166 173 162 168 160 177 186 136 91 148 106 80 143 59 22 73 78 19 23 38 25 34 23 31 21 41 51 47 111 181 98 78 28 40 33 46 20 26 66 26 18 41 43 81 66 62 61 49 71 80 62 59 77 184 181 125 119 171 112 49 46 44 39 50 35 34 57 62 38 26 43 31 7 20 27 25 28 23 26 22 17 21 25 36 131 184 169 181 171 150 76 116 188 175 173 178 174 174 168 187 142 61 122 202 112 23 20 16 40 44 29 44 42 16 23 27 20 32 70 19 28 28 30 97 123 166 98 41 13 43 97 21 13 23 31 25 26 30 22 160 160 160 160 161 161 162 162 161 162 162 162 162 162 162 162 163 164 163 163 163 163 164 164 163 163 163 161 183 142 140 158 162 144 139 132 14 85 134 140 36 68 124 155 164 166 147 168 173 162 155 183 138 85 99 98 97 89 99 101 102 97 98 101 99 98 97 96 95 96 97 98 98 95 96 101 100 92 89 90 91 94 102 109 109 104 103 106 114 108 113 111 116 122 125 104 92 102 97 98 94 94 80 81 86 99 103 98 97 95 92 97 100 100 100 100 100 99 97 96 97 94 95 99 99 96 96 100 99 99 99 97 93 91 89 88 93 99 99 93 93 97 96 90 92 96 98 97 96 96 94 90 96 88 83 88 92 92 91 92 91 90 94 96 90 86 88 88 96 97 97 97 97 97 96 96 93 94 95 94 92 92 95 98 98 98 99 100 100 100 99 98 97 98 99 101 100 97 97 99 100 99 98 98 95 92 91 92 93 92 90 91 92 93 92 92 94 92 93 92 102 90 145 254 246 246 248 252 253 251 250 249 250 254 222 127 125 130 127 127 131 131 131 129 125 121 118 115 121 120 119 117 121 133 134 124 126 129 122 129 123 122 123 132 118 202 254 246 245 249 246 251 245 254 252 190 98 146 162 177 118 65 141 167 182 167 171 166 166 185 101 23 36 38 38 39 36 38 35 37 39 26 60 186 172 177 168 147 139 179 170 163 162 166 162 173 175 160 130 100 125 181 128 86 155 110 58 33 84 24 34 29 32 31 31 44 27 48 39 61 75 60 103 107 29 23 43 51 42 33 11 41 18 26 2 46 81 78 86 77 64 65 64 75 65 93 188 176 180 135 135 121 38 75 110 52 35 31 27 57 72 42 21 52 56 28 17 23 28 26 26 39 23 21 18 23 57 137 182 176 173 176 186 99 90 114 186 170 171 175 173 174 177 191 95 96 190 114 18 27 18 32 23 67 94 99 13 25 19 26 36 51 24 26 29 28 17 28 49 28 35 59 61 53 51 71 60 33 36 22 37 59 162 162 161 161 161 161 162 162 163 163 163 163 163 163 163 163 163 164 164 165 165 164 164 162 165 168 147 168 180 111 108 169 170 154 137 103 31 137 130 149 95 65 121 149 139 159 155 108 155 172 174 177 122 86 94 99 95 88 100 97 99 96 97 100 98 97 95 94 94 95 97 98 97 95 96 98 97 93 90 89 91 93 103 115 111 97 97 108 109 110 114 110 119 121 113 93 96 99 95 93 93 92 84 82 81 92 101 101 98 97 96 97 97 98 98 98 98 96 95 95 100 95 94 97 97 94 97 102 100 98 96 92 89 87 88 89 96 99 99 96 95 98 98 94 94 92 93 95 93 88 88 92 92 88 87 90 91 88 88 91 95 91 96 98 88 84 89 91 97 97 97 97 97 97 96 96 95 96 96 96 95 95 97 99 98 98 99 99 99 99 99 99 97 96 97 99 100 99 98 99 98 97 98 98 96 93 92 93 95 94 94 94 94 95 96 97 93 97 94 101 97 101 95 212 247 246 247 250 251 251 250 250 249 253 249 156 121 129 128 131 125 126 128 129 128 127 125 123 122 120 120 117 119 132 135 122 128 128 124 123 122 130 115 127 123 134 239 246 245 249 247 249 253 251 248 253 198 154 175 163 183 136 56 74 125 147 164 172 164 186 101 22 34 36 37 38 41 41 38 39 39 34 66 174 171 160 158 160 186 167 166 178 170 174 171 173 168 96 119 174 186 97 76 120 144 186 58 35 49 31 44 41 38 24 24 30 52 39 45 81 73 98 150 110 14 27 39 44 29 52 16 46 27 25 21 27 99 69 54 69 67 69 77 67 48 88 156 168 174 179 158 110 44 53 93 69 36 44 29 47 68 39 9 43 76 62 29 18 24 18 21 34 30 25 25 18 42 126 190 174 169 173 184 146 110 135 189 175 175 176 179 175 172 167 170 163 186 107 29 10 9 42 12 44 90 85 5 28 29 27 36 70 23 22 29 33 15 23 16 18 15 23 68 34 28 84 122 34 15 37 44 37 164 163 162 162 161 162 162 162 163 163 163 163 163 163 163 163 161 163 164 165 166 165 162 161 172 182 111 138 176 164 131 148 142 168 149 106 56 134 157 97 85 58 143 164 152 175 146 111 171 180 159 118 99 95 104 89 94 88 102 96 99 97 99 102 102 100 98 96 95 96 98 100 96 97 97 96 96 96 93 89 90 99 108 110 107 106 107 109 100 111 113 108 125 121 106 89 99 97 96 88 95 93 92 84 71 83 97 102 99 100 101 98 94 95 96 96 95 94 94 94 90 90 95 103 103 96 93 96 99 97 93 88 85 86 88 91 91 92 94 97 98 98 98 97 100 90 88 91 88 79 83 95 82 90 95 91 87 90 94 95 97 91 94 94 84 85 97 103 97 97 97 97 97 97 96 96 97 97 97 98 98 99 99 99 98 99 99 99 98 98 99 100 100 98 97 100 102 101 100 99 97 97 99 101 100 98 97 98 97 98 98 98 98 99 101 102 99 96 93 100 105 99 93 141 249 247 247 249 250 250 250 250 251 250 254 184 119 127 122 129 125 126 128 129 128 126 124 123 128 124 128 131 125 127 132 130 134 126 131 128 127 127 117 116 135 121 169 254 254 248 247 250 248 247 253 248 235 177 160 172 182 165 97 91 122 101 184 160 164 186 102 22 35 37 38 40 34 35 41 42 36 33 52 133 159 162 163 170 168 176 168 148 161 159 149 158 94 138 194 165 76 115 152 145 181 157 62 56 28 45 26 23 26 18 44 50 50 22 33 84 67 78 139 104 17 30 34 38 34 12 34 64 30 14 31 54 95 62 74 71 68 73 68 73 70 83 164 158 147 169 194 135 41 44 15 50 38 25 26 52 55 55 41 30 35 64 37 12 20 25 24 15 21 15 17 31 60 75 130 182 174 177 170 180 135 76 137 160 183 169 176 170 175 180 160 129 172 104 28 39 35 19 32 11 21 33 18 19 23 13 17 72 31 19 40 36 62 25 25 26 40 40 20 8 18 28 51 88 76 70 35 34 157 171 154 160 166 163 163 165 163 159 164 164 167 162 173 163 168 168 167 157 161 165 151 122 153 165 146 144 171 144 151 132 168 109 164 114 18 120 175 95 64 53 163 126 169 143 87 181 178 87 46 82 99 95 100 93 92 98 98 102 102 99 101 99 100 99 98 98 99 99 99 99 97 99 101 98 91 85 88 94 90 100 105 109 115 109 100 101 105 105 116 115 110 134 116 85 98 91 100 88 92 88 100 90 81 71 101 103 98 98 94 90 94 95 98 100 100 96 92 91 91 92 96 99 99 95 93 93 89 88 88 89 90 91 90 90 98 96 96 97 94 90 91 94 94 93 92 92 90 86 84 84 87 92 95 92 89 90 95 98 93 93 92 90 90 92 96 100 95 95 96 97 98 98 98 97 97 98 98 97 98 100 100 97 100 99 99 99 100 101 100 99 96 98 100 101 99 97 96 96 103 100 99 99 100 99 99 100 101 101 99 98 99 101 100 98 93 97 99 99 101 104 100 95 184 254 237 249 252 245 254 249 252 251 254 239 133 126 131 126 128 126 125 125 125 125 127 129 129 129 128 127 126 128 132 135 128 134 133 123 132 127 124 120 127 133 118 202 253 244 254 243 247 252 247 249 254 197 142 175 105 170 191 122 121 171 173 165 170 198 118 12 37 42 38 41 40 39 44 44 39 35 49 85 169 177 152 144 154 153 162 129 121 164 159 77 145 198 132 73 105 162 161 177 123 110 58 47 31 58 34 28 34 30 22 30 42 38 30 95 87 54 118 103 52 25 36 47 37 8 16 56 16 24 19 56 86 62 65 57 66 56 72 73 41 73 190 174 155 166 162 90 57 44 41 71 75 26 22 62 78 41 37 10 12 18 30 27 13 34 27 31 27 18 14 17 53 102 85 160 175 181 167 179 168 88 93 179 176 180 174 175 180 168 114 99 82 120 100 98 87 48 33 20 28 52 21 19 29 22 34 68 26 30 91 86 67 23 27 33 89 107 19 26 19 2 36 79 67 61 53 32 164 161 162 184 163 168 171 166 166 174 167 168 164 163 158 167 152 137 167 157 107 147 175 117 124 171 168 145 145 144 142 170 173 93 187 121 11 112 202 135 41 64 138 117 163 129 144 135 50 65 150 162 84 95 92 101 92 97 97 101 100 97 99 97 99 99 99 99 98 99 99 99 99 100 100 97 92 89 92 97 87 104 111 109 110 108 105 107 104 112 116 113 113 154 134 86 94 92 102 95 96 90 93 82 92 75 95 94 90 91 94 96 95 95 98 101 101 98 96 96 92 92 93 95 94 91 90 91 89 90 91 92 93 94 93 93 94 93 91 91 89 88 90 92 94 89 87 91 92 88 84 83 91 91 92 93 96 98 97 94 93 94 95 96 97 99 101 102 95 96 97 98 98 99 99 98 101 99 96 93 94 98 99 97 96 95 95 96 97 99 98 98 97 99 101 102 101 101 100 100 96 97 99 102 102 100 98 98 100 101 102 101 100 100 98 94 98 98 97 97 98 100 99 98 129 236 243 248 251 253 249 251 252 249 247 254 167 116 124 125 123 124 124 123 123 124 126 128 128 126 123 120 118 120 124 128 133 132 129 132 133 125 120 128 116 131 125 135 233 253 244 253 249 249 254 246 254 253 148 133 137 154 174 174 123 144 181 195 187 209 126 16 39 39 30 33 38 44 44 41 41 37 63 123 139 171 179 162 165 157 150 161 145 140 98 124 169 114 59 136 165 177 167 107 135 151 46 19 30 32 41 33 42 32 18 27 31 46 32 79 82 102 195 97 37 20 43 38 43 12 33 74 30 23 16 51 73 69 75 77 71 67 58 67 67 93 171 174 182 188 166 60 48 54 37 39 79 58 42 21 65 51 30 16 17 25 96 106 44 27 33 26 29 91 100 16 41 77 122 164 166 174 176 185 175 147 132 164 181 183 187 179 180 179 170 104 68 93 39 41 79 71 31 18 31 27 15 31 23 22 26 61 30 27 19 35 25 15 9 19 20 29 58 33 74 118 31 19 62 95 77 36 172 167 156 153 159 165 161 157 152 155 153 136 149 149 125 148 142 114 134 166 145 161 163 121 148 178 145 141 184 127 96 192 155 68 157 86 38 169 124 73 72 63 139 106 151 197 116 31 98 184 167 119 83 97 98 95 93 98 98 101 100 97 99 97 97 99 100 99 98 98 98 99 100 100 98 94 91 92 94 97 92 108 113 107 105 108 109 110 104 118 113 107 121 173 154 84 94 94 97 94 90 91 92 86 91 72 89 94 90 87 90 95 99 97 97 97 97 95 95 96 93 93 93 95 95 95 96 98 94 95 97 97 96 94 92 91 89 89 89 88 89 91 92 91 91 86 86 90 90 86 85 87 92 92 92 95 99 101 98 93 97 96 96 96 97 98 98 98 96 96 97 98 99 99 100 100 101 99 95 93 94 97 98 97 97 96 96 97 99 100 100 100 96 96 97 97 98 98 97 96 92 93 97 99 98 95 94 95 98 100 101 99 97 96 92 90 98 96 95 96 98 99 99 101 87 175 254 243 251 252 251 252 251 249 246 254 213 116 120 125 121 123 124 121 121 123 125 124 125 123 120 117 115 116 119 121 133 133 126 134 130 129 121 128 125 117 131 112 162 252 244 248 245 249 250 251 238 254 243 106 156 118 124 201 148 100 88 176 168 189 110 12 37 41 38 43 35 43 37 33 37 29 57 132 86 107 182 162 171 179 132 148 165 87 130 172 104 60 136 138 132 132 100 136 160 136 73 39 48 34 43 36 37 30 28 41 28 31 40 95 73 56 139 112 24 31 39 40 32 28 17 52 58 0 22 105 87 63 77 79 66 60 77 66 58 75 99 188 173 119 168 100 39 53 32 31 63 116 83 92 58 38 31 75 71 24 30 104 103 11 13 27 31 82 76 8 54 119 95 163 179 172 162 153 172 108 80 103 165 171 120 67 174 163 192 93 105 101 81 56 65 38 26 12 12 16 43 67 51 51 19 71 28 37 51 33 25 60 58 24 24 10 67 136 57 80 85 114 84 100 57 25 142 147 137 147 152 132 141 134 127 146 146 132 130 151 152 158 167 146 136 149 180 165 122 177 155 161 128 155 165 128 136 161 103 91 149 28 75 190 104 106 88 47 85 97 174 128 29 126 171 151 177 118 82 98 93 93 95 99 98 101 100 96 99 97 96 99 100 100 98 97 98 99 100 99 95 91 89 92 94 94 104 109 109 104 104 108 109 109 110 118 110 108 137 180 166 87 94 97 93 92 85 91 89 88 86 70 87 97 98 90 91 95 102 98 95 94 93 93 95 98 94 95 97 98 99 99 100 102 96 97 98 97 95 93 91 91 91 93 93 92 93 95 93 88 87 89 90 87 83 82 88 95 91 94 97 96 95 95 96 95 99 96 93 92 93 94 95 94 96 96 97 98 98 99 100 100 97 97 97 97 98 99 98 98 99 99 99 100 102 102 101 99 94 93 92 92 93 93 92 90 94 93 94 93 91 89 91 95 100 101 100 98 95 93 92 93 94 92 94 98 100 97 97 99 86 111 232 249 241 248 252 249 249 252 252 250 246 142 116 125 122 123 124 120 120 123 122 119 120 120 119 118 118 117 117 117 128 135 130 128 127 135 129 122 134 119 124 135 112 202 254 243 250 246 249 248 253 246 253 196 74 143 171 186 181 136 122 149 176 193 116 15 36 36 33 36 42 44 38 37 40 31 51 112 26 87 173 170 130 113 167 147 106 123 158 132 81 154 158 148 129 116 124 132 140 116 50 51 30 41 35 46 36 27 26 28 43 38 30 73 85 96 136 114 26 36 48 33 42 25 1 9 52 15 21 65 70 61 71 64 63 64 68 65 55 67 76 155 75 52 161 125 47 28 40 62 50 18 74 156 97 98 52 27 45 35 79 114 13 21 13 9 73 84 62 105 67 99 180 171 170 121 90 102 188 137 53 105 97 56 2 7 46 31 25 48 32 30 55 77 54 57 64 77 25 45 55 34 89 43 24 71 24 34 65 86 14 65 110 25 24 40 71 76 93 39 41 40 37 44 32 54 100 110 103 122 152 95 100 129 151 135 147 130 126 180 144 169 163 151 156 180 151 147 175 157 147 171 137 177 131 146 170 147 140 122 169 63 114 127 156 93 30 41 104 177 143 16 108 186 166 142 141 104 96 88 106 97 94 98 97 99 98 94 98 96 97 99 101 100 99 97 98 100 99 97 93 90 89 92 94 94 111 106 105 104 102 104 108 111 118 115 109 119 159 176 175 99 88 97 96 99 90 92 81 79 88 75 87 94 96 89 93 98 97 95 95 96 96 97 99 101 94 97 99 99 98 97 96 94 92 93 93 93 93 93 94 94 97 98 97 94 94 95 92 87 90 93 90 82 79 85 93 98 92 96 97 93 89 90 93 95 96 94 92 92 93 95 95 95 96 96 96 97 97 98 98 99 94 96 99 100 98 97 97 98 97 97 99 100 101 99 96 93 93 92 91 92 94 95 94 93 97 95 94 92 90 90 94 98 101 101 100 99 96 95 96 98 92 91 93 97 98 95 94 96 97 86 165 254 240 250 246 248 249 254 252 244 254 188 107 123 124 123 122 120 121 123 121 116 116 116 117 118 119 119 118 118 122 132 138 128 128 132 134 123 123 137 120 133 127 133 232 253 246 246 248 246 254 253 235 253 161 97 180 183 166 118 175 162 167 185 113 16 38 41 41 42 44 40 40 40 37 34 53 98 63 69 159 140 160 156 129 123 156 182 125 85 171 186 174 184 142 159 187 159 188 98 38 43 13 44 39 42 36 28 22 20 26 46 30 66 77 101 198 131 21 28 41 34 42 15 0 10 43 43 34 54 83 62 67 51 59 66 80 71 60 97 91 101 142 68 127 140 54 77 60 85 73 26 58 34 64 45 35 40 72 91 95 74 36 57 99 79 85 77 75 74 40 108 153 163 99 126 140 64 139 150 39 62 65 76 17 57 31 27 2 10 3 21 51 66 73 61 48 75 57 42 70 58 32 37 8 51 32 2 34 48 20 11 30 25 22 78 76 5 16 27 13 13 78 95 96 120 147 168 155 192 157 122 154 163 150 156 153 92 138 168 104 146 127 78 158 153 73 142 161 96 147 164 109 141 162 154 126 146 126 120 133 108 110 43 71 53 1 51 139 186 60 55 161 168 144 169 151 96 89 95 98 93 96 99 97 99 98 95 99 97 98 99 100 100 99 98 99 100 100 96 94 93 92 93 97 100 111 105 105 106 100 101 110 116 118 112 106 136 174 170 180 117 81 94 95 99 94 94 82 81 85 79 87 89 92 85 90 92 94 95 97 100 100 97 96 96 91 94 97 97 97 96 94 92 93 92 90 90 91 92 93 93 95 95 93 91 92 94 95 95 95 92 86 80 83 92 96 95 95 95 93 90 90 92 93 93 94 94 94 95 95 94 92 91 96 96 96 96 96 97 97 97 97 97 97 97 95 93 95 98 96 96 97 99 99 97 93 90 91 91 92 94 96 98 99 99 97 96 97 97 96 96 97 100 96 97 97 99 98 96 96 96 95 94 94 94 93 93 93 94 101 94 110 218 254 246 248 250 249 254 246 251 254 229 115 119 123 120 119 120 121 122 120 117 117 117 116 117 118 119 120 120 119 123 138 136 133 124 133 134 124 133 132 117 136 116 165 251 249 249 246 249 241 245 254 243 252 152 109 144 90 129 169 160 166 184 115 15 32 35 35 34 42 36 39 38 29 29 54 100 113 97 167 128 115 121 132 151 197 117 55 155 171 159 180 149 156 179 171 180 149 107 81 32 28 45 54 27 30 30 22 29 34 24 35 68 77 29 116 135 17 27 34 45 36 14 24 45 3 32 48 71 96 60 75 66 50 83 58 77 57 81 174 151 157 133 120 118 62 130 110 76 97 86 104 61 68 49 83 79 81 81 42 81 107 95 110 35 22 65 45 59 72 100 160 178 123 65 64 110 173 157 33 30 40 20 4 81 46 100 42 10 16 36 68 53 100 75 60 69 35 15 32 56 74 103 35 58 68 47 47 98 44 21 26 25 10 7 44 42 26 18 26 68 89 75 43 51 46 71 139 73 91 73 100 125 91 115 95 119 169 113 107 175 128 137 170 171 124 168 156 140 159 155 112 115 171 147 99 104 123 83 108 114 76 95 94 119 25 34 135 103 40 144 131 135 147 148 117 94 101 104 92 97 97 101 98 100 99 97 101 99 100 100 100 100 100 100 100 100 99 95 93 95 93 93 100 109 112 106 105 104 101 105 115 117 113 115 108 154 179 169 183 133 79 91 93 94 95 95 89 91 77 81 87 86 90 87 92 89 97 97 98 100 99 96 93 92 90 93 95 95 95 96 96 95 96 93 90 89 91 92 92 91 92 92 92 94 94 95 97 99 94 87 83 86 92 95 94 93 94 94 93 92 93 96 96 94 95 96 96 96 94 92 90 89 97 96 96 96 96 96 96 97 100 97 94 94 95 95 96 98 97 97 98 99 100 98 95 92 93 94 95 96 97 98 99 99 95 95 97 99 99 97 96 97 91 90 91 95 97 95 92 92 94 95 94 92 91 92 94 95 100 102 93 146 245 243 247 251 250 253 247 254 252 250 156 113 122 118 118 120 119 116 116 118 118 117 117 117 117 117 116 115 117 112 126 141 137 126 130 136 135 122 137 121 123 130 123 205 254 248 251 248 254 247 253 248 242 238 113 95 148 101 137 167 167 187 119 16 31 36 39 37 42 40 40 38 33 27 54 111 63 96 159 98 28 122 184 66 115 81 68 166 170 183 142 134 184 142 162 181 119 167 66 29 28 35 50 34 32 27 20 21 34 34 23 72 84 81 189 96 27 32 51 37 48 18 55 40 8 24 25 57 97 53 74 128 101 94 64 65 42 63 182 196 60 80 87 87 43 38 115 52 65 69 118 132 98 101 86 48 100 85 9 76 122 69 130 75 34 84 34 99 142 60 148 139 101 96 26 62 145 150 36 100 55 21 18 44 74 76 32 15 25 17 5 6 34 79 91 112 22 47 5 53 68 88 45 44 40 44 76 65 44 29 20 15 62 49 59 60 93 88 38 122 68 27 12 50 57 116 69 50 61 55 100 81 37 34 42 82 51 61 27 36 77 85 35 70 38 75 110 122 76 105 92 99 136 129 107 111 134 82 171 110 68 164 184 163 136 42 108 49 124 136 117 126 153 126 99 103 99 97 108 87 96 100 97 99 98 96 100 99 101 100 99 99 100 101 101 100 98 93 92 95 94 94 103 117 116 107 104 102 103 113 119 112 111 123 114 169 180 173 185 144 80 92 96 95 99 96 90 90 77 85 90 85 89 92 102 99 101 100 99 99 99 97 98 99 94 96 96 93 92 94 95 94 94 91 89 90 93 96 95 93 95 95 98 101 99 94 92 94 89 83 84 95 98 92 90 94 90 94 96 96 96 97 98 98 95 96 97 96 94 94 95 96 98 97 96 96 95 96 96 96 101 95 92 95 98 99 98 97 98 98 98 99 100 100 98 96 98 99 100 99 97 96 96 96 94 93 94 97 97 95 92 92 92 89 88 91 93 93 93 95 91 94 95 92 92 95 98 96 98 102 90 93 204 249 236 251 250 253 254 249 253 254 200 108 121 119 119 121 116 110 111 118 115 115 116 116 115 112 108 104 116 106 112 138 138 135 130 130 134 132 121 129 127 128 133 152 229 253 248 253 243 253 248 247 248 253 203 66 104 68 71 74 169 190 120 14 25 31 37 35 36 36 33 33 39 28 49 115 32 65 128 145 119 154 139 66 77 167 92 78 166 171 155 176 75 136 156 119 138 176 86 24 25 30 32 48 34 27 31 23 52 25 28 75 89 70 103 124 17 36 42 28 33 28 53 0 11 24 29 35 56 63 70 60 68 68 68 74 60 62 154 169 133 111 82 50 35 66 69 60 10 41 32 53 96 91 103 61 66 88 51 56 30 44 63 119 33 27 37 95 96 68 52 115 132 80 112 73 167 117 21 72 101 22 37 38 74 106 25 23 15 20 19 26 14 29 20 35 77 96 70 40 84 97 48 67 20 31 57 29 27 22 37 33 79 110 103 58 56 102 66 49 32 6 54 124 86 96 88 102 106 113 136 155 104 122 159 123 108 148 107 114 142 68 95 128 79 62 109 42 54 77 81 41 81 28 18 46 65 42 90 90 19 64 61 57 86 39 65 55 106 88 128 146 155 138 112 95 98 101 92 96 100 97 96 97 97 96 97 98 99 99 98 97 98 100 100 100 107 87 92 101 93 96 113 116 105 104 96 99 112 114 110 116 109 116 146 194 184 169 190 164 84 88 94 98 94 92 92 89 78 86 87 86 90 90 90 96 98 98 96 93 95 99 99 96 82 91 98 97 92 89 90 92 90 92 95 95 94 93 94 96 99 95 95 96 95 91 93 98 86 89 92 94 93 90 88 88 91 94 97 97 96 94 94 95 97 97 97 98 97 95 95 96 100 99 97 95 94 94 95 97 96 93 95 94 97 101 95 93 98 100 101 97 95 96 97 97 96 99 100 97 95 96 97 97 97 98 97 95 94 95 95 93 97 90 88 94 98 94 93 96 93 94 95 99 100 100 97 95 100 95 96 91 116 248 240 245 249 250 254 248 246 254 244 123 118 111 116 115 109 102 101 112 109 110 110 112 114 115 115 115 116 118 101 110 147 139 134 130 134 143 126 133 132 123 139 136 180 250 252 246 243 254 248 253 252 248 249 158 47 33 112 142 172 162 139 45 14 35 39 42 30 47 34 35 45 44 33 113 29 68 170 156 124 108 38 84 97 69 170 148 141 89 97 131 76 129 129 83 147 82 90 25 22 27 52 14 27 46 12 31 38 24 32 61 33 78 100 106 6 23 37 27 45 48 3 10 6 6 19 78 43 51 77 43 62 57 59 59 59 70 69 165 191 195 135 36 37 53 83 96 39 29 40 53 80 54 50 59 19 16 73 94 61 51 65 101 72 19 80 97 109 67 63 82 46 112 109 18 143 98 32 30 39 11 2 56 97 31 54 22 18 19 24 21 2 72 78 69 111 63 104 95 134 122 87 53 42 53 69 45 48 93 73 43 47 96 95 60 72 73 59 45 58 34 35 88 30 28 18 6 6 9 2 13 21 21 21 29 34 33 41 62 44 52 72 80 87 105 95 68 121 151 109 128 141 88 63 114 80 90 122 53 43 67 122 73 21 43 70 40 52 45 56 69 70 56 113 105 89 94 98 91 98 97 97 99 99 98 98 100 100 98 97 99 98 97 99 104 96 86 91 98 94 104 115 111 110 107 105 107 109 113 113 108 112 108 152 164 159 173 159 169 91 81 96 98 92 98 90 79 82 89 90 90 88 94 96 98 100 96 95 96 98 98 97 97 86 90 91 89 86 87 89 92 88 89 91 91 91 92 93 95 88 96 98 92 93 99 98 90 89 91 95 96 96 95 95 94 98 98 98 97 96 96 97 98 97 95 94 95 94 93 95 97 96 95 94 93 93 95 97 99 97 99 105 102 99 100 95 96 97 99 100 98 97 99 100 100 101 101 98 95 94 96 96 95 97 99 99 98 97 98 96 94 96 93 92 94 97 96 94 92 96 96 96 97 98 97 94 91 96 94 95 100 99 188 254 240 251 252 248 246 249 249 252 172 106 119 109 109 114 108 107 110 113 113 113 113 113 113 112 112 115 112 108 109 122 148 136 133 125 132 132 129 136 126 120 150 145 209 245 249 250 246 248 251 246 243 254 244 108 58 111 151 171 166 92 97 39 37 36 20 39 121 76 26 30 29 53 88 55 82 144 94 142 82 56 121 61 36 154 196 112 52 67 103 86 78 55 73 84 30 79 32 20 23 32 28 27 38 26 36 40 50 76 76 41 38 106 133 35 16 13 62 89 24 3 7 13 6 7 59 98 68 50 80 49 62 55 73 58 86 118 101 95 103 71 53 68 66 98 55 39 31 76 36 85 67 80 100 38 66 46 66 109 55 53 43 109 78 67 45 85 63 65 19 42 82 70 61 63 16 23 44 103 116 47 47 80 52 47 12 17 5 17 17 13 85 89 91 31 42 80 97 113 85 55 43 21 23 65 56 44 74 69 36 22 40 86 80 39 147 165 89 41 29 28 50 119 119 121 131 126 108 112 105 105 97 92 80 77 69 67 42 36 39 23 16 20 14 8 26 7 19 1 17 5 7 29 26 35 60 66 52 51 72 98 73 45 83 45 67 125 147 89 131 111 75 99 94 102 101 92 96 98 98 100 101 100 98 99 100 101 97 96 99 98 95 99 107 86 91 96 95 94 105 111 103 107 104 111 112 107 114 115 102 120 131 40 35 36 147 145 194 115 79 91 100 93 95 84 81 82 87 90 93 84 97 101 98 100 95 95 99 101 97 95 96 90 91 89 87 89 93 96 97 94 93 92 92 92 92 93 93 87 97 98 89 89 96 93 82 91 93 94 95 96 96 97 98 100 99 97 97 97 97 98 98 96 95 95 95 95 94 95 98 100 100 99 97 96 97 98 99 98 99 104 100 97 97 93 94 98 99 98 98 99 101 101 101 102 100 98 95 96 97 96 93 96 96 96 95 94 95 96 95 95 96 96 95 97 100 98 94 97 96 96 96 96 95 94 93 102 97 97 107 98 132 241 248 246 252 247 247 250 244 254 221 103 119 107 103 113 107 108 107 112 111 110 109 108 108 107 107 110 107 110 104 102 137 141 136 133 121 134 135 132 131 123 136 126 159 238 251 253 252 252 251 246 250 248 253 211 97 96 83 70 107 51 29 94 56 32 56 60 98 70 18 38 34 49 82 47 38 118 159 178 119 180 173 166 177 144 78 70 90 68 148 124 44 48 91 56 108 71 25 32 39 22 87 87 38 28 33 62 86 77 48 64 48 73 108 71 98 28 55 71 17 6 6 2 25 30 46 81 50 57 45 142 98 73 65 84 48 101 74 31 49 62 73 46 7 63 67 71 55 36 49 45 90 82 100 136 80 34 37 96 106 26 51 72 98 84 81 77 67 139 70 71 114 76 108 60 105 41 31 82 111 67 35 44 81 41 20 10 24 12 24 21 23 53 59 47 66 52 47 16 72 117 77 76 39 9 19 36 21 31 46 26 43 61 81 54 106 156 142 71 38 30 36 109 136 118 102 148 164 164 159 180 183 188 181 183 175 179 178 179 180 181 164 169 167 160 141 138 129 125 113 106 93 95 88 12 0 1 10 5 3 4 25 21 42 66 35 15 9 17 23 17 89 118 92 87 103 98 95 99 100 102 102 99 97 98 99 100 98 97 98 98 98 100 103 82 95 100 96 96 101 104 103 102 102 108 112 109 110 110 103 130 74 44 51 49 157 145 165 112 84 88 97 95 93 85 81 77 81 88 94 80 97 103 97 99 96 97 99 101 99 95 93 91 92 93 94 96 100 101 101 97 96 95 94 95 95 95 94 95 95 93 91 89 88 88 89 94 94 94 94 95 96 97 98 98 97 95 96 98 99 98 97 95 95 97 99 99 96 95 96 99 100 100 100 99 98 97 97 99 95 95 91 93 98 93 92 100 98 97 97 98 100 99 98 97 98 98 99 100 99 96 93 97 95 92 89 89 91 94 96 98 98 96 94 95 98 99 97 97 96 96 95 96 97 98 99 99 95 99 102 102 98 171 251 242 247 253 251 248 245 250 246 133 105 113 106 109 103 104 107 106 106 105 104 104 105 107 108 107 109 107 102 103 110 143 141 138 129 133 136 128 131 132 117 124 138 175 251 241 254 245 248 254 253 238 248 252 148 22 94 99 57 59 39 100 63 43 133 56 88 112 56 44 38 41 55 34 21 96 180 105 147 171 157 135 145 109 44 57 94 146 85 75 50 99 109 118 99 51 28 24 59 51 76 90 50 21 55 107 77 69 84 68 67 34 43 41 94 73 93 58 1 0 14 9 18 24 68 59 69 102 55 90 97 125 72 41 17 56 47 63 85 90 107 59 19 46 49 42 50 23 30 47 59 87 39 48 99 81 67 53 46 67 78 68 106 100 114 64 30 116 82 34 78 50 93 70 78 114 66 31 37 21 61 62 100 8 2 44 115 53 17 24 24 25 61 63 21 42 53 51 56 101 21 95 64 115 85 16 23 22 16 17 57 72 82 52 33 82 84 112 63 35 40 112 79 67 38 90 138 120 131 170 188 169 174 177 166 168 178 167 170 182 170 173 176 174 181 184 175 180 192 184 190 188 192 124 51 17 12 17 17 7 14 21 47 79 62 141 137 129 124 111 96 99 103 96 93 93 99 99 101 102 100 98 97 98 99 98 99 98 96 98 103 100 94 84 92 94 96 101 104 106 108 106 107 105 108 112 107 104 112 137 53 50 58 62 132 83 44 74 92 91 88 96 100 94 73 77 78 89 94 80 94 104 96 96 99 99 98 99 100 97 90 90 94 96 96 96 97 97 97 91 91 92 94 96 98 98 97 99 94 93 95 92 89 93 101 98 97 96 96 96 98 100 101 98 96 93 93 96 98 98 97 94 94 96 98 97 95 93 94 89 92 95 97 98 98 98 98 97 93 93 91 94 100 97 96 99 96 94 95 97 98 97 95 95 97 100 101 100 97 95 95 99 96 92 90 90 91 94 97 97 95 94 95 94 92 92 94 96 96 95 95 96 98 100 102 92 99 101 100 99 88 107 222 251 243 250 252 247 250 246 254 188 92 114 111 107 105 104 108 104 104 103 102 102 105 109 112 110 109 105 108 110 97 125 146 133 142 136 130 132 128 123 123 128 140 125 204 254 245 254 248 247 249 248 254 248 249 119 56 132 58 74 90 96 66 40 50 76 84 63 50 47 24 46 40 27 36 93 124 129 186 168 84 55 58 53 134 109 70 61 51 69 79 74 125 119 130 79 36 28 24 44 112 93 47 95 81 15 67 55 95 60 65 9 86 113 62 33 36 66 15 1 8 1 6 19 76 36 58 73 90 32 30 49 83 17 31 43 68 111 72 83 82 84 77 27 32 40 62 87 62 61 48 37 40 34 78 118 108 70 84 42 39 50 46 70 9 29 33 12 28 51 30 23 26 36 50 92 76 12 47 64 49 77 54 56 49 86 129 49 41 30 27 60 94 101 56 68 94 98 66 56 37 37 52 69 82 101 92 15 27 84 71 52 50 42 30 37 38 68 77 60 59 98 84 86 90 129 114 74 119 161 97 94 158 178 193 174 175 179 182 164 185 173 172 182 180 169 187 174 169 167 177 173 170 189 87 0 14 11 20 10 9 23 72 53 25 148 200 180 188 188 102 100 94 98 96 94 100 98 100 100 99 97 98 99 99 96 100 99 95 99 105 99 87 93 88 87 97 107 109 106 107 110 109 103 106 114 109 110 125 72 48 91 41 63 98 59 49 58 95 90 86 95 97 96 75 83 81 93 95 85 90 102 96 96 100 100 96 97 101 97 88 94 97 98 95 91 91 92 92 91 92 93 95 96 97 97 97 97 97 96 93 91 93 96 98 98 97 96 95 97 99 100 101 98 94 89 88 89 92 93 94 93 92 92 92 91 90 91 93 91 93 97 99 100 100 100 100 91 93 99 96 96 99 97 99 96 93 92 94 96 96 96 96 98 98 99 99 96 93 93 95 96 94 93 93 93 92 93 94 92 91 93 97 97 94 93 96 96 96 96 95 95 96 97 99 95 103 94 97 98 96 91 155 254 248 243 251 248 250 243 254 233 105 101 108 104 109 103 104 103 102 101 99 99 100 104 107 107 102 102 108 105 100 95 134 146 136 141 135 135 135 119 128 120 139 132 138 228 254 254 250 244 254 249 241 252 247 234 112 104 66 72 45 102 103 70 82 33 66 44 49 51 17 36 43 28 40 46 94 112 95 93 60 68 83 111 109 75 57 45 55 90 49 51 92 71 67 76 116 37 17 44 87 73 23 71 62 35 48 47 54 67 21 42 76 112 38 56 45 15 1 15 2 10 8 12 56 61 34 42 56 35 74 40 54 80 79 55 31 49 54 43 99 75 62 67 38 80 65 104 73 40 24 67 72 101 93 71 126 58 54 59 59 73 97 49 78 81 64 46 60 31 48 100 47 47 70 58 48 9 41 61 50 65 90 114 92 88 24 21 31 58 43 38 60 46 88 48 65 114 80 100 37 44 18 40 30 36 99 39 14 43 41 30 29 54 68 80 38 6 58 45 17 94 98 95 97 88 88 102 115 50 37 109 133 76 89 68 70 156 92 68 137 162 170 159 145 151 131 163 176 160 164 176 168 191 100 3 20 15 12 38 52 57 74 58 38 162 185 169 180 149 92 102 91 94 96 96 106 98 100 100 99 99 99 98 96 96 100 100 97 99 102 95 84 96 87 89 102 110 109 106 105 107 106 106 111 116 115 117 122 46 56 63 75 57 76 60 60 66 88 89 90 92 91 91 80 87 82 95 91 87 84 100 97 98 99 99 96 97 99 96 89 95 97 96 93 90 90 92 92 94 96 97 96 95 95 95 96 98 97 93 89 90 94 96 94 97 96 94 94 95 96 97 97 94 91 89 88 88 90 91 91 93 91 90 91 90 90 91 94 99 100 100 100 99 98 97 97 93 95 100 97 95 97 94 96 95 92 92 94 96 96 96 97 99 98 97 97 95 92 91 92 94 92 92 93 93 92 92 94 90 93 95 95 95 97 99 99 97 97 97 95 94 93 94 95 96 96 89 93 96 100 91 101 207 254 241 250 249 246 246 249 253 151 87 101 98 104 100 98 99 99 98 96 93 92 94 96 95 96 98 100 97 99 84 101 146 135 140 141 137 137 130 126 113 125 135 126 148 248 241 249 251 244 252 251 244 247 252 190 35 93 77 66 112 112 123 101 32 70 76 46 59 64 52 37 32 53 49 34 71 56 29 31 23 102 83 56 38 39 40 68 29 73 95 98 99 45 73 126 31 17 44 94 92 21 57 62 87 63 62 108 80 41 76 91 49 24 34 59 39 7 6 3 7 4 23 82 95 31 68 81 25 53 74 93 171 75 30 51 75 123 122 71 99 48 85 110 36 89 63 73 93 40 96 78 43 35 57 67 24 33 50 53 60 46 53 112 98 42 100 98 35 105 90 102 40 73 102 81 4 5 64 79 43 17 25 34 20 44 38 18 59 34 19 33 66 95 56 44 79 146 125 95 99 62 84 91 23 71 113 54 27 118 93 39 65 100 120 82 65 70 57 14 70 68 68 69 65 84 79 66 32 56 84 76 18 17 38 78 84 20 58 67 130 196 119 89 95 70 98 96 81 93 74 102 138 84 1 11 13 52 60 55 49 74 66 52 121 167 166 177 124 93 97 107 93 95 101 98 99 101 101 100 100 100 97 94 97 99 100 100 100 98 91 84 89 87 94 107 110 107 106 108 104 102 111 118 114 115 116 109 66 68 73 43 49 76 43 69 61 78 93 91 88 98 91 71 87 80 92 86 87 81 98 98 100 97 96 97 98 97 93 90 90 92 92 91 91 93 94 94 93 94 95 94 93 93 95 98 100 93 87 87 92 96 99 100 99 97 95 94 95 95 94 93 91 91 93 94 95 94 93 91 92 92 93 94 94 93 93 95 98 98 97 95 93 92 92 92 102 98 97 93 95 99 93 91 95 93 93 95 96 95 96 98 97 95 95 97 97 93 89 87 95 92 91 92 92 92 94 97 96 100 98 90 88 94 98 96 97 98 98 96 94 93 93 94 94 94 106 98 102 96 94 94 142 251 243 251 251 245 253 243 254 199 84 98 92 97 97 94 96 97 97 95 91 88 87 88 86 97 96 91 98 92 94 72 114 148 135 135 142 130 135 134 129 104 137 142 122 189 254 247 252 250 247 248 248 249 248 249 157 87 79 52 81 67 61 94 57 12 38 83 123 91 55 54 59 61 37 39 40 43 26 27 48 42 37 62 27 21 22 37 30 63 77 81 72 48 78 78 35 18 25 12 55 50 31 24 21 30 57 69 96 74 73 33 37 47 40 67 66 0 6 12 2 1 15 78 63 58 68 87 88 35 76 78 94 83 41 57 68 47 93 99 48 53 65 157 96 40 58 60 70 14 48 82 83 74 62 30 54 118 59 47 111 84 110 87 10 71 80 20 69 95 90 47 43 72 19 34 51 22 8 46 60 41 30 24 37 82 27 19 11 61 39 25 56 121 87 43 26 58 57 63 82 118 60 65 88 49 60 131 103 88 51 56 18 58 68 79 91 39 64 63 69 62 79 78 64 76 43 53 75 69 73 72 71 76 70 65 76 78 83 76 100 104 62 73 55 61 60 62 58 62 54 60 66 22 12 14 31 60 60 54 58 68 49 60 63 71 79 63 94 103 94 92 95 97 102 97 102 99 102 99 100 104 100 100 97 100 98 98 102 94 86 87 90 87 98 109 110 105 116 98 100 109 112 114 115 114 131 69 40 67 35 31 43 45 58 59 64 76 92 88 94 92 100 68 86 79 89 85 84 82 92 98 94 94 99 95 102 97 96 90 94 95 96 97 97 97 97 97 97 94 92 95 98 98 95 92 94 85 86 98 102 95 95 104 100 97 93 90 91 93 95 95 93 95 96 96 95 92 91 90 94 94 94 93 91 91 91 92 96 95 93 92 92 93 95 97 98 96 94 92 90 89 88 88 94 95 96 96 96 97 97 96 90 92 95 97 96 94 92 91 95 93 91 91 93 96 99 101 95 94 94 96 95 94 93 94 98 98 98 98 98 98 98 98 95 98 101 100 96 95 99 103 98 198 254 246 250 248 253 247 251 244 114 91 95 91 92 92 94 90 88 89 90 90 90 92 87 88 89 92 93 92 90 87 65 130 148 135 136 137 139 141 137 122 112 136 137 133 229 254 248 249 252 246 249 252 246 251 239 82 52 61 75 130 100 96 64 20 68 94 64 45 42 45 50 67 44 52 47 44 32 40 70 76 53 51 48 16 51 47 39 77 38 34 53 78 41 17 15 77 71 58 44 65 69 31 29 27 35 30 68 47 41 29 69 34 8 22 10 7 10 5 6 1 18 61 69 58 30 62 107 129 63 36 65 34 53 72 53 37 54 74 71 66 103 28 88 68 25 51 87 38 51 56 75 25 59 73 21 45 51 43 58 98 78 52 83 53 70 31 35 97 114 78 73 67 65 71 48 43 76 75 90 62 32 47 65 62 49 36 41 88 56 20 64 82 34 54 62 8 41 85 52 94 90 51 85 91 82 105 128 102 99 72 30 49 65 116 129 118 121 59 64 72 61 69 62 64 64 55 63 69 71 68 58 58 61 57 44 68 82 55 63 54 51 58 59 58 47 47 70 74 70 81 85 48 3 13 27 44 57 56 63 59 41 63 65 62 44 48 107 105 94 94 95 96 103 100 100 100 103 99 98 101 98 99 99 98 99 104 104 93 86 89 90 95 101 111 108 112 102 100 113 106 117 110 117 119 104 57 57 64 79 66 41 66 65 48 68 79 85 89 92 90 99 68 82 82 88 91 87 84 83 96 95 95 100 97 103 99 99 93 93 94 95 96 95 95 95 95 94 96 97 95 94 94 93 91 85 91 95 95 97 99 97 91 95 94 93 93 95 96 96 95 93 94 95 95 95 95 95 96 94 95 96 97 97 95 93 92 91 93 96 97 96 93 89 87 88 89 90 92 94 94 94 93 95 96 97 97 97 98 98 96 95 96 98 98 97 96 95 94 98 97 96 97 98 99 99 99 92 91 92 95 97 97 98 99 100 100 100 100 99 99 99 99 99 97 95 96 98 100 101 99 100 137 248 247 248 244 242 253 248 253 166 79 92 92 92 94 93 91 90 90 88 87 88 90 96 92 88 86 86 88 89 90 82 83 140 152 144 143 133 142 132 140 130 127 137 133 168 247 251 248 249 249 253 244 247 249 249 220 66 99 89 73 87 126 47 50 53 51 51 71 116 88 93 86 91 81 63 57 90 70 26 86 100 101 61 56 41 76 43 47 70 54 67 84 69 37 17 67 84 79 49 24 48 93 115 49 39 25 37 94 72 66 52 42 13 16 4 13 14 6 5 6 20 26 72 95 64 72 63 83 82 65 44 34 55 71 67 51 45 51 67 90 54 23 53 59 49 55 47 31 45 67 61 32 84 87 46 65 92 35 27 64 37 51 66 62 94 88 46 82 99 68 103 92 81 95 64 22 52 110 53 13 95 80 24 72 124 40 84 73 108 84 63 66 62 30 48 75 67 43 80 60 75 34 24 94 70 82 52 65 122 59 22 38 96 61 136 157 109 121 74 69 52 54 60 58 55 61 61 65 72 75 58 50 42 56 77 58 46 53 78 68 79 75 68 72 64 49 67 69 65 54 67 74 36 4 17 44 66 55 70 56 34 40 51 69 47 67 111 101 92 95 93 94 102 99 101 101 105 100 97 99 96 98 100 94 98 104 97 87 86 92 92 103 105 107 109 113 93 106 109 110 122 102 108 126 79 54 68 58 76 67 80 29 37 54 54 65 75 85 88 90 101 77 78 85 85 90 86 86 79 99 97 96 99 97 102 99 98 92 94 94 93 94 94 93 93 93 94 97 98 95 93 94 92 88 84 95 99 93 92 98 95 85 92 92 93 94 96 97 97 97 95 95 95 95 95 96 98 99 97 97 97 98 99 98 96 94 93 93 93 93 92 92 91 91 81 82 84 87 90 92 93 93 95 97 97 97 97 98 97 96 99 99 100 99 98 98 99 99 99 99 99 100 100 99 97 95 96 93 93 96 99 99 99 99 100 99 99 99 99 99 99 99 101 97 94 95 100 102 101 98 101 91 184 252 244 250 240 253 251 254 225 91 92 98 92 97 91 91 91 91 87 86 87 90 92 90 88 86 86 85 83 82 88 87 81 122 132 136 141 133 141 142 140 132 129 140 138 198 254 242 253 254 245 251 249 247 250 251 196 53 57 73 36 51 64 83 90 60 38 68 92 39 72 75 110 49 59 61 73 43 39 63 30 22 74 40 41 87 60 45 42 67 60 49 89 114 57 4 51 107 81 89 47 63 90 68 41 54 36 33 58 58 23 26 31 19 7 10 2 5 9 6 41 52 63 125 82 16 69 78 89 59 82 99 127 117 75 61 34 37 33 22 43 55 80 60 104 134 61 47 59 98 70 37 65 83 63 41 57 29 21 56 81 44 64 60 75 123 59 45 61 60 42 45 56 72 37 22 32 81 72 81 46 83 43 26 29 37 43 98 86 112 128 65 41 18 20 65 91 62 93 53 18 58 80 50 37 66 70 41 84 94 75 38 29 43 39 45 45 47 66 44 60 61 44 51 61 59 51 58 70 53 42 63 45 55 43 49 55 74 72 65 66 51 54 56 64 65 58 52 70 80 62 47 45 24 53 34 37 54 76 45 50 54 46 36 19 71 107 95 94 98 94 97 103 98 102 101 105 100 98 100 97 98 101 95 97 98 89 84 91 94 96 103 110 101 112 105 99 108 105 111 103 99 122 130 76 76 74 61 66 67 74 50 47 47 55 65 93 92 91 91 98 83 68 83 85 86 91 90 81 98 97 97 97 96 98 97 94 89 95 95 94 94 94 93 93 93 97 96 95 95 96 94 90 87 93 95 95 92 90 90 91 91 93 93 92 93 94 96 98 99 98 98 98 97 96 95 95 95 99 97 95 95 97 97 96 94 94 92 90 89 90 93 97 100 94 92 90 90 92 94 96 97 94 96 96 96 96 98 97 96 99 99 99 99 98 98 99 100 96 96 96 96 96 95 93 92 98 95 94 96 100 100 99 98 97 97 97 97 97 97 96 96 97 97 98 97 96 96 98 99 98 93 111 232 250 247 250 246 253 251 250 134 82 95 84 89 90 89 90 91 89 88 89 91 84 85 86 87 87 84 79 75 72 82 67 87 122 138 140 141 143 138 138 143 127 143 145 147 227 254 250 252 244 254 250 251 252 249 251 121 57 96 79 58 69 76 62 125 81 34 96 43 58 47 65 61 49 29 57 95 86 85 98 121 138 87 59 108 105 63 64 44 65 24 37 68 82 96 89 38 71 108 61 44 30 50 54 82 40 57 47 14 43 32 65 21 6 9 5 21 15 29 31 89 72 73 102 20 39 51 53 33 80 63 76 105 49 46 38 41 42 13 29 27 118 100 27 61 67 86 82 20 64 76 43 126 124 36 60 89 46 29 67 70 109 51 56 68 45 47 36 80 39 35 91 87 69 92 86 50 27 90 22 40 41 29 22 30 82 80 67 62 75 109 74 66 74 99 64 107 100 56 64 63 42 46 65 20 9 5 31 77 103 135 34 74 59 48 37 29 45 49 48 54 55 52 59 51 54 51 46 37 30 38 37 54 39 30 41 57 57 56 48 35 45 56 52 60 58 55 59 69 57 51 59 38 63 45 34 55 77 32 54 60 73 75 64 88 101 94 98 98 93 100 105 99 99 97 100 97 98 102 99 99 101 99 99 95 86 88 95 94 96 101 106 104 107 97 106 103 105 114 100 114 135 80 60 91 39 69 97 50 39 55 41 54 28 38 89 84 88 93 99 95 59 75 87 84 95 93 85 88 98 98 97 98 97 98 93 89 95 95 94 94 94 93 93 93 98 95 95 97 96 91 90 92 99 95 93 93 91 89 91 97 94 94 94 94 94 95 96 96 97 98 99 99 97 95 93 92 98 95 93 93 94 95 93 92 90 91 93 95 97 98 98 98 99 97 95 94 94 95 97 97 94 96 97 96 97 99 99 97 98 98 98 98 96 96 96 96 95 94 93 92 93 93 94 94 97 94 93 97 100 101 100 99 95 95 95 95 95 95 95 95 92 94 96 95 92 92 94 98 97 104 95 174 254 238 254 246 253 249 254 195 78 90 85 85 86 85 85 88 91 91 90 91 88 86 84 83 83 83 81 80 73 70 79 78 116 121 135 141 136 143 141 143 137 135 141 139 168 254 249 246 254 244 251 251 244 245 254 232 89 48 49 86 99 20 49 116 129 62 51 17 61 36 59 81 32 76 72 62 73 77 86 81 53 98 95 48 58 72 84 19 42 51 59 42 87 104 23 34 39 48 76 51 3 35 62 24 36 31 27 48 20 10 43 16 3 10 6 3 6 17 69 43 66 75 77 90 64 91 99 68 67 65 31 49 70 55 66 54 51 43 27 80 107 56 76 80 65 86 36 43 27 34 18 53 43 62 85 78 79 31 42 55 52 43 59 44 32 33 49 80 77 37 54 114 135 74 95 54 40 63 73 89 42 11 40 52 52 49 48 81 93 54 80 37 81 105 42 48 68 93 58 41 57 91 158 67 25 53 90 67 62 117 39 75 165 91 32 53 51 54 61 67 56 38 32 52 33 41 27 33 32 15 32 46 46 26 51 59 66 51 49 58 40 62 48 58 67 58 58 85 67 66 42 28 44 65 60 71 55 36 67 48 52 71 91 101 99 94 98 93 90 98 101 99 95 93 96 95 98 104 101 101 97 99 98 92 87 92 94 90 94 102 100 112 98 97 105 99 106 119 117 121 130 43 59 79 72 81 95 45 40 60 62 48 39 41 89 88 89 91 91 96 70 74 85 79 88 90 89 83 98 100 98 101 99 102 96 93 94 94 94 94 94 94 94 95 94 96 98 98 92 87 91 98 96 97 96 94 93 94 95 95 93 95 97 97 96 95 94 93 94 95 97 98 97 96 95 94 93 93 93 94 95 94 91 89 93 95 97 99 99 98 97 96 93 93 93 94 95 96 95 94 95 97 98 97 98 99 99 98 96 97 97 96 94 93 93 93 96 95 93 92 93 95 96 97 98 95 95 97 99 98 97 96 94 94 95 95 95 95 95 96 94 94 95 96 97 98 98 97 99 100 103 120 226 254 247 250 250 254 254 238 100 82 90 86 83 81 82 86 89 89 87 87 90 88 86 84 84 83 82 81 80 76 67 73 102 137 134 133 142 139 146 140 143 134 132 146 139 198 254 252 254 246 252 247 251 252 248 253 214 77 46 76 86 67 81 46 72 166 78 23 94 92 61 37 48 48 47 67 70 38 48 48 17 46 125 94 77 106 66 29 39 30 46 105 108 19 31 45 43 58 80 31 46 69 61 52 44 24 32 49 41 23 16 16 5 6 15 10 4 7 58 47 36 57 92 59 73 88 75 83 49 28 79 76 52 29 75 101 53 37 94 73 72 34 82 95 43 40 53 64 55 109 84 63 55 28 24 89 155 72 69 80 39 54 63 74 74 30 73 79 31 39 47 67 108 119 58 98 83 84 73 109 84 30 27 64 39 25 59 63 57 81 45 34 29 52 63 47 74 68 38 28 59 123 67 114 159 108 68 32 34 51 22 51 72 101 91 40 88 54 92 139 117 107 72 33 48 77 80 64 74 77 87 81 77 68 73 52 62 64 67 70 53 60 59 76 64 40 65 106 85 54 50 91 103 100 55 73 66 35 50 55 69 66 83 102 100 92 94 91 92 97 94 98 95 95 99 96 98 103 100 102 97 98 93 89 90 93 90 90 99 103 101 108 97 101 103 104 116 113 119 120 107 63 77 59 79 99 65 42 39 61 60 54 52 41 62 88 88 89 91 99 90 76 82 84 82 89 91 83 98 100 98 103 100 104 97 94 95 95 94 95 95 96 97 97 93 98 97 91 88 91 94 95 95 96 97 96 97 98 97 95 94 96 98 98 97 96 95 95 95 96 96 96 95 95 96 96 92 93 95 96 96 95 94 93 97 97 97 97 97 97 97 97 94 95 95 97 98 98 97 96 95 97 98 97 97 98 97 96 94 94 95 94 94 94 95 96 96 95 94 93 94 95 96 97 98 97 97 98 98 95 93 92 93 93 94 94 95 95 96 96 99 99 99 100 101 101 99 97 99 99 102 97 158 250 243 248 247 249 250 250 153 70 84 82 82 82 83 85 86 85 83 84 84 84 85 86 85 83 79 76 73 66 75 65 63 143 141 137 145 135 145 139 142 141 135 139 145 142 229 254 248 254 251 248 251 250 253 245 250 145 56 79 77 69 48 70 112 67 94 88 57 70 41 46 87 40 59 14 46 54 57 33 44 48 48 123 115 74 103 62 20 44 67 56 96 112 68 40 53 31 30 36 33 36 37 29 82 91 53 16 16 22 25 6 5 0 8 12 15 37 21 47 40 41 72 44 51 22 59 55 79 92 97 76 64 74 43 35 61 61 117 88 38 46 53 105 113 69 55 21 31 93 98 50 90 144 79 41 71 84 49 59 96 103 61 65 65 93 62 44 13 53 85 34 53 66 69 70 68 48 22 82 99 54 14 41 97 48 37 91 98 66 21 36 51 48 60 56 77 49 65 55 56 45 79 64 102 92 60 49 50 46 22 11 43 58 62 47 21 50 34 52 44 50 68 55 64 52 72 52 67 60 46 67 52 49 48 50 53 42 29 38 24 33 53 63 60 72 89 38 83 80 100 69 51 91 57 78 90 60 50 60 77 70 82 101 101 91 93 94 99 99 91 99 99 99 103 100 98 102 99 102 102 99 90 87 92 93 90 94 107 102 110 97 102 103 106 115 118 110 125 131 58 46 55 41 98 39 48 49 48 57 67 50 81 61 49 95 91 87 89 97 97 75 82 99 87 94 90 78 97 100 97 103 98 102 94 91 96 96 96 96 97 98 99 100 96 99 93 84 87 98 98 88 97 94 94 99 100 97 96 97 97 98 98 97 96 96 97 99 100 98 96 94 92 93 95 97 94 95 96 96 96 96 97 99 93 95 96 98 98 98 96 95 96 95 93 92 92 92 91 91 95 96 97 95 95 95 94 93 91 92 92 93 94 96 99 101 94 94 93 94 94 94 94 93 94 94 95 98 97 95 93 94 92 92 93 93 94 95 95 95 99 100 102 102 99 97 95 94 96 107 104 96 104 213 250 241 254 250 252 254 214 71 82 85 84 84 86 87 85 82 80 82 80 79 80 80 80 79 77 75 77 70 85 55 0 41 162 134 128 147 145 136 143 145 139 134 149 142 166 245 254 250 246 250 250 252 252 250 249 238 114 68 78 88 59 46 48 61 84 75 36 57 54 27 63 91 51 60 85 56 73 65 46 66 68 66 43 33 81 107 43 70 72 27 76 128 82 18 77 61 40 31 30 45 71 62 40 68 69 70 50 87 116 11 5 2 5 10 10 23 66 37 23 80 83 58 69 42 16 22 57 40 37 44 74 64 58 38 59 70 39 115 71 54 77 79 88 83 47 60 95 64 76 102 58 63 78 67 59 46 77 78 15 55 37 32 64 75 92 67 12 20 78 49 47 30 55 41 33 77 59 46 65 113 41 54 133 103 47 74 58 48 39 67 48 32 105 66 74 66 61 110 90 55 60 34 53 83 101 92 57 43 52 40 45 78 59 78 24 19 31 18 5 26 27 61 37 30 26 25 56 67 16 47 79 25 45 49 45 24 47 59 33 72 70 100 78 62 67 70 61 97 74 43 89 87 45 82 63 85 63 62 74 50 88 101 96 104 94 92 98 97 96 95 95 98 100 100 100 100 100 98 93 93 85 82 90 94 94 97 102 106 106 104 103 103 110 119 113 117 129 100 54 54 49 60 42 45 43 74 45 67 59 56 65 56 64 98 82 87 93 92 96 86 87 93 83 82 91 82 88 104 97 99 96 104 83 95 95 96 96 96 99 101 100 96 104 97 91 92 96 96 88 79 92 96 98 98 97 98 97 95 96 96 95 96 96 96 96 95 98 96 95 96 97 98 98 98 95 96 97 98 98 97 95 94 94 93 92 93 95 96 96 96 93 94 94 93 93 94 91 87 94 93 93 94 94 94 92 90 91 93 94 95 95 94 93 93 91 92 94 96 96 96 94 94 95 95 93 90 88 89 91 93 95 95 95 95 95 94 94 93 95 97 98 98 97 97 100 102 98 104 99 97 95 135 249 246 249 243 254 249 243 120 67 85 79 78 77 78 79 79 80 80 79 76 75 76 77 76 72 69 69 81 44 11 0 2 86 156 132 134 138 137 144 140 142 138 131 154 134 190 254 245 254 246 252 250 247 249 247 253 219 70 83 87 91 28 62 54 37 38 56 94 116 123 23 48 39 113 88 2 21 18 17 1 4 95 111 112 39 89 102 115 43 22 63 65 48 71 71 60 36 48 13 13 31 20 12 1 32 16 21 66 81 9 7 0 8 26 4 17 76 67 22 33 50 36 46 40 50 62 46 20 25 44 58 22 19 43 12 63 61 54 56 57 79 51 108 97 35 91 135 70 110 85 95 119 39 43 49 40 51 77 79 55 46 30 33 24 75 57 15 18 22 58 74 38 66 39 56 74 32 60 68 46 62 21 62 56 47 41 17 33 77 122 98 88 62 131 129 56 43 60 35 22 39 7 12 64 23 89 146 75 18 29 25 17 40 27 58 30 30 35 68 71 57 71 78 72 63 64 65 70 63 55 80 79 69 67 65 60 90 83 48 95 82 63 97 45 25 36 60 72 50 47 48 42 66 88 64 52 67 87 51 57 116 99 96 103 94 91 97 98 99 98 97 99 100 99 99 100 99 98 94 90 85 86 92 92 94 101 109 101 102 104 107 114 114 112 118 122 124 91 42 61 58 72 47 69 55 88 110 42 49 45 29 60 67 85 97 90 84 91 91 84 85 94 87 84 96 95 86 100 98 98 98 101 86 96 96 100 101 99 97 97 97 97 93 91 89 92 95 95 91 86 93 96 98 98 98 98 97 95 98 98 97 98 98 98 98 97 96 96 96 97 97 98 98 98 99 98 96 94 93 92 91 91 93 93 94 95 96 96 94 92 94 95 94 93 95 97 96 94 93 93 94 94 94 92 89 87 92 93 94 95 95 94 94 95 95 96 96 96 95 94 93 92 89 92 95 95 94 93 95 96 95 95 96 96 96 96 96 96 98 99 99 97 94 93 94 95 93 94 94 95 99 108 191 254 240 250 247 253 254 169 56 78 78 77 76 76 76 74 70 68 70 72 75 74 69 66 69 74 80 32 6 10 14 7 7 138 148 131 134 138 132 153 140 143 129 144 150 143 226 254 244 252 252 251 251 253 249 248 249 181 47 73 79 63 66 31 71 120 89 73 67 112 119 57 58 75 125 80 69 68 61 62 88 52 92 109 71 39 56 104 103 48 73 84 35 51 34 74 56 23 17 26 44 36 88 50 39 46 16 12 35 38 3 5 18 6 9 35 28 81 71 53 50 48 20 46 44 55 56 28 37 55 105 128 44 43 65 53 50 39 27 56 62 63 30 82 40 23 35 77 108 78 17 52 47 57 99 40 38 49 64 62 92 84 84 92 116 25 56 104 91 94 52 90 63 72 85 43 50 67 37 37 58 42 54 15 51 91 64 85 77 60 49 58 31 34 38 89 106 98 75 46 77 62 12 7 28 43 114 153 83 24 4 25 109 25 95 74 84 90 90 75 75 82 91 47 61 83 90 96 92 71 72 82 87 88 74 67 61 75 40 91 78 98 72 58 70 98 79 71 46 48 64 36 75 82 42 26 65 76 91 62 97 97 96 103 95 91 94 98 102 99 96 98 99 97 97 99 100 99 96 86 86 93 95 92 97 106 104 95 105 106 106 116 116 116 112 129 119 69 66 32 58 52 16 55 55 57 75 76 19 44 42 33 26 66 88 88 90 84 94 82 75 86 93 90 96 98 86 95 100 98 100 98 89 97 95 98 99 98 97 97 98 97 86 88 91 94 96 96 95 95 94 97 98 98 98 98 97 96 98 98 98 98 98 99 98 98 98 98 98 97 96 95 95 95 98 96 93 93 93 94 94 94 97 96 96 97 98 97 96 94 95 94 93 92 94 97 98 96 95 95 95 94 94 92 90 88 91 92 92 93 93 93 94 95 97 96 95 94 93 92 92 92 92 95 99 99 96 94 94 95 96 96 97 97 97 97 97 97 95 96 96 95 94 93 93 95 96 93 96 96 104 89 124 236 242 248 249 250 254 231 79 72 71 71 71 71 71 70 68 66 72 65 61 65 66 64 61 61 77 21 2 16 2 15 0 37 163 143 137 135 134 135 147 145 139 132 145 138 167 246 251 250 252 250 247 250 247 242 254 250 153 64 114 107 73 27 84 111 82 38 28 52 84 74 78 30 96 111 97 112 125 116 83 119 85 86 90 52 57 41 42 39 64 60 37 39 22 28 31 22 35 13 52 89 103 68 44 48 40 28 16 28 7 0 2 7 15 11 33 96 83 104 82 44 62 40 31 9 44 69 67 42 36 71 76 39 56 53 68 45 31 40 39 34 44 43 74 59 106 93 61 115 56 41 59 53 84 65 50 51 32 32 24 63 61 43 82 85 24 51 105 132 117 135 118 63 18 49 68 45 108 108 74 48 60 62 29 46 48 74 45 30 25 49 40 79 59 62 93 113 77 62 69 60 45 54 106 98 49 96 85 34 33 80 40 54 33 48 40 46 51 49 41 56 38 80 94 47 51 57 51 55 38 27 50 77 67 67 52 65 69 71 101 81 61 67 111 89 81 76 64 49 48 50 83 70 70 47 84 86 69 90 113 97 99 103 94 90 93 98 102 97 94 95 96 95 96 99 101 101 95 85 88 97 98 97 103 107 98 97 107 103 105 114 112 120 121 124 89 37 50 41 31 43 57 40 71 82 41 57 59 46 41 49 45 54 108 88 93 78 92 86 76 84 94 92 93 98 88 90 101 98 101 94 92 97 96 94 93 95 99 100 96 91 89 92 96 98 97 97 98 100 96 98 99 98 97 96 96 95 96 96 95 96 96 96 96 95 98 99 99 98 96 95 95 96 95 95 95 96 99 100 99 98 99 97 95 94 95 97 98 97 97 96 94 93 95 96 97 96 98 97 95 95 94 94 95 95 92 92 92 92 92 93 95 97 97 96 94 92 90 89 89 90 97 97 97 95 93 92 92 93 97 98 98 99 99 98 96 96 93 94 94 94 95 96 97 98 99 98 100 97 105 95 92 176 254 240 248 247 249 254 139 79 88 88 88 86 85 86 87 88 86 74 66 75 83 80 69 61 54 31 1 9 13 3 12 5 86 158 133 143 139 136 139 141 149 136 130 154 141 193 254 251 251 252 250 251 252 249 253 253 246 96 24 57 77 111 100 79 104 53 80 111 73 25 82 41 58 73 103 94 100 73 42 52 128 96 109 75 17 56 39 59 29 71 45 46 81 21 11 52 52 52 79 88 56 46 51 62 100 69 42 21 6 8 11 6 5 11 37 39 44 74 74 121 79 20 26 36 61 61 86 108 73 33 104 45 93 77 70 61 80 48 41 44 25 13 66 97 121 140 64 65 83 85 82 88 26 10 52 63 55 18 23 49 39 16 53 107 98 70 36 66 75 86 51 48 38 48 38 69 70 81 32 30 68 75 20 39 83 24 23 26 63 63 96 125 60 21 34 69 101 110 89 76 67 95 56 123 103 115 22 62 38 84 60 38 9 7 0 9 4 14 15 0 14 38 50 61 62 12 25 35 5 4 18 34 9 17 46 25 23 19 46 64 59 67 41 63 77 44 58 85 33 54 89 48 39 57 71 36 41 103 102 97 101 100 92 90 93 98 103 95 94 96 96 96 97 99 102 102 93 88 91 99 99 104 106 103 98 103 103 97 110 116 109 120 116 131 91 54 39 66 44 31 86 68 74 84 17 22 68 76 57 53 36 63 95 90 87 89 81 94 94 97 97 91 94 102 91 86 100 97 99 90 93 96 99 97 95 97 99 97 92 88 95 96 97 97 97 97 98 99 98 98 98 98 97 95 95 95 96 95 95 95 96 96 96 95 96 96 96 96 96 97 98 99 98 97 97 97 98 98 97 96 95 94 92 92 93 95 97 97 99 97 96 97 98 98 97 96 97 97 97 97 96 96 96 96 95 95 94 93 93 94 96 98 99 98 96 93 92 91 90 90 96 94 92 92 93 94 95 95 98 98 99 100 98 96 94 92 97 97 97 96 96 96 96 97 96 96 97 98 98 104 92 119 233 250 242 252 248 254 204 87 93 96 97 92 89 89 90 93 92 88 88 94 95 88 80 76 50 11 0 0 13 3 11 0 12 134 158 132 140 145 134 143 145 146 132 140 155 147 217 254 246 251 254 254 251 254 251 248 252 204 80 79 70 59 83 101 106 73 96 119 52 41 64 61 55 22 74 72 34 90 98 93 98 84 76 76 81 42 58 49 38 65 49 16 44 88 45 97 125 116 92 66 80 79 86 70 50 51 60 35 6 4 7 0 10 20 55 63 32 36 68 75 49 80 51 67 56 54 62 49 85 43 44 76 47 34 23 78 122 41 49 17 39 22 32 45 50 44 76 71 33 30 23 38 62 60 56 37 54 70 59 20 31 27 19 41 61 67 49 55 47 33 31 35 57 30 73 78 87 111 68 48 63 18 35 46 34 42 45 30 62 23 42 68 27 41 69 66 80 86 124 92 46 79 56 67 52 16 27 31 70 46 81 92 11 22 20 12 23 12 11 19 13 6 30 43 37 13 49 72 45 41 57 40 1 8 29 2 12 33 60 55 22 32 64 47 53 72 68 66 66 64 73 43 50 22 50 41 62 109 105 97 102 97 90 93 95 98 103 96 98 99 100 99 98 100 100 100 90 92 93 97 100 106 104 96 90 104 101 100 112 115 114 123 131 104 28 76 46 48 81 47 28 33 50 31 69 51 17 23 46 10 2 57 91 96 82 76 75 94 99 102 103 97 96 99 95 82 95 95 93 87 92 94 96 97 100 100 96 92 91 93 95 94 93 93 94 95 96 96 98 97 97 97 96 94 94 96 97 97 96 97 97 97 97 96 96 95 93 92 92 93 92 92 97 96 94 93 93 94 95 96 93 92 93 95 97 97 96 95 96 95 94 96 98 97 95 95 94 96 98 98 97 95 93 93 95 95 93 92 91 92 93 95 95 95 96 97 97 97 98 98 98 97 96 97 98 99 99 99 98 99 99 98 97 95 93 92 96 96 96 96 97 97 96 96 97 93 94 101 92 101 98 92 159 254 244 251 245 252 248 104 78 85 90 89 88 90 91 93 95 96 98 98 93 84 77 75 91 83 48 6 2 1 6 9 2 41 159 135 137 141 139 141 140 142 142 128 146 144 167 245 253 253 248 251 247 251 251 249 253 251 184 53 100 58 46 57 91 74 90 36 74 96 59 33 45 59 86 23 40 80 79 103 65 95 87 66 98 79 38 62 57 56 60 45 66 140 38 18 47 85 60 41 84 80 57 42 55 47 77 84 6 1 16 5 10 13 14 47 29 37 63 49 42 59 61 65 89 69 80 25 39 78 49 106 122 77 32 55 35 39 11 25 32 26 47 28 29 35 10 64 99 60 54 116 67 58 112 52 62 75 11 48 72 53 62 14 40 88 36 59 37 74 89 50 55 58 72 49 59 70 63 43 43 44 74 54 97 114 50 34 41 46 56 28 15 37 56 65 48 32 49 58 28 46 82 39 18 26 25 38 36 52 59 45 42 38 46 42 43 37 40 38 35 43 50 28 45 32 18 54 58 41 56 56 50 69 66 62 23 64 57 47 69 26 55 56 47 73 87 45 35 66 94 65 102 31 40 68 71 113 98 105 103 96 93 99 97 95 102 99 99 101 102 100 99 99 98 96 86 93 94 96 99 102 96 89 89 101 100 108 111 111 120 112 116 47 55 73 49 119 68 53 47 35 36 52 27 19 30 70 32 34 31 1 85 92 94 84 82 91 90 97 102 98 96 94 99 81 91 96 90 88 94 96 95 96 98 98 93 90 92 97 93 93 93 93 94 95 96 96 97 96 96 97 97 95 96 99 97 96 96 96 96 97 96 96 98 96 94 93 93 92 89 86 92 93 94 93 92 92 94 96 95 95 96 97 99 99 97 95 95 93 93 95 96 95 94 94 94 96 97 98 97 95 95 95 96 95 93 91 90 90 91 92 92 93 96 98 99 99 98 97 97 98 99 98 97 97 98 100 99 98 97 96 95 95 95 95 94 95 96 97 98 99 98 97 98 94 94 100 92 96 97 89 96 208 253 248 242 253 254 161 87 94 99 100 101 105 105 104 104 102 97 92 89 85 79 73 79 94 99 85 34 0 9 3 14 0 84 160 134 143 130 133 141 137 144 141 128 152 147 195 251 254 246 250 251 253 250 252 250 248 253 109 61 90 66 31 76 64 23 34 69 89 76 91 83 61 37 56 26 21 57 80 52 59 88 53 74 54 49 45 24 68 30 28 57 80 63 67 65 78 35 47 96 65 48 130 102 87 61 91 36 1 1 11 1 2 18 86 75 43 25 40 21 22 40 76 57 72 77 70 45 55 13 33 50 66 69 55 88 34 54 75 42 31 13 34 11 11 49 54 84 110 38 36 37 38 35 38 22 46 26 33 55 47 73 15 67 71 38 26 75 111 66 94 63 59 36 50 51 27 36 30 21 75 87 104 35 71 68 54 62 60 99 101 76 61 43 30 13 55 57 23 120 79 60 61 91 56 28 38 20 139 51 68 74 80 79 82 86 99 90 94 100 97 99 101 102 85 84 83 95 99 78 79 66 56 68 94 83 54 55 38 80 56 67 92 61 45 44 58 52 86 66 120 92 52 63 42 68 105 99 101 104 97 96 104 97 92 100 100 98 100 101 100 98 97 96 93 84 94 94 95 98 96 88 85 102 100 95 112 112 112 120 88 81 51 61 87 74 16 46 44 61 38 86 115 56 22 62 84 46 69 61 17 69 101 87 70 90 91 90 95 95 90 95 99 103 82 90 98 90 90 97 99 101 98 95 93 91 89 90 92 93 94 94 95 96 96 97 97 95 94 94 96 96 95 97 100 94 94 93 93 94 94 94 93 98 97 96 98 100 100 95 91 91 94 97 97 95 92 93 94 98 97 96 96 97 97 97 96 98 95 94 95 96 95 94 94 95 95 95 94 94 95 98 100 99 98 96 94 92 92 92 93 95 96 97 98 96 93 89 86 90 93 94 92 89 89 95 100 99 97 95 94 94 95 97 98 97 97 98 99 100 99 97 96 91 92 91 92 94 94 93 94 79 133 254 250 247 245 254 230 104 106 105 101 101 102 100 96 99 98 91 83 80 82 81 78 71 80 83 87 100 62 41 55 62 59 30 138 146 132 129 138 143 143 141 148 137 144 150 149 222 254 248 250 251 248 247 253 249 254 249 232 77 55 62 46 62 46 27 66 46 80 72 94 88 100 67 61 50 19 15 82 58 56 102 72 95 63 69 37 42 44 28 25 40 106 110 103 61 87 109 58 39 26 54 84 58 56 54 126 69 0 6 7 8 15 21 81 73 36 29 37 42 32 37 51 73 47 72 65 98 66 36 45 69 45 51 26 59 88 105 42 39 31 31 22 44 22 62 71 68 49 17 46 56 41 42 26 70 57 42 47 47 33 35 20 64 61 34 51 48 31 20 37 76 42 46 48 30 35 57 50 38 58 46 64 80 70 123 123 62 40 46 40 55 32 20 69 102 28 47 83 70 61 40 87 85 42 16 24 46 102 102 71 66 62 53 67 76 58 69 77 71 60 77 62 73 79 47 67 68 74 63 57 54 69 60 44 50 54 42 72 84 59 49 64 56 61 62 42 52 83 48 71 51 51 48 32 77 111 100 99 100 94 97 101 97 97 100 97 97 98 97 95 99 102 96 87 85 93 93 92 93 92 91 96 100 96 102 106 109 114 89 84 66 55 61 47 21 35 45 81 51 11 29 52 75 43 57 34 45 76 74 50 67 101 79 78 87 93 88 88 97 99 95 98 97 96 76 102 100 86 93 91 91 92 90 86 86 92 96 97 97 96 97 98 96 95 96 99 98 98 97 96 99 103 101 96 93 95 96 96 94 93 94 96 100 97 95 95 96 94 91 88 91 95 99 100 97 95 96 98 95 96 95 94 94 96 94 92 93 95 97 97 94 91 89 89 91 94 94 91 90 93 96 97 95 94 93 93 94 96 97 98 94 96 94 90 91 94 92 87 86 87 90 92 94 95 94 94 90 91 93 94 95 95 97 98 101 100 99 98 97 96 95 94 85 87 89 90 91 93 92 90 91 76 200 254 243 248 252 254 139 92 105 93 98 97 90 94 92 89 86 83 82 80 77 74 68 82 86 78 75 79 77 68 71 76 45 57 156 145 128 128 135 152 139 145 148 137 147 145 163 243 253 253 246 253 249 253 252 241 252 253 159 60 91 60 53 40 71 82 40 93 71 95 107 104 82 45 47 43 19 27 24 80 87 42 68 36 38 41 29 36 42 40 41 90 64 37 43 23 83 85 49 48 36 59 41 63 40 30 23 1 4 8 1 11 30 47 119 84 27 31 20 41 63 41 29 35 59 19 47 55 27 59 96 63 28 42 44 40 44 37 30 49 54 26 73 42 34 68 33 33 23 29 61 39 8 116 106 35 64 88 30 34 13 24 61 67 53 62 34 51 43 33 53 52 32 71 59 51 21 21 24 70 63 59 53 43 66 65 85 55 25 26 12 34 34 54 40 31 58 72 22 13 28 27 20 23 57 83 116 53 61 63 62 63 55 38 52 51 62 54 43 28 46 55 48 67 58 44 70 80 63 89 139 42 72 79 84 63 47 63 17 23 28 52 60 76 54 51 62 54 29 92 57 47 69 92 75 113 100 105 103 97 99 101 97 97 99 96 98 101 104 105 105 102 93 83 92 89 91 98 100 92 90 97 98 106 105 97 108 99 79 73 60 106 67 25 37 100 53 53 23 33 55 60 54 51 67 54 28 35 54 67 59 105 90 86 78 92 93 91 96 94 90 99 101 99 81 99 98 83 92 89 95 88 81 81 85 90 93 93 95 95 97 99 98 96 96 98 99 98 96 95 96 98 96 93 91 93 95 96 97 98 100 102 96 97 97 94 91 89 90 92 95 96 96 96 96 97 99 100 92 94 94 93 92 93 94 94 93 93 94 94 93 91 88 87 83 86 88 88 89 91 91 90 89 92 95 96 96 95 96 96 91 93 92 91 93 97 96 93 92 92 93 94 94 93 92 91 93 94 97 98 97 96 95 94 91 91 91 92 93 93 93 93 90 91 91 90 90 93 94 94 91 82 119 243 243 244 245 254 189 77 95 96 86 91 88 84 82 81 79 76 75 75 72 67 63 71 80 82 76 68 68 72 74 61 66 23 86 160 139 149 132 142 147 151 148 137 139 153 151 196 254 242 253 252 254 251 248 251 249 248 251 115 95 92 85 64 76 62 71 61 40 37 27 34 30 30 86 90 61 70 32 28 56 81 61 38 30 71 100 50 13 61 38 36 49 45 105 67 45 59 107 80 73 58 43 60 42 45 30 2 4 2 3 4 27 40 62 96 68 18 56 48 36 76 17 33 40 43 7 25 43 23 21 28 24 46 45 31 38 55 40 38 36 65 46 34 52 28 69 82 38 28 51 25 28 96 64 52 60 34 60 84 70 12 59 69 46 76 70 47 41 20 18 26 55 34 42 31 29 41 47 35 37 41 19 16 66 61 116 76 50 47 79 35 36 31 9 39 78 9 68 124 106 14 23 33 94 55 81 62 45 24 75 62 64 52 78 65 78 62 62 50 48 54 94 75 76 73 79 72 67 117 150 43 73 94 74 89 54 43 41 92 53 40 54 52 36 80 68 70 43 76 88 45 28 72 113 99 99 99 92 91 95 99 98 99 100 99 95 97 100 101 99 96 91 88 92 89 93 99 96 90 92 98 93 107 94 88 91 108 70 78 71 75 29 29 90 66 35 7 36 74 57 26 40 59 46 21 35 56 27 63 60 90 91 93 83 93 89 87 100 99 91 97 99 94 82 94 99 86 97 94 96 88 83 87 92 93 95 98 94 94 95 95 95 93 94 95 94 92 91 93 95 95 95 95 97 97 97 97 97 98 98 99 95 96 96 93 91 91 94 98 99 97 95 95 96 97 96 95 93 96 97 95 93 94 97 98 92 92 92 92 92 91 89 87 88 90 92 93 94 96 95 93 92 95 98 97 95 92 91 92 92 92 92 94 96 98 98 97 96 97 97 98 98 97 96 95 96 97 98 97 95 92 90 89 88 89 90 91 92 93 93 93 92 93 94 92 90 91 93 92 88 93 79 179 251 245 248 253 243 87 59 83 73 63 76 81 77 79 78 74 72 73 69 62 52 65 78 81 78 76 74 73 61 55 56 45 20 130 156 134 139 134 144 140 145 147 132 141 150 150 218 254 252 248 254 252 253 253 252 245 250 246 96 39 78 20 59 74 57 65 68 18 30 4 2 4 52 69 72 80 64 33 52 68 40 77 62 86 89 68 22 66 84 58 52 28 33 49 25 26 66 33 67 64 79 52 65 62 19 5 8 1 7 14 22 33 34 36 19 36 30 43 87 66 40 61 64 69 21 39 34 65 71 66 14 20 34 24 47 42 53 39 21 41 34 49 63 37 9 63 32 32 39 55 28 64 52 29 29 24 16 47 95 32 67 58 72 83 49 45 20 32 29 67 84 68 66 70 65 86 61 20 33 55 24 37 32 48 56 41 57 88 88 144 39 29 63 19 38 58 75 49 54 31 46 29 24 47 50 75 23 61 48 50 41 75 24 55 44 70 44 68 64 50 41 42 49 41 59 44 44 51 49 57 65 59 61 68 71 69 71 104 97 91 102 68 57 80 68 83 60 66 54 89 88 69 99 109 99 106 95 97 101 103 102 100 99 97 105 104 103 101 95 90 89 90 92 94 99 95 85 88 97 99 102 107 94 82 107 100 78 58 47 60 37 60 61 52 51 40 49 58 59 42 49 64 79 70 48 106 61 51 46 89 95 89 93 94 81 79 97 99 92 98 95 89 84 89 100 92 100 96 84 85 88 92 93 93 95 98 97 94 92 91 90 91 93 94 93 90 90 94 95 93 94 98 99 98 97 96 95 94 92 90 93 91 89 91 94 97 97 96 95 94 94 95 96 96 93 91 92 94 94 91 89 91 93 94 92 92 93 92 92 91 91 91 94 93 92 92 94 96 96 95 97 97 96 94 92 91 92 93 96 95 95 97 98 97 96 97 98 98 99 99 99 98 97 97 94 93 92 90 89 89 89 90 92 93 94 94 94 93 92 92 89 92 94 93 91 89 89 89 89 95 91 109 236 252 244 254 249 136 33 56 60 32 51 56 55 59 57 52 49 49 45 38 34 45 55 58 59 59 55 49 53 50 40 34 0 34 159 149 146 138 140 129 140 157 140 132 155 149 168 243 253 252 243 246 243 229 227 234 218 228 213 87 88 79 124 106 63 104 97 64 85 58 52 47 53 58 66 70 74 45 55 43 41 71 38 41 37 22 39 19 68 56 73 7 10 34 37 23 8 4 25 36 57 48 37 38 15 2 4 1 5 1 18 14 22 38 61 70 45 47 78 42 89 58 57 44 66 76 20 43 92 114 38 23 51 52 70 15 14 22 12 25 15 53 20 25 33 43 61 66 72 31 60 58 54 32 49 50 48 61 58 50 26 55 83 59 47 82 42 52 75 58 41 47 43 49 25 67 60 35 97 135 28 14 23 48 91 74 42 37 35 101 101 88 44 61 60 108 47 49 60 59 37 44 39 41 58 97 53 22 123 196 151 181 56 39 69 76 65 84 114 82 85 84 114 100 149 103 120 119 109 129 114 121 111 110 113 117 117 104 101 109 93 82 79 25 40 42 21 64 57 57 37 82 116 104 115 96 90 95 98 99 101 101 100 101 93 94 96 97 94 91 91 93 94 94 97 93 85 91 98 97 92 100 77 96 114 92 73 27 42 18 29 50 17 35 10 26 41 23 26 47 50 11 25 87 91 71 59 33 26 85 93 89 89 90 79 75 87 89 88 98 95 88 86 85 95 90 92 86 82 88 93 94 95 96 97 97 97 96 93 92 92 93 95 96 97 94 94 95 93 89 90 94 94 94 94 95 95 94 92 90 87 86 87 90 93 95 93 91 90 91 92 94 94 94 94 94 95 95 93 90 90 91 92 91 91 93 94 93 91 91 93 95 96 94 93 94 96 97 97 97 96 94 92 92 93 96 97 97 98 96 97 98 99 97 96 97 98 97 96 95 94 92 91 91 87 87 88 88 89 91 93 95 91 92 94 94 93 90 89 89 90 91 93 93 91 89 89 91 93 91 96 88 171 252 237 254 254 223 102 102 117 100 108 103 99 102 101 96 95 96 93 87 88 85 87 93 88 78 75 82 80 74 68 51 65 48 112 138 133 135 134 127 130 143 142 133 125 147 140 167 240 252 224 218 229 236 236 231 238 239 245 250 209 182 202 204 215 217 202 208 202 210 209 209 207 204 191 199 199 185 201 188 198 197 176 173 193 182 178 173 159 168 165 156 159 140 141 138 124 135 128 132 141 112 130 119 93 94 85 79 79 81 105 82 89 112 132 98 128 85 73 65 89 94 48 82 98 51 66 42 31 82 80 38 31 36 53 50 45 78 46 41 42 36 48 16 15 4 4 61 34 39 35 48 59 81 40 58 17 48 20 24 7 38 57 26 31 6 57 71 33 62 29 37 48 42 77 18 23 44 26 25 8 14 18 43 29 18 44 21 38 57 50 71 43 63 66 33 16 33 63 43 27 32 37 30 51 20 37 118 143 169 160 143 125 113 122 109 108 101 106 98 84 92 92 90 73 73 82 100 57 53 72 46 78 62 41 42 43 54 46 30 69 49 82 69 63 96 50 12 72 56 63 92 86 74 83 88 81 88 88 87 91 92 92 96 99 98 96 92 90 89 91 92 95 86 85 91 94 93 93 92 104 96 86 113 98 98 44 29 34 13 64 47 24 39 55 26 53 42 42 42 18 23 20 16 85 32 30 31 38 61 95 90 88 85 77 76 87 90 88 91 94 89 89 83 86 88 85 83 93 95 95 93 96 100 99 93 90 91 92 92 93 95 94 92 90 90 90 89 85 83 85 88 91 92 93 94 94 94 93 92 86 90 93 94 92 90 90 91 93 94 94 92 91 91 93 96 96 95 92 90 90 92 92 90 91 91 91 89 88 89 92 94 95 94 96 99 100 100 99 99 96 94 92 93 96 97 96 95 93 94 96 97 97 97 97 96 93 92 91 90 90 89 89 89 87 89 91 92 93 92 92 92 88 90 92 92 90 90 90 91 94 93 92 92 92 91 93 96 96 93 96 92 108 222 253 246 254 250 171 147 156 154 153 156 156 157 157 155 155 156 157 156 162 162 160 154 145 139 145 153 147 146 151 147 164 153 121 134 130 132 130 135 131 129 137 132 133 136 135 102 146 189 186 187 185 182 195 184 196 199 198 206 187 178 189 192 188 184 200 189 190 195 192 201 196 210 206 207 193 190 201 201 203 207 212 202 208 212 209 210 214 197 197 212 208 202 205 203 212 220 215 218 208 220 207 210 220 214 212 212 215 233 240 235 247 232 225 231 218 226 215 232 218 239 224 226 224 215 234 221 208 209 211 208 202 202 221 225 200 205 191 191 203 202 177 176 177 165 149 197 151 159 141 126 164 175 176 172 115 128 132 104 112 105 132 126 107 124 117 143 101 113 108 110 104 97 109 81 80 82 75 76 99 102 97 54 63 64 78 79 104 81 52 55 66 51 93 100 46 63 65 72 87 73 74 68 92 66 58 102 46 81 46 25 61 32 48 49 37 46 72 48 33 54 76 51 81 55 89 94 52 71 59 77 73 83 66 63 67 48 14 53 34 54 59 72 53 60 29 42 45 61 44 102 82 88 79 75 71 80 79 75 76 72 67 69 71 72 72 72 78 88 95 96 89 85 83 89 96 95 92 94 96 75 111 104 113 93 61 86 48 30 30 37 27 35 66 24 29 29 24 21 23 29 17 25 21 58 52 52 61 43 104 85 91 83 81 85 91 94 92 88 91 89 91 81 77 88 85 91 95 93 91 89 90 91 89 87 86 88 89 90 91 92 90 86 80 84 86 84 82 83 87 92 92 93 94 94 92 91 92 93 93 95 96 95 93 90 91 92 94 94 93 91 89 89 91 94 90 90 89 87 87 88 90 89 94 90 87 85 86 88 89 89 89 89 91 94 94 93 93 96 97 96 95 94 95 94 93 92 90 94 95 94 93 95 95 92 88 87 87 86 86 87 88 88 89 90 92 93 92 91 89 88 89 91 92 92 90 90 92 93 93 91 89 90 92 92 94 97 93 96 99 92 87 156 248 244 249 245 204 144 145 143 140 148 143 140 138 139 139 140 143 146 142 149 147 136 132 138 142 139 144 142 153 140 142 132 142 141 145 140 138 145 141 138 142 135 142 132 148 128 112 139 132 128 127 123 124 128 132 140 134 141 142 141 128 137 136 127 130 134 140 132 131 140 127 141 148 141 135 123 122 141 138 129 133 130 137 131 135 143 133 140 146 135 133 145 148 141 146 141 140 138 146 139 142 140 141 149 146 146 150 147 141 145 149 145 145 150 143 141 149 139 142 153 165 165 159 177 159 166 167 167 170 166 166 154 159 163 170 162 171 161 168 156 170 181 180 183 183 178 184 181 200 192 198 207 192 196 212 199 203 204 195 195 196 197 199 210 201 193 202 189 207 202 209 217 215 210 198 207 201 202 198 195 92 40 53 54 31 46 50 43 53 46 49 39 50 48 52 48 48 47 44 54 31 55 33 48 152 150 53 124 65 40 112 26 53 26 24 77 71 52 60 63 45 45 50 65 33 41 63 42 42 25 58 35 40 43 43 38 23 67 31 31 47 94 72 0 15 56 28 35 56 100 99 95 100 98 88 101 106 107 112 108 101 101 92 94 93 89 89 91 87 80 84 93 91 87 93 97 99 102 90 98 114 110 113 48 52 81 6 18 1 18 30 21 25 42 29 40 43 6 18 32 34 27 21 64 50 50 65 29 95 90 87 84 91 94 88 88 94 95 91 92 94 82 71 88 87 99 95 94 94 95 90 85 85 90 90 91 90 89 89 91 89 85 82 88 91 87 85 89 94 97 93 93 94 92 91 90 93 95 99 95 93 92 94 93 93 90 88 88 91 91 93 92 94 94 93 95 97 94 93 94 98 99 96 91 85 84 86 89 88 86 93 91 91 91 90 90 92 96 97 95 94 93 92 93 94 95 90 95 96 92 90 92 91 86 87 87 84 84 82 82 81 81 85 86 88 88 90 90 92 93 91 93 94 92 90 88 90 91 88 85 87 89 92 91 91 91 88 90 89 92 92 94 213 252 242 254 235 139 146 148 150 142 151 145 142 142 142 141 144 150 146 142 140 143 148 148 144 141 140 143 131 140 135 135 146 148 144 142 145 142 137 143 146 138 145 143 137 129 134 141 139 138 134 135 135 131 139 140 135 139 139 136 143 126 125 123 125 135 130 136 131 128 126 123 126 133 130 131 119 122 129 123 126 127 131 122 125 115 121 121 111 123 125 117 121 130 120 114 114 117 123 126 116 121 122 116 120 117 115 115 116 113 117 111 115 108 109 122 108 109 109 96 108 112 125 112 123 121 121 118 121 112 118 108 89 102 104 90 98 96 93 108 105 96 103 101 100 102 94 108 106 122 113 110 113 116 114 114 114 113 103 107 108 104 108 92 99 93 103 104 106 101 110 107 102 99 114 121 131 123 79 18 53 61 43 55 101 63 32 42 49 49 32 57 29 28 32 36 19 35 22 22 37 25 89 54 34 45 49 23 62 58 90 57 78 54 41 45 73 51 6 56 58 50 45 70 65 21 48 50 57 46 77 22 29 46 50 40 25 77 86 55 50 93 44 19 30 99 68 20 110 100 89 97 94 90 91 94 95 94 95 99 101 101 100 101 108 97 83 95 79 78 93 85 87 96 90 99 96 99 90 109 106 102 100 19 41 70 8 32 30 21 22 39 57 52 24 10 28 7 6 34 16 15 29 40 29 49 58 10 85 90 90 89 90 92 94 93 92 90 94 94 93 82 69 84 86 83 86 85 84 82 80 80 81 82 80 82 85 86 85 84 84 85 82 81 82 82 83 84 83 82 83 83 84 88 88 89 87 89 88 89 87 87 86 87 86 88 85 85 85 88 89 90 88 87 83 88 88 88 86 89 91 92 92 90 86 85 83 85 87 92 90 89 89 91 92 92 93 96 97 95 93 94 94 93 93 94 95 97 99 98 96 95 91 87 90 89 89 87 86 86 87 87 84 91 89 87 90 89 86 89 93 90 89 90 89 89 88 90 86 88 91 91 92 94 96 98 98 96 94 92 96 94 129 254 251 253 254 191 131 153 152 148 153 149 147 146 145 142 141 142 146 148 150 151 147 143 142 144 142 143 144 140 136 136 140 145 146 146 145 145 145 145 145 145 143 144 140 136 133 145 138 135 136 134 136 139 135 125 116 113 120 124 123 133 132 121 125 127 120 124 121 119 120 120 121 125 131 128 126 127 130 133 133 131 129 132 130 125 122 119 116 116 121 117 128 131 124 125 123 122 121 131 121 118 118 127 122 123 124 121 126 120 119 113 120 117 117 122 122 121 116 121 110 111 109 115 121 122 119 117 116 117 116 114 110 105 102 102 103 102 99 100 104 107 107 105 105 107 102 105 109 113 114 111 108 107 109 111 110 106 103 103 105 105 99 98 94 109 117 104 112 106 110 105 96 113 122 87 49 37 34 27 53 42 64 81 99 162 52 49 40 43 27 48 23 22 35 24 26 5 68 58 28 26 97 116 42 36 55 20 70 37 84 81 75 73 73 54 96 64 14 64 39 43 63 57 69 20 55 59 38 36 70 39 12 52 36 37 34 62 37 36 51 81 54 18 11 52 36 29 105 97 92 90 98 92 99 98 96 96 99 104 102 100 99 99 101 92 92 86 74 85 91 85 90 85 96 100 96 84 87 112 97 96 108 55 26 3 28 73 93 78 20 29 32 36 31 19 37 35 40 38 26 33 35 63 39 46 75 57 97 99 89 89 90 92 94 95 94 93 92 93 95 89 78 94 96 93 88 89 90 90 91 92 94 95 97 97 96 95 94 93 94 95 91 90 88 88 89 90 91 92 90 88 87 88 89 88 88 89 86 86 86 86 85 84 84 83 80 80 80 81 81 80 79 79 79 79 79 81 84 85 80 74 83 81 79 78 77 77 79 81 85 82 81 84 85 83 83 87 87 87 87 88 88 87 85 83 88 89 90 88 87 86 85 83 83 83 82 82 81 81 80 79 84 85 84 84 85 83 83 88 86 86 87 91 91 90 89 89 89 89 89 91 96 102 100 95 96 95 95 98 99 89 94 174 217 201 209 183 150 145 145 154 149 146 143 143 143 142 142 144 147 148 150 151 149 146 147 149 149 149 147 145 144 144 147 150 148 148 148 147 146 145 144 143 130 136 139 135 129 141 138 139 138 136 137 140 137 128 121 119 112 114 113 122 121 110 112 112 116 129 131 125 124 125 121 116 117 119 122 128 133 134 130 127 124 124 123 120 120 123 126 127 126 122 130 130 124 127 132 137 131 128 130 121 122 128 110 115 122 122 124 126 121 123 124 123 126 123 123 119 114 118 113 115 108 108 110 114 117 119 117 115 118 115 110 105 102 101 103 105 104 100 98 102 107 109 108 106 100 101 103 105 107 107 106 107 105 108 106 105 104 105 105 104 101 96 99 99 107 115 102 105 106 117 120 90 59 22 42 44 48 70 22 16 68 82 82 164 93 42 25 39 28 24 53 39 34 37 11 33 149 70 22 25 7 143 128 8 52 27 65 17 31 68 61 66 50 42 88 53 7 67 42 40 75 60 36 10 59 35 37 12 73 69 27 69 64 85 63 43 36 47 60 72 63 41 16 79 57 30 89 96 99 88 93 93 102 102 101 100 100 102 101 100 99 101 96 84 95 81 77 89 87 85 90 85 98 97 89 80 106 100 91 103 59 19 22 64 89 49 35 9 53 58 4 31 53 46 49 57 42 32 51 74 25 77 59 39 96 93 92 91 90 91 93 95 96 96 96 95 90 93 98 95 84 99 100 97 95 96 96 96 96 96 97 97 96 95 92 92 93 95 97 99 97 96 95 96 97 98 99 99 94 93 93 95 96 95 95 96 96 97 99 101 102 102 101 101 99 100 100 98 96 94 93 94 97 99 100 98 98 99 99 98 98 97 97 99 100 99 99 101 95 91 89 91 90 87 87 90 92 95 97 96 96 97 94 89 90 92 94 93 92 94 95 95 97 97 96 95 94 93 92 91 92 88 88 90 88 87 90 93 89 87 88 89 88 86 84 84 87 84 86 91 89 84 85 91 89 88 84 82 81 80 88 128 146 137 148 142 142 140 145 149 153 150 148 147 147 148 149 150 149 148 149 150 150 150 151 153 153 150 147 147 148 150 151 151 150 150 150 149 148 147 145 144 140 144 145 138 127 137 134 134 135 133 133 135 134 130 126 126 127 127 124 127 123 112 110 108 114 123 125 123 127 131 131 133 123 122 121 123 126 128 128 127 129 123 122 120 117 122 129 126 122 116 122 122 120 123 122 123 130 125 128 126 132 127 115 115 114 115 115 122 113 119 116 116 119 112 120 118 115 115 114 111 105 105 106 109 114 117 117 116 114 106 101 102 106 105 102 101 105 104 104 104 103 102 105 109 102 101 100 100 103 105 108 109 109 109 108 107 107 108 106 103 95 102 110 112 104 108 105 123 120 80 56 27 6 31 79 41 46 53 21 24 41 27 41 55 60 30 64 103 36 5 60 48 29 32 3 46 125 39 40 70 77 50 53 24 91 18 73 13 24 79 68 74 65 47 67 44 15 71 61 66 38 70 90 24 61 67 58 26 66 59 26 51 66 55 27 71 82 45 49 55 31 32 9 69 41 30 105 90 84 98 95 87 100 103 105 103 99 97 99 102 101 103 92 81 89 86 88 87 85 87 88 95 94 91 81 94 109 79 99 93 22 35 38 39 65 26 1 31 56 99 94 49 62 56 69 106 64 57 80 60 27 40 71 48 71 68 92 90 92 94 96 96 96 95 95 95 94 96 101 98 87 98 96 93 97 97 96 95 93 92 91 92 94 92 90 91 94 98 100 101 95 95 97 98 99 99 97 96 92 92 94 97 97 94 93 94 94 95 97 98 99 100 99 99 92 94 96 94 90 87 86 87 92 96 98 96 93 94 97 99 90 90 92 95 98 98 98 99 97 96 93 91 91 92 93 93 93 98 100 98 98 101 98 93 89 93 97 97 98 101 103 104 104 105 104 102 98 96 97 98 97 92 94 95 91 94 99 97 98 96 93 92 92 90 90 91 95 96 98 97 93 91 93 97 99 99 93 94 104 125 154 175 159 160 154 143 146 147 149 143 150 148 147 148 149 150 150 151 151 149 148 149 150 150 151 153 150 148 146 147 149 151 150 149 149 150 151 151 151 150 148 147 153 150 147 140 129 142 138 134 137 134 133 134 134 132 131 132 130 129 127 130 130 127 127 127 126 120 115 117 120 116 118 127 136 132 126 123 123 126 128 130 128 120 120 118 111 114 118 110 124 114 113 115 120 123 115 110 110 114 106 120 129 109 119 110 114 115 114 116 107 110 109 110 112 103 118 119 119 115 116 110 103 107 111 111 108 107 109 112 107 101 97 101 104 105 105 107 104 107 109 106 99 95 98 104 104 102 100 99 102 105 108 110 104 105 105 104 106 109 110 110 114 104 106 105 100 118 120 87 27 51 49 39 7 26 24 12 47 115 66 43 57 50 13 35 40 38 59 73 41 61 31 76 53 19 38 4 43 46 21 29 58 51 4 15 96 50 63 39 43 71 83 78 93 60 58 48 9 67 94 91 48 69 94 25 56 50 42 44 70 24 27 66 48 36 43 87 49 56 64 35 37 21 12 53 39 54 111 81 82 98 95 94 101 102 103 102 100 98 99 101 107 98 85 87 82 90 94 85 87 88 88 95 92 91 86 106 102 90 102 66 71 44 7 47 34 17 47 98 71 103 125 47 31 71 57 63 62 51 67 64 44 38 66 67 108 95 87 95 95 96 97 96 95 93 94 93 98 98 102 100 87 95 93 91 92 92 92 91 90 91 92 93 96 95 94 95 98 99 99 98 96 96 96 97 96 95 92 90 99 98 98 98 96 93 92 93 100 100 99 98 97 96 95 95 89 92 96 96 93 90 90 92 95 96 97 99 101 101 95 88 89 88 88 92 94 94 94 95 91 95 92 87 87 94 96 93 90 94 94 90 92 96 96 92 91 96 99 101 101 103 103 102 100 101 99 95 91 89 90 93 93 92 95 93 90 96 100 94 97 94 93 94 95 96 97 99 95 99 96 89 91 100 97 86 88 90 103 132 160 173 174 155 154 155 144 150 150 149 151 157 149 149 150 151 152 153 153 152 151 149 148 149 149 148 149 151 149 149 149 150 152 152 151 151 148 149 150 150 150 149 148 147 143 140 141 137 127 141 142 137 140 137 134 134 133 133 133 134 131 128 128 128 130 133 134 137 131 123 118 123 126 118 113 118 123 122 121 120 121 122 123 123 129 124 129 131 125 127 128 118 124 113 108 108 117 123 117 116 113 116 109 121 125 106 122 115 117 114 117 110 106 102 109 109 111 100 112 110 109 108 110 104 101 108 114 113 106 101 102 105 96 103 113 120 118 110 105 106 106 105 103 103 102 99 96 95 102 101 100 99 99 100 100 102 107 108 106 103 100 100 103 106 100 104 116 113 130 75 17 26 20 42 43 40 9 38 24 32 88 81 95 38 29 61 77 38 28 41 25 33 33 65 45 64 41 53 77 18 18 6 10 26 24 46 11 13 68 60 68 38 61 62 67 72 115 57 50 38 18 78 69 63 36 44 72 12 64 71 43 58 69 53 14 67 70 58 38 60 29 42 55 35 74 6 4 51 49 77 95 81 101 91 90 104 104 100 98 100 102 103 101 100 110 86 79 92 83 90 90 87 90 87 92 86 95 94 97 103 93 92 114 55 106 68 26 18 5 42 113 97 73 90 89 64 50 33 41 79 88 42 72 89 23 56 101 106 95 92 84 88 97 97 96 95 94 93 93 92 96 94 99 98 85 93 91 90 91 92 93 93 93 94 96 97 96 96 96 98 98 98 98 97 103 101 99 97 95 94 93 92 101 99 97 96 94 93 95 99 94 93 91 89 88 88 88 88 90 94 98 100 98 98 98 100 99 100 100 98 97 95 91 87 92 90 89 90 91 90 90 90 95 99 96 89 88 94 95 90 93 95 94 91 93 96 98 96 100 102 103 103 102 102 100 97 101 100 97 94 92 92 93 96 92 93 94 93 93 97 98 95 93 91 92 95 97 97 97 97 105 100 97 97 95 92 92 94 98 128 163 176 169 152 151 145 146 150 145 155 151 149 147 154 155 156 155 154 153 152 150 147 148 148 149 150 150 149 149 151 149 150 151 152 151 151 152 152 149 149 149 149 148 147 145 144 137 137 144 138 118 128 130 127 130 128 127 127 129 130 132 133 134 131 132 127 127 131 130 133 128 129 126 126 133 135 130 127 127 128 128 128 129 129 129 130 119 118 124 127 124 126 127 120 119 116 116 114 118 119 114 120 118 110 118 114 112 112 112 116 118 114 118 110 109 105 114 114 114 107 114 110 107 108 106 99 102 106 111 113 113 111 109 108 109 108 109 110 112 110 107 103 104 104 106 108 107 104 102 102 102 102 101 99 98 97 96 95 109 109 108 106 103 103 106 110 115 129 102 76 56 25 68 43 19 52 32 13 43 57 35 67 52 3 34 34 23 72 70 50 28 21 33 39 20 18 53 14 27 30 13 16 26 46 33 47 32 12 22 23 81 36 40 98 173 37 45 56 29 57 69 75 13 98 179 74 64 74 41 16 63 31 52 85 88 64 11 82 74 55 43 67 43 33 40 27 60 74 22 28 54 82 98 87 101 94 95 99 102 99 98 100 101 101 101 102 104 81 83 90 89 91 85 88 91 83 91 88 94 93 96 98 98 107 91 41 76 41 23 11 47 67 74 89 53 43 28 31 51 54 41 43 69 62 71 70 57 100 108 98 89 99 87 94 98 96 94 94 94 94 95 94 94 92 97 98 86 93 91 91 94 95 97 98 98 97 97 97 96 97 98 99 99 99 100 101 101 99 96 95 94 94 94 94 92 91 91 91 90 90 93 97 92 92 91 91 92 93 94 95 95 98 100 101 100 100 101 102 100 102 101 94 88 88 91 94 95 92 91 92 94 93 92 92 95 96 94 92 91 91 89 88 96 95 95 95 96 97 97 97 99 98 96 94 94 95 93 90 100 96 92 92 96 99 99 98 98 95 93 96 99 96 94 100 100 98 97 98 100 99 97 98 99 92 92 96 92 90 106 128 168 168 166 153 155 150 150 150 142 148 152 151 150 154 152 151 151 151 151 148 147 146 144 140 148 150 153 155 153 150 150 151 150 149 149 148 149 150 151 151 151 151 150 149 148 146 145 144 145 144 149 142 119 130 133 129 132 131 131 131 133 135 136 136 129 129 135 130 131 136 133 136 136 138 133 128 131 134 132 129 130 130 129 126 124 125 127 129 126 127 127 126 125 128 130 130 126 128 130 126 127 124 117 125 127 119 127 121 114 127 121 123 123 119 120 119 117 117 121 119 116 116 117 114 112 120 113 110 110 111 113 116 117 117 114 112 110 114 118 123 127 124 111 99 103 106 111 112 108 104 105 109 103 103 102 100 99 99 97 98 97 97 102 106 109 110 112 116 108 61 75 50 41 49 47 24 21 44 26 7 43 40 29 18 8 37 72 60 69 31 9 80 65 18 37 10 22 34 19 7 23 72 34 51 20 39 41 32 44 32 19 41 128 108 48 79 102 57 62 49 55 59 60 42 27 70 46 24 96 102 65 13 60 52 57 93 59 39 8 75 72 82 89 103 56 50 36 72 121 187 43 150 140 87 92 90 95 94 95 102 96 99 102 101 97 94 99 107 94 82 92 83 94 95 85 87 90 80 86 100 90 89 87 98 111 104 45 39 38 19 23 16 72 67 58 37 34 37 29 39 41 69 40 27 22 19 17 59 110 97 90 99 97 97 96 89 98 95 93 93 94 96 97 96 96 94 99 101 89 95 93 93 92 95 98 100 100 99 97 96 94 95 94 93 91 92 94 96 89 89 89 90 90 91 90 89 94 95 97 98 96 94 94 96 97 97 97 97 97 98 98 99 101 101 101 100 99 98 99 100 98 97 94 92 93 94 93 90 92 90 90 93 97 97 97 97 92 90 91 97 99 95 94 97 99 98 98 100 100 99 97 98 97 94 90 87 89 92 93 91 98 92 87 90 99 105 103 98 101 94 90 97 102 92 89 102 99 94 92 93 93 94 95 97 94 99 97 92 103 133 161 175 164 164 163 146 155 153 149 152 154 147 154 146 149 148 149 149 144 146 146 146 147 150 150 148 150 152 157 158 156 151 150 151 152 149 146 146 147 149 151 151 153 153 152 150 149 148 147 146 148 143 147 145 131 150 157 153 153 152 150 148 147 147 145 144 142 143 152 146 143 147 139 141 144 143 141 142 143 138 135 140 140 141 142 140 138 137 137 138 134 134 129 123 124 127 131 136 134 132 128 122 126 126 121 130 126 126 123 124 115 127 128 119 120 118 114 121 115 120 115 112 108 111 104 99 99 118 116 120 122 122 121 118 114 111 108 107 101 103 95 80 74 84 100 110 109 105 103 105 107 106 103 101 102 102 101 100 101 102 103 104 100 100 101 103 103 98 94 92 42 13 44 64 44 43 68 55 30 53 18 4 45 42 37 4 17 31 27 40 61 56 22 45 45 34 34 36 31 40 25 19 23 36 32 30 37 35 23 44 45 22 20 24 92 35 64 31 78 83 56 48 80 74 90 64 20 73 117 92 42 93 105 54 37 73 59 95 82 51 11 65 76 60 51 73 44 77 64 81 111 160 29 170 198 86 94 97 96 94 88 98 95 105 98 99 101 95 100 101 86 78 89 88 97 87 78 85 82 89 92 95 89 90 98 102 114 74 3 20 25 2 21 22 35 40 45 56 45 55 36 32 37 48 49 41 18 29 85 112 99 93 94 98 99 97 93 88 91 91 93 96 98 99 99 99 98 102 102 100 87 92 95 97 98 98 98 98 97 94 91 89 91 90 90 89 89 89 88 88 84 85 85 86 88 92 94 93 95 96 99 102 102 100 99 100 96 95 96 96 98 100 102 103 102 101 102 102 99 95 93 95 89 90 92 94 95 94 91 89 92 91 91 92 94 95 95 94 98 96 95 95 94 94 98 103 100 97 96 99 98 94 94 97 92 94 97 99 99 99 99 100 101 101 103 104 102 98 96 98 95 96 98 100 101 99 97 97 96 93 93 94 94 93 95 99 98 95 109 140 167 174 170 166 152 152 153 156 155 151 147 146 144 145 145 145 148 152 153 151 152 151 148 147 150 154 153 149 154 156 157 157 156 154 151 149 149 150 151 151 150 150 151 152 149 150 151 150 151 152 151 148 146 150 150 146 129 148 148 148 146 148 148 146 145 147 147 146 142 135 129 131 137 142 145 146 134 133 136 143 146 142 139 139 136 134 131 131 134 137 139 139 131 130 125 121 123 130 133 131 141 134 129 128 126 123 124 129 123 124 127 123 119 128 135 127 124 121 122 127 130 128 125 125 121 115 111 109 105 108 116 121 117 112 99 86 85 92 93 88 95 74 70 77 75 80 99 111 109 109 99 87 97 82 82 99 102 102 110 97 99 112 100 107 106 115 113 117 94 19 48 60 40 50 39 21 46 24 39 49 23 33 10 67 57 35 26 20 57 54 10 27 40 20 13 34 81 24 37 12 21 22 23 7 23 29 33 10 40 26 34 36 17 13 11 15 141 109 59 71 147 57 119 130 166 61 72 47 23 57 162 113 51 77 45 9 37 59 38 37 73 70 15 49 52 66 49 64 96 111 54 90 101 147 31 136 140 83 94 91 93 94 99 103 100 104 99 96 102 97 102 97 82 84 88 91 94 81 77 76 78 85 93 86 87 90 100 101 98 58 60 65 42 34 47 14 18 38 23 25 39 20 24 34 36 37 28 11 48 109 113 96 97 92 93 97 97 96 93 88 89 92 95 98 99 100 99 99 98 102 102 102 90 94 93 92 86 88 90 91 92 91 89 87 90 89 89 89 90 91 91 91 92 93 92 92 93 97 98 97 94 95 98 101 101 98 96 96 97 97 97 98 99 100 100 101 100 99 98 98 96 94 95 98 94 93 91 91 92 93 94 95 91 94 96 96 94 93 95 98 96 95 94 94 93 90 91 92 98 98 97 95 94 95 96 96 96 98 100 101 101 101 102 103 104 102 102 102 100 98 97 99 101 97 94 92 91 90 93 97 93 99 101 99 100 103 103 98 107 133 159 169 167 163 156 151 154 156 156 151 142 136 139 145 142 144 146 147 150 154 155 153 150 151 151 151 153 157 159 158 156 156 154 153 152 151 151 151 152 153 153 153 153 154 155 156 153 152 151 149 150 151 151 149 151 149 144 141 127 147 142 137 135 138 141 142 143 143 140 136 133 135 137 139 145 148 145 140 147 144 143 143 141 138 138 141 129 128 126 126 126 128 130 131 131 128 126 128 131 132 131 129 125 123 119 117 118 122 127 129 130 126 125 123 118 120 118 108 111 113 116 120 123 122 117 112 109 98 99 107 106 101 104 110 106 101 104 110 102 88 92 108 109 105 113 120 114 111 118 123 121 117 108 105 114 116 113 110 110 106 114 115 117 113 114 119 128 112 85 43 46 36 42 17 42 59 72 25 28 33 23 31 18 3 58 102 72 62 11 46 95 85 71 22 37 28 11 32 46 30 34 24 16 18 23 19 25 90 54 37 28 10 31 38 22 26 23 34 111 121 55 75 125 66 73 67 48 45 54 57 20 75 40 14 39 53 73 26 31 56 51 57 61 42 1 56 68 32 86 104 48 36 41 86 56 87 29 84 102 89 94 89 95 91 103 103 105 103 100 98 103 102 104 91 81 91 86 93 86 73 75 72 83 84 86 83 86 96 105 111 86 17 52 49 14 12 34 39 55 37 51 61 44 66 64 68 35 31 21 72 112 99 96 93 98 93 93 96 95 94 92 88 94 96 98 98 97 95 94 92 94 95 94 96 89 96 94 90 89 90 92 92 91 88 86 85 88 87 87 88 90 92 93 93 97 97 96 94 95 97 98 97 96 97 99 102 101 98 96 96 98 99 99 100 100 99 99 98 96 95 94 93 92 91 92 94 96 94 91 90 91 93 96 97 92 95 98 97 95 93 95 97 95 96 97 99 98 95 93 93 97 99 97 92 92 97 99 97 100 101 102 102 102 103 103 104 106 103 100 99 99 99 99 100 101 98 96 95 94 95 99 103 98 97 100 104 101 99 111 128 158 172 177 165 154 152 151 148 154 152 149 146 143 142 145 150 155 155 154 151 149 150 150 150 153 155 155 154 153 155 156 157 159 157 155 153 153 152 153 154 155 153 150 149 149 149 149 148 147 148 150 151 154 156 153 150 152 153 151 146 127 144 142 142 139 141 143 145 145 142 137 132 141 146 147 145 147 150 147 140 144 143 143 142 137 131 129 132 130 131 130 129 128 127 129 130 128 123 121 126 128 124 120 119 113 118 120 119 119 122 121 117 121 113 112 119 121 120 116 110 108 113 116 116 117 118 113 106 111 101 103 113 113 107 107 110 103 101 102 105 104 102 105 111 108 112 117 120 117 114 114 115 116 113 118 125 120 117 113 106 109 114 107 104 128 124 120 63 47 52 57 14 21 85 99 53 24 30 43 69 41 30 23 37 82 82 36 72 61 53 26 22 33 55 51 17 36 50 90 56 1 27 31 42 23 7 42 58 34 117 99 45 43 16 17 42 14 21 18 41 104 66 38 89 197 90 122 80 22 40 73 52 22 58 55 25 40 53 59 6 19 58 23 55 70 64 2 50 58 57 41 67 41 17 48 69 56 87 27 91 104 91 90 93 98 88 98 100 104 102 101 104 102 106 101 86 85 89 85 91 76 69 71 76 82 85 87 94 87 95 97 108 44 15 44 37 16 8 17 45 38 36 42 44 44 41 53 39 59 69 101 112 92 88 97 94 99 94 94 96 94 93 93 89 98 97 95 95 94 93 91 89 94 92 88 90 87 97 96 92 95 96 96 95 92 89 87 86 90 89 89 90 92 94 96 96 97 97 95 93 94 96 97 96 99 99 101 103 102 100 99 99 99 99 99 98 98 98 97 97 97 97 97 97 95 93 91 91 93 93 93 94 95 96 95 95 98 96 95 95 96 96 93 91 93 95 96 97 96 93 92 92 97 98 97 95 95 99 101 101 100 100 101 101 101 102 102 102 105 102 100 100 101 101 101 101 105 101 100 99 99 99 99 100 101 109 105 94 99 127 157 171 175 164 154 151 151 147 144 143 149 145 145 149 154 156 157 157 156 156 154 150 149 151 155 157 157 158 158 156 154 152 152 152 156 156 156 157 157 155 154 155 154 151 147 146 146 147 145 143 150 150 151 152 156 158 156 153 151 155 155 151 131 147 148 152 151 150 149 148 148 148 145 142 143 145 146 143 142 143 142 139 144 144 145 145 141 135 134 135 134 135 137 138 137 136 136 135 136 130 127 129 131 130 128 128 126 130 134 135 133 131 126 120 130 118 115 123 127 122 119 119 127 128 127 124 123 123 121 118 121 119 119 118 116 119 119 115 115 117 112 104 110 123 123 113 118 115 111 111 116 116 115 117 119 114 116 112 115 117 119 110 116 109 114 130 117 86 25 68 31 23 33 35 57 43 55 26 33 37 25 51 85 106 49 32 95 134 76 81 55 57 9 11 32 49 25 20 40 46 73 63 27 44 44 37 30 11 28 78 46 70 36 23 36 53 39 31 21 25 24 48 89 66 20 75 172 83 145 92 47 36 146 93 18 68 99 98 69 86 75 103 78 143 117 141 83 144 192 119 159 72 3 70 53 29 45 62 53 98 21 95 109 81 88 96 94 91 97 99 98 99 99 110 99 106 92 82 86 82 88 90 72 69 68 83 81 87 91 86 86 94 110 101 24 29 19 26 18 3 17 58 60 52 34 66 40 58 44 31 51 100 107 91 100 97 85 99 100 94 94 96 94 94 94 91 95 92 89 90 94 97 97 95 100 98 92 93 89 98 97 92 92 93 93 92 91 91 91 91 95 94 94 94 96 97 98 98 98 98 97 95 96 99 100 99 101 100 100 101 100 98 98 99 96 96 95 94 94 94 95 95 93 94 94 93 93 92 90 89 93 94 95 97 98 98 96 94 100 98 96 96 96 95 93 91 98 101 101 98 94 92 93 94 99 97 97 100 101 100 102 104 101 101 101 101 101 102 102 102 102 101 101 101 103 104 102 100 105 102 100 101 104 105 105 105 104 93 96 125 156 170 170 169 153 142 139 145 146 141 142 150 147 149 153 156 157 156 157 159 156 156 155 151 150 152 154 156 157 157 157 158 157 155 153 152 154 153 154 157 157 155 154 155 155 152 149 149 152 154 153 151 160 158 154 152 153 155 155 154 152 151 148 148 135 154 153 152 151 149 147 148 149 150 151 151 141 140 142 145 145 141 141 144 149 146 143 141 139 138 140 142 131 132 135 138 141 141 138 135 138 137 134 132 135 140 141 139 134 132 133 135 135 132 131 132 134 125 121 127 128 120 116 120 129 125 122 120 118 115 116 119 124 124 125 120 115 118 121 117 120 120 122 122 120 118 118 119 116 111 108 112 115 111 108 112 109 118 118 97 104 108 116 109 117 131 114 58 7 58 116 110 90 44 49 36 45 54 21 78 69 46 25 51 82 124 97 19 51 80 64 120 89 63 38 11 19 24 26 49 45 40 56 24 54 89 38 39 29 33 61 127 72 29 53 34 15 46 39 38 18 22 13 11 71 98 118 126 204 97 156 144 202 129 181 171 176 141 181 233 171 175 185 254 134 200 192 199 134 181 183 79 69 23 102 127 41 25 43 62 56 89 34 91 99 78 96 98 89 98 101 99 95 96 99 108 97 100 83 80 84 77 92 89 71 69 69 84 83 85 91 73 93 93 106 44 13 28 6 42 34 13 32 56 53 43 50 61 52 63 54 81 116 109 89 102 95 78 98 98 98 93 94 96 94 94 95 93 94 91 89 90 95 98 99 99 97 98 96 98 91 98 97 94 93 93 93 94 95 96 97 97 95 95 94 95 96 96 96 95 98 99 98 98 99 101 102 100 99 98 97 96 95 93 94 96 94 93 93 92 92 93 94 95 90 90 89 88 89 91 92 91 96 96 96 97 98 98 97 96 97 99 100 98 95 93 95 97 102 104 103 100 97 97 99 101 100 97 98 102 103 100 101 104 102 101 101 102 103 103 102 102 99 100 101 101 102 103 101 100 100 99 101 104 105 103 102 101 92 126 157 167 168 169 163 152 151 149 149 149 146 146 151 158 156 155 155 158 159 158 156 155 160 161 160 157 154 154 153 151 156 156 156 157 156 153 152 152 157 154 154 156 157 156 156 159 158 155 152 152 154 155 154 153 152 154 155 155 154 154 151 147 150 151 150 150 135 152 151 153 149 148 147 148 148 147 147 149 146 142 141 143 142 139 142 149 145 143 142 140 138 136 136 136 129 130 133 137 142 142 139 136 133 135 134 131 131 135 135 131 129 126 127 131 132 128 128 131 129 128 127 130 131 122 118 124 135 131 130 131 129 124 125 129 127 123 125 127 122 119 121 122 121 120 122 123 118 111 112 117 116 114 117 120 115 108 108 112 114 110 105 100 117 119 126 131 107 45 52 58 29 59 95 39 40 34 28 26 16 33 47 59 64 53 128 45 47 54 49 36 85 76 24 68 78 32 30 16 27 34 24 23 37 12 29 27 27 18 35 28 10 13 49 15 39 49 81 71 56 13 32 25 24 42 33 12 60 136 194 185 248 119 172 167 221 159 184 173 183 134 132 181 111 123 112 173 94 137 126 98 77 84 6 12 135 110 148 72 44 39 37 42 68 89 37 92 89 84 101 97 88 100 102 98 99 95 101 101 100 91 78 81 81 82 93 84 68 65 76 79 77 83 86 84 95 87 94 5 16 26 3 23 17 16 43 40 26 35 40 78 33 58 99 113 89 91 103 89 82 100 100 91 94 90 91 94 93 93 95 93 94 94 94 94 95 95 95 95 93 97 97 97 88 94 95 95 98 97 96 98 100 101 99 96 93 93 94 95 96 96 95 94 98 99 99 98 99 100 100 98 96 94 94 94 93 92 93 95 95 95 95 95 95 95 96 96 98 98 96 94 95 98 98 96 96 95 94 94 94 95 95 95 93 95 97 97 95 96 99 102 97 97 96 95 96 99 99 98 100 100 100 101 101 100 100 100 99 99 99 101 102 102 101 100 99 101 100 98 98 100 100 100 101 102 102 101 99 100 107 113 161 161 165 169 169 163 158 157 158 159 160 161 159 157 153 150 158 155 153 157 162 161 158 155 156 157 157 156 157 159 160 158 157 157 157 156 152 149 150 154 160 156 155 157 158 156 158 161 158 155 153 152 152 151 150 148 144 150 156 158 158 155 150 146 150 154 157 155 134 147 149 155 150 150 151 151 148 144 143 145 146 142 138 137 136 136 140 145 142 145 148 147 144 140 137 136 138 138 139 141 142 142 140 138 134 136 136 135 132 130 129 128 131 132 133 135 134 132 129 129 133 138 136 132 132 126 122 126 128 130 131 131 129 127 127 128 129 126 128 131 128 127 127 127 128 127 122 114 112 117 118 116 113 113 118 118 109 107 111 110 118 109 108 125 120 108 72 46 76 53 9 58 61 67 61 42 29 17 66 64 108 63 80 35 81 34 79 79 67 64 30 48 94 26 61 37 2 35 28 71 62 23 42 28 36 6 9 36 37 23 33 35 48 131 29 22 33 44 21 11 29 35 29 43 24 53 47 33 57 98 148 135 194 95 126 127 145 121 121 114 114 83 104 128 75 122 106 156 116 101 124 15 27 97 156 67 145 131 158 113 44 29 42 62 52 97 44 88 83 88 95 93 89 97 101 98 106 96 105 94 105 86 78 84 81 89 93 79 64 60 84 75 79 88 78 92 78 92 131 78 50 26 1 19 17 2 27 44 39 34 23 31 56 98 96 92 98 99 91 94 88 81 94 93 91 87 89 92 92 93 95 94 90 93 97 98 95 93 92 92 97 101 99 96 83 88 92 94 96 94 94 97 100 100 96 92 94 95 96 97 98 98 97 96 100 100 100 99 99 100 99 97 93 93 93 95 95 95 96 98 98 98 99 99 99 99 99 99 98 99 98 96 96 96 93 89 94 93 92 92 92 92 92 92 92 91 90 92 97 100 102 102 101 99 97 96 100 102 100 95 100 102 102 98 97 99 99 96 96 96 96 98 99 99 98 96 100 101 100 96 94 97 99 101 102 102 100 99 104 123 151 175 165 172 172 162 154 156 159 159 160 156 154 157 156 152 151 154 148 152 159 161 158 155 156 160 162 159 155 151 152 154 155 154 157 158 158 157 152 150 155 162 158 155 155 158 158 155 155 158 156 155 153 153 153 152 151 150 155 158 160 158 155 155 155 155 156 155 154 154 137 151 148 149 150 150 151 151 148 144 145 148 141 144 146 146 147 148 147 146 142 146 148 145 140 139 141 143 147 147 146 143 140 138 137 137 132 132 134 136 133 128 128 132 134 135 133 127 126 129 131 129 120 128 124 118 121 122 122 128 124 129 131 128 125 126 127 125 126 128 129 125 124 132 132 123 124 123 119 112 109 111 113 113 115 115 123 124 118 122 124 111 109 129 126 113 62 74 57 33 84 56 60 36 46 33 60 72 56 60 55 35 98 76 73 67 95 56 94 43 110 68 23 30 34 40 44 27 16 45 22 89 45 57 37 11 30 18 40 35 1 3 30 63 100 157 68 29 22 43 38 9 12 13 30 25 28 65 71 85 84 90 112 94 164 90 134 134 176 150 159 155 157 115 119 194 108 113 89 126 65 27 30 69 57 98 158 69 92 68 72 80 53 35 36 70 67 86 51 95 87 95 91 94 94 102 98 99 101 99 101 106 94 83 88 85 94 93 87 64 66 77 74 76 84 71 98 88 86 85 154 199 130 118 145 79 42 24 27 19 5 48 64 72 114 96 87 94 94 89 87 90 91 88 86 90 90 94 94 89 89 95 97 94 95 96 98 99 99 98 97 96 100 104 103 94 81 93 91 91 88 91 94 94 92 90 91 92 95 96 97 97 97 97 97 97 96 102 103 98 95 95 95 94 96 99 101 100 100 101 100 97 99 100 102 101 100 98 98 99 99 97 94 94 94 93 90 88 89 89 86 84 89 94 93 88 85 96 100 96 95 100 100 95 94 94 94 94 94 95 96 97 94 98 98 96 96 100 101 99 95 97 98 98 100 100 97 95 96 99 100 96 94 97 102 102 102 98 102 125 155 170 170 168 164 160 155 154 157 159 159 157 154 156 154 150 151 155 156 152 152 156 157 156 156 159 159 157 154 154 152 148 149 152 156 156 159 155 154 155 154 151 151 155 153 156 159 160 159 157 155 155 155 156 157 157 157 156 154 153 161 162 160 156 154 154 154 154 156 157 155 152 135 151 149 149 153 150 146 144 145 147 148 148 146 146 146 146 147 148 146 143 141 140 145 147 146 149 150 143 144 142 142 142 138 132 130 133 135 136 137 137 138 139 138 135 128 129 129 127 125 126 129 132 128 127 126 127 130 132 132 132 133 130 128 128 126 124 123 125 123 118 122 124 119 120 125 123 117 117 118 120 120 119 120 122 119 117 122 122 115 110 116 135 129 101 69 44 36 87 53 47 82 84 117 99 77 18 41 53 41 93 42 33 44 67 46 51 65 44 93 39 26 18 18 32 75 132 65 13 48 50 23 16 25 42 69 30 35 60 75 140 45 61 31 67 44 39 61 44 23 29 10 21 16 13 47 35 35 28 33 47 32 43 93 110 95 91 96 82 94 94 104 99 112 99 110 156 119 74 17 37 78 97 132 157 130 110 144 88 105 98 102 80 49 30 24 78 67 79 87 89 89 95 93 92 94 99 97 97 99 97 103 105 90 78 80 83 94 94 74 63 69 71 73 78 70 91 88 84 99 99 136 229 137 143 237 157 137 193 102 89 61 39 100 94 89 98 87 90 86 89 89 87 89 94 95 92 91 92 93 93 93 95 96 96 99 100 101 101 101 101 100 100 99 101 101 94 82 93 93 94 91 94 96 96 94 92 92 93 95 95 96 95 94 93 92 92 92 96 97 94 93 97 99 99 100 100 97 95 97 100 102 101 99 99 99 99 99 98 98 99 100 98 96 95 95 94 93 91 89 92 94 93 95 98 96 92 92 97 98 97 96 98 98 97 96 93 91 90 91 93 95 96 96 98 100 101 99 96 95 96 100 99 96 94 93 93 95 96 90 93 99 103 106 104 99 96 104 123 153 168 163 162 167 166 151 150 150 153 157 157 153 149 153 151 153 158 159 156 156 159 156 157 157 154 153 152 152 151 154 155 154 150 147 148 150 150 148 147 148 152 154 152 153 156 157 159 160 160 159 159 161 163 159 159 159 159 158 157 157 156 153 155 157 157 157 158 158 156 156 158 157 154 137 154 153 154 147 146 145 146 149 151 151 150 148 150 150 149 148 149 148 146 147 143 144 147 146 145 145 143 145 143 139 137 136 136 134 132 131 133 135 135 136 135 131 126 133 133 133 132 132 133 134 134 140 138 135 133 133 133 132 130 130 128 127 128 127 126 127 129 120 115 118 121 118 118 121 119 124 120 118 120 121 123 125 127 113 121 128 118 122 138 129 84 43 31 40 20 37 54 91 38 54 44 48 19 36 33 25 38 43 44 4 51 46 29 39 62 36 47 76 58 75 53 20 42 75 120 96 3 6 25 28 70 85 76 76 14 31 40 74 114 59 50 40 17 30 26 18 5 17 45 31 14 38 76 79 33 13 6 9 11 45 155 175 241 250 209 172 223 193 135 138 130 6 51 37 17 53 129 121 96 97 105 88 91 86 91 111 73 91 104 114 92 65 68 40 83 64 40 89 88 93 95 94 89 95 97 98 98 98 96 103 99 83 75 79 89 95 83 62 66 66 63 77 75 74 82 85 90 90 22 62 110 77 98 139 79 110 125 95 137 147 96 99 88 87 92 92 85 83 88 90 87 89 95 97 94 93 92 93 97 97 95 95 98 97 97 97 96 97 97 97 97 101 100 100 95 84 93 92 95 96 98 100 100 98 96 95 95 94 95 96 97 97 97 97 97 97 100 99 97 97 99 99 97 98 95 91 89 92 97 99 98 95 95 96 97 97 98 98 99 99 98 98 97 96 95 95 94 86 92 95 94 93 94 94 92 99 97 96 97 97 97 97 99 95 92 89 89 93 96 96 95 100 99 99 101 98 92 93 99 92 92 93 94 95 97 99 102 109 101 99 103 100 94 104 124 149 165 168 165 169 161 148 145 151 149 148 149 151 153 154 154 153 153 156 161 160 156 156 161 157 156 155 155 154 153 153 155 156 158 158 156 154 153 152 151 154 154 156 161 163 161 160 162 159 160 160 160 159 159 161 164 160 159 158 157 156 156 156 156 153 156 157 157 156 157 156 155 156 158 156 154 137 156 156 159 152 150 149 150 152 153 151 148 149 152 154 152 150 149 150 149 154 150 148 151 152 144 139 142 140 142 140 135 134 137 136 132 136 135 132 129 129 132 135 135 136 136 136 137 139 139 138 137 138 135 132 131 131 131 130 129 129 127 126 126 126 125 126 127 125 121 124 127 125 124 125 123 122 126 126 121 122 128 126 116 123 122 126 139 130 74 32 7 17 39 21 64 31 34 54 44 69 48 34 52 54 39 28 22 36 51 22 43 53 37 54 19 16 35 25 70 69 92 84 51 28 28 47 40 21 33 20 42 67 68 58 16 31 36 42 30 31 4 39 25 9 45 60 68 66 36 10 16 33 25 11 28 29 8 10 19 41 74 51 42 68 72 59 65 54 47 49 41 37 49 125 127 147 148 196 196 162 165 210 211 143 189 194 144 133 137 118 72 40 32 23 65 55 14 90 94 95 95 95 88 97 96 100 100 98 98 102 89 77 80 86 98 92 65 58 69 59 64 82 70 79 83 101 90 111 104 89 88 103 83 90 88 88 110 86 65 90 92 79 88 102 81 86 82 88 87 89 92 92 91 93 97 95 95 95 97 97 95 96 98 98 98 97 97 97 98 99 100 100 98 99 97 87 95 93 97 98 99 100 101 100 98 97 96 95 95 96 97 98 98 98 98 98 100 100 99 99 98 95 90 92 91 90 90 91 92 92 91 89 92 94 96 96 96 98 100 97 98 98 97 97 96 96 97 95 98 99 97 95 95 96 96 100 98 95 95 96 98 98 99 92 89 89 92 98 100 98 94 96 98 101 102 99 95 96 100 96 96 97 100 101 102 100 100 95 101 100 93 99 125 152 165 175 166 165 159 145 148 156 148 154 151 148 146 146 149 153 156 154 159 161 156 153 155 157 155 156 153 153 156 156 156 158 162 159 159 160 160 159 157 154 151 155 155 157 160 161 159 159 160 159 160 160 161 161 160 160 159 159 158 157 156 156 155 155 155 159 160 159 156 154 155 156 156 156 156 153 151 136 156 158 160 158 155 152 151 152 151 148 146 147 150 150 149 147 148 148 147 146 147 145 147 149 139 130 132 129 134 137 135 132 132 132 131 136 139 142 142 142 140 136 132 134 135 136 137 137 137 136 135 134 133 132 132 133 134 134 133 129 128 127 126 126 126 126 127 127 125 126 128 128 126 125 123 131 126 124 127 123 117 121 130 131 146 120 76 25 11 50 79 40 33 9 22 28 44 15 44 9 70 66 34 14 58 75 21 20 37 24 48 85 89 53 16 37 35 19 16 23 25 78 50 40 14 61 71 49 59 21 30 62 14 5 35 54 16 8 28 47 11 22 20 23 44 101 64 30 25 23 36 43 33 13 26 14 11 37 47 40 61 67 48 40 29 68 60 55 69 74 90 95 75 90 74 67 72 71 57 66 75 70 67 65 89 95 96 111 145 146 105 37 82 83 59 87 54 85 97 96 94 94 87 97 95 99 99 99 103 98 82 77 86 91 94 78 58 58 62 62 71 73 70 78 93 85 85 229 254 254 254 248 254 249 254 254 218 125 81 88 85 95 87 84 81 85 93 89 89 90 93 93 92 94 97 96 98 98 96 95 96 97 96 98 98 97 97 97 98 99 100 95 95 98 98 90 98 97 100 96 97 97 98 98 98 97 96 97 96 95 94 94 92 90 88 88 89 91 92 94 94 91 87 88 90 92 93 91 89 88 88 88 92 97 98 96 95 97 99 97 98 98 98 98 98 99 99 100 100 99 98 97 97 96 95 99 99 95 92 93 98 98 95 90 88 88 92 97 99 96 93 89 97 103 104 101 99 98 96 102 100 99 102 103 102 101 102 105 101 104 121 147 166 165 155 164 168 159 151 152 145 143 157 146 147 148 149 149 148 148 147 153 158 159 154 152 154 155 152 154 152 152 155 156 154 157 161 159 157 156 158 159 157 151 147 150 150 151 154 156 156 157 159 162 160 159 160 162 163 161 159 160 160 160 160 159 159 158 158 158 159 159 157 157 159 160 160 158 155 150 148 136 157 158 159 155 154 153 153 154 154 152 150 145 146 145 144 145 146 145 143 142 147 145 143 147 143 135 134 135 135 137 141 142 140 140 142 145 148 149 147 144 140 135 130 132 134 135 135 133 133 134 135 136 136 135 135 134 133 132 131 128 129 129 129 130 132 133 133 130 129 128 129 129 126 124 124 121 124 124 120 124 134 138 133 110 52 10 24 4 21 46 27 20 32 69 115 102 12 2 36 19 16 7 1 14 36 31 48 47 23 17 34 15 30 7 88 58 49 52 5 9 25 87 54 19 43 78 111 132 59 39 33 45 13 17 7 32 7 21 24 10 33 64 47 36 33 8 9 29 30 17 27 23 21 20 24 38 27 37 19 89 122 102 106 99 73 84 62 68 53 76 62 58 62 57 61 69 85 77 87 88 111 102 120 134 132 122 130 129 115 113 112 37 64 81 50 87 85 88 87 96 94 91 88 95 95 96 97 98 106 92 79 80 86 88 81 63 63 59 53 71 76 62 77 78 88 101 101 130 148 126 192 212 203 209 220 169 71 74 90 87 77 88 83 87 98 89 87 85 92 94 90 91 98 99 94 95 98 98 94 94 96 97 95 97 97 96 96 96 96 96 96 97 97 99 97 89 98 95 96 97 96 96 97 98 99 98 97 100 98 96 95 95 93 90 88 88 87 88 89 91 92 91 90 87 89 91 91 89 86 87 90 91 96 100 100 96 94 95 97 98 98 98 99 99 100 100 100 99 98 96 96 97 97 94 91 97 99 96 91 92 96 96 91 91 89 88 88 90 92 92 91 93 99 101 97 95 98 100 99 99 98 100 103 102 99 98 100 101 121 149 167 168 163 165 172 160 148 150 157 151 148 147 139 146 148 151 153 153 152 150 148 150 148 151 157 159 155 152 153 151 151 153 155 156 156 158 161 158 155 154 157 161 160 157 154 155 154 154 154 156 158 160 161 163 159 156 157 160 163 162 161 161 161 161 161 161 161 160 160 155 158 160 159 159 160 160 159 159 157 152 150 137 158 159 159 155 156 158 159 159 158 156 154 149 149 147 146 148 149 148 145 147 149 147 144 147 149 148 146 147 139 135 141 148 149 148 148 148 147 143 138 134 135 136 137 137 139 140 139 136 136 137 140 137 137 137 136 134 133 131 130 130 131 132 132 132 133 133 131 130 132 130 129 129 126 123 127 123 127 125 126 137 138 103 58 9 0 5 44 14 5 11 0 26 62 182 103 35 8 23 35 9 3 6 17 38 48 17 0 13 38 21 39 28 46 90 73 26 29 15 9 1 23 93 58 23 19 47 84 117 61 41 43 3 4 19 20 28 17 30 35 1 45 55 49 86 3 15 17 16 32 15 21 9 13 23 19 71 27 27 15 131 58 107 159 90 83 124 155 151 126 119 133 139 138 125 92 118 107 118 117 112 110 119 100 79 69 52 44 44 30 40 59 59 35 26 46 103 103 81 106 95 95 90 92 95 98 95 97 97 105 82 78 84 81 85 73 60 64 58 58 73 72 67 79 86 87 91 65 34 13 4 2 21 0 30 97 87 89 91 90 87 98 89 89 94 90 91 90 89 95 95 90 91 98 98 91 93 93 94 95 96 95 95 97 100 100 100 100 99 97 96 95 98 100 100 94 85 96 93 92 98 96 95 95 98 99 99 98 99 98 97 97 99 98 96 95 92 92 91 91 91 91 90 90 87 87 88 89 89 88 90 93 94 96 97 96 95 94 94 95 97 96 96 97 99 100 99 98 99 97 96 96 98 98 98 97 95 95 95 94 94 94 93 91 92 91 91 89 88 88 90 91 98 97 95 92 91 94 99 102 101 102 103 103 100 99 108 118 148 168 174 161 159 168 160 139 138 145 145 146 151 149 146 152 152 152 152 152 154 154 154 153 148 144 146 154 159 156 152 151 149 152 155 157 158 161 162 162 158 155 155 158 161 161 162 163 157 156 154 153 153 154 156 157 160 159 158 158 159 161 162 162 163 162 161 161 160 160 160 160 159 161 161 159 157 157 155 153 156 157 156 155 140 159 159 160 160 161 161 159 156 154 154 155 154 154 153 151 150 151 150 149 147 142 140 141 140 143 146 145 144 138 134 135 139 141 140 139 132 136 140 140 139 138 135 133 142 142 143 142 141 140 140 141 140 140 139 138 137 136 137 137 132 134 135 133 132 132 130 128 126 129 126 124 125 121 120 127 125 131 136 122 82 40 24 31 21 13 28 45 33 2 0 3 34 38 83 85 20 36 6 38 11 4 5 18 12 27 28 19 25 0 35 52 34 16 26 7 0 28 60 77 55 1 47 48 27 16 6 21 22 21 34 1 15 32 26 52 39 17 19 24 0 10 21 44 62 2 7 10 10 30 8 16 7 2 12 28 32 0 33 47 214 102 135 197 141 114 146 153 133 128 115 115 107 113 119 144 142 148 148 156 157 173 187 180 182 165 165 155 154 155 133 63 47 42 38 53 63 95 92 95 94 96 89 95 96 102 96 100 96 102 72 77 85 77 86 75 66 57 56 71 66 65 81 76 84 95 76 50 61 51 29 46 45 57 94 88 92 93 93 90 92 96 92 94 90 88 91 90 97 95 94 95 95 93 91 89 90 88 90 97 98 94 94 99 97 97 97 96 95 92 89 88 94 97 97 90 83 97 97 95 96 94 91 92 94 96 96 95 96 95 94 95 97 97 96 94 89 90 91 92 91 88 86 85 88 87 88 91 93 93 94 97 94 93 91 91 93 94 94 93 95 94 93 94 97 98 97 96 94 91 89 88 90 92 96 99 94 92 93 97 96 92 91 94 91 93 95 94 91 90 91 93 93 92 93 97 98 94 94 97 97 96 96 96 99 114 144 171 171 167 167 168 159 145 141 147 148 148 147 146 147 152 154 149 150 149 150 151 152 152 150 147 147 147 145 146 152 158 154 145 150 155 158 157 158 161 160 158 159 157 156 156 155 153 156 159 156 155 154 152 153 155 157 158 160 162 164 164 162 161 161 162 165 164 163 161 160 160 161 161 162 162 160 156 153 153 153 152 152 157 159 159 141 158 158 161 160 160 157 151 146 146 151 155 154 155 155 152 149 148 149 148 150 139 139 144 140 138 141 141 143 147 146 140 137 137 138 136 133 136 138 137 136 136 137 136 141 141 140 140 141 140 138 137 137 136 134 132 131 131 132 134 131 134 136 135 135 136 134 131 129 134 130 127 128 124 124 133 146 119 68 18 6 22 30 23 29 16 38 39 32 6 5 1 2 35 19 4 12 36 13 35 18 9 9 0 10 46 5 3 12 14 11 37 7 19 43 5 7 24 115 105 20 17 34 30 34 4 8 2 18 31 32 6 12 30 14 38 45 10 21 6 10 1 20 19 35 22 10 1 12 38 9 5 5 9 5 21 26 1 33 27 98 120 120 109 117 128 128 124 114 123 146 157 166 158 162 167 184 180 184 189 189 190 191 189 205 222 212 220 211 227 179 52 31 49 57 24 29 93 96 95 95 92 90 94 99 95 92 95 104 81 80 76 76 91 85 64 55 52 62 63 64 72 74 88 88 80 117 97 95 87 108 86 84 102 100 89 93 98 93 93 96 89 83 84 87 89 90 91 94 93 93 93 92 91 90 88 92 93 94 96 97 97 96 95 96 94 92 89 88 87 87 87 91 91 89 86 86 90 94 95 94 93 93 94 94 94 94 94 94 97 98 95 91 88 89 91 90 90 90 90 89 88 87 86 88 89 92 93 92 89 90 92 91 89 91 95 96 92 92 95 97 94 92 93 93 92 93 94 92 89 87 87 87 87 88 91 92 90 89 91 94 94 90 85 91 89 89 93 96 96 93 91 93 91 92 96 97 92 87 85 90 89 91 108 138 165 169 162 169 165 157 146 138 138 142 144 143 145 145 145 146 149 149 147 148 150 150 147 146 149 150 149 148 148 149 148 147 147 146 147 153 152 154 158 160 157 154 153 159 159 159 158 157 156 156 156 157 158 160 164 163 159 157 158 162 163 163 162 159 158 158 159 161 162 162 163 163 162 162 162 162 163 162 158 154 150 149 149 146 158 157 152 139 156 153 158 157 156 153 149 149 153 157 159 156 156 154 149 144 140 140 142 140 142 144 143 140 139 139 141 148 143 140 141 143 142 141 140 136 137 137 136 136 137 140 143 142 145 145 141 138 137 136 134 131 137 131 125 130 130 127 128 130 129 128 127 129 126 135 132 132 132 127 129 130 137 145 111 59 22 20 7 4 28 31 11 74 65 4 24 84 124 44 11 17 39 4 20 20 17 14 43 22 1 12 17 9 39 22 2 6 12 3 36 26 38 95 47 3 29 34 10 60 46 2 19 30 1 13 4 8 16 36 7 3 17 50 77 57 14 3 6 11 4 28 28 4 13 10 13 8 34 13 9 8 2 9 19 27 17 19 12 143 158 172 183 194 193 188 190 192 194 190 196 192 198 192 191 177 176 176 170 162 158 153 145 116 83 85 77 69 61 52 24 15 51 67 42 38 102 94 88 93 89 90 94 95 93 94 97 97 70 65 62 79 87 71 62 53 53 59 61 67 77 80 85 92 88 194 228 221 221 196 116 88 95 91 87 92 94 90 92 81 84 88 91 90 88 91 95 92 93 94 94 94 94 94 94 94 95 94 91 88 88 91 95 88 89 90 92 93 93 93 93 93 92 89 87 88 92 94 95 94 95 94 93 93 93 96 98 99 98 97 97 98 97 97 96 95 95 94 93 93 93 92 92 88 88 89 91 91 90 91 93 88 87 90 95 96 94 94 97 96 94 94 96 97 96 96 97 96 94 93 94 94 93 94 96 95 95 94 94 94 94 93 92 93 94 94 93 91 91 91 92 92 98 95 85 83 89 92 87 85 100 131 161 170 162 161 169 158 150 140 135 138 143 143 140 146 145 145 146 146 147 147 147 148 150 150 150 149 151 151 151 144 147 150 150 149 147 145 145 156 153 152 154 155 155 156 158 160 160 160 160 159 159 158 158 162 161 161 163 161 159 159 160 158 159 160 160 160 160 161 162 162 163 163 162 160 161 163 165 162 161 159 154 149 148 151 155 155 153 146 149 144 160 151 151 156 156 156 156 156 157 155 152 147 147 146 145 143 141 140 140 141 143 145 146 145 144 145 146 145 141 139 140 143 143 143 143 147 146 143 143 143 144 144 144 141 143 144 140 137 135 133 131 126 131 130 128 132 130 124 124 123 134 128 121 132 125 119 132 127 127 134 145 139 112 48 39 34 0 23 4 0 34 41 5 32 15 1 35 62 36 34 27 9 37 17 12 11 21 25 40 21 6 4 12 24 31 40 29 13 5 3 35 20 8 36 32 3 47 12 10 61 27 0 30 28 7 18 17 14 27 43 5 16 23 34 14 36 24 1 11 4 8 14 33 17 16 25 6 10 37 23 13 9 6 9 22 38 4 6 11 168 156 149 148 146 142 145 155 147 154 154 156 151 158 153 151 159 164 170 173 176 188 194 190 137 105 111 110 119 138 114 32 154 128 97 37 81 98 90 93 92 87 92 96 92 92 98 98 81 69 67 62 89 84 57 51 49 53 53 58 68 78 84 79 76 100 166 160 161 152 90 82 92 87 84 86 90 89 88 90 87 88 92 96 97 95 92 91 89 90 92 93 94 95 95 96 93 92 89 87 86 88 91 94 88 90 92 94 95 94 93 92 90 93 94 91 88 90 95 99 97 97 96 93 90 90 94 97 97 97 97 97 98 98 99 99 98 98 98 99 99 97 92 88 90 88 86 86 87 86 87 89 88 88 90 94 95 94 95 98 96 95 95 97 97 95 93 93 94 93 94 95 96 95 95 96 95 96 95 93 91 91 93 95 91 92 93 92 94 97 96 92 95 88 89 96 93 84 88 102 135 162 170 156 155 170 167 146 139 139 137 136 139 144 145 144 145 143 142 144 144 142 142 145 148 148 149 150 149 148 148 150 147 150 152 152 150 148 147 147 149 150 151 153 153 152 153 154 155 155 156 157 159 160 159 158 161 159 158 157 156 155 156 158 158 159 160 160 159 159 160 161 161 162 161 157 154 153 155 157 152 154 155 154 151 150 152 154 158 155 152 156 143 152 146 154 155 157 158 159 160 158 153 147 149 148 148 148 148 146 144 142 143 144 146 148 149 149 149 149 149 145 143 145 148 149 149 150 149 145 141 141 143 144 141 138 141 143 144 141 138 135 133 131 127 130 130 132 135 131 125 127 129 127 131 125 119 121 117 120 120 141 135 76 32 30 12 33 76 45 19 47 22 23 33 12 3 15 14 28 16 22 17 12 5 39 19 4 31 36 22 37 19 7 13 4 6 40 21 32 10 16 17 30 15 7 5 10 1 32 25 3 1 11 12 21 22 11 10 4 27 23 35 8 25 91 98 88 30 16 15 15 2 11 21 39 19 18 28 10 16 36 19 6 11 16 10 16 33 33 29 8 168 167 168 169 167 167 163 158 153 152 154 145 149 149 159 160 159 162 166 166 163 160 156 146 156 177 168 173 152 172 69 50 153 60 57 47 115 93 96 87 92 87 93 98 92 95 101 96 68 73 73 72 92 76 59 46 48 53 49 60 70 74 82 76 82 178 217 192 111 67 85 94 92 86 86 90 89 88 88 89 93 91 90 91 92 91 88 86 89 89 90 92 94 95 94 93 91 89 87 89 92 94 93 91 91 92 93 94 93 91 89 88 92 94 94 92 91 93 96 97 95 95 95 93 92 92 93 95 92 96 99 97 93 92 96 101 102 99 97 96 96 93 88 84 89 86 83 84 86 87 87 88 91 90 90 92 92 91 92 95 97 95 95 96 96 93 91 90 91 92 93 95 96 96 95 95 95 95 94 92 89 89 92 95 92 94 93 90 91 95 95 92 93 96 97 93 93 109 137 161 166 158 158 167 166 149 132 125 129 135 141 142 142 143 144 145 141 138 139 143 144 140 139 144 150 147 147 149 148 145 145 148 150 150 151 151 151 152 153 154 145 147 149 150 150 149 151 152 152 151 153 156 160 161 160 159 162 162 161 160 159 159 160 162 159 159 159 160 160 160 161 161 160 159 158 156 153 151 151 151 152 154 155 156 155 154 153 152 153 156 160 163 141 148 148 159 156 156 156 155 156 155 151 147 149 149 148 148 148 147 145 144 146 146 147 149 151 151 149 148 149 146 144 145 146 146 147 147 144 140 137 137 140 140 137 134 138 140 141 140 137 135 133 132 133 130 129 131 132 130 130 133 137 121 130 137 121 124 133 138 126 59 43 9 0 2 3 30 56 48 7 22 73 39 31 1 8 0 11 36 26 53 66 21 14 36 21 26 59 35 4 42 19 12 7 14 3 33 17 9 1 4 5 30 24 9 5 17 14 26 30 7 0 4 0 27 33 15 11 4 8 12 41 6 9 61 72 38 30 18 0 12 5 1 28 28 5 17 8 7 22 38 22 6 13 27 16 21 38 64 56 12 105 106 106 106 111 120 127 123 130 127 135 141 156 153 154 150 153 142 135 131 123 117 115 111 111 118 99 99 111 87 95 123 67 95 123 95 87 90 91 96 92 86 92 97 92 96 99 90 71 72 66 79 86 64 66 51 50 52 50 64 71 68 77 77 91 176 161 103 78 90 87 87 88 89 93 93 89 88 90 88 90 94 95 92 88 88 93 98 94 92 91 93 96 97 94 91 90 90 90 91 92 91 90 88 91 91 91 91 91 92 93 93 100 96 91 90 94 97 95 90 91 91 92 94 97 97 96 95 93 97 100 98 94 93 96 100 102 96 90 87 87 88 88 87 86 83 83 87 91 94 95 95 93 92 91 90 89 89 91 94 96 94 94 95 96 95 94 95 94 95 97 98 99 99 99 98 98 97 96 95 96 96 96 96 93 97 98 95 93 97 103 106 102 96 96 113 142 162 164 157 149 165 172 158 137 126 128 133 133 135 137 139 141 142 139 136 139 137 140 146 146 142 142 147 150 147 146 148 147 145 146 150 147 146 146 148 152 155 156 155 150 149 146 143 143 147 152 156 157 156 157 159 161 162 160 158 156 157 159 159 159 160 161 161 157 157 159 160 162 164 165 165 162 159 156 156 158 160 160 159 163 160 156 155 156 157 156 155 151 153 156 159 143 158 156 156 155 156 156 154 152 153 152 151 151 152 152 152 152 152 153 154 149 149 149 150 152 152 150 148 152 149 147 148 148 147 147 147 146 144 143 142 142 141 138 135 134 135 136 136 134 132 132 133 134 128 126 127 127 128 131 135 133 138 130 126 130 133 114 65 25 4 30 21 1 7 0 5 32 6 8 1 1 29 50 21 7 37 15 31 31 0 8 6 11 32 32 27 18 16 10 37 28 1 5 15 9 35 20 0 8 13 6 32 21 1 9 7 1 31 26 0 11 14 11 20 30 32 22 23 14 27 41 9 8 13 6 0 30 28 5 4 18 1 30 27 10 30 9 10 5 30 22 3 3 13 5 17 30 23 21 5 93 92 88 88 89 88 88 88 81 77 70 77 72 76 75 82 89 77 72 76 81 87 98 105 110 95 103 123 119 141 143 139 146 140 149 136 81 90 93 92 88 86 90 93 91 94 94 85 83 72 61 87 82 57 61 50 52 50 52 63 67 64 72 81 134 114 78 91 95 85 91 94 88 93 96 93 90 91 90 88 90 92 92 91 91 93 96 97 94 91 90 91 94 94 92 89 85 89 92 90 86 86 90 95 93 92 91 91 92 94 96 98 98 100 98 94 90 90 91 92 94 93 94 96 99 98 95 91 95 95 95 96 98 98 98 96 91 90 89 89 91 92 90 89 88 86 86 89 93 95 96 97 96 95 94 93 93 94 96 98 96 93 92 93 93 93 92 93 93 95 96 97 98 99 99 97 101 99 98 99 101 101 99 97 97 97 97 98 101 101 100 98 100 113 139 162 165 155 155 163 179 156 133 126 131 136 137 136 134 138 139 136 133 134 136 138 140 140 143 146 146 144 145 148 143 142 143 144 145 145 147 149 147 146 147 148 150 150 148 146 148 148 146 144 144 147 151 152 161 160 160 160 160 160 157 156 150 152 155 155 156 157 158 157 160 160 160 161 163 164 164 164 164 159 154 153 157 160 161 160 157 156 155 156 159 161 159 157 157 157 158 158 142 163 161 154 155 157 158 156 155 155 155 154 159 159 159 157 156 156 157 159 152 151 151 152 153 154 152 151 154 152 151 152 152 150 149 150 147 147 147 146 144 141 138 136 135 135 135 135 134 132 133 136 132 127 127 129 127 129 133 132 131 125 116 133 140 162 220 188 200 185 97 146 163 158 154 126 73 132 126 111 71 91 68 73 41 51 54 51 43 32 35 32 23 38 16 5 1 0 5 36 10 2 2 4 1 33 9 4 2 16 21 22 14 6 14 0 1 22 30 5 3 0 3 27 34 8 2 5 18 21 40 17 37 24 1 17 20 21 28 18 9 2 21 33 14 19 14 11 7 35 25 10 10 14 6 14 35 16 14 13 88 88 83 84 89 86 85 92 86 95 99 105 96 97 96 104 108 106 109 114 110 107 106 104 101 113 105 111 109 96 102 102 105 98 101 92 89 91 89 91 85 88 90 89 89 91 90 84 90 81 71 86 71 59 51 50 54 51 56 60 63 68 75 88 117 77 86 83 84 98 95 88 94 95 90 86 91 92 87 86 87 85 83 84 88 92 89 84 89 89 90 91 91 92 91 91 88 90 90 89 87 88 94 99 96 95 94 94 94 95 96 96 94 100 101 95 87 86 90 96 96 95 95 95 96 95 92 89 94 92 92 94 97 98 95 93 86 88 92 96 97 96 92 90 93 91 90 91 93 93 93 94 95 95 96 96 97 97 99 99 96 93 92 92 92 90 90 90 91 93 94 93 94 96 96 95 99 98 98 98 101 101 99 97 103 98 96 96 95 94 96 100 136 153 161 154 153 164 169 166 135 128 125 129 132 130 129 131 131 137 141 136 131 131 138 144 142 142 143 142 140 140 142 144 136 139 141 141 143 145 146 145 150 151 151 150 148 146 144 144 146 149 151 151 152 153 151 148 156 156 157 157 157 157 157 157 157 159 161 160 160 162 164 163 165 164 162 162 163 162 161 160 162 158 155 154 156 158 157 155 149 152 156 160 162 161 159 158 162 162 163 160 139 160 162 158 158 159 159 158 158 159 158 156 160 159 156 154 153 153 153 153 154 154 153 153 153 153 153 153 150 148 148 149 148 145 143 143 142 142 143 144 144 142 140 138 140 138 136 135 134 132 134 138 132 129 131 132 129 133 136 131 120 128 174 235 181 126 232 233 235 254 118 213 254 234 253 220 104 244 253 251 247 197 127 119 50 102 107 22 160 244 194 185 241 135 137 199 184 183 173 87 112 167 129 119 107 62 81 96 91 84 92 49 44 54 41 37 29 39 32 15 9 15 2 10 35 1 1 1 0 1 25 10 19 2 10 4 32 23 0 0 3 2 14 31 7 0 5 1 7 32 13 4 6 8 4 7 37 29 20 11 101 111 109 105 112 112 108 110 107 109 116 109 112 109 112 108 105 106 109 108 105 107 112 111 110 104 104 106 104 106 105 110 110 105 109 93 88 88 90 93 83 90 91 87 88 89 87 86 88 90 83 72 50 62 49 60 58 55 62 60 65 78 84 97 83 80 92 88 98 85 92 98 99 94 82 80 92 92 84 85 85 87 90 88 89 89 91 89 86 88 92 92 92 91 94 95 99 95 90 89 92 95 95 94 94 94 95 95 95 96 96 96 99 96 91 89 92 95 94 91 91 91 92 92 92 92 93 94 91 93 95 95 94 93 92 92 94 94 94 94 94 94 95 95 96 94 93 94 94 94 96 97 89 91 94 95 95 95 95 95 93 92 92 94 95 94 94 95 93 95 95 94 94 97 98 97 97 97 97 98 99 99 99 98 98 100 103 98 91 99 131 164 162 160 162 170 176 166 139 113 125 127 126 122 123 129 130 126 131 132 133 134 137 140 142 141 142 143 141 136 133 134 137 138 134 139 142 142 143 146 146 143 150 152 153 151 148 147 150 154 155 156 155 155 156 159 158 155 149 151 153 155 156 158 161 162 162 163 163 161 160 163 166 166 163 162 161 162 163 163 163 162 158 158 159 161 162 162 159 157 158 160 162 160 158 157 158 160 163 157 157 156 137 160 164 161 162 161 158 157 158 161 160 158 160 157 154 155 157 158 157 155 156 155 154 153 152 152 152 152 151 150 150 150 148 144 142 141 136 137 139 143 146 147 145 143 142 139 136 134 132 130 133 137 133 130 133 133 129 135 138 131 193 235 247 251 179 125 243 227 228 238 123 191 234 218 227 209 101 229 211 215 237 179 120 236 130 58 61 36 65 117 75 73 98 93 189 254 237 248 253 137 176 244 250 217 253 119 179 254 248 244 251 148 165 238 222 215 221 142 117 208 199 186 195 134 88 175 151 139 130 125 59 94 94 89 80 81 48 53 60 46 38 27 35 49 23 15 15 10 4 32 11 1 0 0 4 14 27 1 1 1 107 105 103 101 101 103 104 106 106 107 108 109 109 109 107 106 104 101 101 103 106 106 103 100 101 100 97 97 99 101 103 104 107 113 101 90 94 92 89 90 84 91 91 89 91 89 85 87 90 79 96 70 58 63 59 57 55 58 57 58 66 87 100 84 95 91 89 91 93 94 91 91 84 85 84 86 91 94 91 87 87 91 93 93 91 92 91 91 90 91 91 93 94 96 95 95 98 95 92 92 95 97 96 93 93 93 93 93 91 92 94 96 96 94 92 91 92 93 93 94 95 94 94 94 93 91 91 93 94 91 90 93 96 96 94 92 94 94 94 94 93 94 94 95 97 94 92 91 90 89 91 95 95 94 93 94 95 95 94 93 97 95 94 94 93 95 96 96 97 99 100 99 95 93 96 100 98 96 94 96 98 97 97 99 101 98 95 105 133 161 165 155 168 175 179 168 143 121 118 126 126 128 126 125 127 128 127 130 132 125 126 134 138 134 134 140 140 137 136 138 139 138 139 141 140 143 141 139 141 143 144 147 144 148 146 150 151 149 154 152 153 159 159 153 151 155 158 157 157 152 147 149 156 161 161 159 163 162 161 160 160 160 161 162 163 162 162 163 166 166 164 162 161 159 158 158 158 159 161 162 163 162 160 159 159 159 159 158 155 152 154 160 142 151 151 160 159 159 161 162 161 159 161 164 162 157 154 158 160 157 155 155 153 154 154 154 154 153 152 152 148 147 149 151 150 147 145 147 139 140 140 142 143 142 141 142 142 132 141 142 142 133 141 132 134 132 131 150 154 152 93 74 198 212 199 220 169 100 233 213 223 246 130 180 242 233 239 222 95 225 239 235 249 205 114 252 251 242 212 160 110 145 30 101 91 63 109 234 237 188 224 133 163 236 198 205 242 119 167 240 221 218 243 139 161 247 225 229 246 169 134 252 237 233 254 198 122 254 249 239 247 237 103 224 246 235 239 254 147 154 243 237 233 238 192 117 224 196 190 186 174 97 129 169 137 143 164 137 65 118 106 96 134 131 125 118 112 106 102 99 100 98 95 93 94 96 98 99 100 103 108 110 108 104 101 100 104 103 103 103 106 108 110 110 108 110 105 87 90 90 88 88 83 89 90 89 89 88 87 88 83 96 92 64 54 59 60 52 50 53 45 66 98 92 84 98 91 90 91 94 93 90 86 85 90 91 91 91 92 93 92 89 84 87 90 91 92 94 95 94 95 93 91 91 92 94 95 96 96 95 94 96 97 97 93 90 93 94 95 94 93 92 92 91 98 95 91 90 90 92 94 95 95 94 94 94 94 92 93 94 92 90 90 92 93 93 92 93 95 95 96 95 95 95 96 97 99 95 93 92 91 91 93 96 96 95 95 95 95 95 93 92 97 95 93 93 95 96 96 96 96 97 98 99 100 100 98 95 97 97 94 91 96 101 101 97 94 105 131 157 162 156 161 175 181 167 141 118 116 129 133 128 124 126 124 123 125 125 124 126 130 127 128 133 137 137 137 138 136 134 133 134 136 137 141 145 138 139 135 133 136 136 137 141 134 138 138 144 146 144 146 143 143 147 148 145 145 148 150 150 154 155 156 154 153 153 156 159 156 156 159 163 163 161 161 163 164 163 161 161 162 162 160 159 155 156 159 162 163 162 161 160 162 162 162 162 162 161 160 159 157 157 159 161 144 157 156 161 160 154 152 156 161 161 158 155 145 144 146 151 153 151 151 153 156 156 156 154 151 149 150 151 143 143 145 149 149 147 146 147 150 146 142 143 147 148 145 141 139 143 138 137 143 143 133 134 134 146 144 98 72 70 40 54 70 67 72 63 41 67 94 101 98 90 74 123 127 137 141 102 83 164 163 159 179 121 67 195 188 202 226 132 141 239 155 71 60 49 47 83 112 55 68 43 139 229 225 238 254 129 159 245 231 238 249 153 156 246 222 232 247 184 111 242 218 222 236 200 115 246 215 229 229 231 101 204 232 227 221 238 144 133 245 221 226 223 211 119 239 235 231 235 254 128 187 253 216 253 251 226 114 248 246 254 192 192 190 189 188 187 184 183 177 173 165 156 152 149 149 149 145 136 125 119 117 117 114 111 102 102 103 104 104 104 104 105 104 108 102 85 89 91 86 81 85 88 92 90 86 86 88 87 88 96 66 57 55 48 52 49 41 37 66 97 87 84 95 81 85 86 90 93 92 89 86 86 89 92 93 91 89 89 89 89 91 93 93 93 94 96 95 93 92 91 90 90 92 94 96 97 95 95 95 96 95 94 91 89 91 91 91 92 93 94 93 93 97 95 92 90 90 91 92 93 94 92 92 93 94 93 93 95 92 91 92 93 92 91 91 93 93 94 94 95 94 94 95 96 99 96 92 91 92 92 94 95 93 93 93 94 94 93 90 88 94 92 91 91 93 95 95 94 94 93 89 88 92 98 100 99 95 91 95 102 100 91 93 105 126 152 167 160 159 172 177 170 141 121 108 113 120 120 120 123 121 124 122 122 125 125 124 126 129 130 129 129 131 132 131 128 131 131 133 136 136 137 139 142 140 138 133 133 135 133 133 138 134 137 136 142 145 143 146 142 141 141 142 143 144 145 146 147 148 152 155 154 149 147 150 154 156 162 162 158 158 163 165 162 163 162 161 159 158 158 158 158 159 160 160 161 161 162 162 162 163 162 162 162 163 163 162 161 158 162 162 162 145 163 162 164 164 156 151 154 159 159 153 148 145 146 150 154 152 149 149 152 153 154 154 150 146 145 147 150 142 142 145 147 148 147 146 146 144 145 145 146 145 142 137 132 136 137 140 143 140 138 138 153 139 130 79 66 81 62 70 86 67 57 65 63 53 68 63 40 53 44 46 51 41 47 39 35 65 36 44 50 33 24 43 53 52 77 45 41 69 72 93 96 52 30 109 70 62 96 77 42 74 135 171 167 136 89 155 201 200 210 206 130 157 228 236 228 234 141 132 243 232 243 248 208 111 251 252 243 240 247 107 219 241 231 235 251 152 139 246 217 220 241 232 90 232 219 225 224 248 131 167 237 193 227 235 210 101 236 233 227 189 189 189 190 191 191 190 189 188 188 188 190 192 194 195 196 192 186 179 179 181 181 175 170 166 167 165 161 153 148 142 141 127 133 94 82 89 91 84 79 90 90 94 92 84 84 89 87 89 88 51 50 49 47 45 34 44 82 91 90 94 85 80 88 86 86 87 89 89 88 88 90 85 88 89 88 86 87 88 89 97 97 96 94 95 96 94 91 90 90 90 92 93 94 93 93 95 94 93 91 89 89 90 91 90 88 87 88 91 93 94 94 94 95 94 93 92 92 91 89 91 89 89 91 92 92 92 94 95 93 93 94 94 92 92 93 92 93 94 94 94 94 94 95 98 94 90 90 91 92 92 92 89 90 92 93 93 91 89 88 91 90 89 90 94 96 96 95 94 97 96 94 93 93 92 89 104 95 94 97 94 98 124 154 165 165 165 168 175 172 148 123 108 115 119 118 119 122 123 122 117 120 120 121 125 126 125 128 128 128 128 127 127 127 125 123 130 131 133 133 132 132 134 137 139 136 132 133 136 133 131 136 136 137 132 136 139 139 143 140 143 141 141 145 146 145 144 146 143 144 146 148 149 150 149 149 156 157 157 157 159 161 162 161 161 161 161 160 158 158 158 159 162 163 162 161 161 163 164 165 163 162 161 160 161 162 163 164 163 164 162 160 144 160 159 161 162 159 155 155 155 154 152 150 158 159 161 162 159 154 153 155 150 150 150 148 145 145 147 149 146 146 146 147 147 146 145 144 151 149 147 143 139 137 136 136 133 131 131 129 139 151 137 112 88 108 109 103 123 108 103 157 86 73 84 75 84 80 80 87 93 86 91 97 90 88 94 94 89 94 90 81 86 70 80 69 61 59 54 68 62 59 54 58 60 61 49 56 60 46 48 54 56 40 35 34 40 36 46 42 54 48 36 42 70 61 68 71 50 39 82 96 98 103 92 60 92 129 125 140 132 114 78 142 165 179 184 162 94 138 205 202 211 212 148 108 224 235 232 234 244 122 173 244 220 248 246 209 98 243 248 252 186 185 183 181 179 178 176 175 174 175 177 179 180 178 176 174 171 175 180 181 180 179 181 183 184 187 190 191 191 189 189 189 195 187 99 89 90 87 78 76 91 90 93 91 82 84 89 87 94 67 47 57 45 37 38 49 87 85 84 88 83 82 90 86 91 89 87 88 88 87 87 88 87 88 89 88 89 91 91 90 90 90 89 89 92 95 95 93 94 94 93 92 91 90 88 87 93 92 90 88 86 87 89 91 92 90 89 90 91 91 90 89 93 95 95 92 91 91 90 88 89 87 87 89 91 91 91 93 94 91 90 93 95 95 94 93 92 93 94 95 95 95 96 96 96 93 90 89 90 92 92 90 88 89 91 93 94 93 92 92 95 93 92 94 96 98 98 97 97 97 96 95 96 97 96 95 91 96 90 89 119 165 177 161 161 161 170 175 156 122 103 105 117 119 119 116 117 121 121 117 114 117 117 118 122 123 123 126 127 124 124 128 129 126 126 128 131 131 129 126 124 127 132 136 131 131 129 131 134 131 129 133 137 136 131 134 137 138 143 141 142 139 139 144 146 144 143 144 146 145 146 149 153 154 153 151 148 141 144 158 163 158 156 162 159 161 162 162 161 159 159 158 154 159 163 163 163 164 163 160 162 162 161 162 162 163 163 162 166 161 156 156 139 152 151 155 155 155 154 152 152 154 155 157 159 159 159 160 159 157 157 158 152 151 150 149 149 148 147 146 148 147 146 145 146 146 146 145 140 138 137 137 137 136 134 131 137 140 143 152 114 97 86 78 112 108 99 95 114 89 61 136 95 79 85 94 76 60 70 62 65 62 60 66 68 58 61 69 61 71 67 71 72 58 76 79 66 30 88 87 78 94 91 102 93 90 84 88 90 96 88 85 86 89 92 53 23 29 31 22 35 57 40 54 30 31 32 62 63 55 39 43 47 50 50 45 48 48 42 41 41 25 44 49 34 41 37 29 27 51 40 47 42 49 27 57 64 69 77 80 48 61 93 105 115 118 115 68 86 153 153 162 178 177 177 176 177 177 177 177 177 178 179 181 183 183 182 181 181 182 182 181 180 181 185 189 191 192 192 191 189 187 185 185 194 166 70 79 85 84 80 83 89 89 89 86 82 84 88 87 89 57 52 52 37 40 59 88 93 82 74 80 84 83 88 85 89 87 87 89 90 89 87 87 90 90 90 89 91 93 92 89 85 86 86 87 89 93 94 94 96 94 91 89 89 89 90 90 91 91 90 89 88 88 89 89 89 90 92 93 93 92 90 88 95 96 94 90 88 90 91 90 89 87 86 89 91 91 91 91 91 88 87 91 95 95 93 92 90 91 93 94 94 94 94 95 94 94 92 91 91 93 92 90 87 88 90 92 92 93 93 94 96 96 95 95 96 96 96 95 97 93 91 93 96 95 93 94 87 87 113 161 187 180 169 171 170 168 156 131 105 94 102 115 111 103 105 116 121 115 111 113 115 118 117 117 121 121 120 123 126 122 122 126 126 123 123 127 125 128 129 129 129 130 131 131 128 131 132 133 135 134 132 135 134 135 130 134 137 138 143 142 142 140 141 145 147 146 146 147 150 152 153 154 153 154 155 156 144 145 145 146 151 159 161 159 158 159 160 161 160 158 156 154 156 159 161 158 156 157 156 154 159 161 162 164 165 163 160 158 158 152 149 152 137 152 151 156 157 155 152 151 154 158 158 157 156 154 153 153 154 154 154 154 153 151 149 149 149 148 144 142 145 144 143 143 145 147 147 145 145 144 141 136 132 130 133 137 149 150 130 105 13 67 123 94 92 95 85 107 126 74 60 152 116 79 104 112 114 111 107 117 93 76 103 115 99 96 90 82 92 86 85 101 96 92 93 80 58 52 55 56 66 52 53 50 43 39 54 55 49 45 54 59 47 57 75 73 62 42 31 59 65 52 34 34 26 35 14 41 86 58 31 28 39 73 89 95 85 65 57 74 110 100 85 86 77 66 74 86 89 74 75 75 59 57 66 72 58 56 47 29 31 19 60 39 39 36 18 25 45 29 24 14 180 179 179 179 180 181 181 180 184 183 182 181 182 182 183 183 184 184 185 190 196 197 192 188 188 187 187 187 187 187 187 187 206 145 76 90 90 80 78 79 89 90 86 82 83 85 86 88 67 63 56 35 43 74 92 94 84 88 80 82 90 88 87 87 85 85 87 89 89 87 86 88 90 90 90 89 90 91 89 86 88 89 89 88 88 90 92 92 92 90 89 89 90 92 93 94 92 91 91 91 91 91 90 89 88 89 91 91 91 90 90 89 94 96 94 89 87 89 91 90 89 86 85 87 89 89 89 89 88 87 87 91 93 92 90 89 88 89 91 92 92 92 93 93 92 94 94 93 92 93 92 89 88 89 90 90 90 91 93 94 94 95 95 95 93 93 93 94 93 93 98 101 97 88 87 94 116 156 193 197 182 172 171 172 167 137 107 99 104 107 107 107 99 107 110 105 106 116 120 117 117 119 117 116 119 119 118 120 122 121 120 120 119 119 119 121 120 124 128 129 129 128 124 120 125 133 135 133 135 137 137 138 129 130 126 128 130 131 139 139 143 143 144 145 147 148 148 148 147 147 148 148 147 149 151 154 146 154 152 142 143 156 160 154 154 155 155 156 157 155 151 149 158 160 158 151 148 150 152 152 159 159 160 161 162 160 157 155 153 151 150 152 140 159 158 159 158 157 155 153 156 159 158 155 156 154 153 152 151 151 150 149 148 148 148 148 148 146 144 143 143 143 143 143 145 147 145 142 138 136 135 137 142 146 147 147 113 82 68 103 67 106 148 89 89 83 84 84 123 80 11 53 171 179 156 148 147 120 109 117 118 116 112 102 105 109 94 108 109 100 105 105 91 109 113 108 108 113 119 127 121 129 131 129 128 128 138 136 115 100 102 103 105 78 82 80 72 82 85 69 63 64 55 11 5 9 12 26 11 8 19 10 17 1 3 56 35 32 18 35 28 51 81 62 26 17 26 44 63 79 86 37 25 25 42 70 73 76 30 34 21 45 32 25 30 30 30 58 33 27 16 42 188 188 188 189 190 190 190 189 191 190 188 187 187 188 189 190 192 191 189 187 187 188 191 193 192 190 188 187 188 189 189 189 202 114 74 88 86 76 81 84 91 93 86 81 84 85 84 88 68 48 37 50 86 87 83 84 90 80 75 84 85 81 85 84 87 88 88 88 85 82 83 86 88 90 90 90 90 90 88 85 89 90 90 88 86 88 90 91 90 90 90 91 92 92 92 91 95 94 92 92 92 92 92 91 93 92 90 87 84 84 86 88 91 95 95 90 88 90 90 88 88 85 84 86 87 87 86 86 89 89 90 92 92 89 87 87 88 90 92 93 93 93 94 94 90 93 95 93 92 92 91 89 91 92 92 91 91 92 94 96 93 94 96 96 94 94 95 96 95 92 92 91 85 89 116 147 189 198 198 186 178 173 161 145 103 101 100 102 103 104 104 105 107 106 107 108 105 103 108 115 116 117 115 113 116 115 115 117 116 119 119 115 115 120 122 120 123 122 120 116 116 117 116 114 121 131 133 129 130 134 135 136 136 136 128 128 129 131 141 144 141 142 142 142 142 143 144 143 139 136 134 135 140 144 146 146 146 144 149 157 155 146 145 153 151 150 150 152 153 152 149 146 149 154 156 153 151 153 153 151 160 158 157 156 155 155 155 155 157 159 158 156 143 164 160 156 150 153 155 154 154 156 157 157 154 154 153 152 151 151 150 149 144 146 147 148 148 148 149 150 145 146 146 145 145 146 142 137 141 135 137 150 155 128 73 27 8 16 32 99 115 59 63 44 73 94 83 73 93 43 57 135 185 179 181 167 92 179 204 209 208 208 200 203 204 216 217 207 207 205 202 185 175 176 155 165 156 150 146 129 122 120 107 99 99 101 90 101 104 125 111 122 118 124 121 116 123 128 137 147 147 160 148 158 163 145 144 143 142 130 112 112 100 79 88 70 57 32 29 28 10 30 19 23 18 23 4 1 2 5 6 19 23 15 21 0 6 17 22 27 19 30 0 33 48 67 44 23 27 42 65 94 185 185 186 187 186 185 186 189 188 187 185 185 187 190 191 189 195 192 191 193 193 191 191 191 192 182 186 194 190 185 188 192 189 89 76 82 85 73 80 88 91 91 80 86 81 81 98 79 49 41 60 92 96 82 74 75 72 77 82 83 83 85 87 88 85 84 84 84 83 83 82 81 84 86 88 89 88 86 86 86 87 85 87 91 92 89 89 92 90 92 91 89 89 92 92 91 89 91 90 87 89 94 93 89 90 93 95 95 94 95 95 94 92 95 96 93 89 88 88 87 87 88 89 88 86 84 86 89 89 88 88 89 89 90 91 92 93 93 94 94 93 93 93 94 95 94 92 91 91 91 91 90 89 90 91 91 93 96 94 90 90 96 97 95 95 94 93 96 92 89 85 90 113 152 184 196 195 200 190 176 170 148 112 90 99 100 104 103 99 100 101 98 102 107 109 107 107 110 110 108 113 111 108 106 107 110 113 114 119 116 113 112 113 116 118 119 118 118 118 118 118 119 121 122 119 123 126 125 126 130 132 130 135 134 137 137 131 133 138 135 133 135 136 136 135 134 134 134 139 139 140 142 145 146 144 142 145 146 149 147 145 154 154 138 143 145 149 152 153 153 151 150 146 148 151 153 156 156 152 148 139 148 154 152 150 152 155 157 159 159 158 157 147 157 159 153 158 158 158 159 160 158 155 152 155 153 151 150 150 151 150 150 151 150 148 146 144 143 144 145 144 144 141 140 138 134 134 140 142 150 149 117 68 65 99 140 144 143 133 78 147 169 159 178 38 66 207 191 180 188 199 185 178 163 163 145 86 155 195 168 152 154 151 151 165 180 173 155 154 147 165 173 187 198 178 177 184 190 190 212 211 205 201 199 191 189 190 188 179 172 164 154 142 136 130 129 127 121 118 119 116 94 92 98 96 102 105 91 102 109 127 134 133 127 149 158 144 134 118 117 146 184 193 180 122 70 86 106 150 152 146 117 75 71 69 78 73 68 64 38 28 22 28 40 47 53 53 44 51 51 54 40 176 176 179 183 187 190 194 198 190 191 193 196 197 196 194 193 191 189 188 188 185 181 178 178 189 187 188 189 188 189 189 186 170 80 80 81 82 78 79 93 84 87 81 81 77 82 88 62 50 74 93 87 75 76 81 79 77 80 82 82 82 84 86 87 88 87 87 86 85 84 84 83 86 87 88 89 90 90 89 88 87 89 90 89 90 91 91 92 91 93 93 91 91 92 92 90 86 86 86 86 85 83 82 83 89 92 93 92 92 93 93 92 92 95 94 90 85 85 87 89 91 92 92 92 89 87 88 91 92 92 92 92 92 92 92 93 92 93 93 92 91 91 91 91 93 93 93 92 91 90 91 92 94 93 92 91 89 88 90 91 91 95 94 92 95 96 91 90 83 88 105 145 188 202 198 199 198 180 170 158 122 86 85 101 96 97 102 102 99 100 102 100 103 106 106 103 101 104 106 105 103 103 102 102 103 105 105 105 107 108 109 111 113 113 111 110 113 114 116 118 119 120 120 121 120 121 123 125 126 127 128 130 128 129 131 131 129 132 135 134 136 136 136 135 135 134 133 132 135 136 137 140 143 143 142 139 142 139 143 145 144 148 149 141 141 144 149 152 152 150 148 147 144 145 146 146 147 149 150 148 140 145 152 156 156 155 156 158 161 166 164 155 138 150 158 157 157 157 158 158 157 155 154 153 153 151 149 147 146 146 146 146 146 145 146 148 149 148 143 138 136 127 139 151 141 135 139 138 132 124 80 74 6 172 238 219 217 235 234 115 160 150 175 175 175 185 214 211 158 207 200 201 202 209 198 190 226 220 198 204 205 210 211 208 205 206 204 200 200 197 202 193 194 202 190 186 184 190 186 192 186 177 172 163 161 161 174 185 179 167 168 176 170 181 195 198 187 173 169 173 172 182 185 184 184 177 172 178 154 158 145 123 120 112 113 106 89 98 109 115 110 100 93 93 104 95 117 126 132 139 162 170 171 174 185 194 188 189 198 193 198 196 192 183 168 155 145 137 138 128 126 118 100 99 102 108 116 122 127 132 150 150 154 161 166 169 172 176 177 179 180 184 185 187 189 193 185 191 191 190 191 195 198 204 143 72 86 81 77 77 76 92 83 80 81 80 80 85 79 61 84 85 83 82 84 82 78 76 81 81 81 80 79 82 83 83 82 83 84 84 84 85 87 88 88 87 86 87 89 89 88 86 87 91 91 87 87 91 92 90 91 92 93 93 93 93 92 91 91 89 90 91 88 83 84 89 88 89 89 89 90 92 91 90 92 93 92 86 82 83 87 90 88 89 90 90 87 85 86 89 95 95 94 93 93 92 92 91 92 93 93 93 92 91 92 92 91 93 93 92 89 88 90 92 95 92 91 94 97 96 94 93 85 93 95 94 95 93 88 87 106 144 191 205 191 190 197 191 181 164 121 85 83 93 93 92 95 96 100 100 96 97 100 98 99 101 99 96 95 98 101 102 101 102 103 105 107 106 105 103 102 104 107 111 113 112 109 107 112 114 117 119 121 121 120 120 121 118 120 124 125 123 124 129 125 128 128 127 130 132 131 132 135 134 132 132 133 133 132 131 134 135 137 139 142 142 141 139 137 132 135 142 142 141 143 144 144 144 144 142 141 142 146 149 143 147 150 149 147 147 147 146 145 145 150 158 161 158 157 160 157 155 151 147 136 148 157 157 158 158 157 155 154 152 152 152 148 147 147 145 144 144 145 146 143 144 142 138 134 134 139 144 149 138 138 140 132 130 138 142 147 24 45 85 3 136 148 139 149 132 53 53 112 147 177 180 172 166 165 173 193 188 187 210 196 185 200 206 200 206 210 203 207 208 209 211 209 206 210 216 210 213 215 211 210 213 213 213 206 210 210 208 211 209 213 207 211 204 201 204 202 199 195 190 187 187 187 184 177 171 174 181 172 182 177 167 164 151 139 143 158 169 170 174 182 163 162 176 192 180 172 173 170 160 157 161 146 145 137 138 123 119 110 98 98 87 88 86 81 87 93 95 86 93 97 100 108 116 121 123 131 128 129 132 78 75 73 74 75 75 75 76 71 70 73 80 84 87 92 98 96 98 103 108 114 121 131 137 139 144 149 154 161 161 174 195 113 73 87 81 74 74 77 88 87 73 78 81 82 86 78 76 84 89 83 78 84 85 78 75 81 80 79 78 78 81 82 80 80 82 83 83 82 83 86 89 89 88 86 85 86 86 85 85 88 90 90 87 87 89 90 89 89 90 91 91 92 92 92 91 92 89 86 85 84 84 88 94 87 87 87 87 89 91 92 90 93 92 89 84 82 85 88 90 90 90 91 91 90 88 89 91 94 93 91 90 89 88 88 88 89 90 91 91 91 91 92 92 90 91 91 89 87 86 87 88 94 94 93 92 91 91 88 85 97 88 88 97 92 83 106 146 185 205 203 194 204 204 183 166 133 88 77 92 88 85 93 91 95 95 98 96 91 92 94 92 96 98 97 93 92 95 98 99 103 104 105 107 108 108 106 104 105 106 107 109 110 111 111 111 113 114 115 116 118 118 117 116 117 116 117 119 119 118 119 122 124 129 126 124 129 128 124 126 129 127 125 127 129 131 131 131 133 134 135 137 139 140 139 138 134 130 133 139 139 137 139 143 145 145 143 139 137 139 145 150 148 152 155 152 148 147 147 147 152 150 150 155 159 159 158 158 147 141 139 147 140 147 152 156 159 157 154 152 151 151 150 150 147 148 148 146 145 144 145 147 145 144 142 141 140 138 136 135 130 147 145 140 151 148 135 137 144 155 94 52 62 124 165 147 152 135 90 63 90 161 149 146 148 144 157 156 157 153 155 132 156 159 157 154 151 165 159 160 163 157 157 166 173 173 172 173 183 182 177 188 188 180 188 194 195 192 194 190 199 201 208 205 207 210 213 211 207 210 214 213 209 206 205 208 210 210 209 208 204 201 200 201 201 204 203 195 195 200 186 177 183 180 176 173 177 170 161 157 157 161 168 173 175 172 146 149 150 166 175 176 177 165 169 166 168 177 170 165 150 163 162 150 144 138 135 138 131 132 118 117 86 83 80 80 80 78 76 76 78 78 80 82 81 76 74 75 79 81 79 78 74 76 77 80 78 82 81 85 87 86 91 108 87 76 82 82 75 73 86 86 83 71 76 77 80 84 78 84 76 83 82 80 81 77 74 79 78 78 78 78 81 83 83 81 84 85 85 84 81 80 82 84 88 88 87 86 84 84 85 87 89 88 88 90 89 87 87 90 89 88 88 88 88 89 89 90 89 87 83 80 82 89 92 92 90 89 88 87 88 91 91 89 93 91 87 84 85 88 90 89 89 89 89 89 88 86 86 88 89 88 86 84 83 83 84 84 86 86 87 87 87 87 88 88 88 87 86 85 85 86 86 86 87 94 95 88 84 88 92 94 89 97 92 82 97 136 176 199 202 197 201 199 187 174 143 99 73 86 90 86 89 91 90 91 91 91 93 91 87 87 90 88 96 98 97 95 93 94 96 97 99 99 99 100 100 101 100 99 106 106 105 105 106 108 109 111 111 110 109 108 110 111 111 111 112 114 115 113 112 114 114 113 118 122 120 117 122 122 118 119 122 121 120 121 125 128 129 129 130 130 130 131 133 134 135 135 134 135 135 136 137 137 137 141 141 144 147 147 145 143 144 146 149 151 151 148 145 147 150 152 154 154 152 152 155 157 155 149 138 142 148 151 137 143 150 155 155 152 148 147 148 149 148 147 149 149 148 146 143 141 141 142 140 143 145 143 137 134 135 137 140 147 130 119 137 150 152 162 157 171 176 181 183 175 173 171 159 153 181 166 167 160 138 150 152 157 159 149 137 153 153 142 168 152 162 164 165 159 160 151 158 157 159 166 171 167 159 152 160 155 141 148 149 143 153 157 164 157 158 156 163 160 160 157 150 146 156 168 165 157 159 165 168 175 185 193 194 194 196 199 200 199 202 202 199 201 202 199 201 205 200 201 200 203 204 193 189 196 202 201 198 199 201 202 188 196 185 186 180 175 179 183 172 164 161 145 142 157 161 167 141 140 136 146 173 182 166 148 148 156 150 169 81 80 80 83 85 85 86 87 82 82 82 82 81 80 79 79 74 77 82 83 85 86 89 88 95 97 94 89 91 89 84 78 79 82 79 80 76 74 89 82 77 77 82 74 75 83 79 80 82 77 75 79 81 76 73 78 79 80 80 80 83 85 84 82 82 82 82 81 79 78 79 80 83 84 84 83 82 83 86 88 90 87 88 91 90 86 87 91 89 87 86 87 86 86 86 88 88 87 84 82 87 94 94 90 92 92 90 88 88 89 88 87 92 90 87 85 86 88 89 87 88 86 85 84 83 81 81 82 85 84 82 81 81 81 83 84 87 88 88 87 86 86 86 86 85 84 83 84 85 86 86 86 85 88 88 86 90 95 94 90 91 85 92 130 177 203 206 206 208 201 188 176 148 96 65 73 89 82 88 91 83 89 96 87 85 85 88 87 83 85 89 88 88 90 92 92 93 94 95 97 95 94 93 93 94 95 96 96 102 103 104 104 104 104 105 106 108 106 103 103 105 107 109 109 109 113 115 111 111 114 113 110 110 113 113 112 115 116 116 116 119 117 117 117 120 122 123 123 125 125 126 127 128 129 131 131 133 137 136 133 136 136 135 137 137 140 143 144 143 142 142 143 139 142 145 146 148 150 151 150 150 153 152 150 151 153 148 141 137 147 150 145 133 147 153 147 149 146 143 143 144 145 145 145 143 143 142 141 140 139 140 140 138 140 140 138 135 135 139 143 132 115 106 103 97 97 100 97 105 104 104 111 110 114 112 120 125 128 122 134 141 137 152 147 144 145 144 144 165 138 125 165 162 156 163 169 169 171 171 180 174 179 183 179 171 165 164 166 169 171 161 162 165 166 172 165 155 148 154 155 160 157 148 146 161 154 156 164 164 160 156 153 161 159 154 146 139 139 146 153 151 157 150 147 156 153 151 162 164 163 164 176 168 171 185 193 191 188 186 190 192 192 193 195 202 203 199 203 208 204 202 202 200 205 209 203 199 200 194 192 196 200 197 193 191 187 178 173 175 170 161 181 80 78 78 79 78 77 78 81 79 80 78 76 80 87 91 90 94 96 96 95 94 94 92 90 85 86 88 89 90 95 91 80 78 84 78 75 74 78 85 78 76 82 83 75 75 82 81 79 73 84 86 75 69 78 83 75 81 82 82 82 83 85 84 82 77 77 77 77 78 78 79 79 81 81 81 81 82 83 85 87 87 87 87 87 86 86 87 89 87 85 85 87 87 86 87 88 85 82 79 80 85 90 89 86 91 92 91 89 87 87 87 86 89 90 89 86 84 85 85 84 90 88 86 85 84 82 83 85 83 83 83 83 84 85 86 87 90 90 90 89 88 87 87 87 85 85 85 85 85 86 87 87 92 86 83 85 87 86 84 83 87 133 177 197 200 198 201 206 192 191 161 102 62 72 87 80 74 80 82 87 93 83 74 83 82 83 85 84 81 83 88 87 80 83 86 89 90 91 94 96 93 93 92 93 95 96 96 96 96 98 100 100 100 100 100 101 104 103 101 102 104 106 106 106 106 108 110 111 110 110 110 109 107 108 111 110 109 111 114 113 114 114 113 113 113 114 114 115 119 120 122 123 124 124 125 126 128 132 129 128 132 131 128 131 134 134 134 134 134 136 138 140 135 136 138 140 145 148 147 144 146 147 148 148 147 146 142 139 143 145 144 143 134 146 148 143 145 145 145 143 141 140 141 142 139 139 139 139 139 140 140 139 144 139 138 142 147 143 129 114 114 101 106 117 112 112 117 111 115 115 107 106 117 111 107 114 102 99 111 96 102 99 108 106 104 107 112 126 104 95 85 93 85 84 87 94 96 109 103 101 106 114 125 130 131 137 152 166 168 174 174 174 176 180 181 174 171 172 177 179 179 183 174 174 172 175 175 164 149 145 147 144 151 147 143 143 148 156 161 164 163 156 146 147 156 154 148 153 138 154 151 152 150 156 143 124 136 138 141 144 140 138 144 154 155 155 159 162 164 172 171 175 175 175 173 182 192 193 195 194 200 198 199 200 198 201 204 204 206 206 212 212 74 73 75 76 78 79 83 87 89 92 91 88 90 96 94 88 83 84 82 79 80 82 83 82 79 74 79 85 80 78 81 79 75 77 74 68 71 84 83 79 78 81 77 76 79 78 80 83 82 73 75 81 78 76 79 79 82 83 83 81 82 83 83 81 79 78 78 78 79 79 78 77 83 82 81 81 84 86 86 86 84 87 86 82 81 85 87 86 83 83 84 88 89 89 89 91 87 80 77 81 86 87 89 91 88 90 90 88 86 87 87 87 87 90 90 86 81 80 82 83 85 83 81 81 81 81 82 85 83 84 86 87 89 90 90 90 89 89 89 90 88 88 88 89 88 89 90 88 85 84 86 88 91 89 89 89 82 81 98 121 174 191 197 193 200 208 198 181 160 100 50 53 72 71 66 74 72 75 80 86 89 82 80 87 83 83 86 84 79 81 85 84 84 86 88 89 89 89 90 92 89 90 91 93 95 96 95 95 91 93 94 94 94 94 96 97 100 99 99 101 103 103 102 100 100 99 102 107 107 104 103 106 108 106 110 109 103 106 111 107 110 110 110 109 108 107 108 109 112 114 117 119 119 119 119 119 122 125 121 123 129 125 121 126 127 129 131 133 134 135 134 134 142 136 128 125 130 139 143 144 145 142 142 144 144 140 140 143 148 144 147 154 136 133 137 146 146 148 149 145 140 137 138 141 144 143 141 140 140 139 137 135 138 146 149 139 117 100 95 98 101 104 103 101 103 103 100 101 105 103 105 107 98 107 116 114 102 106 99 102 104 106 113 105 122 133 123 111 81 84 94 89 99 87 100 84 95 82 91 88 85 82 82 84 81 75 75 79 77 79 83 85 88 93 99 106 109 116 123 124 124 140 136 141 151 145 150 161 163 162 165 169 184 182 180 180 180 179 176 173 165 149 157 170 164 161 162 151 146 161 151 154 152 144 132 136 141 146 149 148 146 148 150 152 159 153 149 142 133 147 141 145 143 139 129 142 152 145 152 158 148 145 152 158 156 157 160 157 168 175 183 140 81 83 85 89 90 91 90 89 91 91 88 83 80 78 76 75 77 77 80 79 78 78 81 84 85 86 77 76 81 80 80 82 79 77 74 72 74 79 80 78 79 76 80 81 76 78 82 81 76 77 78 78 78 78 77 77 76 78 80 80 79 79 80 82 81 78 77 80 81 79 80 82 83 82 83 84 83 81 82 84 85 85 85 84 82 80 80 80 84 81 81 85 89 90 89 89 87 86 85 83 81 81 83 84 86 86 87 87 87 88 89 89 92 89 87 80 81 89 87 87 76 82 85 83 82 86 88 87 84 85 87 89 90 89 88 87 87 89 86 86 93 90 86 91 88 86 90 88 82 85 89 86 88 91 89 75 81 122 171 194 190 190 200 206 197 181 157 129 59 59 62 64 63 59 57 58 59 58 59 61 64 68 71 73 77 75 78 80 79 82 85 84 81 82 85 89 91 90 87 84 86 90 87 87 92 89 85 90 88 87 88 89 91 91 89 87 88 92 95 92 90 90 91 92 92 92 93 97 100 103 103 103 107 106 104 104 105 105 105 105 104 104 105 107 110 110 109 107 102 107 111 112 113 116 117 117 118 118 118 118 118 119 121 122 128 125 123 124 124 123 125 128 131 131 133 134 133 131 133 137 139 138 138 139 141 142 141 140 141 143 145 145 131 127 140 144 139 142 144 143 140 137 136 135 139 134 139 141 130 124 127 125 135 127 120 112 104 102 105 104 108 106 103 104 107 108 105 103 101 106 108 107 107 106 105 107 108 116 115 97 141 117 108 132 130 114 96 87 89 94 96 96 96 96 95 91 88 87 88 89 85 88 91 93 91 90 89 89 88 90 90 90 88 87 86 88 85 86 84 79 77 77 79 78 81 80 83 83 84 83 90 98 102 97 103 111 113 108 115 129 136 146 155 157 161 174 178 170 181 182 188 192 193 189 189 192 178 177 172 166 158 151 147 144 156 156 152 145 141 144 150 155 147 150 150 141 133 129 115 95 80 99 116 117 109 101 98 97 100 107 101 21 99 98 94 93 90 86 82 79 77 80 83 82 78 78 76 77 75 77 79 80 80 80 82 85 85 85 82 85 87 82 76 71 77 79 76 71 73 80 80 73 78 74 74 77 78 80 79 75 75 75 76 77 76 76 75 75 75 76 78 79 79 79 80 80 80 78 78 79 79 78 79 81 82 79 79 81 81 81 81 82 85 84 84 83 82 81 82 83 84 82 82 85 87 86 84 83 81 81 81 81 81 82 84 86 85 86 88 88 87 86 86 86 88 86 88 82 84 89 84 82 85 86 87 87 85 84 85 87 85 86 87 88 89 88 87 86 91 91 88 89 91 88 85 88 95 90 87 87 87 88 90 92 87 87 83 112 165 190 193 198 197 210 194 174 169 135 83 61 74 74 74 76 76 74 74 76 70 68 67 65 63 61 60 59 59 54 54 56 59 66 73 75 73 75 79 83 85 86 86 86 88 91 89 89 93 90 86 91 89 89 89 88 86 84 82 81 89 89 88 86 85 87 89 89 95 95 97 99 101 102 102 102 98 99 100 102 103 104 104 104 108 106 105 103 102 102 100 99 101 104 106 106 105 108 109 110 111 112 114 115 116 116 118 119 110 111 113 117 119 119 121 125 128 133 135 133 130 128 124 121 121 127 135 138 136 134 134 135 136 134 133 133 125 124 133 129 131 130 132 134 133 130 132 137 136 132 135 136 130 129 127 120 106 99 97 101 106 111 108 100 98 103 105 105 104 105 105 104 111 107 103 108 114 111 105 104 111 139 146 92 80 121 142 125 98 95 93 95 98 98 98 97 91 89 88 89 92 95 94 92 96 92 89 92 97 99 96 91 89 90 91 91 91 92 92 94 87 88 86 85 90 98 97 90 89 88 89 90 89 87 88 90 92 91 90 89 87 84 86 89 85 85 85 83 88 105 115 114 107 108 112 120 125 128 134 140 148 149 152 157 163 171 179 184 182 187 193 195 195 194 192 190 194 192 189 187 194 198 176 141 123 119 124 136 142 134 127 125 131 137 152 132 87 85 82 82 84 83 81 78 74 79 80 78 74 72 72 72 73 75 77 78 76 76 77 77 73 75 77 78 78 77 80 84 76 80 77 71 74 81 79 69 76 76 74 75 79 79 75 73 75 76 77 78 77 77 76 75 75 75 77 78 78 79 78 77 77 78 78 77 76 77 79 78 80 77 75 77 79 80 79 79 84 83 83 82 81 82 84 85 82 82 83 85 84 81 79 79 78 80 81 82 83 84 85 86 83 85 87 87 86 84 82 81 82 81 84 82 84 90 85 83 91 87 86 89 88 84 83 87 82 82 84 85 87 88 88 88 90 88 90 91 88 86 87 86 82 85 84 82 86 90 85 81 78 113 158 188 184 191 208 197 192 170 169 149 92 66 77 79 83 82 81 79 76 72 70 70 75 75 75 74 73 70 68 67 70 65 65 67 67 68 67 62 56 58 60 60 59 59 60 61 60 62 63 66 73 73 74 79 78 80 82 82 81 81 82 84 82 82 81 83 89 95 97 96 92 93 93 94 93 93 93 93 95 94 92 91 92 95 96 97 97 97 97 97 97 98 99 99 100 101 101 99 98 100 102 103 110 111 111 110 108 107 108 109 111 112 115 118 117 115 114 115 121 126 127 123 124 129 130 125 113 115 119 124 129 131 130 129 131 130 127 126 120 122 130 123 123 126 130 130 131 132 135 137 138 129 128 130 126 119 115 110 110 111 113 110 104 104 106 104 104 105 103 100 101 106 110 110 101 107 109 108 108 108 111 118 106 95 175 194 54 113 142 94 94 95 96 98 96 94 93 95 92 95 99 99 97 96 98 101 103 102 100 98 97 95 92 89 95 96 96 95 95 95 95 96 92 95 96 95 94 94 94 94 93 93 93 92 92 91 90 87 88 91 91 88 90 96 98 96 93 89 90 95 106 118 120 113 98 94 91 91 89 87 87 90 86 86 86 86 89 93 98 102 97 102 108 114 119 123 123 121 125 128 142 156 161 165 171 174 192 194 195 198 203 207 206 201 208 198 202 207 83 79 78 79 83 83 81 77 80 83 83 81 79 79 81 80 81 82 81 80 77 77 76 74 77 76 78 76 76 79 74 70 77 78 75 72 75 80 76 68 72 77 75 72 74 72 70 75 74 74 75 76 76 77 77 77 78 77 78 78 78 78 75 73 74 76 75 73 74 78 78 75 77 76 75 76 77 77 76 75 82 83 82 82 81 81 82 83 81 82 83 83 82 80 79 79 80 81 83 84 83 83 83 83 80 81 83 84 83 82 80 80 83 80 82 78 81 88 86 87 86 83 81 83 85 84 83 85 81 82 83 84 86 86 87 87 85 82 87 89 85 86 89 86 84 81 82 91 91 77 79 100 156 192 195 191 200 207 201 172 156 142 96 61 68 75 72 80 75 77 81 84 85 84 83 83 86 86 85 84 83 80 78 77 66 64 69 73 73 72 68 61 68 68 67 65 62 60 60 60 58 57 56 57 57 56 55 57 50 52 54 56 58 61 64 66 64 65 67 72 78 83 84 82 91 91 90 87 83 81 81 82 85 86 85 85 87 90 91 91 89 90 91 91 91 90 89 89 96 97 97 96 96 97 98 100 97 97 97 96 95 97 100 103 100 102 104 107 109 109 108 107 108 110 109 106 107 111 112 109 112 109 108 110 116 123 127 128 125 128 127 124 115 119 130 125 127 131 129 123 123 126 121 112 125 121 114 105 99 99 100 100 101 100 104 106 106 110 109 102 102 103 106 110 111 110 110 110 111 116 111 104 107 111 106 101 89 84 159 135 90 115 89 90 99 98 96 93 89 88 92 97 93 96 100 100 94 90 91 94 96 98 101 103 102 101 99 99 101 100 99 100 99 99 99 99 99 97 98 101 93 83 83 92 93 95 94 90 90 93 94 92 92 95 95 91 92 98 99 96 87 84 91 107 119 121 108 91 93 91 91 94 95 95 95 96 101 102 101 98 95 93 92 92 90 90 89 88 88 91 92 92 91 85 88 94 89 84 92 103 92 100 106 104 108 119 127 129 133 125 129 134 109 106 99 96 93 88 80 76 73 74 73 72 72 73 73 71 72 73 72 72 74 77 78 77 78 79 82 74 75 80 75 76 77 73 71 73 77 76 73 71 71 74 70 66 68 67 66 73 71 71 71 72 73 74 75 76 76 75 76 76 76 75 73 71 72 72 71 70 73 78 78 73 75 76 76 76 75 75 75 74 81 81 82 82 81 79 79 79 81 82 83 82 80 79 80 81 79 81 82 82 81 79 78 78 76 77 79 80 80 80 80 81 87 82 82 78 80 86 84 86 81 82 80 79 81 84 84 81 86 86 85 85 84 84 85 85 82 80 85 88 85 87 90 86 82 93 92 82 80 96 138 183 195 189 186 206 204 169 155 160 120 84 63 72 81 78 70 61 70 73 77 80 83 84 85 85 80 80 80 80 81 81 81 81 82 80 82 84 82 84 86 84 86 85 84 84 84 83 82 80 80 78 79 82 83 84 87 88 84 81 77 73 70 67 64 62 58 60 61 61 61 62 61 59 59 60 60 60 60 62 66 69 69 73 77 80 84 86 84 81 88 88 89 91 93 94 95 95 88 88 89 90 91 92 93 95 96 95 94 93 93 94 95 96 98 97 96 98 101 103 102 99 100 101 103 107 108 106 104 102 105 108 110 107 104 105 114 124 119 121 120 116 107 111 123 119 122 114 113 119 117 111 117 131 112 141 158 153 149 152 142 128 124 119 115 108 100 96 95 91 100 99 103 109 109 106 110 119 115 117 113 111 116 119 117 117 125 135 118 108 120 89 96 96 101 100 100 98 96 93 92 95 101 97 96 101 106 105 101 98 105 102 101 105 110 111 107 101 101 99 99 100 101 102 103 103 107 101 98 102 104 101 100 100 95 98 97 93 92 96 98 98 97 98 97 95 93 92 92 91 91 94 106 118 122 116 103 89 94 93 93 95 94 92 90 88 88 90 93 94 95 94 94 94 97 100 102 100 97 95 93 91 97 96 96 90 89 94 94 84 99 91 88 89 90 84 83 86 87 82 88 84 184 181 178 174 172 167 162 156 149 144 137 129 119 112 101 93 87 85 82 77 76 76 74 69 74 67 68 72 94 100 74 67 76 70 68 74 77 73 71 73 74 71 65 64 68 70 69 70 71 71 71 71 71 73 74 74 71 71 72 72 72 72 71 71 70 69 67 68 72 75 76 73 74 75 76 74 73 74 75 75 79 80 81 81 80 78 77 76 81 83 83 80 79 79 80 80 79 80 81 81 80 79 79 79 75 76 77 78 79 80 82 83 83 79 80 78 82 87 85 87 85 87 86 83 84 88 87 82 86 86 86 86 86 86 87 87 84 83 86 87 86 88 88 84 86 81 76 89 130 173 193 195 184 196 200 175 153 155 132 81 67 82 94 90 82 83 88 87 82 83 81 78 76 76 76 76 79 80 80 82 83 85 87 88 94 91 90 89 86 86 89 88 89 87 87 87 89 90 89 87 95 89 89 88 83 81 83 81 86 84 83 83 85 87 86 85 83 85 85 83 81 82 83 83 82 81 78 74 70 68 67 67 65 66 64 61 61 63 62 59 61 61 61 64 68 73 76 77 81 81 83 86 87 87 88 89 90 89 89 90 91 91 89 86 92 91 89 88 91 93 91 89 91 90 93 97 99 97 96 99 98 103 105 104 100 98 100 102 113 113 110 109 102 104 115 109 108 116 113 109 121 130 101 60 23 45 72 97 125 148 169 186 191 197 210 214 203 192 190 190 166 153 142 140 137 127 118 115 109 107 105 107 106 104 116 137 139 127 105 85 73 82 80 92 90 87 87 90 91 91 89 88 99 97 98 106 113 114 113 113 110 107 106 104 104 104 103 101 102 102 100 102 102 103 103 103 95 97 95 91 93 97 98 92 98 101 101 99 97 97 97 98 95 95 96 98 98 96 96 97 87 99 116 122 114 105 101 97 94 94 95 96 96 96 95 95 92 93 93 93 92 92 92 93 86 91 97 98 98 97 96 94 95 97 99 97 93 96 98 94 99 95 92 94 97 97 94 93 96 90 94 90 180 180 179 181 182 184 183 183 182 183 184 183 184 183 181 177 167 165 157 146 139 135 127 119 107 125 146 148 139 104 68 82 75 72 70 72 73 71 71 73 72 67 66 68 70 73 74 71 72 72 73 73 72 71 70 70 68 68 68 68 69 70 70 71 69 68 68 70 71 72 72 74 73 73 72 70 70 74 76 77 77 78 79 79 79 78 78 78 79 81 81 79 78 79 80 78 79 80 80 80 80 80 81 82 77 78 79 80 81 82 84 85 81 77 78 78 81 87 85 88 87 87 87 87 87 88 87 86 85 85 86 86 86 86 86 86 82 85 84 84 89 90 86 84 79 83 115 160 181 177 174 178 198 165 146 139 125 81 49 76 82 81 78 80 85 82 81 90 87 88 86 83 82 84 85 85 92 91 89 88 86 85 84 84 83 81 84 87 86 88 89 85 87 86 85 85 86 86 87 87 85 80 81 84 80 82 87 86 88 87 85 83 81 79 78 77 79 81 83 82 82 85 87 87 86 86 87 89 91 92 92 92 87 87 82 75 72 74 74 72 64 62 60 61 63 63 60 57 57 56 57 60 61 61 61 62 63 62 62 66 72 75 75 73 78 82 84 86 89 93 94 94 92 93 93 91 90 91 93 94 95 94 95 98 100 98 91 86 100 100 102 103 95 94 105 103 103 106 117 117 88 44 14 6 23 23 25 36 44 37 34 44 59 51 58 85 115 145 174 190 221 221 225 235 247 250 242 233 223 215 204 196 189 176 168 171 149 105 117 134 133 105 98 91 93 87 81 83 88 89 89 88 82 83 86 90 89 86 88 93 96 100 101 99 96 97 102 109 104 103 102 103 103 103 102 101 103 104 104 102 100 100 100 102 104 103 103 104 103 101 99 99 97 96 96 97 97 95 92 89 97 111 127 126 113 105 105 104 102 103 104 103 100 98 96 96 99 99 98 97 95 94 94 94 98 99 99 97 96 97 96 95 104 92 91 98 99 97 98 99 95 100 100 94 93 98 98 94 94 92 96 98 186 186 184 184 184 185 184 184 183 185 185 183 183 183 184 184 185 187 186 184 186 190 188 182 184 176 173 167 158 110 58 71 73 73 72 70 70 71 71 71 65 63 69 72 68 70 75 73 71 72 73 73 70 68 65 63 68 69 69 68 68 68 69 71 67 67 69 71 70 68 70 75 73 71 67 65 68 75 79 79 76 77 78 78 78 78 79 80 75 78 78 78 78 80 80 77 77 78 78 78 78 79 80 82 80 81 82 83 83 84 85 86 87 81 80 76 78 83 82 85 81 79 81 85 86 84 84 87 88 88 87 85 83 81 79 79 79 84 81 81 90 91 86 85 98 121 148 162 166 179 186 178 128 141 153 108 74 86 84 85 76 77 77 75 73 76 74 64 71 74 74 73 73 75 76 75 72 72 72 72 72 71 71 71 72 68 68 71 72 75 75 71 72 73 73 72 72 72 75 78 80 73 75 77 72 74 79 77 82 83 84 84 84 84 85 86 78 80 82 81 82 82 80 78 88 87 87 87 86 84 80 77 74 78 81 81 82 84 82 77 73 72 73 76 79 76 70 63 64 62 62 64 65 63 63 65 62 56 51 50 54 56 55 53 50 57 61 62 60 61 63 63 66 74 80 80 81 86 88 85 89 90 91 93 92 91 89 88 81 87 95 98 85 80 94 99 105 99 72 32 6 7 20 27 21 33 35 39 56 65 53 41 17 3 0 1 0 0 1 9 22 39 54 63 79 106 132 144 161 191 217 229 238 242 240 235 250 254 248 246 234 225 211 198 195 184 172 164 159 152 145 140 129 123 119 119 116 110 106 106 97 96 97 97 97 98 99 99 100 100 100 102 104 104 104 103 107 91 89 103 110 102 100 107 110 106 104 107 109 107 106 107 109 109 107 107 109 109 103 95 117 124 128 121 108 104 103 99 98 102 105 106 103 101 99 98 98 100 101 101 100 98 97 97 101 100 98 97 99 101 100 98 91 92 96 96 92 91 93 92 98 94 92 97 100 98 97 99 95 97 93 96 186 186 187 188 188 184 185 185 181 182 182 183 183 186 189 192 185 183 183 185 187 188 191 196 195 202 189 201 212 99 56 75 69 71 69 68 70 68 65 66 68 67 65 65 66 68 70 71 70 70 70 71 69 68 66 64 66 68 69 69 72 74 72 69 70 71 71 72 71 71 72 72 67 69 71 73 74 75 76 76 75 76 77 78 78 77 77 78 78 77 76 78 79 79 76 73 75 77 77 76 77 80 81 80 81 80 81 83 84 83 84 85 83 83 85 78 77 82 78 78 81 81 84 87 86 83 84 87 89 87 87 86 83 85 86 80 85 85 82 88 89 74 77 143 140 126 148 172 190 178 128 112 182 237 232 228 240 231 227 222 218 217 212 208 204 201 199 199 203 203 202 199 195 191 187 186 183 182 180 178 176 174 172 171 168 168 165 159 152 146 144 144 138 137 134 130 126 122 119 117 112 110 107 104 101 98 94 91 92 92 90 87 87 88 88 85 87 88 87 83 81 81 79 77 76 78 80 79 77 75 74 74 80 82 82 81 82 84 85 83 86 86 84 83 82 82 83 84 85 86 89 91 92 91 89 88 86 85 83 81 80 80 79 78 76 71 68 69 68 65 65 67 63 60 58 58 59 59 58 56 56 59 60 61 66 72 73 69 75 74 70 76 75 73 86 87 57 19 6 10 13 23 25 20 23 23 32 39 38 41 31 8 7 5 6 10 12 11 9 10 8 3 1 4 4 1 0 0 6 12 22 31 42 60 74 76 106 139 152 155 184 215 230 240 244 254 254 247 243 244 240 234 229 226 221 209 202 207 200 180 170 170 163 155 152 146 135 129 129 123 119 119 117 114 114 117 121 88 64 92 104 101 100 102 100 97 99 104 107 107 109 112 111 107 101 103 109 104 105 118 124 128 126 117 110 109 108 106 110 103 108 111 101 99 106 109 101 103 106 106 103 102 105 110 104 95 98 94 96 102 97 101 92 93 94 95 95 95 95 95 94 97 97 96 97 100 102 102 99 101 101 99 188 184 181 183 185 188 190 194 200 202 204 206 206 205 204 204 201 197 194 192 186 171 154 144 138 124 107 93 91 66 62 69 70 70 65 62 64 63 62 64 67 67 67 67 68 69 70 70 67 66 66 66 66 67 67 68 64 66 68 68 71 73 72 70 67 68 69 69 69 68 69 69 68 69 71 72 73 74 75 76 75 76 77 78 77 77 77 78 77 77 77 77 77 76 76 75 76 77 77 76 77 80 81 80 80 79 80 82 83 82 83 84 81 81 84 79 79 84 82 82 81 86 87 82 82 86 85 79 76 81 88 87 80 79 82 79 85 85 90 84 54 67 112 127 124 134 176 177 134 115 160 237 235 245 237 235 241 238 237 242 232 234 234 236 237 237 237 236 238 239 239 238 236 236 235 233 240 240 239 238 238 238 238 239 247 247 247 244 240 238 238 239 241 240 239 238 237 235 234 234 235 236 236 236 235 233 232 231 231 231 230 226 225 225 223 220 215 215 211 204 198 193 187 183 170 166 160 154 150 148 149 150 148 147 144 140 138 138 138 137 130 127 124 120 117 113 108 104 97 94 91 88 85 84 83 83 80 83 86 88 87 82 77 72 77 78 79 79 80 82 84 83 85 82 79 78 78 77 76 74 77 75 71 65 59 56 57 60 55 62 54 45 43 48 44 18 11 10 16 16 16 21 19 20 25 26 36 38 22 10 11 12 11 7 3 4 6 6 3 1 5 5 4 3 4 8 14 17 12 15 14 9 5 4 3 4 0 7 5 4 16 25 35 49 72 85 100 120 147 170 185 193 214 227 240 234 225 229 246 254 254 250 238 229 228 223 216 210 207 199 193 192 192 186 176 169 165 171 164 163 150 150 148 137 125 122 115 110 108 106 102 98 96 106 107 101 98 98 103 116 124 125 119 109 104 106 108 107 102 112 110 100 105 118 113 98 107 105 105 107 105 100 99 103 110 102 104 106 107 110 105 100 100 99 97 96 96 95 92 90 96 98 98 96 95 95 94 92 92 95 99 100 203 203 207 213 212 204 191 181 176 169 157 142 126 113 102 95 88 74 57 44 34 29 26 24 20 15 21 14 24 67 69 63 68 67 62 59 62 64 65 69 64 64 66 66 66 65 64 63 64 64 64 65 65 66 67 68 64 66 68 67 67 68 69 69 65 66 67 68 68 68 68 69 68 69 71 72 73 73 73 74 74 74 75 75 75 75 75 76 76 77 77 76 75 74 75 76 77 78 78 77 77 79 80 80 79 78 79 81 82 81 81 82 80 80 83 78 79 85 82 83 82 78 78 83 85 82 80 82 87 83 81 80 81 87 91 89 78 71 55 41 47 70 102 125 148 171 145 107 148 226 251 231 239 224 228 232 230 230 225 227 231 231 231 231 230 228 227 226 224 225 226 227 228 228 229 229 224 223 223 222 223 224 225 226 224 224 224 224 224 225 225 225 224 224 223 223 223 223 222 222 229 231 233 232 230 228 228 229 233 234 236 237 239 241 241 239 244 245 244 243 242 243 243 242 252 252 252 252 252 252 253 253 253 253 251 247 245 246 245 244 250 247 244 243 243 240 235 231 225 222 218 213 211 211 213 215 214 207 198 190 187 187 189 191 176 177 172 158 146 138 129 122 115 112 107 102 97 93 88 85 72 72 76 81 79 72 72 76 81 80 74 68 56 45 38 24 33 36 37 32 38 43 40 48 35 31 31 32 24 19 27 40 39 34 28 26 28 31 30 27 22 23 19 11 7 8 7 3 6 6 4 11 24 25 18 18 16 16 17 19 19 14 13 17 7 9 9 10 9 6 9 21 31 47 64 77 85 97 121 145 170 183 200 215 231 239 247 254 249 249 246 241 238 237 235 235 230 234 223 215 196 197 201 201 195 197 191 181 175 175 174 170 158 161 153 140 131 128 132 141 138 127 117 112 106 97 97 102 108 103 107 110 104 100 105 110 103 99 100 107 111 110 110 113 109 108 110 111 102 100 112 114 106 107 107 106 104 103 102 102 99 101 101 101 101 102 103 102 100 101 101 98 124 110 92 76 63 52 44 41 35 31 24 21 17 17 15 14 18 20 26 29 29 28 28 29 29 33 33 27 46 78 61 60 61 61 55 53 56 58 59 63 61 63 65 66 66 65 65 64 63 64 66 67 66 65 64 64 65 67 68 66 63 62 63 65 63 64 66 67 67 68 69 70 68 69 71 71 71 71 72 72 72 73 73 73 73 73 73 74 75 75 75 75 75 75 76 76 78 78 77 77 77 78 79 79 79 78 78 80 80 80 80 82 80 80 82 76 76 81 79 79 81 73 73 82 84 77 76 83 85 83 85 87 87 86 83 75 47 36 47 49 47 79 136 167 134 106 130 208 244 233 234 234 230 223 227 225 221 228 232 230 230 229 228 226 226 226 227 227 231 230 230 230 231 232 233 233 237 236 235 234 233 233 233 233 232 230 229 230 231 231 231 230 232 232 232 232 232 232 232 232 230 231 231 229 228 226 227 227 220 221 222 223 223 223 221 220 217 217 216 216 218 222 225 227 222 225 229 231 230 229 229 229 233 234 235 236 236 236 234 233 235 233 231 232 235 237 237 236 243 242 242 241 242 243 244 245 239 236 231 228 228 229 231 232 237 243 248 248 247 247 247 245 251 247 239 230 222 213 206 201 195 187 179 172 161 146 136 133 111 83 67 75 81 76 74 74 47 36 35 39 46 45 36 38 36 39 43 49 55 55 49 47 48 48 48 49 55 62 66 66 63 62 57 57 58 62 59 55 47 45 35 40 49 42 25 24 28 29 30 23 17 22 23 16 19 20 21 23 24 19 21 31 25 24 19 18 20 14 8 14 23 28 31 37 49 66 90 112 133 152 175 193 208 224 235 240 247 244 245 254 241 228 219 219 216 213 210 211 217 220 213 203 214 205 201 209 213 203 190 186 177 184 182 174 171 171 163 150 142 123 126 131 119 118 121 109 114 112 111 113 116 117 116 115 107 100 94 103 100 95 101 89 98 104 112 112 111 110 114 117 115 112 110 106 106 104 105 104 107 107 104 99 18 17 18 21 24 25 25 27 31 30 33 34 38 37 37 34 36 37 37 34 32 31 33 34 35 39 31 30 60 66 58 65 64 64 60 57 58 57 55 56 55 57 59 60 60 61 62 62 60 62 64 64 62 60 59 59 63 64 65 62 60 58 60 64 63 64 66 66 67 67 68 69 67 68 69 70 70 70 70 70 69 70 71 71 70 71 71 72 73 72 72 74 76 77 76 75 77 77 76 76 76 76 77 78 78 77 76 78 78 78 80 82 80 79 81 74 73 78 76 76 77 80 80 77 76 77 78 76 79 79 86 91 85 70 48 30 39 47 37 41 53 113 153 89 112 203 249 244 231 225 230 223 226 234 230 228 229 231 236 234 229 228 227 227 228 229 230 231 230 229 228 228 229 230 230 230 231 232 232 232 232 231 230 229 232 231 229 229 230 230 229 227 228 228 229 229 230 230 231 231 228 227 226 226 228 230 231 231 233 232 232 233 232 230 228 227 220 219 217 216 216 216 218 219 223 225 225 222 219 220 225 230 230 230 231 232 232 231 230 229 232 231 230 230 231 231 232 233 230 231 232 232 233 232 232 231 237 236 235 233 229 224 219 215 212 215 221 226 228 226 228 231 232 233 234 237 240 242 244 244 247 249 252 253 252 248 244 241 240 234 230 216 189 159 135 122 98 77 69 59 43 37 32 27 37 40 40 42 44 42 37 37 31 35 37 37 35 34 33 33 49 44 44 47 55 61 69 75 65 70 70 72 77 66 62 72 64 66 68 57 47 54 56 46 54 48 40 41 48 44 33 26 31 36 34 31 32 28 24 28 23 22 17 15 16 11 5 4 0 4 6 13 25 42 55 60 79 95 121 148 160 183 196 209 216 221 230 238 240 238 237 239 232 220 213 215 212 206 207 213 209 202 194 193 197 205 215 223 215 201 190 186 182 179 181 182 174 174 167 157 150 147 142 136 132 125 115 121 118 113 121 116 100 103 105 103 98 93 91 90 101 100 99 100 102 103 103 103 104 105 106 104 38 38 36 37 35 34 36 39 36 35 35 35 35 34 32 31 29 29 30 31 34 36 34 30 29 28 28 36 62 56 63 56 66 67 64 63 65 63 60 61 58 58 58 57 55 54 55 56 58 59 59 58 55 55 56 57 58 58 59 58 57 57 61 65 66 67 68 68 67 67 67 68 66 67 68 68 68 68 68 69 67 68 68 68 68 69 70 71 71 70 70 72 75 76 75 73 76 75 74 75 75 74 75 76 76 74 74 76 77 77 79 81 80 79 80 74 73 78 76 77 78 80 80 78 76 77 79 80 83 87 89 72 42 24 26 34 31 26 40 45 65 77 81 187 238 237 234 236 227 228 240 229 228 234 227 231 237 229 227 228 232 232 232 232 232 230 229 228 230 229 228 229 230 232 232 231 230 231 233 235 236 236 236 236 235 234 233 233 234 235 235 234 230 230 230 229 229 229 228 228 233 231 229 230 233 236 237 237 234 232 232 233 233 232 231 232 230 230 231 232 232 229 228 228 223 225 225 223 221 223 229 234 234 232 231 232 231 231 232 234 231 232 234 234 234 233 232 232 233 233 232 232 231 231 230 230 232 231 229 230 232 235 238 239 233 231 231 234 232 226 225 229 224 225 226 227 228 228 228 229 223 227 229 227 221 220 219 220 240 235 238 241 247 254 251 243 230 219 216 192 155 133 104 72 49 35 24 22 19 15 18 25 26 28 32 35 35 33 32 33 27 26 28 28 25 23 29 39 28 33 36 42 48 45 45 55 59 58 65 68 63 65 70 65 72 69 64 64 71 71 60 51 56 63 63 56 52 52 54 57 55 55 51 48 50 49 45 43 39 39 38 33 29 29 29 30 8 9 12 12 2 12 12 19 36 48 68 91 110 129 153 174 204 190 186 197 216 231 229 215 221 217 218 222 219 208 203 207 237 251 239 229 231 209 194 214 245 247 244 236 230 227 222 217 207 209 206 201 187 172 173 179 180 175 169 165 164 159 151 144 134 132 129 127 122 114 108 103 103 103 101 99 34 34 35 36 35 34 35 38 32 31 31 30 30 31 33 35 34 33 31 30 31 34 34 31 36 29 32 41 60 56 65 59 58 60 59 59 62 62 60 61 66 66 66 63 59 57 58 59 57 58 58 57 55 54 56 58 56 55 55 55 55 55 58 63 63 64 66 66 65 65 65 65 64 65 66 67 67 67 67 67 66 66 67 67 68 69 70 71 70 69 69 70 71 72 72 72 74 73 72 73 74 73 73 75 72 71 72 75 76 76 77 79 78 77 79 73 73 79 77 78 79 75 75 78 78 76 78 82 92 65 39 27 25 29 30 26 31 34 35 37 35 151 250 250 243 242 231 235 249 250 245 241 239 232 233 232 234 234 232 240 225 226 228 228 229 229 229 229 225 224 223 223 225 226 225 224 223 224 225 227 228 228 228 228 229 229 229 229 230 231 232 232 236 235 235 234 232 231 231 230 232 231 231 230 231 231 231 231 239 236 234 233 232 230 230 231 239 238 238 239 237 234 232 232 232 233 234 234 232 230 230 230 231 229 228 229 230 230 232 235 230 230 231 233 235 235 235 233 236 235 234 233 233 234 235 235 231 231 231 232 232 231 229 228 236 235 234 234 235 235 237 238 236 237 237 238 237 237 236 236 240 233 224 222 223 229 236 243 228 221 229 225 217 216 213 219 227 226 232 230 231 242 237 224 210 189 171 154 125 94 68 49 49 38 30 32 35 37 39 43 51 53 55 53 48 44 46 49 37 33 31 34 38 38 35 33 37 30 29 34 35 39 48 53 49 51 52 55 60 62 61 62 63 62 61 59 57 62 69 70 67 74 73 69 72 80 84 87 81 81 79 73 64 61 66 73 87 84 98 118 121 129 120 125 101 88 71 60 53 44 30 20 20 24 35 43 46 62 82 90 128 155 168 164 175 204 216 206 217 251 254 252 254 253 225 211 229 231 236 242 243 239 235 234 246 245 245 245 243 219 185 177 184 180 176 177 180 181 177 174 184 182 181 183 182 177 174 171 162 162 158 153 36 36 36 38 36 35 33 35 31 35 36 36 33 30 28 27 23 28 31 30 27 28 28 30 32 30 32 42 66 59 54 59 60 61 59 58 61 61 60 62 59 61 61 60 58 58 60 61 59 61 63 63 60 58 57 58 59 56 54 54 53 52 55 59 57 58 59 60 60 61 61 62 63 64 66 66 66 66 66 67 66 66 66 67 67 69 71 72 69 69 69 68 67 68 70 71 73 71 70 73 72 72 72 75 68 69 70 75 75 76 75 77 77 76 78 72 72 78 76 77 76 81 79 71 72 80 80 72 33 25 23 25 24 23 23 21 19 13 9 0 37 164 191 211 235 246 250 233 211 205 208 210 216 214 239 237 233 240 229 232 238 237 236 235 235 235 236 236 242 240 238 238 238 238 236 234 235 235 234 233 232 231 231 230 226 227 227 227 227 228 228 229 229 229 229 229 230 230 230 230 229 231 232 231 230 228 228 229 226 224 223 226 228 230 233 236 231 229 228 229 229 229 230 233 232 231 231 233 235 236 235 233 232 231 231 233 234 232 233 234 235 232 229 229 231 232 231 229 231 231 231 230 230 231 231 231 233 232 229 227 226 225 224 223 222 223 220 216 217 222 224 222 227 228 230 231 232 233 233 234 223 213 214 230 245 246 241 239 246 238 243 238 234 238 233 233 230 227 222 213 213 214 210 217 213 218 233 238 231 229 220 199 183 149 110 85 68 52 42 40 40 39 35 32 35 42 44 41 55 52 52 53 51 50 50 48 52 50 47 49 47 44 38 34 40 38 34 38 43 44 43 47 53 46 47 48 45 51 60 61 62 67 64 61 70 78 75 69 71 71 74 80 80 74 68 67 65 56 56 62 69 96 109 124 148 165 186 200 210 217 219 218 193 174 165 161 143 122 105 92 84 85 82 74 70 73 83 92 101 109 138 163 167 177 195 203 195 193 200 214 215 203 195 195 198 197 198 200 212 201 171 173 176 174 171 167 164 161 162 163 162 158 159 163 168 169 171 172 178 180 181 179 38 39 37 38 36 35 34 33 33 37 38 35 33 35 38 39 35 33 27 24 22 22 18 16 13 26 10 52 58 56 60 56 54 56 58 59 59 60 60 61 59 58 60 63 64 62 60 60 61 59 59 60 59 57 57 57 58 54 55 58 60 58 60 65 63 62 60 59 58 57 57 56 57 57 58 58 60 61 63 64 65 67 69 69 69 69 70 71 66 68 69 68 66 63 63 64 64 65 68 71 73 73 72 71 68 70 72 73 75 77 76 72 67 75 79 68 67 72 72 77 80 73 74 86 86 64 34 16 22 23 22 20 16 13 7 2 5 9 21 30 32 31 38 50 90 126 151 152 165 199 220 219 196 214 219 206 195 200 207 207 226 216 211 237 245 238 248 241 239 243 243 245 249 249 248 250 242 245 245 241 234 243 237 239 238 238 235 236 239 238 236 237 238 240 232 241 233 236 238 238 235 240 231 241 234 233 229 227 228 233 228 236 227 228 237 231 233 227 230 237 236 233 233 234 233 232 235 231 228 231 227 232 229 230 232 236 234 232 229 231 235 236 236 236 235 234 233 233 232 231 230 231 231 231 229 228 231 230 230 231 233 234 233 232 236 234 231 228 226 226 228 230 225 225 224 225 231 233 221 205 215 231 242 241 239 241 241 238 239 238 238 239 238 235 233 234 234 233 233 233 234 234 231 229 229 230 229 223 217 217 225 233 233 226 217 198 192 177 170 160 120 114 85 78 60 54 31 33 35 32 28 37 35 40 39 43 47 34 41 42 31 36 47 50 44 43 48 40 40 50 43 47 45 37 40 40 40 41 33 39 36 43 39 36 38 43 48 43 42 44 55 58 60 62 60 65 61 64 69 67 56 48 45 42 44 33 34 42 71 92 120 133 152 185 195 210 224 225 230 223 229 228 222 212 199 182 170 169 182 164 138 141 157 155 147 141 164 171 169 148 155 164 177 193 185 189 201 201 200 186 168 170 174 171 171 173 176 173 171 169 165 167 169 166 164 161 165 167 160 162 164 165 34 34 35 35 35 35 35 34 34 32 28 27 36 56 77 90 124 131 141 147 151 155 162 169 163 163 144 59 52 56 57 50 52 53 55 56 57 58 59 59 59 58 58 58 57 56 57 60 57 55 55 56 57 55 57 58 58 57 56 54 56 59 64 65 66 65 63 62 62 62 63 63 60 60 59 59 58 58 58 58 59 60 61 61 62 62 62 63 68 67 66 63 62 62 65 67 65 66 68 69 69 68 67 66 68 69 69 69 71 73 72 69 83 73 70 66 76 79 75 75 80 85 82 62 34 17 16 21 19 13 6 1 3 8 14 17 29 27 28 30 32 39 55 70 49 33 9 0 18 56 90 107 152 173 193 195 190 193 204 213 210 199 180 184 190 200 221 217 228 229 229 228 221 211 215 231 233 229 236 241 245 243 238 240 237 245 247 243 242 242 240 240 241 239 239 240 239 242 236 238 241 237 236 229 233 230 240 243 244 241 243 242 242 236 233 238 239 237 234 230 229 235 240 237 240 236 235 235 237 239 238 238 236 234 233 233 232 230 231 234 231 231 232 232 231 230 230 230 236 235 234 234 234 234 232 230 229 230 231 233 235 235 233 232 229 228 231 238 238 232 229 231 237 234 236 236 218 202 214 240 242 241 242 241 238 236 239 244 234 234 236 238 239 238 238 239 239 238 238 238 238 237 233 230 239 237 236 236 237 239 239 238 240 242 243 236 233 229 231 231 188 174 159 165 157 174 155 124 103 81 68 47 18 13 23 15 21 25 16 13 23 24 18 21 26 24 12 19 25 22 27 21 25 19 30 31 24 27 30 34 32 37 37 42 43 42 48 49 50 48 57 62 64 67 72 85 89 90 97 105 109 113 115 112 98 94 91 75 62 46 51 57 45 44 40 76 170 184 195 195 199 201 208 214 214 212 213 215 213 212 208 217 223 216 210 203 196 192 194 181 169 155 175 216 219 222 186 199 225 188 172 161 167 165 166 169 171 170 171 172 173 172 171 171 172 172 171 170 172 171 168 166 33 34 34 35 34 34 33 33 37 37 35 30 26 25 24 22 23 28 36 43 50 62 78 91 114 181 191 50 53 58 50 55 58 58 58 57 56 54 54 54 55 56 56 56 54 53 56 60 57 55 54 55 55 55 56 57 56 59 58 54 55 61 64 62 65 64 62 61 61 62 63 64 63 63 64 64 64 64 64 64 60 60 60 60 61 61 61 61 63 62 60 58 57 59 61 63 66 66 67 68 68 69 69 69 70 71 70 69 71 73 73 72 69 69 77 68 72 73 79 83 81 62 37 18 10 11 10 8 6 8 11 15 18 18 18 19 19 19 22 33 46 50 43 36 22 8 0 1 3 1 0 0 0 13 32 51 67 90 123 150 179 180 182 198 198 194 212 217 209 212 206 195 187 182 182 187 175 187 213 214 224 224 225 224 226 231 233 232 234 236 241 249 245 244 249 240 249 253 241 241 236 234 242 236 241 237 238 237 239 235 242 233 242 241 236 247 235 236 236 234 233 235 234 230 235 234 231 236 238 235 234 231 235 234 234 235 234 232 232 234 236 235 234 233 233 235 238 240 233 232 230 230 231 231 230 228 228 229 231 232 232 232 232 232 238 236 233 230 230 233 235 234 235 238 227 209 214 237 246 237 235 232 231 234 234 232 233 235 233 233 234 236 235 234 235 237 238 238 238 240 241 241 238 236 231 228 227 228 231 230 226 221 227 231 231 230 223 224 225 227 229 220 190 166 139 140 146 163 180 177 169 163 175 142 110 102 78 88 89 96 92 86 94 94 91 103 107 118 111 97 108 116 121 121 127 128 129 128 120 119 135 141 145 152 149 142 151 158 162 162 169 173 177 180 177 179 184 182 188 196 203 211 215 213 174 181 188 175 156 139 147 159 177 176 174 202 225 209 199 196 209 204 205 202 195 198 208 212 217 215 211 214 213 211 211 203 208 195 202 211 222 210 193 188 192 211 202 218 205 170 182 167 165 164 165 166 166 166 168 170 173 171 168 167 167 167 167 167 168 168 167 167 34 33 33 32 31 30 28 28 26 28 30 32 32 31 29 27 22 22 22 22 19 15 11 9 4 32 74 53 54 50 52 45 51 52 53 53 53 53 54 55 50 52 54 55 54 54 55 57 57 55 53 54 52 52 51 54 53 57 57 58 57 60 59 57 60 59 59 58 58 58 59 60 60 61 62 63 64 65 65 65 65 64 62 62 63 64 64 63 61 60 60 60 60 61 60 59 59 59 59 59 60 61 63 63 67 67 67 68 69 70 71 71 78 73 72 54 64 76 76 61 34 14 1 2 9 10 11 14 19 19 20 20 17 14 11 11 19 27 33 31 26 21 16 12 6 7 7 7 7 7 9 11 13 7 3 1 0 0 0 4 6 17 37 67 81 85 108 125 164 184 197 192 184 184 199 219 207 203 200 184 185 198 214 226 224 207 193 198 208 202 189 184 186 200 213 210 224 223 226 234 237 240 244 250 248 254 246 248 245 246 248 238 236 240 236 238 241 239 237 240 241 237 238 244 234 236 233 238 237 232 236 236 233 234 235 236 236 235 236 237 240 240 239 237 235 233 233 233 232 231 230 231 232 233 232 231 231 232 232 232 230 230 232 233 231 233 232 229 229 232 234 234 223 212 216 237 250 244 239 243 236 240 239 235 234 235 231 224 233 233 234 235 233 230 231 234 236 235 236 237 239 239 239 238 237 238 238 236 234 231 230 230 229 228 222 226 223 228 222 220 230 237 225 214 193 169 148 156 141 123 133 166 195 196 207 224 195 207 207 215 211 202 202 179 178 161 160 159 166 173 165 171 171 172 160 159 179 179 162 162 159 160 161 172 175 168 167 165 149 154 159 150 149 163 172 180 152 153 158 164 166 172 179 179 191 187 188 196 208 215 219 220 222 224 214 221 203 200 201 206 206 214 224 208 169 152 162 170 186 190 195 202 203 208 216 210 206 206 218 212 215 218 224 225 214 198 191 184 148 173 187 160 166 166 167 167 167 166 167 167 168 169 169 166 162 163 168 173 169 168 168 170 37 37 37 36 35 34 32 32 32 30 27 26 26 28 30 33 34 29 22 21 24 30 34 35 36 21 30 61 56 52 53 48 51 52 52 51 49 49 49 49 51 52 53 53 54 54 53 52 53 51 49 50 49 48 49 51 55 54 56 60 60 56 54 55 54 55 57 58 58 57 58 58 62 63 63 63 63 63 62 61 64 63 62 62 63 64 64 63 66 66 67 68 68 67 66 64 62 62 60 60 59 60 61 61 61 62 63 64 65 65 65 65 69 69 77 68 70 65 38 2 2 2 8 17 15 11 16 27 18 18 20 22 24 25 30 35 30 34 32 23 14 13 13 13 6 6 6 4 6 8 4 1 8 6 6 8 11 12 9 4 0 3 0 0 2 8 14 12 17 28 52 77 87 90 116 152 185 181 198 226 231 216 187 182 211 209 204 204 207 204 200 201 178 180 167 165 169 155 189 222 211 211 207 207 201 212 218 231 235 240 237 251 238 248 251 249 248 251 250 248 247 241 238 243 243 242 238 237 234 231 233 233 236 236 235 234 233 235 236 237 233 236 240 242 241 239 237 235 240 239 239 239 241 241 240 239 236 237 237 236 234 233 233 234 229 233 233 232 236 238 224 205 218 232 243 241 237 239 240 238 242 244 241 236 235 237 237 234 233 233 234 235 234 233 234 237 237 236 235 234 234 234 234 234 237 238 239 239 237 236 238 240 234 231 225 231 230 236 229 227 231 228 232 239 238 249 240 217 196 178 164 166 152 144 162 198 218 234 213 212 226 223 227 229 204 199 206 198 191 185 162 153 170 167 160 165 178 186 188 189 192 171 147 156 182 197 194 177 166 164 169 171 179 188 184 181 183 182 184 186 185 188 192 191 195 203 209 208 193 179 169 167 164 169 157 145 161 145 137 136 142 133 135 139 140 154 170 170 164 175 185 187 179 183 199 199 195 183 193 200 207 203 204 211 223 227 237 220 152 185 176 153 158 157 158 159 161 161 159 157 157 161 163 163 162 164 168 173 171 168 163 161 27 28 29 29 30 30 29 29 28 29 32 34 33 30 28 27 25 28 32 34 35 35 34 33 29 40 34 23 31 42 36 53 52 53 52 51 50 49 49 49 54 54 52 51 51 52 51 48 48 46 46 48 49 49 50 53 55 52 52 55 55 51 51 54 48 50 54 56 56 56 57 57 61 61 61 61 61 61 60 60 62 61 61 62 63 63 63 63 65 65 65 64 64 64 64 64 65 65 65 65 66 66 67 68 63 63 65 66 66 64 63 64 60 58 61 46 19 10 5 3 12 13 14 15 14 14 12 9 15 17 20 22 19 12 11 13 19 18 16 18 22 20 11 0 5 3 1 4 4 4 4 7 6 8 4 0 0 4 5 5 7 9 5 8 15 19 17 18 26 16 11 17 21 14 12 24 39 38 55 93 116 134 129 138 176 209 233 236 230 227 223 223 227 203 164 169 170 149 183 212 216 215 209 195 182 163 177 186 185 186 172 199 188 199 206 211 212 232 233 223 229 241 246 248 248 248 252 251 252 254 250 248 238 241 242 242 241 240 238 236 239 239 238 238 238 239 242 244 242 241 241 241 242 241 239 238 236 237 238 238 237 235 233 232 238 231 235 239 222 201 212 242 250 246 240 235 234 236 239 240 235 231 230 234 235 232 234 240 234 233 233 235 235 234 234 235 236 235 234 234 233 233 234 234 230 228 227 229 232 234 233 231 238 237 235 237 234 233 231 232 231 232 232 231 226 230 231 228 239 248 232 224 208 182 150 155 158 201 211 205 211 222 221 196 215 235 236 235 227 219 223 213 164 162 176 181 151 137 144 132 130 137 131 125 126 138 158 164 156 137 132 142 159 170 170 176 174 167 164 164 164 166 165 159 158 149 135 133 132 138 134 133 138 138 137 148 162 167 168 175 168 168 174 176 171 173 178 176 173 179 179 177 171 170 180 179 186 174 179 182 186 176 178 192 199 200 212 218 140 175 187 158 160 159 159 159 160 160 157 153 155 156 158 161 163 163 162 160 162 160 159 158 12 13 14 15 16 16 16 16 18 19 23 27 28 28 31 35 31 31 31 29 28 29 32 34 34 18 22 17 11 12 8 11 26 28 31 34 37 41 44 47 41 44 45 45 46 47 46 44 44 43 43 45 46 45 46 48 48 46 45 45 45 45 46 48 43 46 49 51 51 51 52 53 49 49 50 51 52 53 53 54 56 57 58 59 60 60 61 62 56 57 57 56 54 54 55 57 56 57 59 61 62 64 65 66 64 64 66 67 66 64 63 65 69 65 63 53 19 17 17 24 29 31 31 29 24 23 21 20 20 20 23 26 23 19 21 26 21 24 26 24 19 16 12 12 10 10 10 8 3 0 1 5 0 3 5 3 2 3 4 3 4 2 3 7 14 12 12 24 15 22 22 17 19 25 29 34 30 29 28 23 22 31 28 28 46 62 77 95 123 147 161 165 211 203 180 188 185 174 183 186 170 177 178 187 185 160 175 176 194 200 180 184 182 186 168 169 178 201 197 175 177 193 201 205 218 219 234 224 225 239 233 238 247 250 251 251 251 251 251 250 245 243 240 236 233 233 234 235 239 239 238 239 239 238 236 233 235 235 234 234 235 235 234 234 230 231 219 205 216 243 252 243 243 241 242 245 245 241 238 239 242 236 236 241 240 232 230 233 237 235 234 236 237 235 233 232 234 235 235 235 235 235 235 235 240 235 232 233 238 241 240 237 231 232 236 235 235 231 234 236 231 237 234 236 244 237 233 247 234 226 235 246 242 247 239 212 191 153 147 165 165 166 186 198 177 179 170 181 196 198 188 158 164 172 188 197 171 150 158 157 151 155 148 144 141 140 137 125 132 129 133 131 129 129 129 138 146 140 139 142 145 150 153 150 155 160 162 170 169 174 170 170 183 174 170 191 173 184 174 172 182 179 175 173 176 182 186 185 192 197 196 203 209 205 201 194 196 195 198 190 198 195 192 197 207 200 212 216 138 164 192 166 173 174 173 171 170 170 168 164 167 166 166 166 167 167 165 164 163 166 168 170 18 18 19 19 19 18 17 17 18 18 19 20 18 17 20 26 25 26 28 31 34 35 34 32 30 28 15 15 16 11 10 9 3 5 7 8 10 12 15 17 20 27 35 38 39 40 39 38 42 41 39 41 39 39 37 39 38 42 40 38 37 42 42 40 44 46 48 48 47 47 48 49 48 48 48 48 49 50 51 51 47 49 52 53 53 53 54 56 50 52 54 54 52 51 51 53 55 56 58 59 61 61 61 61 59 59 60 62 62 60 60 63 61 66 65 55 14 19 14 16 16 15 21 29 26 19 20 27 21 24 32 38 36 31 31 35 35 33 32 36 40 43 45 46 45 50 49 43 40 41 37 30 35 31 27 24 21 17 15 14 8 12 9 2 9 13 5 3 8 9 8 9 15 18 19 21 27 22 31 31 43 42 37 35 33 35 43 57 64 54 46 50 52 80 94 99 105 144 177 186 184 187 171 196 193 175 182 177 164 191 185 174 193 200 156 146 151 184 199 196 201 203 198 197 213 210 216 181 164 179 178 196 207 205 200 195 197 206 216 221 226 232 242 249 251 249 246 243 241 241 241 243 243 242 239 237 238 235 231 230 232 236 239 240 219 208 215 241 252 243 239 246 243 243 242 240 240 242 244 243 244 244 242 241 242 244 243 240 238 236 235 238 240 239 237 235 237 238 238 238 236 234 232 231 233 229 225 225 228 233 236 237 240 237 242 239 243 236 239 239 238 237 240 236 233 238 241 231 237 236 239 229 231 229 238 240 243 239 232 213 189 165 139 128 126 131 143 136 138 154 159 168 190 200 185 184 194 184 197 224 227 216 189 162 144 132 132 125 136 134 132 128 144 169 171 165 164 163 165 167 166 171 180 181 171 176 176 183 179 187 186 189 184 192 196 194 197 199 197 206 200 205 203 199 200 200 201 203 201 202 188 182 179 170 167 167 161 163 164 153 161 158 159 173 156 162 173 167 137 167 182 175 170 172 172 170 169 170 171 170 169 170 170 167 164 166 171 177 174 175 174 173 21 20 17 17 19 22 20 15 18 17 17 16 16 16 17 16 15 15 16 18 19 20 21 21 24 24 23 20 17 15 14 14 16 14 13 11 10 8 7 5 8 7 6 7 10 14 17 19 28 29 31 32 34 36 39 41 40 42 44 43 41 40 42 44 43 45 46 45 42 40 41 43 45 45 45 46 46 47 48 48 46 47 49 51 52 52 52 52 53 53 52 52 52 53 53 54 54 56 58 60 60 59 57 56 60 61 61 61 60 60 62 63 58 63 64 57 14 12 13 13 14 14 10 15 19 19 22 18 23 17 13 14 18 21 23 24 20 20 22 19 19 33 39 29 47 58 61 52 50 58 63 61 56 59 61 60 57 55 55 56 53 57 58 53 48 44 38 31 30 27 24 23 23 21 16 13 17 11 9 18 32 39 33 24 30 47 79 103 123 118 114 108 101 86 69 67 65 56 51 60 63 81 98 132 139 160 166 183 192 189 209 213 206 188 187 188 184 168 165 169 172 157 159 167 179 182 186 183 179 182 188 194 200 178 152 181 186 169 189 187 178 168 170 205 202 208 203 212 220 230 243 240 237 239 241 248 253 247 254 244 246 242 223 211 220 244 250 241 240 241 239 242 238 239 244 240 245 241 244 241 244 246 240 242 243 238 240 241 242 238 240 243 243 242 241 240 238 242 244 240 240 243 245 244 243 241 241 235 233 234 230 229 236 233 233 237 239 238 236 236 235 237 237 234 230 228 230 233 234 237 240 239 236 234 234 235 241 236 235 240 245 237 213 191 177 190 206 206 214 220 208 210 227 199 148 149 163 168 176 160 170 172 158 162 175 184 192 193 158 135 140 145 141 134 138 181 162 155 163 163 155 155 155 156 165 155 166 177 166 153 160 167 169 172 158 151 163 163 159 169 164 145 152 169 160 150 153 153 146 145 140 134 131 130 132 135 139 142 151 140 140 146 140 157 155 159 190 180 136 167 136 163 177 172 169 169 170 169 169 171 169 166 166 170 172 170 169 173 168 173 175 173 18 22 23 19 15 16 20 23 21 20 20 19 19 19 19 19 16 17 17 17 16 16 16 16 16 15 15 15 14 13 14 13 17 16 15 15 15 14 13 13 9 9 9 10 10 9 7 6 2 3 5 7 11 13 18 19 26 28 33 35 38 40 45 48 42 44 44 42 39 38 38 40 44 44 44 44 44 43 43 42 47 47 48 49 50 50 49 49 49 49 50 50 51 51 52 53 52 53 55 56 57 58 58 58 59 59 60 60 59 59 61 62 51 58 62 57 17 15 16 15 17 18 14 16 16 15 19 17 19 17 17 19 18 15 12 11 18 19 17 10 5 9 18 20 18 17 19 23 26 30 41 52 57 56 56 57 60 65 68 71 70 71 70 67 64 63 62 61 59 63 66 64 58 54 54 56 49 49 48 46 41 37 33 32 25 27 38 39 48 53 76 90 104 107 106 105 100 85 66 57 59 54 52 49 46 43 51 60 74 93 123 142 159 171 185 197 205 197 203 208 207 187 185 191 188 189 171 169 172 185 200 180 185 177 192 200 189 176 176 196 194 179 169 183 178 180 176 184 183 179 179 181 193 200 192 192 204 183 201 223 229 216 218 241 254 249 247 249 249 247 247 247 249 241 235 235 233 232 234 239 240 245 241 243 245 241 243 243 243 244 244 243 242 242 241 241 243 241 241 243 242 239 236 236 239 238 243 246 244 239 234 235 243 240 237 237 238 239 239 240 241 240 239 235 232 229 228 228 227 228 229 231 233 233 231 230 231 234 235 234 233 234 235 236 244 236 225 223 220 212 215 223 209 163 127 130 141 143 152 167 201 146 136 134 152 174 158 160 167 167 165 178 167 149 162 170 178 174 187 189 186 196 192 175 185 185 172 140 141 143 141 146 144 152 169 166 159 160 175 180 183 165 164 175 171 163 158 151 144 148 158 174 184 183 187 200 192 188 181 189 186 188 198 183 191 177 181 161 152 169 123 141 185 184 183 183 179 175 173 173 169 166 166 168 169 167 168 172 172 169 168 166 14 17 19 19 19 19 18 16 17 17 16 16 16 16 16 16 19 19 18 18 17 17 16 16 12 13 14 15 15 14 15 16 15 14 14 14 15 16 15 15 13 14 14 15 15 14 12 11 11 11 11 9 7 6 5 5 4 5 7 10 12 15 17 19 27 30 33 34 35 37 41 44 37 38 39 41 41 41 41 40 38 39 40 41 42 44 45 46 48 49 49 49 48 48 48 48 51 51 51 52 52 53 54 54 57 57 58 58 57 57 58 59 50 56 59 56 16 16 17 16 16 19 15 16 14 13 18 18 11 12 16 19 20 17 15 16 9 16 21 23 21 17 18 25 25 17 13 15 12 6 8 16 22 23 28 36 43 47 45 43 49 50 53 56 57 57 57 58 59 59 59 63 67 67 62 58 61 61 61 61 61 60 59 59 60 58 57 50 48 40 45 46 44 39 31 37 56 75 85 93 88 73 57 49 38 24 18 22 23 16 9 15 15 16 31 60 78 91 120 138 150 155 185 214 202 225 207 188 187 177 182 204 196 178 182 177 180 182 167 177 161 181 186 182 194 216 217 204 209 194 178 172 186 194 184 182 171 172 175 171 162 175 190 196 198 195 210 221 213 214 230 239 231 245 250 254 247 254 248 245 233 239 232 228 229 230 235 236 236 240 240 242 247 247 243 242 242 241 240 241 241 240 240 242 238 240 240 237 233 232 237 242 238 239 240 240 241 240 238 235 240 238 236 235 234 233 231 230 228 229 229 229 227 225 223 221 230 229 226 221 217 216 216 216 203 210 209 218 215 211 222 219 175 154 155 155 167 182 181 197 182 151 164 164 176 177 137 148 162 174 176 162 183 198 186 193 191 171 162 171 177 156 140 158 184 199 177 167 160 182 174 204 186 176 163 152 156 149 155 167 174 179 178 169 165 173 183 187 197 189 180 182 187 175 161 161 154 150 158 149 137 140 139 141 133 135 169 165 133 131 141 148 138 142 148 153 155 156 159 165 171 168 167 167 165 163 165 170 164 157 154 155 24 21 17 15 17 19 20 20 18 18 18 17 17 17 18 18 17 18 17 18 18 18 18 18 15 16 17 17 16 16 17 17 14 14 13 14 14 14 14 13 13 12 11 11 13 14 15 15 14 14 15 14 13 12 11 11 9 8 7 6 6 6 5 3 6 7 10 13 16 20 25 28 27 28 31 35 38 40 41 42 43 42 41 40 39 39 39 40 38 40 43 44 45 45 47 48 51 51 51 51 52 53 54 55 55 55 55 55 55 54 55 55 55 58 58 52 12 13 16 15 15 17 13 15 13 11 16 15 15 10 7 5 7 10 16 21 14 16 13 11 14 13 14 23 26 29 29 25 21 17 10 3 10 13 20 27 33 31 25 19 14 14 16 21 22 20 20 23 41 47 54 55 53 50 50 51 65 62 59 58 59 59 57 55 58 56 57 58 62 63 62 60 58 55 50 47 47 55 82 116 156 173 165 163 155 172 153 131 112 107 88 76 58 55 42 24 15 7 8 8 14 15 30 43 66 85 103 111 150 159 129 153 200 209 197 194 193 184 186 185 164 170 186 194 185 153 155 182 191 186 180 181 203 216 202 193 200 200 187 176 155 162 171 167 153 158 162 153 137 139 153 158 169 176 176 185 192 210 216 219 224 233 226 223 224 229 235 236 236 236 231 225 223 220 224 234 227 232 234 232 232 236 238 237 240 244 241 240 242 244 242 233 242 243 242 239 239 240 241 239 233 234 234 235 238 241 242 242 240 242 244 242 236 233 232 233 230 229 230 233 239 241 235 229 233 230 224 225 221 222 229 221 214 206 204 179 175 194 192 197 188 174 186 189 172 181 196 189 186 168 155 176 181 160 172 173 176 171 188 198 197 200 200 197 171 144 146 151 166 170 175 140 146 154 154 168 190 194 179 178 164 159 146 142 153 160 155 151 119 138 147 150 156 157 158 165 153 154 156 137 141 146 128 144 139 144 133 137 139 131 146 130 120 121 121 117 114 113 114 117 121 121 124 127 130 132 138 145 152 150 150 153 13 17 20 21 18 15 16 19 17 17 17 18 18 18 18 18 15 16 17 16 16 17 17 17 15 16 17 17 15 14 15 15 15 15 14 14 15 15 15 14 15 13 11 10 10 11 12 13 7 9 10 11 12 12 13 13 16 14 12 12 12 12 10 8 4 5 5 4 3 4 5 7 9 10 11 14 17 20 22 23 34 34 35 36 38 39 41 42 44 46 47 47 46 45 46 46 45 46 46 47 48 49 50 50 53 53 52 52 52 52 51 51 56 57 55 49 10 11 14 13 16 17 13 15 14 11 14 11 15 14 15 17 17 13 8 6 14 18 13 8 12 13 13 17 10 20 27 26 29 33 27 16 13 13 14 17 22 27 31 33 30 25 22 20 18 16 19 24 13 18 23 23 19 14 13 14 33 35 39 43 47 53 59 63 61 63 64 64 60 58 55 54 55 48 39 40 40 37 37 48 37 45 47 75 96 145 171 195 252 252 250 244 206 195 196 182 174 159 148 133 126 108 98 90 75 62 65 45 47 67 52 46 69 102 104 122 137 146 179 186 182 194 197 186 204 209 205 190 195 194 182 161 166 187 197 205 180 176 173 188 184 185 184 182 176 168 153 153 178 192 174 152 152 145 160 176 180 155 148 153 198 206 202 194 191 186 187 183 188 195 204 207 199 190 198 215 223 221 221 223 225 225 223 223 223 226 224 230 231 226 231 231 230 235 239 241 241 239 237 235 241 240 238 237 236 235 235 235 237 238 240 241 241 240 240 240 237 238 236 233 231 231 232 231 246 220 216 222 228 234 232 234 239 242 248 244 233 218 202 195 185 180 150 143 153 166 186 181 166 164 150 166 183 157 177 210 175 195 192 173 182 195 189 192 203 206 202 204 189 123 125 145 160 181 198 205 179 186 176 158 139 125 110 112 123 123 130 150 163 174 171 159 152 152 156 162 148 163 154 151 155 145 138 134 153 170 168 154 128 124 139 135 129 128 126 124 123 124 125 126 119 119 119 118 115 113 115 118 112 116 118 118 14 13 14 18 21 20 18 17 17 17 17 18 18 18 18 18 18 17 18 18 16 16 15 15 14 15 15 16 15 14 14 15 14 14 15 14 16 15 16 15 19 17 17 15 16 15 15 13 14 14 14 14 13 12 11 12 10 9 9 9 11 11 11 10 14 13 13 11 9 9 9 9 3 3 3 3 3 4 4 5 7 8 11 15 19 24 26 29 36 38 40 40 40 40 41 43 45 46 46 47 47 47 46 46 49 49 49 49 50 50 49 48 49 51 50 46 9 11 12 10 12 14 11 14 15 14 17 14 11 13 17 24 27 23 18 14 13 20 23 21 20 17 15 15 12 14 17 20 24 27 27 25 16 13 9 7 9 15 22 28 30 28 26 26 23 22 22 24 23 23 21 24 26 25 21 16 14 12 11 14 19 23 24 24 32 27 17 17 21 36 44 50 46 52 52 50 53 60 67 74 74 60 59 64 53 32 37 58 81 90 129 184 181 166 175 176 180 187 200 201 206 200 201 198 200 212 215 211 197 183 175 157 137 132 111 101 104 103 97 82 99 122 150 162 189 204 213 208 191 181 166 149 158 188 201 202 206 205 204 209 213 214 202 194 176 184 181 181 190 187 178 179 174 153 150 159 175 161 150 142 156 166 164 164 168 171 181 185 182 179 187 196 187 176 174 175 202 186 178 185 189 186 186 192 223 202 184 203 216 208 211 210 219 223 231 238 239 238 238 239 234 233 233 234 234 233 233 232 235 232 230 232 237 239 236 233 237 236 233 230 229 233 237 239 219 216 231 233 233 235 223 223 223 228 230 243 244 234 234 232 220 190 174 168 163 176 185 171 156 146 167 153 149 156 169 173 175 165 185 203 204 206 205 202 209 209 213 236 167 141 162 182 154 164 170 173 146 143 140 144 144 152 158 169 184 185 178 179 164 151 140 138 140 143 145 145 160 151 152 143 129 142 159 157 161 160 195 171 119 136 138 136 130 129 126 124 123 122 119 115 116 117 118 119 118 119 121 122 115 120 121 117 48 29 8 2 6 12 13 12 19 19 19 19 19 19 18 18 16 16 16 16 16 16 16 16 16 16 17 16 16 16 17 17 14 13 13 14 14 15 14 14 14 13 14 14 15 15 14 13 12 12 13 13 13 14 15 16 14 14 14 14 14 15 15 14 12 13 13 13 13 14 14 15 14 14 14 13 12 11 10 9 5 5 4 4 5 4 5 5 5 9 12 16 18 21 26 30 38 38 40 41 43 44 45 45 45 44 44 46 47 48 47 46 44 46 45 41 5 8 10 8 8 11 9 12 12 12 17 17 17 11 6 5 8 15 25 32 24 19 18 18 14 9 8 7 15 13 12 14 17 19 22 25 30 28 24 20 15 11 9 8 14 19 24 27 28 27 25 22 18 22 26 26 22 20 23 27 23 18 14 15 20 22 19 15 21 20 13 16 12 16 6 1 11 11 10 20 43 61 65 64 66 73 74 63 56 56 55 50 34 42 36 33 42 81 160 203 198 199 207 208 219 219 217 207 201 196 163 169 196 197 199 197 222 214 212 212 218 224 215 203 193 174 160 150 147 146 158 167 160 177 205 203 184 185 191 194 199 189 191 194 206 199 186 199 191 181 168 163 166 165 162 162 176 192 197 178 162 163 173 177 160 167 162 161 162 162 172 179 202 186 186 191 191 200 208 199 180 175 173 175 175 174 176 180 188 163 145 183 225 232 228 210 204 199 196 196 195 196 204 215 224 224 227 231 235 236 234 231 240 238 238 240 243 246 247 247 240 238 237 238 242 243 238 232 219 239 251 241 235 237 235 234 229 231 226 228 231 234 241 239 250 250 250 240 228 204 172 163 149 146 155 172 183 163 182 188 187 184 189 193 199 202 197 198 191 204 210 168 142 160 177 149 146 154 159 165 162 144 132 140 143 170 182 170 157 154 159 164 170 164 167 167 156 151 148 139 144 126 154 151 140 162 160 151 178 174 188 153 128 141 123 132 125 124 124 123 123 123 120 115 119 119 118 116 115 115 115 115 116 117 117 116 102 85 64 50 41 34 27 24 8 8 8 8 7 6 5 5 10 11 12 13 15 16 17 17 17 17 19 18 17 17 17 18 16 16 15 15 15 15 15 14 17 16 15 15 15 16 16 16 16 16 16 14 13 13 13 14 12 12 12 12 12 12 12 12 14 14 14 14 13 13 12 12 13 13 14 15 15 14 13 11 13 13 13 12 13 12 12 12 7 9 9 6 5 3 5 6 9 11 15 20 25 31 35 38 42 42 42 44 47 48 47 46 44 44 42 36 1 4 8 7 10 14 11 11 7 5 11 12 18 17 17 15 11 8 9 12 21 10 15 31 34 27 19 11 15 15 13 9 9 11 11 10 14 16 19 22 22 19 15 11 7 13 17 18 20 22 22 19 26 23 20 20 22 23 21 19 21 25 26 24 18 16 17 21 14 22 22 26 19 24 22 25 22 16 11 13 15 10 7 13 19 16 9 29 36 55 55 63 65 71 67 102 173 209 233 229 225 229 234 224 223 217 217 211 210 215 210 200 202 211 211 207 204 201 195 192 186 189 204 203 199 200 209 215 206 202 204 204 194 178 180 179 171 181 185 179 185 184 191 179 192 186 172 186 199 196 199 197 186 183 179 167 168 182 180 173 165 176 172 165 169 176 172 169 161 148 147 149 153 148 161 165 159 172 185 172 160 184 200 194 185 184 181 173 170 176 166 172 175 175 191 189 192 189 189 191 183 171 167 172 197 192 187 184 179 170 157 147 176 183 190 194 195 199 209 217 234 238 242 246 248 246 237 229 239 251 244 245 248 243 250 251 248 243 240 240 241 241 241 242 236 239 236 239 245 246 244 234 214 176 192 180 169 162 184 207 187 181 196 199 194 200 202 194 188 185 178 142 151 183 166 148 146 152 173 155 148 154 184 177 147 145 144 144 137 130 135 148 163 152 149 143 137 150 155 136 139 149 154 143 122 121 138 140 157 157 178 164 125 124 135 126 121 122 121 119 119 119 117 113 115 114 113 113 114 115 116 116 116 113 113 119 99 100 101 102 103 102 101 101 95 89 81 71 61 51 42 36 26 22 17 12 9 7 4 2 7 6 5 6 8 12 14 15 15 13 14 15 17 15 16 16 17 15 17 18 20 17 16 15 14 16 16 16 13 13 13 15 15 15 13 15 15 16 13 11 11 11 11 12 13 14 13 12 16 14 12 12 13 14 12 10 12 13 13 12 11 11 11 11 14 14 13 13 12 11 10 9 8 7 5 3 3 4 6 7 9 12 17 21 25 29 36 40 37 39 35 31 10 6 4 7 7 8 9 9 8 7 8 9 11 10 11 11 14 14 15 14 10 9 8 9 14 21 29 33 13 17 20 18 13 10 11 14 15 11 8 12 17 22 24 26 16 17 17 17 14 13 16 21 20 20 23 27 27 24 21 20 18 19 19 20 21 23 25 26 21 20 19 19 20 22 24 26 25 25 25 24 23 21 20 19 20 20 17 12 8 7 11 16 33 22 38 80 113 123 135 154 166 180 193 210 227 226 222 232 225 229 230 224 220 219 216 210 207 210 208 203 199 193 192 197 204 202 208 197 185 198 211 191 176 174 168 163 171 167 160 169 170 172 175 170 169 167 162 168 171 169 180 186 190 203 210 196 192 177 167 174 177 185 174 173 172 166 182 172 166 179 192 177 161 159 162 156 166 168 180 193 175 155 179 186 203 201 189 195 187 176 171 162 172 170 168 156 160 168 174 173 188 211 210 198 198 204 194 198 192 170 159 136 140 152 184 168 161 156 147 161 164 163 160 149 143 158 187 207 210 201 222 234 232 232 232 242 243 248 253 250 244 246 250 250 252 243 251 242 246 242 235 245 251 247 250 223 193 191 181 180 161 168 193 183 191 200 185 162 180 204 149 140 162 169 149 154 147 175 161 150 148 161 165 156 152 151 163 158 154 149 155 163 143 137 119 111 93 100 118 113 140 135 141 145 146 165 175 156 163 175 207 144 130 131 131 127 119 120 122 119 109 105 106 106 102 110 113 108 104 111 116 119 118 116 113 113 95 95 96 97 97 96 95 95 103 103 103 104 104 102 101 99 94 94 93 91 85 76 66 59 49 45 38 31 24 19 15 12 10 9 5 2 2 6 10 10 11 8 6 9 13 15 17 18 14 16 17 16 14 15 17 20 15 16 17 15 12 11 12 13 15 15 16 16 15 15 14 14 13 13 13 13 13 14 13 12 12 13 13 13 13 14 13 13 13 12 11 11 11 12 14 15 16 16 16 16 16 15 11 9 2 3 4 4 4 5 6 7 12 14 17 18 8 7 7 8 4 5 6 7 8 9 10 11 6 6 6 7 8 9 9 9 12 11 10 9 8 7 6 6 23 16 9 12 19 23 19 13 8 13 17 15 10 7 7 10 18 17 18 18 16 14 13 15 19 18 21 25 28 28 28 29 21 20 19 18 18 17 17 18 21 21 21 21 20 20 19 18 21 20 20 19 20 21 22 23 22 23 24 21 19 18 20 23 19 21 18 9 8 11 8 0 13 22 28 46 75 93 110 131 157 173 193 206 214 222 227 228 227 229 226 223 224 219 205 196 191 195 202 204 175 157 155 142 160 167 161 155 157 152 150 158 163 160 152 159 183 181 169 186 162 160 139 140 152 179 171 159 171 182 188 162 164 164 179 195 189 172 191 199 188 167 168 172 162 166 159 154 168 165 145 159 161 157 143 148 170 169 175 161 161 166 160 177 183 193 174 188 175 179 176 169 170 180 185 180 171 184 188 180 196 203 220 205 211 204 206 221 234 223 207 188 195 188 182 174 166 161 156 147 145 142 138 151 182 190 174 175 188 188 194 216 235 223 214 231 238 237 232 249 245 244 254 246 249 253 251 254 254 254 235 228 213 193 193 183 163 163 173 234 244 167 116 134 166 146 141 138 161 166 143 158 152 175 161 145 138 161 171 149 154 142 173 165 149 146 156 178 144 130 91 86 65 44 47 29 41 50 69 77 121 165 192 156 116 136 136 115 129 122 117 112 105 103 103 100 107 111 111 107 107 114 118 118 118 120 120 118 95 95 95 95 94 94 93 93 88 89 90 92 93 95 97 98 102 101 101 102 105 107 109 110 108 106 103 100 98 97 96 95 82 82 73 60 51 49 43 36 33 25 18 15 13 11 9 6 5 3 2 2 4 7 9 9 13 14 14 14 14 16 18 20 14 15 15 15 15 15 15 16 15 15 16 16 14 13 13 13 14 13 11 12 12 11 10 9 13 12 12 12 12 14 15 15 17 15 14 14 15 15 14 13 19 17 15 13 12 10 8 6 2 2 8 8 7 5 8 5 7 6 6 6 7 7 7 6 5 4 4 5 6 6 6 6 11 12 14 15 14 12 10 8 6 10 14 13 11 14 23 32 33 34 30 22 15 14 15 14 13 12 13 17 19 18 16 16 14 13 14 16 19 20 21 23 25 24 24 23 23 23 23 24 19 19 20 21 21 20 19 18 22 22 21 20 20 21 22 22 20 22 24 25 24 23 23 23 19 26 26 21 21 26 29 25 26 24 13 8 11 9 9 21 19 22 26 34 47 67 89 104 132 165 195 207 213 218 226 234 248 232 196 192 168 156 160 157 149 145 125 131 151 155 156 148 142 145 146 142 145 146 162 199 200 190 156 151 169 178 165 171 152 155 172 159 165 160 168 169 170 168 174 166 172 184 182 169 175 156 156 166 158 171 168 165 168 178 184 177 176 179 181 172 189 194 201 180 162 185 183 183 205 205 183 167 163 166 169 153 190 216 206 197 168 192 196 204 201 209 215 221 208 202 207 204 204 204 207 208 204 201 194 184 188 195 187 171 166 180 193 187 210 217 213 205 206 202 195 193 185 169 160 195 199 194 195 194 216 216 221 227 230 225 239 246 247 249 243 227 199 183 190 245 189 119 122 150 140 119 115 138 174 144 141 134 157 160 143 145 153 178 157 135 145 150 173 149 154 143 157 167 143 154 149 178 163 139 119 97 85 51 37 35 23 0 20 118 140 139 131 129 125 118 113 109 105 105 108 106 111 112 110 108 112 119 121 118 118 122 124 123 97 97 97 96 96 96 95 95 100 99 97 94 92 92 95 97 100 100 100 99 98 96 94 92 95 95 96 97 100 102 104 104 105 108 108 106 107 110 110 106 110 104 97 92 86 78 72 69 63 54 43 37 36 33 24 16 7 3 1 2 5 7 4 1 7 6 6 8 11 13 14 14 15 15 15 17 17 17 18 19 17 14 13 14 17 17 17 17 12 13 14 15 16 16 16 17 19 19 17 16 15 16 15 15 13 13 14 15 16 17 16 15 16 12 16 11 12 7 12 8 10 9 7 7 8 7 6 4 5 5 4 5 5 6 5 5 3 4 7 9 12 14 16 18 14 14 12 10 8 9 14 17 26 33 35 30 25 21 14 7 10 8 8 13 18 20 19 19 17 16 15 16 17 18 19 20 18 18 19 19 20 21 23 24 20 20 19 19 20 21 22 23 21 22 23 23 23 21 19 18 19 20 21 23 24 23 22 20 26 21 23 25 23 16 19 27 25 27 25 26 27 21 17 19 25 22 21 22 22 18 13 10 8 24 36 42 52 68 88 104 146 145 111 129 138 151 156 144 153 171 147 125 128 148 170 160 176 154 150 144 134 145 154 151 163 155 158 170 187 157 159 192 182 138 133 152 158 160 163 162 195 188 196 195 174 145 143 169 187 191 172 163 159 165 164 156 160 202 223 214 214 219 191 167 200 174 193 204 187 169 153 176 180 178 160 165 170 166 171 158 151 164 185 194 198 195 181 171 191 183 195 201 192 205 201 207 198 198 200 197 190 190 191 188 189 199 210 222 215 210 208 182 209 198 200 199 189 202 218 213 190 161 188 181 185 185 135 184 207 197 193 194 183 171 185 168 175 174 169 185 205 181 167 155 127 120 157 152 125 125 127 171 147 131 133 135 175 138 132 137 153 176 148 148 141 163 152 144 139 149 169 152 143 140 159 163 144 149 137 174 159 141 128 125 117 85 77 124 142 133 124 106 110 110 114 113 108 108 112 113 112 112 109 107 112 119 120 116 123 120 119 118 96 96 96 96 96 96 95 95 98 98 97 96 95 96 99 102 96 97 98 99 100 99 99 98 99 99 98 98 99 99 98 97 99 96 94 94 94 94 95 97 95 96 99 104 106 107 109 112 112 108 105 107 112 114 111 107 96 90 84 79 75 67 56 48 33 28 23 20 19 18 14 10 5 2 1 3 6 7 8 9 12 8 6 8 11 12 13 15 15 15 15 15 15 16 17 17 15 16 16 17 16 15 13 12 16 16 17 16 15 14 13 13 15 12 16 11 11 6 12 9 11 10 9 10 11 11 10 9 8 7 7 7 7 7 7 6 7 6 5 5 6 7 9 10 17 12 8 8 11 12 9 6 3 16 25 20 11 8 9 8 13 9 7 9 13 15 16 16 18 17 17 17 18 19 19 19 16 16 15 15 16 16 17 18 23 22 21 21 21 21 22 22 18 19 20 22 22 21 19 18 21 21 21 22 23 24 24 23 20 22 23 22 20 22 23 24 20 23 25 27 29 27 26 29 28 24 22 26 31 33 32 32 32 28 23 23 27 25 23 25 22 27 0 8 12 24 28 20 39 59 76 113 124 121 152 178 176 172 190 189 165 163 165 161 153 158 155 143 157 170 177 174 189 185 171 147 145 170 172 158 156 175 189 182 168 157 141 138 140 171 167 163 165 163 185 170 167 158 171 211 163 138 175 181 187 215 218 220 211 210 155 175 192 176 152 160 157 141 157 167 156 145 152 151 168 168 170 168 168 168 188 198 180 182 182 195 197 194 195 201 208 215 216 209 202 186 162 181 206 199 196 201 200 187 192 200 201 217 227 214 198 207 203 203 217 201 190 193 182 198 198 209 189 179 189 184 173 175 173 158 163 163 153 125 118 141 161 130 122 115 146 159 125 139 119 165 155 118 127 125 164 147 136 138 150 168 143 155 140 161 160 139 148 141 173 149 136 142 143 172 137 144 144 154 153 155 150 130 119 110 111 117 105 105 111 113 109 107 110 109 110 111 109 108 110 114 116 114 119 111 109 114 96 96 96 96 96 96 95 95 91 92 93 94 94 93 93 94 98 98 97 97 97 98 100 101 100 100 100 100 100 99 97 96 100 98 97 100 99 97 95 96 97 97 97 97 95 92 94 96 96 99 102 103 101 101 101 103 105 108 112 114 114 113 112 111 118 113 107 102 100 98 94 90 80 72 64 60 55 48 43 41 27 21 16 15 13 9 8 10 5 3 2 1 2 5 8 10 11 10 10 11 14 17 19 20 14 14 15 14 13 12 12 13 10 8 13 12 11 9 12 9 13 13 12 12 12 12 12 11 11 10 10 10 11 11 10 10 12 11 10 8 7 6 5 5 0 5 10 10 7 6 10 14 6 10 10 5 3 7 14 17 13 9 7 7 9 10 12 14 16 16 16 15 15 16 14 12 17 16 16 16 16 16 17 17 18 19 20 21 21 21 20 20 20 20 20 19 19 19 19 19 19 18 18 18 20 22 23 24 19 22 22 22 22 25 24 22 26 24 23 22 18 18 18 19 19 22 25 26 26 26 30 31 38 34 31 31 32 32 37 51 40 36 10 20 16 10 8 6 0 6 1 3 6 10 25 27 41 46 67 90 110 119 127 146 149 175 176 173 163 188 170 140 141 193 200 151 149 159 150 139 161 175 185 187 186 194 190 196 193 170 150 172 185 170 186 159 158 168 146 163 164 151 142 174 239 234 223 229 237 228 175 176 188 177 156 157 161 164 179 184 176 181 179 179 171 172 168 166 182 202 197 197 188 196 216 203 208 203 203 207 211 215 212 203 198 188 172 172 177 179 188 195 185 194 196 199 211 213 205 201 201 192 211 214 225 227 225 216 206 201 196 204 219 179 188 200 175 183 201 183 175 196 149 107 123 155 133 123 120 127 168 130 121 126 145 174 122 120 133 150 167 121 129 123 166 152 137 144 148 168 146 143 143 144 162 138 148 138 162 153 124 136 133 144 136 146 143 115 109 117 103 109 108 104 106 109 108 109 108 103 108 110 111 109 108 110 112 113 109 103 104 113 98 99 99 99 98 97 96 95 95 95 94 94 94 93 92 91 90 95 101 105 105 102 99 97 94 94 94 95 94 93 90 88 90 92 95 98 100 100 98 95 96 96 96 98 98 97 98 101 98 101 104 102 98 95 95 96 95 98 101 102 100 99 101 102 103 102 101 102 103 106 108 109 107 104 105 110 113 113 113 117 112 107 103 102 98 92 90 92 82 77 68 57 46 37 31 28 17 13 8 8 10 9 5 1 3 3 4 6 8 10 12 12 15 12 12 16 13 16 15 12 11 11 12 11 10 10 10 10 13 13 12 13 13 14 13 13 9 9 9 8 8 8 8 7 9 9 8 8 7 7 5 5 6 5 6 9 12 13 9 5 8 7 7 7 7 6 9 12 17 18 18 17 17 18 17 14 13 13 12 12 12 13 14 14 14 14 15 15 16 16 16 15 20 19 19 19 19 19 19 19 17 17 17 17 18 18 20 20 26 22 21 25 25 21 21 23 21 20 22 22 22 23 26 26 25 28 27 21 18 21 23 25 20 22 23 32 41 41 38 41 50 33 12 19 20 15 18 21 21 16 13 12 8 6 11 13 8 0 0 0 4 2 0 17 28 43 60 103 85 88 93 129 188 208 214 204 193 185 180 200 210 198 185 186 188 199 185 181 193 195 177 182 190 167 175 205 176 177 168 174 172 170 141 196 194 185 208 209 198 179 180 183 167 163 158 161 174 186 187 179 179 182 185 178 189 171 170 148 165 201 201 184 176 189 224 219 204 201 200 195 187 186 187 184 181 184 197 194 188 203 205 189 201 201 203 216 223 202 191 207 197 194 209 219 209 203 213 213 201 192 201 199 200 169 190 195 209 211 219 219 206 202 179 181 188 193 141 141 132 153 160 114 114 107 162 142 115 121 126 152 129 115 134 141 161 120 122 118 154 158 139 144 140 161 150 146 139 137 162 144 138 139 145 144 135 131 129 118 111 113 103 116 113 109 109 111 111 112 111 106 109 112 113 112 110 110 111 112 109 109 109 108 99 100 100 100 99 98 96 95 97 95 93 94 97 101 104 105 103 102 100 96 92 91 91 92 90 91 93 95 97 96 95 93 94 96 95 90 91 97 98 94 97 96 96 99 100 98 96 96 99 98 98 99 100 100 97 95 106 104 102 102 104 105 105 104 103 103 102 98 94 93 95 97 97 96 97 101 99 95 94 97 109 107 109 114 115 114 115 120 116 117 118 119 118 117 115 114 114 109 104 100 94 78 56 38 44 40 33 29 26 22 17 13 10 5 0 4 1 9 7 5 3 5 7 7 7 8 10 12 12 12 11 12 12 13 12 12 12 12 11 10 10 10 11 11 11 11 10 10 9 9 10 10 10 10 10 10 8 6 6 8 7 8 9 9 6 3 4 7 10 12 13 14 17 20 21 19 17 16 15 14 13 12 12 12 17 15 12 10 8 8 9 9 10 12 15 18 20 20 19 18 20 21 22 22 21 20 20 20 20 21 20 20 21 22 23 22 22 20 21 20 17 19 21 18 18 20 21 19 21 25 24 19 28 29 25 20 23 26 28 31 30 16 9 12 14 11 15 19 19 11 14 17 14 13 10 10 16 6 13 15 6 11 12 8 6 6 0 6 0 1 0 19 31 46 61 80 75 143 171 176 174 189 206 215 205 208 197 195 202 218 213 190 167 168 156 155 158 157 150 175 159 156 141 159 165 167 161 154 153 174 172 156 177 153 145 152 160 166 179 204 178 188 171 182 169 167 169 167 160 186 211 197 180 167 184 206 207 205 204 200 193 194 198 196 199 198 198 190 197 201 191 198 196 198 205 212 215 216 209 196 202 203 194 198 205 215 202 193 209 203 189 193 158 220 231 188 199 219 202 202 215 202 219 215 213 203 197 195 206 210 199 202 183 180 178 136 145 134 143 151 115 128 110 147 138 116 126 116 148 130 120 121 131 175 136 138 141 159 153 137 135 121 155 154 117 128 147 133 121 115 118 115 117 116 120 119 114 112 112 110 111 113 115 114 112 111 111 112 111 117 114 106 98 99 101 101 99 98 97 96 100 99 100 104 105 102 100 99 95 93 91 89 88 88 89 90 92 90 88 87 88 91 94 96 97 98 97 95 96 99 98 96 98 100 99 97 97 100 100 99 94 96 96 94 97 99 100 100 103 103 103 101 101 101 101 100 106 103 102 104 103 100 99 100 97 100 101 100 101 102 101 98 108 105 104 107 110 109 106 105 105 113 114 98 106 128 123 114 117 119 121 121 118 115 114 114 108 107 104 101 102 102 94 84 79 75 68 62 58 53 49 46 36 31 24 17 12 10 9 9 8 4 0 2 2 0 7 10 8 5 7 9 9 13 15 9 12 9 10 15 14 6 7 13 11 9 10 4 9 8 10 6 3 11 9 4 7 10 7 8 3 9 3 6 7 5 12 8 8 13 12 11 12 13 17 14 13 19 20 16 16 19 17 10 15 14 13 12 11 9 8 8 10 11 13 17 19 19 21 23 22 24 26 27 27 26 25 24 23 22 21 19 17 16 15 13 19 19 20 21 22 23 23 23 21 24 29 32 29 23 25 30 24 17 11 17 12 18 16 11 14 13 11 14 21 21 14 10 11 17 15 10 12 14 13 13 10 11 10 20 12 12 12 9 6 3 0 4 0 0 11 15 22 40 52 78 85 88 106 135 137 174 182 204 187 177 176 178 173 170 180 194 201 187 182 151 145 135 147 169 164 180 184 168 164 167 157 159 147 147 167 197 208 189 187 192 183 166 167 177 175 174 172 181 194 189 185 194 192 194 204 200 198 201 196 204 202 199 201 204 199 194 194 196 200 197 196 202 214 221 216 207 198 205 197 193 206 210 198 192 195 208 189 196 187 187 189 207 207 214 212 219 209 195 199 187 205 207 189 179 195 204 205 216 209 207 194 190 197 196 190 193 198 188 185 172 152 157 131 155 152 119 113 99 136 142 117 113 116 160 146 132 131 149 156 130 125 140 134 122 119 115 118 118 120 118 117 118 119 119 116 113 113 111 113 115 114 115 117 115 119 118 114 109 100 98 96 95 97 99 100 101 99 99 99 98 94 91 91 94 95 94 92 90 90 91 92 93 92 93 92 92 91 92 93 95 94 95 95 94 94 95 94 91 96 98 98 98 98 100 101 99 103 106 106 106 106 106 106 104 100 100 99 99 97 97 96 94 93 93 96 100 104 107 109 111 110 105 102 103 104 106 109 112 113 113 112 111 110 110 110 111 110 107 109 101 99 108 114 124 108 106 104 106 109 109 105 102 104 100 96 96 98 98 96 93 99 99 100 100 98 97 95 95 100 97 93 91 90 88 86 84 79 67 51 50 49 41 37 30 30 23 11 6 8 3 0 6 1 2 0 0 3 14 9 4 7 6 8 2 8 8 12 10 14 11 8 10 14 12 8 8 8 13 12 13 12 8 7 1 6 7 6 6 6 5 7 7 8 5 8 15 16 12 12 16 9 9 11 13 14 14 14 14 16 15 15 17 18 18 19 20 22 20 19 18 19 20 21 22 24 25 25 26 26 25 22 21 18 17 17 17 18 18 19 19 20 21 24 28 27 24 27 32 33 32 13 16 17 16 15 18 13 14 12 10 13 15 16 20 13 14 11 11 15 16 16 19 17 17 10 12 6 12 13 11 10 19 20 21 16 13 16 3 7 22 19 21 8 6 0 6 9 16 26 44 62 71 89 105 135 133 172 196 208 223 225 189 189 161 177 199 185 202 226 215 173 205 193 173 167 151 151 163 184 211 214 169 157 175 172 203 204 188 175 172 173 175 175 173 188 174 181 194 201 207 202 193 190 190 187 189 200 204 201 201 199 204 207 208 207 206 202 196 194 199 197 198 205 198 189 194 187 193 192 192 203 184 182 181 187 189 200 211 213 205 192 192 193 196 186 184 201 204 196 200 188 184 190 199 191 182 196 219 201 193 192 208 214 209 171 191 162 157 178 189 202 146 140 151 149 169 139 125 123 135 171 131 129 148 133 120 115 112 112 112 112 114 115 112 107 105 106 108 110 109 112 113 110 109 109 106 107 109 109 107 96 95 95 98 101 102 100 98 94 93 93 93 93 93 94 97 93 92 91 90 91 92 93 94 93 94 95 94 93 92 93 93 93 93 92 91 92 92 91 90 89 91 93 93 94 95 95 94 96 99 100 101 103 104 104 103 108 106 106 106 103 101 100 99 103 104 103 101 100 100 100 98 96 98 101 103 105 107 106 103 107 110 110 109 109 112 112 110 104 103 118 123 113 106 104 108 98 95 95 99 106 110 109 107 110 104 101 103 105 102 102 104 93 93 91 88 86 86 89 92 95 93 93 96 100 102 101 99 102 108 107 109 111 111 115 111 128 103 73 80 107 100 73 66 60 55 48 33 31 29 17 23 17 12 10 0 1 0 1 0 0 0 3 5 1 1 6 8 10 9 12 10 11 15 12 12 8 1 14 8 6 10 1 11 12 8 2 0 3 9 9 6 9 9 10 10 10 10 10 10 10 12 15 15 11 10 15 21 12 12 14 16 18 19 18 16 17 18 20 22 25 25 25 25 28 27 25 22 21 20 19 19 19 17 17 18 17 15 17 21 21 31 7 14 20 12 11 15 9 13 13 13 15 15 15 20 18 14 10 12 16 13 11 17 19 17 14 21 18 20 14 12 5 6 9 21 20 16 15 11 10 17 19 35 32 39 30 43 63 43 26 13 11 11 4 6 11 8 20 20 40 71 82 87 83 129 171 178 195 233 241 207 212 208 202 190 170 145 166 167 164 195 189 176 169 196 192 156 175 186 204 203 182 174 177 171 144 154 172 179 169 184 217 223 218 223 215 209 214 216 210 210 209 214 214 208 203 202 201 199 194 198 196 196 197 187 177 181 198 205 210 197 204 183 196 205 155 169 190 187 207 222 198 205 199 198 186 185 195 191 180 182 185 190 191 183 183 204 205 179 177 186 182 195 200 188 165 194 186 158 182 187 217 205 182 198 214 217 215 223 186 152 147 100 117 150 132 126 117 116 114 112 105 108 110 110 107 108 112 116 109 108 110 112 109 109 111 109 105 107 106 104 100 99 100 101 101 99 95 91 94 92 91 94 98 100 98 96 93 93 92 92 92 93 94 95 97 96 95 94 94 94 94 94 95 94 93 92 92 94 95 96 89 90 91 91 91 91 91 90 88 88 91 91 93 97 97 97 97 99 101 106 109 113 114 116 112 113 111 105 101 101 99 96 99 105 104 99 102 113 115 109 110 113 114 113 117 120 117 109 101 99 108 110 101 102 102 92 98 97 96 95 95 95 95 95 101 100 100 102 103 100 99 100 104 102 98 93 90 89 90 92 91 90 89 89 89 90 90 90 85 98 100 96 91 93 100 97 93 94 94 102 110 100 94 105 105 100 102 97 99 98 92 112 92 85 79 67 68 67 75 78 83 73 53 27 10 16 20 11 10 5 8 0 0 1 0 0 5 19 4 15 12 0 15 3 3 13 17 11 6 7 8 5 9 9 7 5 5 6 7 7 16 10 7 10 16 18 16 13 14 12 9 10 13 16 19 20 21 20 19 20 20 20 21 22 21 20 20 21 21 23 24 25 24 22 20 20 19 16 15 17 17 32 8 15 16 8 11 6 12 13 12 13 18 18 14 14 19 18 15 16 17 14 12 17 17 12 13 28 30 26 12 16 19 10 11 20 19 12 13 15 14 8 12 18 18 19 15 28 54 62 55 47 22 27 19 19 21 22 19 9 12 4 0 6 7 9 11 16 47 65 74 77 87 110 123 141 159 169 201 198 169 217 199 206 200 192 187 181 171 187 205 208 203 210 215 210 206 185 181 208 209 191 195 199 198 208 217 216 211 213 219 224 223 221 213 205 203 206 204 199 204 210 206 202 205 205 196 190 177 180 177 183 189 194 196 205 202 170 190 189 189 228 227 199 198 199 191 191 196 190 181 186 191 191 193 195 199 206 198 176 185 195 178 175 176 177 172 184 197 183 160 165 180 198 196 197 204 194 204 217 166 151 114 100 139 173 146 132 111 106 106 109 111 109 108 109 112 113 112 109 117 113 112 110 105 106 109 108 103 105 106 105 108 106 103 99 95 93 92 92 100 99 97 97 97 96 94 92 97 97 97 97 97 98 98 98 101 98 94 93 95 96 96 95 94 93 94 95 95 96 97 99 98 97 96 95 94 93 93 93 93 94 92 90 91 94 97 97 99 98 97 96 95 94 94 94 101 103 102 97 95 97 98 96 104 109 113 113 116 119 118 114 114 118 118 113 111 112 108 102 104 101 103 100 95 102 107 95 96 95 94 92 90 89 88 89 89 93 96 95 96 98 98 96 96 96 98 99 100 98 94 91 96 98 100 101 100 100 102 105 129 116 98 94 93 90 94 95 101 94 93 95 93 90 89 89 93 93 93 85 89 95 87 91 94 96 110 127 151 156 154 145 159 162 156 127 94 86 90 86 83 76 74 61 57 65 64 72 27 16 16 4 7 18 7 8 11 3 0 4 5 1 1 6 6 8 7 5 6 8 9 8 12 10 10 12 12 10 8 8 9 9 10 12 14 15 14 13 27 24 22 23 22 19 18 19 19 20 20 20 21 21 21 21 22 21 21 23 24 23 21 20 14 25 6 10 7 12 26 12 17 16 11 10 14 15 13 14 12 17 18 17 19 19 18 22 17 13 11 18 22 26 12 18 23 22 25 23 18 19 17 11 11 15 20 9 11 17 25 23 18 41 43 57 40 41 37 23 30 24 20 28 21 15 22 20 30 28 27 7 0 6 19 8 23 8 0 13 21 47 79 69 72 110 137 167 182 190 181 210 198 216 223 221 225 225 216 209 213 222 213 215 219 207 195 180 169 170 186 194 182 181 191 191 212 210 204 199 202 209 208 201 200 202 201 200 205 210 208 205 214 206 185 181 170 178 172 179 181 173 187 191 181 180 182 193 188 194 197 201 203 194 185 189 185 180 182 193 197 181 173 182 180 189 181 176 169 176 180 174 169 175 171 183 175 174 167 171 173 175 176 169 146 156 107 103 169 203 195 198 188 182 172 168 163 158 151 146 142 135 124 116 113 109 107 105 101 102 104 102 102 106 110 111 100 100 100 99 97 96 97 98 97 100 101 97 93 94 98 101 98 98 98 98 98 98 98 98 99 95 92 91 93 94 94 93 90 91 94 97 98 97 96 97 104 102 100 100 99 97 97 99 97 96 94 91 91 94 97 97 91 91 92 92 93 94 94 95 91 93 94 93 93 96 100 102 102 104 114 127 126 114 106 106 108 113 114 106 97 95 98 101 96 97 98 102 95 91 95 87 95 94 93 95 99 101 100 98 94 98 98 95 94 98 100 97 92 91 92 94 96 95 93 90 97 103 109 111 111 110 112 115 104 93 94 120 128 106 93 90 95 94 99 99 92 94 101 99 96 95 95 95 93 93 95 95 101 123 151 154 145 126 125 129 134 111 94 97 112 127 133 131 119 122 129 132 134 135 128 125 133 121 111 106 113 121 117 113 80 65 50 42 38 32 26 23 17 18 16 11 7 7 4 1 1 2 4 6 5 3 1 2 2 4 6 8 9 8 6 5 8 6 9 14 16 15 15 16 22 22 22 21 21 20 19 18 19 18 20 22 24 24 22 20 21 28 16 21 17 27 39 24 10 15 15 14 14 11 10 12 5 11 13 12 15 15 14 15 17 22 20 13 17 30 15 17 19 13 19 21 19 19 16 17 15 21 24 20 20 21 34 28 21 16 6 18 24 28 55 51 35 36 19 23 22 23 25 16 12 21 32 31 23 11 14 22 39 57 38 33 24 4 0 39 36 25 5 7 10 39 57 65 95 134 164 181 199 209 217 230 223 229 217 217 227 213 194 189 193 181 187 195 186 186 191 185 208 210 205 196 195 202 206 206 200 196 196 200 198 194 197 203 205 208 216 214 206 198 187 186 188 174 173 185 186 180 179 174 171 178 184 189 191 188 185 185 196 200 190 184 190 187 179 182 181 185 188 189 175 171 173 166 174 159 168 155 156 160 158 169 157 170 159 137 150 145 113 129 203 207 189 190 185 189 183 182 184 187 190 193 195 195 195 194 185 178 174 168 160 154 148 141 122 122 120 116 92 93 95 98 100 101 100 100 93 97 98 96 96 98 103 105 96 97 97 98 98 98 97 97 97 97 97 96 96 95 94 94 95 95 97 100 99 97 97 99 102 100 100 102 102 100 101 102 95 95 94 91 91 92 93 92 97 97 98 98 98 97 95 95 94 95 98 101 104 108 114 119 113 113 114 114 109 103 104 109 102 105 105 100 94 92 97 103 104 105 99 101 99 95 101 100 101 100 99 100 99 98 96 94 96 96 95 93 92 93 94 94 97 95 92 90 89 90 92 94 97 100 104 103 98 94 93 93 97 91 90 103 104 91 91 95 91 95 96 95 94 93 91 91 96 97 97 105 100 99 115 111 137 128 123 114 114 105 102 98 97 87 84 98 118 126 128 132 132 125 112 109 114 119 124 120 112 109 117 121 118 112 105 111 110 121 127 120 111 110 112 112 103 100 92 81 74 73 71 68 63 50 42 51 66 70 59 46 25 21 13 5 0 0 3 7 3 0 0 4 6 5 6 8 5 5 7 9 11 14 16 17 18 18 19 20 22 23 23 22 19 22 10 12 10 12 8 1 5 10 13 15 18 15 11 11 10 9 7 10 14 11 7 8 14 19 20 15 18 28 11 20 26 10 16 24 22 15 8 15 19 24 14 28 18 14 23 16 14 15 25 35 25 16 29 30 45 49 30 25 26 27 19 26 16 17 8 17 33 26 10 17 17 26 35 27 23 30 24 18 24 50 32 22 19 8 6 11 0 1 8 14 28 44 63 77 124 152 170 173 191 210 213 216 220 216 208 200 194 193 198 203 215 223 223 211 201 201 204 203 216 209 209 212 207 200 201 204 200 192 201 199 206 207 202 196 206 204 183 172 183 182 179 189 183 184 184 189 196 200 200 197 207 213 215 209 202 198 202 210 213 205 201 201 201 198 190 186 183 190 183 175 171 155 169 151 161 171 165 139 161 137 93 135 207 190 179 179 176 179 171 172 173 177 179 179 178 179 182 185 190 186 186 190 192 194 192 186 190 187 182 175 99 95 93 91 95 97 99 98 98 96 95 94 99 100 97 91 96 96 98 99 99 99 99 99 99 103 107 107 103 100 98 99 102 101 100 100 99 97 100 104 97 97 98 101 103 102 102 104 101 101 100 97 94 92 89 87 87 89 93 97 99 99 98 97 104 102 102 104 103 102 106 112 108 117 116 102 95 99 101 97 97 93 91 91 92 91 91 92 92 100 92 94 101 104 108 101 95 100 104 104 98 95 96 98 93 90 90 93 94 91 91 94 91 92 92 91 91 92 94 97 93 95 96 95 93 92 93 94 83 92 89 86 84 86 90 84 88 93 86 86 97 95 88 95 89 97 89 91 91 108 128 97 87 86 92 89 92 86 90 92 93 105 111 113 117 114 112 118 118 116 105 112 118 114 109 92 97 134 131 166 148 97 119 111 147 132 120 119 120 118 118 123 132 127 115 101 96 100 104 105 107 103 102 106 110 109 105 101 98 99 96 88 74 59 49 44 32 23 15 11 5 0 0 0 5 4 3 3 3 5 5 7 9 10 10 10 13 16 19 20 22 22 5 6 12 12 4 13 12 11 7 9 18 21 18 17 22 14 9 16 22 17 11 15 13 8 9 12 16 17 4 28 14 7 18 22 23 23 10 4 16 33 10 28 11 23 28 7 17 12 16 31 21 35 22 12 21 16 34 47 30 29 23 32 32 26 17 17 6 16 13 8 8 1 35 27 5 9 24 24 18 2 16 11 10 17 7 12 25 12 12 12 5 4 5 0 1 0 13 18 23 37 55 82 109 129 126 115 122 134 155 185 195 213 228 229 224 222 219 213 210 206 206 207 208 211 208 199 209 206 213 206 197 200 199 204 207 186 190 200 198 195 189 186 193 188 179 177 180 181 173 162 198 204 212 203 189 193 195 181 190 197 200 190 192 193 194 209 212 205 203 201 195 198 194 191 181 179 173 139 164 169 106 161 209 181 183 179 176 177 174 182 185 183 179 175 172 172 174 176 180 175 174 179 181 186 184 179 178 180 182 181 156 153 144 132 117 108 102 101 91 92 92 96 97 99 99 101 103 98 96 98 98 94 91 93 98 92 90 97 100 98 97 99 104 103 100 98 98 99 98 96 97 97 96 95 94 94 94 95 90 98 101 97 95 99 100 97 95 96 95 93 93 95 97 97 101 101 102 101 104 109 109 107 105 101 97 98 99 100 99 98 95 95 95 96 97 98 97 97 100 96 94 95 96 95 95 94 92 92 93 95 96 96 93 90 91 91 91 91 91 91 91 92 83 82 84 88 92 94 94 95 92 98 99 93 92 97 100 99 93 88 85 88 90 88 87 89 94 94 94 93 92 93 95 97 93 101 97 97 109 111 100 95 104 100 96 95 94 93 93 95 104 110 110 111 112 112 116 113 112 122 132 123 121 109 99 134 174 184 184 174 126 112 132 139 131 100 94 102 96 100 108 100 108 104 98 118 148 135 104 99 95 98 99 97 97 99 100 98 100 105 105 102 108 113 113 110 101 99 100 89 81 73 56 46 30 26 23 8 2 7 5 0 4 0 0 7 11 8 6 9 10 8 7 8 11 12 10 7 11 7 4 5 10 13 12 10 19 17 18 11 11 11 26 36 28 13 11 16 13 9 12 13 15 12 9 10 12 13 11 10 12 26 15 21 6 29 16 11 17 5 28 36 13 31 15 20 37 27 26 14 26 22 32 30 17 41 32 26 26 19 27 28 22 15 17 4 12 5 15 15 18 20 16 11 15 23 19 11 12 11 20 22 24 12 15 19 17 18 9 15 12 12 1 3 4 4 9 17 17 19 29 34 42 55 75 100 130 159 184 198 190 195 203 212 218 219 218 219 217 226 228 220 217 209 187 160 177 186 202 233 243 248 232 225 232 226 185 161 159 198 186 156 179 197 192 204 202 189 200 194 186 196 205 193 190 194 192 201 197 200 194 202 200 208 209 202 213 198 187 154 170 171 116 193 203 187 179 182 182 180 180 179 188 185 182 181 180 180 181 184 184 181 180 181 181 179 179 182 180 180 178 178 170 171 171 171 170 169 170 171 156 146 131 117 106 99 97 98 94 98 103 106 100 94 94 99 92 92 91 90 89 89 92 95 97 97 98 101 103 102 100 99 103 99 96 95 96 97 97 96 95 93 91 93 97 98 93 88 90 96 99 101 101 103 102 100 96 108 118 116 107 103 106 111 102 99 95 95 96 94 93 92 101 101 99 98 97 97 97 97 99 98 99 100 99 95 94 94 94 92 91 90 89 89 87 86 95 96 97 96 96 97 98 100 93 93 93 92 91 91 90 90 91 92 92 90 90 92 93 94 93 88 85 88 91 92 94 98 98 99 98 97 96 95 96 97 107 108 102 103 116 119 108 101 100 98 98 100 100 99 98 100 106 101 96 107 115 117 125 128 130 126 123 109 108 117 139 192 140 107 96 97 95 96 95 85 88 101 106 100 95 94 95 98 98 102 98 105 120 113 100 103 99 101 103 102 101 101 101 101 99 105 105 102 99 94 92 95 98 101 108 106 109 115 114 114 114 109 107 92 77 73 69 69 38 34 23 10 3 2 1 0 0 1 5 5 4 3 5 7 8 8 7 5 4 4 5 6 8 1 10 21 28 17 23 33 36 22 11 8 9 11 11 9 12 10 7 8 9 11 11 10 11 14 7 7 4 17 16 17 17 13 26 27 10 34 23 21 35 24 27 22 32 22 27 25 20 30 22 33 40 25 28 34 22 21 27 15 21 12 19 16 11 16 23 25 23 20 20 20 22 16 14 13 20 21 22 21 26 23 12 12 8 12 12 19 14 14 17 22 25 28 26 21 16 14 9 4 4 15 32 44 54 70 104 150 186 194 192 194 197 194 194 195 194 200 222 247 247 250 254 245 236 213 200 186 216 236 243 225 204 208 218 218 222 203 206 192 198 198 169 188 199 160 163 179 176 189 194 185 201 206 201 204 191 190 195 198 198 206 171 168 166 173 130 184 201 188 181 185 185 184 184 182 189 185 182 182 183 183 183 183 184 182 182 183 182 180 179 180 185 183 181 180 171 171 171 172 172 173 173 174 174 176 180 180 173 160 147 140 122 117 107 94 81 75 81 92 89 95 99 98 96 96 94 91 93 89 88 92 94 94 95 97 101 103 105 106 105 102 99 98 97 97 99 102 101 94 90 90 89 91 94 94 97 99 100 100 110 112 112 106 100 100 106 110 104 101 100 101 100 98 97 97 93 94 95 94 92 92 92 93 96 97 98 98 95 92 91 93 99 96 93 92 93 93 94 94 92 92 92 90 87 87 89 91 93 96 97 94 92 94 96 96 95 92 91 94 96 95 95 97 96 92 90 92 92 92 95 99 95 97 98 98 98 98 99 99 95 96 95 95 95 94 93 93 93 93 95 98 99 99 101 103 99 113 114 111 108 111 118 114 120 105 105 112 123 121 107 115 105 87 105 104 103 100 97 92 85 99 101 95 98 103 100 96 97 102 101 99 100 100 101 107 106 106 105 103 101 99 100 103 102 100 97 101 108 108 107 111 102 104 108 101 98 101 100 104 100 94 101 104 108 115 117 120 110 112 109 100 90 81 72 65 48 35 19 10 8 7 3 0 1 2 3 5 7 8 10 11 9 7 7 1 6 6 12 11 22 19 12 8 12 13 10 7 11 10 9 8 8 9 9 8 11 9 16 17 22 13 13 11 16 16 15 14 4 20 13 11 24 16 21 23 33 21 24 25 28 36 24 24 28 21 23 22 23 24 27 13 16 14 24 23 18 12 11 16 18 19 26 35 25 25 20 16 14 21 22 22 17 21 22 26 21 20 15 17 17 17 15 13 14 18 16 9 11 12 15 16 16 15 14 14 17 12 4 8 18 17 14 19 34 34 49 74 86 93 117 147 183 190 208 218 230 222 222 218 203 189 196 196 209 212 230 230 216 221 222 186 170 205 226 216 204 196 160 146 160 174 161 177 181 194 199 227 237 218 206 225 196 198 155 161 173 169 169 194 197 187 184 187 186 185 185 184 187 186 185 184 182 180 181 183 182 181 182 183 183 181 180 180 180 180 179 178 178 176 173 171 171 172 173 174 175 172 170 169 170 171 175 178 176 174 171 164 149 129 111 102 93 89 84 84 90 98 104 105 97 95 96 100 100 94 89 88 89 91 94 93 91 92 97 102 103 104 104 102 95 89 89 93 98 100 100 99 100 103 106 107 109 104 100 100 102 102 98 93 101 100 101 103 103 101 101 101 92 95 98 98 96 94 94 94 97 96 95 93 92 92 94 97 97 94 91 92 93 93 93 94 89 90 89 85 82 82 84 87 86 90 92 91 92 98 100 100 91 89 89 92 94 94 95 96 95 94 95 95 94 91 92 94 91 92 94 96 97 98 98 98 95 96 101 101 94 92 98 103 98 99 99 101 102 105 109 112 119 110 107 122 128 117 113 112 112 95 89 88 92 96 91 94 101 99 111 101 95 103 110 106 113 107 112 111 98 97 105 101 100 100 101 101 98 99 102 103 101 101 102 104 106 109 115 122 126 121 113 112 116 113 106 102 111 112 116 109 103 102 96 97 103 96 101 102 103 108 105 104 103 99 101 107 109 107 111 118 115 119 123 118 104 85 66 55 47 33 15 4 2 2 0 0 5 4 10 9 14 7 7 5 0 3 5 5 9 8 5 10 5 6 7 7 8 9 9 8 11 5 11 10 19 9 14 15 12 11 4 13 10 13 11 16 15 9 14 15 24 18 22 23 29 23 16 29 30 13 19 36 25 25 24 9 12 15 25 23 24 18 16 19 18 14 15 21 30 34 29 27 15 17 13 14 20 20 21 22 18 18 19 20 17 20 20 17 17 18 20 22 18 13 14 23 35 42 42 39 30 37 29 17 19 19 15 15 29 23 16 14 12 10 12 16 9 10 25 69 94 118 139 167 158 153 180 195 205 200 224 238 238 215 198 232 234 217 221 190 161 148 167 205 185 181 168 159 165 189 184 187 208 235 228 205 224 191 154 157 177 159 180 197 195 187 185 186 184 183 184 182 185 182 180 182 184 184 184 184 181 181 181 182 182 181 181 181 175 177 179 182 175 174 172 171 171 173 174 174 174 172 170 170 170 169 170 172 175 174 175 179 183 182 179 177 166 152 138 127 116 103 94 93 97 92 90 92 94 96 99 103 90 91 92 92 90 90 90 90 96 94 90 87 91 98 104 105 104 106 108 107 106 105 103 102 100 98 96 96 97 97 96 95 95 95 97 99 99 96 95 96 95 97 98 98 95 92 92 92 97 95 92 91 93 96 99 100 96 93 91 93 93 91 89 89 86 87 87 86 85 86 89 92 85 87 87 87 89 92 92 89 87 89 91 90 90 92 93 92 89 90 92 94 93 92 92 95 92 93 94 95 96 95 94 94 96 93 96 100 99 101 103 104 103 103 103 103 104 107 110 112 106 118 117 110 105 108 116 114 90 90 97 95 91 97 101 103 111 108 95 97 96 110 119 109 113 102 104 107 100 97 100 98 98 94 97 102 99 96 96 95 106 105 104 103 101 99 101 104 102 111 114 112 112 111 106 104 94 96 105 106 109 112 108 108 104 108 118 112 103 106 107 109 106 103 106 113 113 106 102 104 105 109 113 114 112 112 116 120 120 113 105 99 92 77 55 38 34 24 14 0 0 0 2 0 0 3 3 4 5 0 0 4 7 9 8 7 7 9 10 10 11 8 9 7 10 7 11 12 10 12 5 13 13 8 8 12 13 12 14 10 14 13 17 15 7 20 21 20 22 26 27 22 24 27 29 21 23 25 26 18 23 23 19 12 6 7 19 30 20 17 12 19 16 20 14 16 29 21 17 11 7 8 12 9 10 13 15 19 22 17 17 26 29 21 16 17 21 19 13 8 11 18 15 7 10 17 20 23 16 25 30 28 29 34 35 31 27 24 26 38 23 9 4 19 27 20 30 47 61 77 110 136 148 167 180 202 239 254 248 254 251 221 184 194 195 200 195 207 207 182 174 197 193 198 220 238 227 170 153 163 165 149 162 192 196 190 188 186 183 183 184 182 181 173 167 172 181 185 183 178 182 182 181 180 180 181 181 181 180 181 184 186 176 177 178 178 178 177 176 175 176 174 172 171 171 170 171 173 173 174 177 178 179 181 183 185 183 183 187 193 187 175 168 169 161 149 132 112 97 87 81 77 96 92 92 97 106 111 110 106 106 107 104 99 98 100 100 97 102 103 103 100 96 95 94 93 98 95 92 91 92 95 100 105 98 97 98 99 99 96 94 93 91 91 91 90 88 88 90 91 93 92 91 92 94 97 97 95 95 92 93 96 97 94 91 91 87 88 88 88 88 89 91 92 92 90 89 90 90 90 87 85 90 94 95 92 90 91 91 89 89 89 90 90 89 90 92 95 94 94 94 96 97 98 97 97 98 100 101 101 101 100 100 101 101 102 103 103 104 105 104 102 113 101 91 101 105 96 97 100 102 101 101 101 100 104 102 95 98 104 97 116 110 108 113 112 109 114 101 92 104 103 94 98 98 95 99 103 99 95 95 95 90 93 96 97 99 101 102 102 98 106 106 100 100 103 101 99 98 96 100 101 106 110 106 107 101 103 111 104 97 101 100 98 103 103 101 98 100 104 106 105 103 100 98 98 101 102 101 99 102 104 107 113 119 123 123 122 128 108 94 84 83 71 74 77 81 75 67 62 54 37 24 21 9 8 4 0 0 1 1 0 4 6 6 7 6 7 7 8 8 14 10 9 9 9 7 5 10 13 15 11 11 13 14 11 19 12 11 19 22 18 16 18 17 21 23 22 26 28 27 20 22 29 34 32 28 25 22 18 21 17 13 17 16 18 18 23 17 13 23 28 34 39 45 36 18 15 10 13 18 12 10 21 20 15 11 9 10 11 18 24 16 11 11 15 14 9 7 8 14 25 39 49 49 41 31 24 34 32 34 22 22 12 18 17 14 14 11 12 2 0 0 7 6 12 22 26 60 95 108 138 173 200 210 212 189 189 203 222 254 249 208 193 198 200 196 209 219 162 172 168 164 148 174 206 196 192 191 188 184 185 186 184 189 186 185 185 185 184 186 188 184 184 182 180 180 180 181 180 184 183 182 181 171 174 178 181 182 182 182 183 182 181 181 183 182 179 177 177 182 183 182 179 176 176 178 181 176 176 179 181 181 179 181 184 182 185 185 182 177 173 162 154 138 126 110 102 100 102 98 94 101 100 101 103 106 105 108 109 102 102 101 97 94 94 94 93 90 88 91 97 101 100 96 93 99 97 97 100 102 100 97 96 92 93 94 95 96 97 98 99 91 93 94 93 94 95 93 91 91 87 87 91 92 89 88 90 91 91 91 92 93 93 93 92 94 92 91 94 94 91 91 93 94 93 92 92 91 89 86 85 91 91 91 90 90 90 91 91 94 94 94 95 97 99 100 100 94 102 101 96 97 96 94 97 104 104 103 103 104 105 103 99 90 99 101 104 102 100 104 102 107 106 104 103 101 98 100 101 103 100 102 115 117 112 111 113 115 132 122 102 100 96 93 104 99 101 103 102 100 100 99 97 100 103 102 99 102 107 108 105 108 110 106 101 103 104 104 105 104 99 99 95 97 100 97 99 104 97 100 99 100 104 100 96 94 99 103 103 101 100 96 91 94 98 102 102 99 97 99 101 98 101 104 105 103 103 104 106 106 102 122 143 141 106 98 110 110 107 110 113 113 111 108 103 101 97 87 73 62 53 42 33 13 8 5 0 0 0 2 6 9 8 8 6 9 15 14 13 5 8 10 11 10 11 11 11 17 16 15 11 13 24 26 20 15 16 15 15 17 21 22 22 19 19 20 25 35 44 46 44 40 39 37 31 28 23 22 19 26 18 25 24 25 27 32 20 28 28 18 14 19 16 17 32 15 19 27 30 24 13 8 9 17 6 11 18 12 10 16 18 19 11 9 15 16 11 9 14 5 8 15 11 22 23 23 13 14 20 16 24 33 34 19 17 15 16 20 21 8 8 20 13 19 18 25 44 38 46 80 100 141 221 235 222 227 228 220 239 190 158 167 149 142 134 181 189 189 189 190 187 183 185 188 185 181 184 185 182 175 171 174 179 183 184 184 182 181 182 182 181 182 181 180 178 175 178 181 181 181 181 183 185 188 186 184 185 185 184 186 188 187 185 182 180 181 183 184 184 184 184 184 183 186 189 186 182 182 185 185 181 182 186 184 178 189 187 183 177 168 156 144 136 126 106 88 87 93 94 93 93 94 98 101 101 100 97 93 90 90 89 92 94 93 91 91 94 91 89 89 94 98 98 96 95 95 96 99 102 103 102 99 97 94 97 98 95 92 92 92 91 95 90 87 89 89 86 85 87 83 83 84 87 90 91 90 88 93 89 90 95 94 90 93 99 104 97 95 100 101 95 91 92 88 90 91 92 93 93 92 90 97 95 94 94 95 97 97 97 99 105 98 95 108 112 105 103 103 101 97 95 97 100 98 94 96 96 96 106 108 101 101 100 103 98 92 100 104 96 94 97 96 93 108 104 111 108 100 99 101 101 102 100 99 101 101 95 98 103 101 97 100 104 99 92 100 102 99 94 99 111 117 114 113 121 125 122 113 101 98 105 108 101 99 94 92 95 92 95 96 89 94 97 96 96 95 99 104 99 98 99 98 95 101 110 101 96 91 92 96 98 94 90 100 98 96 95 95 99 106 110 90 128 141 104 85 92 103 91 98 97 99 94 89 95 102 99 100 104 109 111 116 119 114 106 99 91 89 77 67 43 34 29 23 5 3 1 2 0 0 1 4 4 5 9 7 6 6 10 10 5 11 13 9 8 9 14 20 20 18 17 14 14 13 15 21 19 16 14 14 15 17 19 29 28 31 29 43 43 35 18 23 16 25 23 22 20 24 9 5 17 15 10 12 11 16 32 10 10 14 19 19 17 18 23 15 13 25 26 8 5 12 8 13 10 13 21 19 11 11 19 20 22 16 17 10 15 14 17 15 25 19 17 30 32 28 36 36 42 44 36 24 17 19 19 17 25 22 21 20 17 20 10 2 29 48 58 42 46 70 92 157 161 150 151 130 152 198 184 182 183 186 185 181 184 187 184 186 181 177 180 183 183 180 177 181 183 184 183 183 185 185 182 180 181 181 182 190 188 187 186 186 187 187 187 184 184 184 186 188 190 191 191 186 186 185 185 185 186 187 187 188 185 184 187 186 182 180 181 177 182 181 179 181 182 179 177 177 175 169 173 177 176 180 179 174 168 155 138 125 121 120 119 103 96 97 89 86 91 87 94 102 91 91 95 89 86 90 91 85 89 92 93 92 91 91 91 92 96 99 98 98 100 102 102 103 99 97 99 100 99 98 98 93 99 95 90 97 98 94 94 91 96 100 100 97 95 95 95 91 90 90 91 93 94 94 94 93 94 96 96 95 93 91 90 94 94 94 93 93 92 91 90 92 92 90 91 94 93 93 97 95 103 113 115 108 101 101 106 102 98 102 105 99 96 97 94 94 98 99 99 99 95 92 96 94 95 93 98 99 95 99 99 93 97 98 96 95 98 102 104 103 103 102 99 97 95 96 96 99 96 96 100 101 99 100 104 99 97 100 100 104 104 101 110 125 121 115 110 106 104 103 103 106 102 100 99 100 99 98 98 93 93 91 89 91 97 102 103 101 99 98 98 98 99 99 99 99 99 104 95 94 101 95 96 93 97 94 87 97 110 104 94 134 121 88 90 93 87 99 92 88 89 90 91 91 92 95 97 95 94 95 98 99 96 95 96 102 104 107 112 114 113 109 106 101 92 81 75 71 61 44 31 21 15 10 3 0 0 2 0 0 2 6 9 10 9 7 6 5 10 13 14 17 19 17 13 12 8 11 19 20 15 14 19 11 12 15 17 18 19 20 20 20 15 16 21 22 18 17 20 11 19 23 16 7 7 17 26 7 20 31 31 26 23 23 22 26 27 30 35 35 31 27 26 16 17 13 23 20 9 18 22 23 14 19 30 17 8 19 25 24 17 17 19 17 16 19 21 40 33 29 31 30 26 25 29 26 16 9 10 15 16 12 8 17 7 0 4 17 25 24 6 121 161 148 136 123 130 180 197 196 192 187 184 183 183 183 182 182 182 182 182 181 182 183 184 182 183 183 181 181 183 183 180 186 186 185 185 187 187 187 187 186 186 185 185 188 188 189 190 191 191 190 190 188 188 188 188 187 186 186 185 183 181 181 185 185 182 181 182 180 181 180 180 182 178 174 175 177 177 170 167 161 157 166 170 168 173 177 179 179 180 179 177 173 166 162 146 130 117 100 96 84 77 82 91 90 90 93 95 97 95 89 86 86 86 88 90 96 97 97 97 96 96 96 97 97 96 98 100 99 96 95 96 98 106 105 102 106 104 97 96 98 99 99 98 96 94 94 94 94 95 96 98 99 98 96 94 94 95 96 97 97 95 94 93 96 96 96 96 95 95 96 97 99 98 94 91 92 92 94 101 102 104 103 99 98 99 100 99 100 96 95 95 93 94 99 101 97 100 95 89 91 95 95 94 96 99 96 98 98 96 96 91 98 101 101 97 94 94 95 95 99 100 101 99 97 96 97 98 93 97 101 101 96 92 93 98 101 101 103 101 107 114 114 121 98 96 95 95 96 98 98 98 102 100 99 100 101 101 102 103 104 104 101 98 98 100 102 102 102 103 105 105 104 102 101 101 105 95 93 94 94 93 95 105 96 85 92 122 120 103 114 125 96 96 88 95 96 89 94 90 91 91 92 91 91 92 94 96 97 95 96 97 98 95 94 95 93 92 92 94 96 97 96 95 103 102 103 108 115 119 117 114 116 109 100 88 73 64 55 45 24 18 10 3 0 0 1 3 9 4 0 1 5 8 10 11 14 12 12 11 11 11 11 12 20 19 18 18 19 20 22 23 21 21 22 23 23 23 23 25 31 32 31 27 25 25 25 24 20 24 25 22 19 19 22 25 22 22 26 30 31 29 27 28 18 17 15 22 25 23 23 20 25 11 15 22 16 15 19 22 20 15 17 20 18 16 18 18 23 18 17 20 23 22 21 22 19 21 22 22 21 23 27 30 26 26 29 42 48 48 48 39 153 162 152 154 128 128 157 198 190 188 186 185 185 185 187 188 188 187 186 185 184 183 183 183 183 185 185 184 184 185 184 183 184 184 184 184 186 188 190 190 188 186 185 185 188 188 188 188 189 188 186 185 184 185 186 186 186 185 183 182 182 180 181 185 186 184 184 185 187 185 183 185 187 182 178 182 180 180 173 168 161 156 165 170 175 179 182 182 179 175 171 167 171 170 174 172 172 174 170 172 160 145 134 124 110 96 91 87 88 87 93 99 103 103 106 109 107 102 99 98 96 92 92 94 90 92 94 94 92 88 88 90 94 99 97 93 95 97 95 96 101 99 96 95 95 95 95 95 91 95 100 104 105 104 102 100 94 94 95 95 94 93 92 91 99 100 100 100 98 98 101 103 104 103 101 104 110 108 103 102 93 97 97 95 98 105 104 97 101 101 99 98 97 94 92 94 93 95 99 104 102 93 95 107 94 98 93 91 92 95 102 99 101 103 103 99 96 96 97 98 97 100 102 102 100 99 99 101 95 117 120 100 94 107 109 95 104 105 103 94 97 103 99 101 96 96 95 97 99 99 98 96 94 94 95 97 98 98 99 102 103 103 102 100 99 100 101 100 99 102 104 103 101 99 99 100 99 106 107 108 103 97 97 95 95 110 116 94 103 129 111 87 86 87 90 94 93 89 89 91 93 93 93 92 92 92 93 95 95 94 95 96 96 95 95 96 94 92 90 89 89 90 91 91 83 85 88 92 96 100 103 104 106 106 110 115 116 120 120 114 112 113 112 106 91 71 51 39 30 18 9 7 7 3 0 0 2 7 8 5 6 12 13 9 10 11 13 15 18 19 21 21 22 25 26 22 20 22 23 23 25 22 17 15 17 19 18 15 25 24 22 22 22 21 22 25 27 27 27 28 28 27 26 26 29 26 26 23 26 31 27 26 26 17 27 25 14 14 15 22 12 10 14 19 18 17 20 20 17 14 13 15 18 19 17 14 18 20 20 19 20 24 26 25 31 32 36 48 48 44 49 48 133 156 152 143 152 206 197 195 188 188 188 186 183 182 183 185 187 186 184 184 185 186 185 185 183 184 185 184 184 185 184 183 183 183 182 182 185 187 190 189 187 185 185 186 186 186 185 185 185 185 184 183 180 181 183 184 185 184 183 183 186 185 185 188 189 188 187 188 187 187 184 184 187 185 184 187 189 188 183 186 186 184 187 186 181 182 183 183 182 181 179 178 170 168 167 165 164 166 165 166 170 169 174 180 179 172 163 158 137 132 122 109 93 81 81 85 95 89 87 91 93 91 92 95 91 91 91 90 90 91 94 98 92 93 90 87 89 92 93 94 104 101 98 98 98 98 98 99 95 99 103 105 104 102 100 99 97 97 96 96 96 96 96 96 95 97 99 97 95 94 96 98 91 94 96 101 104 98 89 86 91 96 99 99 101 105 104 100 96 103 103 99 99 97 99 110 115 98 87 95 108 107 103 108 113 119 118 118 111 101 99 95 97 97 96 93 92 93 96 98 96 99 102 103 100 99 100 102 102 101 99 97 95 95 96 98 99 100 100 96 99 102 95 96 100 99 98 99 101 99 96 92 97 98 99 101 101 100 102 105 103 103 103 102 102 103 103 103 100 100 100 99 97 97 99 101 100 95 87 98 101 93 99 99 116 97 87 128 138 95 83 92 100 91 92 88 89 92 87 91 91 91 92 92 92 92 92 92 89 90 91 92 92 93 94 95 96 96 94 93 91 90 89 89 90 92 94 94 93 93 95 97 102 101 103 103 101 103 103 99 108 109 112 115 119 123 126 128 125 116 106 97 84 67 49 39 26 24 14 0 0 1 5 4 2 3 4 6 7 9 10 11 13 13 13 12 13 17 20 22 21 22 22 20 18 19 21 22 15 12 11 13 14 11 11 13 15 15 17 19 22 25 28 30 28 27 35 30 27 30 27 34 27 23 40 33 24 28 25 34 21 17 18 20 17 16 19 19 18 18 17 16 17 17 15 11 8 9 6 4 9 16 16 11 15 12 10 15 15 14 19 16 104 152 157 132 163 207 188 180 190 189 188 186 183 182 181 181 184 182 181 181 183 184 183 182 183 183 183 183 183 184 184 184 184 184 183 182 181 183 185 185 183 183 184 185 187 186 185 185 186 187 188 189 184 184 185 185 186 185 185 185 188 187 187 189 190 189 188 188 185 189 184 178 181 185 185 184 183 182 179 185 190 188 188 184 187 187 188 188 187 183 179 177 179 180 180 181 180 176 173 169 176 174 172 172 175 176 176 177 173 174 177 176 167 154 146 144 123 111 100 94 90 84 82 84 87 90 94 97 100 97 93 88 89 89 91 93 94 96 96 93 89 89 92 97 101 102 104 107 112 113 112 110 105 101 98 97 94 93 93 92 93 94 95 96 96 99 101 101 99 97 98 100 103 107 108 105 102 96 95 101 109 105 100 97 97 97 99 100 103 96 93 115 150 156 129 105 98 123 138 132 120 113 111 112 125 117 108 113 112 104 104 104 107 106 105 103 101 99 100 101 95 97 99 99 96 94 95 97 105 99 98 102 103 100 102 108 100 97 100 101 105 104 96 99 95 94 95 97 100 100 99 97 99 99 100 102 101 100 101 104 105 103 102 101 100 99 99 100 103 102 101 100 101 102 103 104 98 108 101 97 93 96 110 108 96 110 138 111 79 96 103 96 95 86 91 88 90 95 85 88 87 88 90 91 91 91 90 89 86 88 89 88 88 88 89 89 90 91 91 89 87 85 85 85 92 93 94 95 95 95 96 97 97 97 100 99 95 97 101 100 104 104 106 106 106 105 104 103 108 113 119 124 128 129 126 121 116 115 110 99 83 65 47 36 23 19 13 6 1 0 0 0 2 1 5 13 15 10 5 4 10 14 19 20 17 15 16 18 23 20 18 20 19 18 20 25 15 15 15 15 17 21 24 25 22 22 36 37 32 31 27 37 34 25 34 26 24 31 20 23 18 13 11 11 8 10 14 14 16 19 20 18 16 16 17 16 13 16 14 8 7 11 13 11 11 14 13 14 14 16 17 6 94 160 159 130 188 195 194 199 191 189 187 187 188 188 186 185 186 184 181 180 181 181 179 178 183 183 182 182 182 183 184 185 183 182 181 180 183 184 185 185 184 185 186 188 189 187 185 185 186 189 191 192 189 188 187 186 185 185 184 184 185 185 186 187 189 188 188 187 189 195 190 180 182 187 186 183 188 189 185 189 188 184 187 186 187 186 187 189 190 190 189 189 183 186 185 189 189 185 184 178 178 182 181 178 177 172 163 161 165 164 164 168 173 176 176 175 179 179 182 184 176 158 139 128 101 94 85 80 81 86 88 86 100 96 97 97 94 94 96 92 92 91 94 99 101 101 101 104 97 97 96 94 92 91 90 91 95 94 91 88 87 87 87 88 95 98 101 102 102 101 102 103 105 103 99 102 109 111 110 112 110 101 94 94 98 99 99 99 98 99 98 102 113 119 118 117 140 173 193 179 149 132 140 157 155 129 102 100 103 100 104 107 100 100 101 101 99 95 92 92 96 97 97 96 93 93 93 94 89 101 105 97 96 105 107 101 105 100 100 99 101 97 90 96 97 97 97 99 100 100 99 99 96 95 96 97 98 97 98 100 102 100 99 98 98 97 97 99 101 101 101 102 104 104 103 102 104 106 97 94 100 110 111 99 120 131 94 81 98 94 89 89 86 84 92 89 89 92 86 90 86 86 87 88 89 88 87 86 89 91 92 90 87 87 87 86 87 88 88 86 84 84 87 90 92 92 92 92 92 92 91 90 90 92 97 99 98 102 106 105 100 99 99 98 99 101 102 103 101 105 106 102 102 106 109 108 104 103 106 112 117 118 121 125 116 111 102 91 78 66 56 51 30 16 4 0 0 0 0 4 6 4 2 4 8 10 12 14 8 9 12 15 16 16 18 20 17 16 14 10 9 9 9 9 14 9 12 14 14 13 13 20 36 30 31 22 21 24 17 21 21 14 10 8 6 8 10 8 7 10 12 11 8 7 9 12 14 14 12 9 11 15 16 14 11 18 18 16 13 15 17 4 89 166 145 123 201 194 195 182 191 188 186 187 189 190 187 185 187 185 183 182 183 183 182 181 181 179 179 180 180 180 182 183 180 180 179 178 187 187 188 188 189 189 190 190 188 186 184 184 184 186 187 188 188 187 187 186 185 184 184 184 184 185 186 187 188 188 187 186 189 193 189 184 186 189 187 185 186 187 182 183 181 177 181 182 192 189 186 186 186 185 185 187 191 192 185 187 186 182 185 180 171 177 174 170 174 176 176 181 174 178 180 180 182 183 178 172 180 178 177 178 181 185 188 189 181 179 173 166 157 144 127 112 78 74 77 77 71 73 81 82 101 96 94 96 97 94 91 92 95 95 95 96 98 99 101 101 102 100 96 93 91 91 92 93 89 91 94 96 97 98 99 99 103 99 95 103 116 119 113 110 95 94 93 96 101 104 103 100 99 102 105 101 94 94 99 100 100 97 104 125 142 138 127 123 116 102 89 96 103 99 100 99 99 98 99 101 100 97 96 97 97 96 93 92 92 93 94 94 94 91 93 100 101 96 96 102 99 98 100 97 100 102 97 103 98 99 100 99 96 94 94 93 100 98 97 99 100 101 101 103 103 101 101 103 103 102 103 105 99 100 100 101 101 101 101 101 103 100 110 115 106 99 112 140 115 87 99 108 92 89 89 88 91 91 93 91 89 90 88 91 89 87 85 84 84 84 84 83 87 90 91 89 87 87 87 86 88 90 91 89 88 88 92 95 93 92 93 94 96 97 97 97 96 96 98 100 98 100 101 96 100 100 101 101 101 100 99 97 97 97 97 97 97 100 103 106 104 103 104 106 104 101 100 100 106 110 113 117 119 120 119 119 119 113 105 97 83 64 47 37 26 15 4 0 1 0 0 0 1 4 7 8 9 11 10 9 16 18 18 18 19 22 23 22 25 21 13 13 14 15 18 17 8 10 10 8 9 9 10 15 30 24 22 22 22 23 21 14 12 12 14 16 15 12 14 19 9 8 8 9 11 13 14 13 17 19 16 16 14 16 19 9 79 159 136 149 208 189 191 192 190 189 187 186 187 187 185 185 186 185 184 184 184 184 184 185 180 178 179 181 182 181 181 183 181 181 182 183 188 188 188 189 190 190 190 189 187 186 184 183 183 183 184 184 184 184 185 186 187 187 187 187 187 187 188 188 188 189 187 186 182 184 182 182 186 186 184 186 187 185 180 183 185 183 185 184 187 185 185 188 190 188 186 186 186 189 183 188 188 184 188 182 178 189 188 184 184 180 173 175 172 179 181 175 171 176 183 185 183 182 180 177 177 180 181 181 179 180 181 184 191 197 196 192 184 177 170 150 117 94 85 76 66 61 62 72 82 89 92 94 98 97 96 95 97 96 95 94 94 93 91 90 91 94 97 99 95 95 97 99 101 103 104 104 104 107 106 105 104 99 97 102 92 100 103 98 98 101 103 102 98 97 101 101 96 99 103 99 99 100 98 97 98 94 91 93 92 92 92 100 102 96 98 97 99 96 95 95 95 94 96 99 96 93 90 89 90 92 93 93 92 87 84 87 92 94 91 89 95 99 102 96 98 102 97 98 97 99 101 101 99 98 98 99 99 96 95 96 98 99 99 100 101 100 100 102 102 100 100 102 103 103 103 101 99 100 103 106 101 108 113 100 111 132 112 86 89 97 88 81 83 83 85 89 95 95 93 93 93 92 90 86 92 89 85 82 81 81 81 81 78 82 85 85 84 86 87 86 86 89 91 91 89 88 90 92 91 91 91 91 92 93 94 95 99 96 95 97 98 101 100 93 100 100 100 99 97 96 94 94 94 94 99 103 104 100 100 101 97 99 99 100 100 103 103 103 103 101 97 96 97 100 104 108 105 109 113 117 121 125 126 124 120 109 94 83 71 54 37 25 16 15 9 2 1 4 5 3 2 4 6 6 8 11 13 11 14 22 16 17 17 14 19 11 19 18 9 14 20 15 10 5 5 5 12 23 34 42 43 37 39 37 40 47 49 46 48 53 39 43 45 35 18 4 5 11 11 7 5 12 18 17 17 4 83 170 143 167 199 193 190 188 188 188 188 188 187 188 188 190 187 187 186 184 182 181 181 182 182 182 183 186 187 185 184 186 183 184 186 189 186 188 188 186 186 186 185 183 187 187 186 185 185 184 184 183 186 186 185 184 186 188 186 181 188 185 185 188 190 187 184 183 186 182 180 180 179 175 173 172 173 172 174 180 184 185 186 187 182 184 184 182 183 185 187 186 185 187 188 188 187 186 182 178 184 183 182 182 182 182 182 183 180 180 181 181 183 184 186 187 183 184 186 186 186 185 184 183 186 179 178 183 186 184 183 186 188 191 193 197 197 196 192 190 170 154 151 142 111 85 79 70 70 65 76 85 93 98 93 99 94 94 93 91 90 91 90 88 97 99 100 110 125 124 111 103 102 96 100 104 99 101 105 99 97 106 105 98 96 97 96 97 99 93 90 93 96 97 97 99 95 100 102 99 98 101 100 96 95 91 93 101 104 101 100 103 98 103 105 102 98 96 97 96 99 94 93 92 90 91 92 88 94 89 98 123 96 81 91 94 91 94 95 92 92 96 96 92 98 99 99 98 98 98 99 101 99 100 101 102 103 102 100 99 99 101 104 106 106 106 106 108 107 102 101 105 104 100 101 104 104 104 109 125 129 113 100 96 87 88 88 88 86 87 88 90 90 89 88 88 88 87 86 85 84 84 85 84 82 80 79 79 79 79 79 79 79 80 82 83 81 81 81 84 88 90 89 88 93 90 89 89 90 92 95 98 98 95 94 95 97 96 96 97 98 99 100 100 99 98 100 101 99 99 99 97 98 100 100 97 93 94 97 99 101 102 102 102 99 99 98 96 96 98 99 99 99 100 101 101 101 101 104 106 108 112 120 119 125 127 118 129 119 99 96 80 56 34 12 4 10 7 4 2 1 1 1 2 5 4 4 7 9 8 8 8 8 8 11 10 5 8 13 14 14 12 8 5 5 10 18 25 38 40 41 44 51 57 55 49 35 39 48 53 47 33 24 23 15 7 13 15 6 12 16 3 93 186 123 193 201 192 188 188 185 185 189 190 185 185 189 188 187 185 184 185 184 181 178 177 173 179 184 183 184 188 188 185 186 188 188 186 185 187 186 185 184 185 184 183 185 185 185 185 185 184 184 184 180 186 191 190 187 188 190 191 185 185 188 192 192 187 183 182 188 183 178 177 176 175 177 179 174 172 172 174 177 177 179 182 178 180 181 180 180 183 185 185 183 182 179 175 173 174 173 172 177 178 179 181 182 183 184 185 185 186 187 188 188 189 190 190 191 191 191 191 190 190 189 188 185 184 184 186 189 191 191 190 191 189 186 184 185 186 186 187 196 188 189 192 190 192 186 168 139 135 136 122 103 87 75 80 86 79 75 80 88 94 97 100 101 100 111 126 119 94 90 108 108 99 93 94 95 91 95 105 93 92 93 99 102 96 91 92 99 101 100 97 98 100 96 93 104 105 101 97 98 102 103 102 99 101 100 97 97 100 99 96 88 93 97 97 97 98 99 98 99 99 102 103 99 96 94 90 87 116 138 134 96 91 97 90 97 95 93 93 93 93 93 94 92 92 92 92 94 95 96 97 96 97 98 100 102 101 100 99 98 101 102 100 99 100 101 100 106 102 100 99 97 97 98 97 105 115 129 112 96 104 99 90 88 87 87 87 87 87 87 87 91 92 92 92 91 89 88 87 82 82 82 82 82 82 81 81 82 82 82 81 81 82 84 86 85 84 83 84 86 88 89 90 89 87 88 90 92 94 97 100 96 95 96 99 101 100 100 101 104 103 102 100 99 99 100 101 98 99 98 97 98 100 100 97 97 97 98 98 99 99 100 100 96 97 97 97 98 100 102 101 98 100 102 104 104 102 100 98 106 101 102 101 106 106 101 114 115 110 116 141 125 114 140 89 101 95 85 74 62 47 31 20 6 2 0 0 1 1 2 4 5 5 8 9 7 9 10 6 10 11 12 11 8 5 5 5 1 4 10 16 21 22 18 13 18 21 32 46 52 48 43 40 39 37 42 39 37 50 46 16 111 171 138 194 191 184 188 187 176 179 186 190 186 185 188 187 189 187 186 187 186 185 185 186 184 185 186 187 187 185 185 185 187 188 186 183 188 189 188 186 186 186 186 185 184 184 184 185 186 186 187 187 192 191 190 187 187 187 185 183 187 186 186 186 184 183 184 187 185 183 182 182 183 181 181 181 184 183 183 183 182 182 183 185 184 186 186 184 183 184 185 184 186 184 179 174 173 174 175 175 175 178 181 182 183 184 186 187 189 190 191 191 192 192 191 191 195 194 193 192 192 192 192 193 196 197 197 193 191 192 190 186 188 188 187 187 187 186 185 184 189 181 179 184 187 187 187 188 204 194 191 188 192 192 180 174 149 136 120 106 90 77 75 80 91 97 98 93 97 107 102 84 88 101 99 96 103 100 91 93 108 100 96 98 99 98 99 105 95 102 104 98 91 90 92 95 116 111 103 98 98 99 100 100 95 98 98 94 93 94 93 91 91 94 96 95 94 93 91 89 90 93 100 102 96 92 91 88 95 100 104 95 84 95 96 93 100 95 94 97 97 95 96 100 95 95 93 92 94 94 93 93 92 93 93 94 94 95 95 95 94 96 96 93 93 96 97 96 95 100 100 94 91 97 103 103 137 124 93 98 107 88 82 82 84 83 83 85 88 90 90 89 89 92 94 95 95 93 93 93 87 85 83 81 81 81 80 79 81 81 80 79 79 81 84 87 84 83 83 83 84 87 90 93 95 94 94 95 96 95 96 98 98 97 98 99 98 97 98 100 100 100 100 101 102 103 104 104 100 101 100 98 98 99 98 96 98 97 95 94 93 93 94 94 96 97 97 95 96 97 98 97 99 100 102 105 107 105 102 98 101 101 101 95 95 96 95 106 100 101 136 108 83 150 118 109 127 122 117 118 120 121 116 111 100 93 82 70 54 37 24 17 12 5 0 0 0 2 5 2 0 2 5 7 8 9 12 14 11 8 5 4 3 3 4 6 11 7 6 9 13 15 15 17 14 18 34 42 38 45 49 38 125 162 165 202 190 178 182 178 177 174 177 182 186 188 187 182 186 184 183 182 181 180 181 183 182 178 179 183 184 181 182 186 187 188 187 185 191 191 190 188 187 188 188 186 185 185 186 187 188 189 189 190 189 185 181 180 183 187 188 186 189 187 183 181 180 182 185 188 184 184 185 186 186 184 182 181 184 185 187 187 185 183 183 184 191 191 191 190 189 189 189 189 190 190 188 185 184 185 185 183 183 186 188 187 186 186 187 187 188 188 189 190 190 190 190 190 194 193 192 191 192 193 194 195 193 195 195 193 192 191 191 192 187 189 192 194 195 193 189 186 187 186 184 183 181 174 178 193 185 185 186 183 183 185 183 181 194 194 193 188 174 158 150 149 135 104 89 90 81 68 69 76 83 93 94 91 98 103 101 100 89 93 96 93 91 94 96 94 102 99 97 100 103 102 100 99 104 99 96 96 97 97 97 98 102 99 102 107 105 97 94 98 96 97 98 99 100 100 99 97 92 93 98 100 95 95 97 96 102 95 99 98 96 98 93 104 99 97 98 101 100 98 99 103 101 99 96 96 97 96 95 94 93 92 90 89 89 90 91 92 93 92 91 90 90 92 94 96 98 93 92 100 102 94 103 130 108 90 100 89 71 75 77 87 81 80 81 83 86 89 90 90 88 91 94 95 94 93 94 95 92 89 85 82 82 82 80 78 79 78 77 77 78 81 85 88 90 91 91 91 90 92 95 98 99 97 96 97 97 96 97 99 97 96 95 93 91 91 93 96 91 93 95 99 102 102 100 98 103 103 103 103 103 104 104 103 105 103 101 99 98 97 98 98 97 98 98 96 95 96 96 94 97 96 95 95 96 97 97 96 97 103 103 97 98 103 101 98 97 136 121 73 129 125 78 107 105 99 93 92 96 100 101 100 105 106 110 115 117 115 114 114 98 89 80 68 54 42 29 16 13 11 7 3 0 0 1 3 4 2 4 9 10 7 5 6 2 4 8 10 9 7 6 7 17 10 16 25 26 30 30 20 99 147 164 185 179 177 186 191 182 181 183 182 177 176 182 182 182 181 180 180 178 177 178 181 183 180 180 183 183 180 180 183 184 185 188 189 188 189 188 186 186 188 188 187 189 189 189 189 189 189 189 189 182 184 185 183 181 181 185 190 186 185 184 183 185 185 183 181 186 185 183 181 180 181 182 183 181 183 185 185 184 184 184 184 188 188 190 191 191 192 193 194 188 190 190 189 189 190 188 185 190 192 192 189 188 189 190 189 187 187 187 188 188 189 190 191 193 193 193 193 193 194 195 195 193 191 190 192 190 186 188 193 192 191 191 191 192 192 192 192 182 193 191 185 190 193 190 190 185 191 192 189 184 182 186 188 178 175 171 171 179 190 194 193 196 194 193 181 160 144 129 115 82 70 71 81 76 68 72 79 94 95 101 100 96 97 100 97 82 86 94 99 100 101 102 103 102 100 100 101 99 97 97 98 102 99 101 106 103 95 92 95 99 98 97 97 98 98 97 97 98 96 98 98 96 97 99 98 92 96 104 98 100 101 92 95 94 97 100 100 99 98 99 101 98 97 96 96 98 98 98 97 96 96 95 95 93 93 94 94 99 94 91 91 91 89 91 95 96 106 100 85 100 135 132 94 86 100 78 74 85 82 82 71 82 82 81 80 80 81 84 86 87 89 91 90 88 87 88 89 90 87 84 83 85 86 86 85 80 80 80 80 81 85 89 92 92 94 96 96 93 92 93 95 95 93 93 94 95 96 98 101 94 95 95 93 92 93 94 96 91 92 94 96 97 96 92 89 93 94 95 97 99 101 102 104 104 103 102 100 100 100 100 100 97 99 99 98 99 101 101 100 103 101 99 96 95 95 98 101 103 99 95 96 101 104 101 92 122 115 70 113 154 93 101 104 105 104 102 102 102 101 100 98 100 98 96 97 98 99 102 105 105 104 107 110 109 111 109 103 92 88 81 70 58 47 39 34 19 10 2 0 0 0 0 3 3 4 5 5 5 5 5 5 3 5 7 4 7 19 20 7 66 152 168 181 178 169 153 155 179 173 170 175 177 180 177 170 179 176 173 172 172 172 175 179 171 174 178 180 182 184 185 186 180 181 183 186 186 187 188 187 187 189 189 188 190 190 189 188 187 186 186 185 186 186 187 188 186 183 182 182 184 183 181 181 183 184 182 179 185 186 186 184 182 182 182 182 186 187 187 186 187 189 191 192 187 187 188 190 190 190 190 192 189 190 189 188 188 190 189 187 190 192 191 188 189 192 193 191 189 189 189 189 190 192 193 194 193 193 193 193 193 193 193 193 200 194 192 194 191 186 187 193 194 192 191 190 190 190 191 191 188 194 190 186 192 194 190 190 193 188 179 182 186 184 180 171 177 182 183 180 181 183 178 170 177 172 172 176 180 185 189 189 195 180 180 178 152 125 111 101 85 71 71 79 81 81 87 88 98 105 106 98 89 89 92 94 90 92 95 98 100 103 106 108 102 105 105 103 102 103 103 101 101 99 97 96 96 94 94 95 100 96 97 98 97 97 97 92 105 98 95 89 102 105 99 93 91 93 94 94 96 99 100 100 97 97 96 96 96 97 97 96 96 97 99 100 99 98 97 96 98 94 91 92 93 92 94 97 101 89 94 128 141 107 87 106 95 77 91 95 86 84 77 81 79 80 80 78 77 78 80 83 80 81 83 83 82 82 84 85 86 85 83 84 85 86 86 86 83 83 83 83 84 87 90 92 87 90 93 94 93 92 93 94 100 97 95 94 92 91 92 93 96 99 100 99 98 98 96 95 97 97 96 96 96 95 94 93 91 91 93 94 95 94 96 98 98 98 98 97 98 98 98 99 101 102 101 100 100 101 101 100 106 107 107 106 105 106 109 111 110 102 99 105 100 94 102 107 120 71 103 145 90 104 109 105 102 104 105 104 102 99 99 99 102 100 99 98 97 96 98 101 103 99 97 95 94 98 103 101 99 100 102 104 105 106 107 107 96 90 83 76 65 49 34 24 22 15 5 0 0 3 3 0 0 3 5 1 0 0 0 0 75 158 155 158 165 172 168 176 171 164 165 174 181 183 174 161 160 156 154 156 160 166 172 177 178 183 188 188 186 184 184 183 182 180 180 181 187 188 188 187 186 187 187 185 186 185 185 184 184 183 183 183 183 179 179 184 189 189 186 183 183 183 181 179 180 182 182 180 183 187 189 189 187 187 185 182 186 186 185 184 185 188 189 188 190 189 189 190 189 186 186 187 190 190 189 187 188 190 190 189 188 190 189 187 190 194 193 189 190 191 191 192 193 194 195 195 193 193 192 192 192 193 193 193 194 192 192 193 194 194 196 199 193 193 193 194 194 192 190 189 193 192 189 190 192 189 190 197 186 189 186 190 187 179 183 183 184 190 192 187 182 182 184 186 180 179 178 178 177 173 174 184 175 180 186 190 190 192 194 194 193 173 165 160 137 114 96 83 69 60 59 70 83 89 94 99 91 93 92 88 87 89 88 85 93 95 95 94 95 98 98 96 97 96 97 99 101 102 104 107 101 98 100 102 102 102 102 97 101 98 98 97 99 90 99 103 104 97 91 92 96 98 99 99 97 97 97 96 95 95 95 96 95 96 96 96 95 95 94 94 92 94 92 90 92 98 100 97 90 102 141 140 93 88 100 79 71 83 79 83 87 81 84 86 79 79 79 79 79 80 81 82 76 77 79 80 81 82 82 82 82 82 82 82 82 82 82 82 83 84 84 83 83 83 84 85 87 89 90 92 93 94 96 98 101 98 95 94 91 88 87 88 101 102 102 100 100 100 98 95 98 99 99 99 99 99 101 101 103 102 102 103 101 99 99 101 101 101 101 101 101 102 103 104 104 104 103 100 99 100 100 99 100 101 102 103 104 106 107 108 106 108 109 113 102 97 112 115 76 101 148 112 91 109 101 104 102 103 103 102 102 102 105 107 96 96 98 98 97 94 93 94 95 95 99 101 100 101 98 92 96 94 92 92 92 94 96 97 100 100 100 100 102 105 106 106 102 98 87 76 69 60 45 30 21 13 11 20 29 31 30 28 113 151 138 127 119 120 112 108 111 122 141 153 155 162 173 180 180 175 170 168 166 163 161 159 149 155 165 173 174 173 176 182 179 176 175 176 187 188 187 185 183 183 181 179 179 179 180 181 181 182 183 183 184 184 184 184 181 179 180 184 180 185 189 189 188 187 183 179 185 187 187 185 184 186 188 188 184 185 185 185 186 188 186 183 187 186 187 189 188 185 185 187 186 187 187 186 188 190 190 188 189 190 189 188 190 194 191 186 190 191 192 194 194 195 195 195 193 193 192 192 193 194 196 197 194 195 194 191 191 192 192 191 195 194 193 193 193 193 192 192 188 193 190 184 186 191 186 176 188 197 198 202 191 177 186 193 187 186 186 186 184 182 182 184 185 188 183 182 186 184 177 177 176 179 175 176 179 171 166 177 181 176 184 189 185 189 195 189 177 158 150 145 113 66 53 69 70 75 80 84 93 103 105 102 95 91 91 97 98 92 90 92 93 92 93 95 95 93 94 97 96 94 97 100 101 103 105 103 96 99 99 96 99 100 129 136 127 108 94 95 98 95 92 94 92 94 95 95 95 95 97 99 98 96 92 89 87 89 92 94 91 98 96 88 89 100 100 92 127 150 109 82 113 99 62 75 84 80 82 80 77 77 78 80 83 82 81 82 82 82 80 78 81 81 81 82 82 80 78 76 76 78 80 80 80 80 80 81 84 84 84 83 81 80 79 79 86 85 84 83 83 84 86 88 87 86 87 90 91 91 91 93 99 99 96 94 96 100 101 100 96 98 100 101 100 99 99 100 100 99 100 102 101 99 99 102 101 101 100 100 100 101 103 104 104 104 103 101 101 103 104 104 104 102 101 101 102 102 101 100 96 104 105 107 106 114 120 101 97 142 127 95 105 109 106 104 108 108 108 106 104 102 100 100 95 94 93 93 93 93 96 100 93 91 93 94 95 98 98 92 95 94 93 93 93 92 92 91 91 94 95 91 90 92 93 92 93 97 99 99 102 107 105 100 100 105 104 98 98 104 105 102 100 100 101 101 99 116 123 116 112 106 104 103 101 103 104 101 111 114 122 137 150 157 158 158 169 169 174 178 170 158 157 164 171 169 170 172