P3
256 256
255
163 163 108 163 163 108 163 163 108 163 163 108 163 163 108 163 163 108 163 163 108 163 163 108 163 163 108 163 163 108 163 163 108 163 163 108 163 163 108 163 163 108 163 163 108 163 163 108 163 163 108 163 163 108 163 163 108 163 163 108 163 163 108 163 163 108 163 163 108 163 163 108 163 163 108 163 163 108 163 163 108 163 163 108 163 163 108 163 163 108 163 163 108 163 163 108 163 163 108 163 163 108 163 163 108 163 163 108 163 163 108 163 163 108 163 163 108 163 163 108 163 163 108 163 163 108 163 163 108 163 163 108 163 163 108 163 163 108 163 163 108 163 163 108 163 163 108 163 163 108 163 163 108 163 163 108 163 163 108 179 185 134 179 185 134 179 185 134 179 185 134 179 185 134 179 185 134 179 185 134 179 185 134 179 185 134 179 185 134 179 185 134 179 185 134 179 185 134 179 185 134 179 185 134 179 185 134 179 185 134 179 185 134 179 185 134 179 185 134 179 185 134 179 185 134 179 185 134 179 185 134 179 185 134 179 185 134 179 185 134 179 185 134 179 185 134 179 185 134 179 185 134 179 185 134 179 185 134 179 185 134 179 185 134 179 185 134 179 185 134 180 188 139 180 188 139 180 188 139 180 188 139 180 188 139 180 188 139 180 188 139 180 188 139 180 188 139 180 188 139 180 188 139 180 188 139 180 188 139 180 188 139 180 188 139 180 188 139 180 188 139 180 188 139 180 188 139 180 188 139 180 188 139 180 188 139 180 188 139 180 188 139 180 188 139 180 188 139 180 188 139 180 188 139 180 188 139 180 188 139 180 188 139 180 188 139 180 188 139 180 188 139 180 188 139 180 188 139 180 188 139 180 188 139 180 188 139 180 188 139 180 188 139 180 188 139 180 188 139 180 188 139 180 188 139 180 188 139 180 188 139 180 188 139 180 188 139 180 188 139 180 188 139 180 188 139 180 188 139 180 188 139 180 188 139 180 188 139 180 188 139 180 188 139 180 188 139 180 188 139 180 188 139 185 192 151 185 192 151 185 192 151 185 192 151 185 192 151 185 192 151 185 192 151 185 192 151 185 192 151 185 192 151 185 192 151 185 192 151 185 192 151 185 192 151 185 192 151 185 192 151 185 192 151 185 192 151 185 192 151 185 192 151 185 192 151 185 192 151 185 192 151 185 192 151 185 192 151 185 192 151 185 192 151 185 192 151 185 192 151 185 192 151 185 192 151 185 192 151 185 192 151 185 192 151 185 192 151 185 192 151 185 192 151 185 192 151 185 192 151 185 192 151 185 192 151 185 192 151 185 192 151 185 192 151 185 192 151 185 192 151 177 179 134 177 179 134 177 179 134 177 179 134 177 179 134 177 179 134 177 179 134 177 179 134 177 179 134 177 179 134 177 179 134 177 179 134 177 179 134 177 179 134 177 179 134 177 179 134 177 179 134 177 179 134 177 179 134 177 179 134 177 179 134 177 179 134 177 179 134 177 179 134 177 179 134 177 179 134 177 179 134 177 179 134 177 179 134 177 179 134 177 179 134 177 179 134 177 179 134 177 179 134 177 179 134 177 179 134 177 179 134 177 179 134 177 179 134 177 179 134 177 179 134 177 179 134 177 179 134 177 179 134 177 179 134 177 179 134 177 179 134 177 179 134 177 179 134 177 179 134 177 179 134 177 179 134 177 179 134 177 179 134 177 179 134 177 179 134 177 179 134 177 179 134 177 179 134 163 163 108 163 163 108 163 163 108 163 163 108 163 163 108 163 163 108 163 163 108 163 163 108 163 163 108 163 163 108 163 163 108 163 163 108 163 163 108 163 163 108 163 163 108 163 163 108 163 163 108 163 163 108 163 163 108 163 163 108 163 163 108 163 163 108 163 163 108 163 163 108 163 163 108 163 163 108 163 163 108 163 163 108 163 163 108 163 163 108 163 163 108 163 163 108 163 163 108 163 163 108 163 163 108 163 163 108 163 163 108 163 163 108 163 163 108 163 163 108 163 163 108 163 163 108 163 163 108 163 163 108 163 163 108 163 163 108 163 163 108 163 163 108 163 163 108 163 163 108 163 163 108 163 163 108 163 163 108 0 0 255 0 0 255 0 0 255 179 185 134 179 185 134 179 185 134 179 185 134 179 185 134 179 185 134 179 185 134 179 185 134 179 185 134 179 185 134 179 185 134 179 185 134 179 185 134 179 185 134 179 185 134 179 185 134 179 185 134 179 185 134 179 185 134 179 185 134 179 185 134 179 185 134 179 185 134 179 185 134 179 185 134 179 185 134 179 185 134 179 185 134 179 185 134 179 185 134 179 185 134 179 185 134 179 185 134 0 0 255 0 0 255 180 188 139 180 188 139 180 188 139 180 188 139 180 188 139 180 188 139 180 188 139 180 188 139 180 188 139 180 188 139 180 188 139 180 188 139 180 188 139 180 188 139 180 188 139 180 188 139 180 188 139 180 188 139 180 188 139 180 188 139 180 188 139 180 188 139 180 188 139 180 188 139 180 188 139 180 188 139 180 188 139 180 188 139 180 188 139 180 188 139 180 188 139 180 188 139 180 188 139 180 188 139 180 188 139 180 188 139 180 188 139 180 188 139 180 188 139 180 188 139 180 188 139 180 188 139 180 188 139 180 188 139 180 188 139 180 188 139 180 188 139 180 188 139 180 188 139 180 188 139 180 188 139 180 188 139 180 188 139 180 188 139 180 188 139 180 188 139 180 188 139 180 188 139 0 0 255 0 0 255 185 192 151 185 192 151 185 192 151 185 192 151 185 192 151 185 192 151 185 192 151 185 192 151 185 192 151 185 192 151 185 192 151 185 192 151 185 192 151 185 192 151 185 192 151 185 192 151 185 192 151 185 192 151 185 192 151 185 192 151 185 192 151 185 192 151 185 192 151 185 192 151 185 192 151 185 192 151 185 192 151 185 192 151 185 192 151 185 192 151 185 192 151 185 192 151 185 192 151 185 192 151 185 192 151 185 192 151 185 192 151 185 192 151 185 192 151 185 192 151 185 192 151 185 192 151 185 192 151 185 192 151 185 192 151 0 0 255 0 0 255 177 179 134 177 179 134 177 179 134 177 179 134 177 179 134 177 179 134 177 179 134 177 179 134 177 179 134 177 179 134 177 179 134 177 179 134 177 179 134 177 179 134 177 179 134 177 179 134 177 179 134 177 179 134 177 179 134 177 179 134 177 179 134 177 179 134 177 179 134 177 179 134 177 179 134 177 179 134 177 179 134 177 179 134 177 179 134 177 179 134 177 179 134 177 179 134 177 179 134 177 179 134 177 179 134 177 179 134 177 179 134 177 179 134 177 179 134 177 179 134 177 179 134 177 179 134 177 179 134 177 179 134 177 179 134 177 179 134 177 179 134 177 179 134 177 179 134 177 179 134 177 179 134 177 179 134 177 179 134 177 179 134 177 179 134 177 179 134 177 179 134 177 179 134 163 163 108 163 163 108 163 163 108 163 163 108 163 163 108 163 163 108 163 163 108 163 163 108 163 163 108 163 163 108 163 163 108 163 163 108 163 163 108 163 163 108 163 163 108 163 163 108 163 163 108 163 163 108 163 163 108 163 163 108 163 163 108 163 163 108 163 163 108 163 163 108 163 163 108 163 163 108 163 163 108 163 163 108 163 163 108 163 163 108 163 163 108 163 163 108 163 163 108 163 163 108 163 163 108 163 163 108 163 163 108 163 163 108 163 163 108 163 163 108 163 163 108 163 163 108 163 163 108 163 163 108 163 163 108 163 163 108 163 163 108 163 163 108 163 163 108 163 163 108 163 163 108 163 163 108 163 163 108 0 0 255 0 0 255 179 185 134 179 185 134 179 185 134 179 185 134 179 185 134 179 185 134 179 185 134 179 185 134 179 185 134 179 185 134 179 185 134 179 185 134 179 185 134 179 185 134 179 185 134 179 185 134 179 185 134 179 185 134 179 185 134 179 185 134 179 185 134 179 185 134 179 185 134 179 185 134 179 185 134 179 185 134 179 185 134 179 185 134 179 185 134 179 185 134 179 185 134 179 185 134 179 185 134 179 185 134 0 0 255 0 0 255 180 188 139 180 188 139 180 188 139 180 188 139 180 188 139 180 188 139 180 188 139 180 188 139 180 188 139 180 188 139 180 188 139 180 188 139 180 188 139 180 188 139 180 188 139 180 188 139 180 188 139 180 188 139 180 188 139 180 188 139 180 188 139 180 188 139 180 188 139 180 188 139 180 188 139 180 188 139 180 188 139 180 188 139 180 188 139 180 188 139 180 188 139 180 188 139 180 188 139 180 188 139 180 188 139 180 188 139 180 188 139 180 188 139 180 188 139 180 188 139 180 188 139 180 188 139 180 188 139 180 188 139 180 188 139 180 188 139 180 188 139 180 188 139 180 188 139 180 188 139 180 188 139 180 188 139 180 188 139 180 188 139 180 188 139 180 188 139 180 188 139 180 188 139 0 0 255 0 0 255 185 192 151 185 192 151 185 192 151 185 192 151 185 192 151 185 192 151 185 192 151 185 192 151 185 192 151 185 192 151 185 192 151 185 192 151 185 192 151 185 192 151 185 192 151 185 192 151 185 192 151 185 192 151 185 192 151 185 192 151 185 192 151 185 192 151 185 192 151 185 192 151 185 192 151 185 192 151 185 192 151 185 192 151 185 192 151 185 192 151 185 192 151 185 192 151 185 192 151 185 192 151 185 192 151 185 192 151 185 192 151 185 192 151 185 192 151 185 192 151 185 192 151 185 192 151 185 192 151 185 192 151 185 192 151 0 0 255 0 0 255 177 179 134 177 179 134 177 179 134 177 179 134 177 179 134 177 179 134 177 179 134 177 179 134 177 179 134 177 179 134 177 179 134 177 179 134 177 179 134 177 179 134 177 179 134 177 179 134 177 179 134 177 179 134 177 179 134 177 179 134 177 179 134 177 179 134 177 179 134 177 179 134 177 179 134 177 179 134 177 179 134 177 179 134 177 179 134 177 179 134 177 179 134 177 179 134 177 179 134 177 179 134 177 179 134 177 179 134 177 179 134 177 179 134 177 179 134 177 179 134 177 179 134 177 179 134 177 179 134 177 179 134 177 179 134 177 179 134 177 179 134 177 179 134 177 179 134 177 179 134 177 179 134 177 179 134 177 179 134 177 179 134 177 179 134 177 179 134 177 179 134 177 179 134 163 163 108 163 163 108 163 163 108 163 163 108 163 163 108 163 163 108 163 163 108 163 163 108 163 163 108 163 163 108 163 163 108 163 163 108 163 163 108 163 163 108 163 163 108 163 163 108 163 163 108 163 163 108 163 163 108 163 163 108 163 163 108 163 163 108 163 163 108 163 163 108 163 163 108 163 163 108 163 163 108 163 163 108 163 163 108 163 163 108 163 163 108 163 163 108 163 163 108 163 163 108 163 163 108 163 163 108 163 163 108 163 163 108 163 163 108 163 163 108 163 163 108 163 163 108 163 163 108 163 163 108 163 163 108 163 163 108 163 163 108 163 163 108 163 163 108 163 163 108 163 163 108 163 163 108 0 0 255 0 0 255 179 185 134 179 185 134 179 185 134 179 185 134 179 185 134 179 185 134 179 185 134 179 185 134 179 185 134 179 185 134 179 185 134 179 185 134 179 185 134 179 185 134 179 185 134 179 185 134 179 185 134 179 185 134 179 185 134 179 185 134 179 185 134 179 185 134 179 185 134 179 185 134 179 185 134 179 185 134 179 185 134 179 185 134 179 185 134 179 185 134 179 185 134 179 185 134 179 185 134 179 185 134 179 185 134 0 0 255 0 0 255 180 188 139 180 188 139 180 188 139 180 188 139 180 188 139 180 188 139 180 188 139 180 188 139 180 188 139 180 188 139 180 188 139 180 188 139 180 188 139 180 188 139 180 188 139 180 188 139 180 188 139 180 188 139 180 188 139 180 188 139 180 188 139 180 188 139 180 188 139 180 188 139 180 188 139 180 188 139 180 188 139 180 188 139 180 188 139 180 188 139 180 188 139 180 188 139 180 188 139 180 188 139 180 188 139 180 188 139 180 188 139 180 188 139 180 188 139 180 188 139 180 188 139 180 188 139 180 188 139 180 188 139 180 188 139 180 188 139 180 188 139 180 188 139 180 188 139 180 188 139 180 188 139 180 188 139 180 188 139 180 188 139 180 188 139 180 188 139 180 188 139 0 0 255 0 0 255 185 192 151 185 192 151 185 192 151 185 192 151 185 192 151 185 192 151 185 192 151 185 192 151 185 192 151 185 192 151 185 192 151 185 192 151 185 192 151 185 192 151 185 192 151 185 192 151 185 192 151 185 192 151 185 192 151 185 192 151 185 192 151 185 192 151 185 192 151 185 192 151 185 192 151 185 192 151 185 192 151 185 192 151 185 192 151 185 192 151 185 192 151 185 192 151 185 192 151 185 192 151 185 192 151 185 192 151 185 192 151 185 192 151 185 192 151 185 192 151 185 192 151 185 192 151 185 192 151 185 192 151 185 192 151 0 0 255 0 0 255 177 179 134 177 179 134 177 179 134 177 179 134 177 179 134 177 179 134 177 179 134 177 179 134 177 179 134 177 179 134 177 179 134 177 179 134 177 179 134 177 179 134 177 179 134 177 179 134 177 179 134 177 179 134 177 179 134 177 179 134 177 179 134 177 179 134 177 179 134 177 179 134 177 179 134 177 179 134 177 179 134 177 179 134 177 179 134 177 179 134 177 179 134 177 179 134 177 179 134 177 179 134 177 179 134 177 179 134 177 179 134 177 179 134 177 179 134 177 179 134 177 179 134 177 179 134 177 179 134 177 179 134 177 179 134 177 179 134 177 179 134 177 179 134 177 179 134 177 179 134 177 179 134 177 179 134 177 179 134 177 179 134 177 179 134 177 179 134 177 179 134 177 179 134 177 179 134 163 163 108 163 163 108 163 163 108 163 163 108 163 163 108 163 163 108 163 163 108 163 163 108 163 163 108 163 163 108 163 163 108 163 163 108 163 163 108 163 163 108 163 163 108 163 163 108 163 163 108 163 163 108 163 163 108 163 163 108 163 163 108 163 163 108 163 163 108 163 163 108 163 163 108 163 163 108 163 163 108 163 163 108 163 163 108 163 163 108 163 163 108 163 163 108 163 163 108 163 163 108 163 163 108 163 163 108 163 163 108 163 163 108 163 163 108 163 163 108 163 163 108 163 163 108 163 163 108 163 163 108 163 163 108 163 163 108 163 163 108 163 163 108 163 163 108 163 163 108 163 163 108 163 163 108 0 0 255 0 0 255 179 185 134 179 185 134 179 185 134 179 185 134 179 185 134 179 185 134 179 185 134 179 185 134 179 185 134 179 185 134 179 185 134 179 185 134 179 185 134 179 185 134 179 185 134 179 185 134 179 185 134 179 185 134 179 185 134 179 185 134 179 185 134 179 185 134 179 185 134 179 185 134 179 185 134 179 185 134 179 185 134 179 185 134 179 185 134 179 185 134 179 185 134 179 185 134 179 185 134 179 185 134 179 185 134 0 0 255 0 0 255 180 188 139 180 188 139 180 188 139 180 188 139 180 188 139 180 188 139 180 188 139 180 188 139 180 188 139 180 188 139 180 188 139 180 188 139 180 188 139 180 188 139 180 188 139 180 188 139 180 188 139 180 188 139 180 188 139 180 188 139 180 188 139 180 188 139 180 188 139 180 188 139 180 188 139 180 188 139 180 188 139 180 188 139 180 188 139 180 188 139 180 188 139 180 188 139 180 188 139 180 188 139 180 188 139 180 188 139 180 188 139 180 188 139 180 188 139 180 188 139 180 188 139 180 188 139 180 188 139 180 188 139 180 188 139 180 188 139 180 188 139 180 188 139 180 188 139 180 188 139 180 188 139 180 188 139 180 188 139 180 188 139 180 188 139 180 188 139 180 188 139 0 0 255 0 0 255 185 192 151 185 192 151 185 192 151 185 192 151 185 192 151 185 192 151 185 192 151 185 192 151 185 192 151 185 192 151 185 192 151 185 192 151 185 192 151 185 192 151 185 192 151 185 192 151 185 192 151 185 192 151 185 192 151 185 192 151 185 192 151 185 192 151 185 192 151 185 192 151 185 192 151 185 192 151 185 192 151 185 192 151 185 192 151 185 192 151 185 192 151 185 192 151 185 192 151 185 192 151 185 192 151 185 192 151 185 192 151 185 192 151 185 192 151 185 192 151 185 192 151 185 192 151 185 192 151 185 192 151 185 192 151 185 192 151 0 0 255 0 0 255 177 179 134 177 179 134 177 179 134 177 179 134 177 179 134 177 179 134 177 179 134 177 179 134 177 179 134 177 179 134 177 179 134 177 179 134 177 179 134 177 179 134 177 179 134 177 179 134 177 179 134 177 179 134 177 179 134 177 179 134 177 179 134 177 179 134 177 179 134 177 179 134 177 179 134 177 179 134 177 179 134 177 179 134 177 179 134 177 179 134 177 179 134 177 179 134 177 179 134 177 179 134 177 179 134 177 179 134 177 179 134 177 179 134 177 179 134 177 179 134 177 179 134 177 179 134 177 179 134 177 179 134 177 179 134 177 179 134 177 179 134 177 179 134 177 179 134 177 179 134 177 179 134 177 179 134 177 179 134 177 179 134 177 179 134 177 179 134 177 179 134 177 179 134 163 163 108 163 163 108 163 163 108 163 163 108 163 163 108 163 163 108 163 163 108 163 163 108 163 163 108 163 163 108 163 163 108 163 163 108 163 163 108 163 163 108 163 163 108 163 163 108 163 163 108 163 163 108 163 163 108 163 163 108 163 163 108 163 163 108 163 163 108 163 163 108 163 163 108 163 163 108 163 163 108 163 163 108 163 163 108 163 163 108 163 163 108 163 163 108 163 163 108 163 163 108 163 163 108 163 163 108 163 163 108 163 163 108 163 163 108 163 163 108 163 163 108 163 163 108 163 163 108 163 163 108 163 163 108 163 163 108 163 163 108 163 163 108 163 163 108 163 163 108 163 163 108 163 163 108 0 0 255 0 0 255 179 185 134 179 185 134 179 185 134 179 185 134 179 185 134 179 185 134 179 185 134 179 185 134 179 185 134 179 185 134 179 185 134 179 185 134 179 185 134 179 185 134 179 185 134 179 185 134 179 185 134 179 185 134 179 185 134 179 185 134 179 185 134 179 185 134 179 185 134 179 185 134 179 185 134 179 185 134 179 185 134 179 185 134 179 185 134 179 185 134 179 185 134 179 185 134 179 185 134 179 185 134 179 185 134 179 185 134 0 0 255 0 0 255 180 188 139 180 188 139 180 188 139 180 188 139 180 188 139 180 188 139 180 188 139 180 188 139 180 188 139 180 188 139 180 188 139 180 188 139 180 188 139 180 188 139 180 188 139 180 188 139 180 188 139 180 188 139 180 188 139 180 188 139 180 188 139 180 188 139 180 188 139 180 188 139 180 188 139 180 188 139 180 188 139 180 188 139 180 188 139 180 188 139 180 188 139 180 188 139 180 188 139 180 188 139 180 188 139 180 188 139 180 188 139 180 188 139 180 188 139 180 188 139 180 188 139 180 188 139 180 188 139 180 188 139 180 188 139 180 188 139 180 188 139 180 188 139 180 188 139 180 188 139 180 188 139 180 188 139 180 188 139 180 188 139 180 188 139 180 188 139 0 0 255 0 0 255 185 192 151 185 192 151 185 192 151 185 192 151 185 192 151 185 192 151 185 192 151 185 192 151 185 192 151 185 192 151 185 192 151 185 192 151 185 192 151 185 192 151 185 192 151 185 192 151 185 192 151 185 192 151 185 192 151 185 192 151 185 192 151 185 192 151 185 192 151 185 192 151 185 192 151 185 192 151 185 192 151 185 192 151 185 192 151 185 192 151 185 192 151 185 192 151 185 192 151 185 192 151 185 192 151 185 192 151 185 192 151 185 192 151 185 192 151 185 192 151 185 192 151 185 192 151 185 192 151 185 192 151 185 192 151 185 192 151 0 0 255 0 0 255 177 179 134 177 179 134 177 179 134 177 179 134 177 179 134 177 179 134 177 179 134 177 179 134 177 179 134 177 179 134 177 179 134 177 179 134 177 179 134 177 179 134 177 179 134 177 179 134 177 179 134 177 179 134 177 179 134 177 179 134 177 179 134 177 179 134 177 179 134 177 179 134 177 179 134 177 179 134 177 179 134 177 179 134 177 179 134 177 179 134 177 179 134 177 179 134 177 179 134 177 179 134 177 179 134 177 179 134 177 179 134 177 179 134 177 179 134 177 179 134 177 179 134 177 179 134 177 179 134 177 179 134 177 179 134 177 179 134 177 179 134 177 179 134 177 179 134 177 179 134 177 179 134 177 179 134 177 179 134 177 179 134 177 179 134 177 179 134 177 179 134 177 179 134 163 163 108 163 163 108 163 163 108 163 163 108 163 163 108 163 163 108 163 163 108 163 163 108 163 163 108 163 163 108 163 163 108 163 163 108 163 163 108 163 163 108 163 163 108 163 163 108 163 163 108 163 163 108 163 163 108 163 163 108 163 163 108 163 163 108 163 163 108 163 163 108 163 163 108 163 163 108 163 163 108 163 163 108 163 163 108 163 163 108 163 163 108 163 163 108 163 163 108 163 163 108 163 163 108 163 163 108 163 163 108 163 163 108 163 163 108 163 163 108 163 163 108 163 163 108 163 163 108 163 163 108 163 163 108 163 163 108 163 163 108 163 163 108 163 163 108 163 163 108 163 163 108 0 0 255 0 0 255 179 185 134 179 185 134 179 185 134 179 185 134 179 185 134 179 185 134 179 185 134 179 185 134 179 185 134 179 185 134 179 185 134 179 185 134 179 185 134 179 185 134 179 185 134 179 185 134 179 185 134 179 185 134 179 185 134 179 185 134 179 185 134 179 185 134 179 185 134 179 185 134 179 185 134 179 185 134 179 185 134 179 185 134 179 185 134 179 185 134 179 185 134 179 185 134 179 185 134 179 185 134 179 185 134 179 185 134 179 185 134 0 0 255 0 0 255 180 188 139 180 188 139 180 188 139 180 188 139 180 188 139 180 188 139 180 188 139 180 188 139 180 188 139 180 188 139 180 188 139 180 188 139 180 188 139 180 188 139 180 188 139 180 188 139 180 188 139 180 188 139 180 188 139 180 188 139 180 188 139 180 188 139 180 188 139 180 188 139 180 188 139 180 188 139 180 188 139 180 188 139 180 188 139 180 188 139 180 188 139 180 188 139 180 188 139 180 188 139 180 188 139 180 188 139 180 188 139 180 188 139 180 188 139 180 188 139 180 188 139 180 188 139 180 188 139 180 188 139 180 188 139 180 188 139 180 188 139 180 188 139 180 188 139 180 188 139 180 188 139 180 188 139 180 188 139 180 188 139 180 188 139 180 188 139 180 188 139 0 0 255 0 0 255 185 192 151 185 192 151 185 192 151 185 192 151 185 192 151 185 192 151 185 192 151 185 192 151 185 192 151 185 192 151 185 192 151 185 192 151 185 192 151 185 192 151 185 192 151 185 192 151 185 192 151 185 192 151 185 192 151 185 192 151 185 192 151 185 192 151 185 192 151 185 192 151 185 192 151 185 192 151 185 192 151 185 192 151 185 192 151 185 192 151 185 192 151 185 192 151 185 192 151 185 192 151 185 192 151 185 192 151 185 192 151 185 192 151 185 192 151 185 192 151 185 192 151 185 192 151 185 192 151 185 192 151 185 192 151 0 0 255 0 0 255 177 179 134 177 179 134 177 179 134 177 179 134 177 179 134 177 179 134 177 179 134 177 179 134 177 179 134 177 179 134 177 179 134 177 179 134 177 179 134 177 179 134 177 179 134 177 179 134 177 179 134 177 179 134 177 179 134 177 179 134 177 179 134 177 179 134 177 179 134 177 179 134 177 179 134 177 179 134 177 179 134 177 179 134 177 179 134 177 179 134 177 179 134 177 179 134 177 179 134 177 179 134 177 179 134 177 179 134 177 179 134 177 179 134 177 179 134 177 179 134 177 179 134 177 179 134 177 179 134 177 179 134 177 179 134 177 179 134 177 179 134 177 179 134 177 179 134 177 179 134 177 179 134 177 179 134 177 179 134 177 179 134 177 179 134 177 179 134 177 179 134 177 179 134 163 163 108 163 163 108 163 163 108 163 163 108 163 163 108 163 163 108 163 163 108 163 163 108 163 163 108 163 163 108 163 163 108 163 163 108 163 163 108 163 163 108 163 163 108 163 163 108 163 163 108 163 163 108 163 163 108 163 163 108 163 163 108 163 163 108 163 163 108 163 163 108 163 163 108 163 163 108 163 163 108 163 163 108 163 163 108 163 163 108 163 163 108 163 163 108 163 163 108 163 163 108 163 163 108 163 163 108 163 163 108 163 163 108 163 163 108 163 163 108 163 163 108 163 163 108 163 163 108 163 163 108 163 163 108 163 163 108 163 163 108 163 163 108 163 163 108 0 0 255 0 0 255 0 0 255 179 185 134 179 185 134 179 185 134 179 185 134 179 185 134 179 185 134 179 185 134 179 185 134 179 185 134 179 185 134 179 185 134 179 185 134 179 185 134 179 185 134 179 185 134 179 185 134 179 185 134 179 185 134 179 185 134 179 185 134 179 185 134 179 185 134 179 185 134 179 185 134 179 185 134 179 185 134 179 185 134 179 185 134 179 185 134 179 185 134 179 185 134 179 185 134 179 185 134 179 185 134 179 185 134 179 185 134 179 185 134 179 185 134 0 0 255 0 0 255 180 188 139 180 188 139 180 188 139 180 188 139 180 188 139 180 188 139 180 188 139 180 188 139 180 188 139 180 188 139 180 188 139 180 188 139 180 188 139 180 188 139 180 188 139 180 188 139 180 188 139 180 188 139 180 188 139 180 188 139 180 188 139 180 188 139 180 188 139 180 188 139 180 188 139 180 188 139 180 188 139 180 188 139 180 188 139 180 188 139 180 188 139 180 188 139 180 188 139 180 188 139 180 188 139 180 188 139 180 188 139 180 188 139 180 188 139 180 188 139 180 188 139 180 188 139 180 188 139 180 188 139 180 188 139 180 188 139 180 188 139 180 188 139 180 188 139 180 188 139 180 188 139 180 188 139 180 188 139 180 188 139 180 188 139 180 188 139 180 188 139 0 0 255 0 0 255 0 0 255 185 192 151 185 192 151 185 192 151 185 192 151 185 192 151 185 192 151 185 192 151 185 192 151 185 192 151 185 192 151 185 192 151 185 192 151 185 192 151 185 192 151 185 192 151 185 192 151 185 192 151 185 192 151 185 192 151 185 192 151 185 192 151 185 192 151 185 192 151 185 192 151 185 192 151 185 192 151 185 192 151 185 192 151 185 192 151 185 192 151 185 192 151 185 192 151 185 192 151 185 192 151 185 192 151 185 192 151 185 192 151 185 192 151 185 192 151 185 192 151 185 192 151 185 192 151 185 192 151 185 192 151 0 0 255 0 0 255 0 0 255 177 179 134 177 179 134 177 179 134 177 179 134 177 179 134 177 179 134 177 179 134 177 179 134 177 179 134 177 179 134 177 179 134 177 179 134 177 179 134 177 179 134 177 179 134 177 179 134 177 179 134 177 179 134 177 179 134 177 179 134 177 179 134 177 179 134 177 179 134 177 179 134 177 179 134 177 179 134 177 179 134 177 179 134 177 179 134 177 179 134 177 179 134 177 179 134 177 179 134 177 179 134 177 179 134 177 179 134 177 179 134 177 179 134 177 179 134 177 179 134 177 179 134 177 179 134 177 179 134 177 179 134 177 179 134 177 179 134 177 179 134 177 179 134 177 179 134 177 179 134 177 179 134 177 179 134 177 179 134 177 179 134 177 179 134 177 179 134 177 179 134 163 163 108 163 163 108 163 163 108 163 163 108 163 163 108 163 163 108 163 163 108 163 163 108 163 163 108 163 163 108 163 163 108 163 163 108 163 163 108 163 163 108 163 163 108 163 163 108 163 163 108 163 163 108 163 163 108 163 163 108 163 163 108 163 163 108 163 163 108 163 163 108 163 163 108 163 163 108 163 163 108 163 163 108 163 163 108 163 163 108 163 163 108 163 163 108 163 163 108 163 163 108 163 163 108 163 163 108 163 163 108 163 163 108 163 163 108 163 163 108 163 163 108 163 163 108 163 163 108 163 163 108 163 163 108 163 163 108 163 163 108 163 163 108 0 0 255 0 0 255 0 0 255 179 185 134 179 185 134 179 185 134 179 185 134 179 185 134 179 185 134 179 185 134 179 185 134 179 185 134 179 185 134 179 185 134 179 185 134 179 185 134 179 185 134 179 185 134 179 185 134 179 185 134 179 185 134 179 185 134 179 185 134 179 185 134 179 185 134 179 185 134 179 185 134 179 185 134 179 185 134 179 185 134 179 185 134 179 185 134 179 185 134 179 185 134 179 185 134 179 185 134 179 185 134 179 185 134 179 185 134 179 185 134 179 185 134 179 185 134 0 0 255 0 0 255 180 188 139 180 188 139 180 188 139 180 188 139 180 188 139 180 188 139 180 188 139 180 188 139 180 188 139 180 188 139 180 188 139 180 188 139 180 188 139 180 188 139 180 188 139 180 188 139 180 188 139 180 188 139 180 188 139 180 188 139 180 188 139 180 188 139 180 188 139 180 188 139 180 188 139 180 188 139 180 188 139 180 188 139 180 188 139 180 188 139 180 188 139 180 188 139 180 188 139 180 188 139 180 188 139 180 188 139 180 188 139 180 188 139 180 188 139 180 188 139 180 188 139 180 188 139 180 188 139 180 188 139 180 188 139 180 188 139 180 188 139 180 188 139 180 188 139 180 188 139 180 188 139 180 188 139 180 188 139 180 188 139 180 188 139 180 188 139 180 188 139 180 188 139 0 0 255 0 0 255 0 0 255 0 0 255 0 0 255 185 192 151 185 192 151 185 192 151 185 192 151 185 192 151 185 192 151 185 192 151 185 192 151 185 192 151 185 192 151 185 192 151 185 192 151 185 192 151 185 192 151 185 192 151 185 192 151 185 192 151 185 192 151 185 192 151 185 192 151 185 192 151 185 192 151 185 192 151 185 192 151 185 192 151 185 192 151 185 192 151 185 192 151 185 192 151 185 192 151 185 192 151 185 192 151 185 192 151 185 192 151 185 192 151 185 192 151 185 192 151 185 192 151 185 192 151 185 192 151 185 192 151 185 192 151 0 0 255 0 0 255 0 0 255 177 179 134 177 179 134 177 179 134 177 179 134 177 179 134 177 179 134 177 179 134 177 179 134 177 179 134 177 179 134 177 179 134 177 179 134 177 179 134 177 179 134 177 179 134 177 179 134 177 179 134 177 179 134 177 179 134 177 179 134 177 179 134 177 179 134 177 179 134 177 179 134 177 179 134 177 179 134 177 179 134 177 179 134 177 179 134 177 179 134 177 179 134 177 179 134 177 179 134 177 179 134 177 179 134 177 179 134 177 179 134 177 179 134 177 179 134 177 179 134 177 179 134 177 179 134 177 179 134 177 179 134 177 179 134 177 179 134 177 179 134 177 179 134 177 179 134 177 179 134 177 179 134 177 179 134 177 179 134 177 179 134 177 179 134 177 179 134 163 163 108 163 163 108 163 163 108 163 163 108 163 163 108 163 163 108 163 163 108 163 163 108 163 163 108 163 163 108 163 163 108 163 163 108 163 163 108 163 163 108 163 163 108 163 163 108 163 163 108 163 163 108 163 163 108 163 163 108 163 163 108 163 163 108 163 163 108 163 163 108 163 163 108 163 163 108 163 163 108 163 163 108 163 163 108 163 163 108 163 163 108 163 163 108 163 163 108 163 163 108 163 163 108 163 163 108 163 163 108 163 163 108 163 163 108 163 163 108 163 163 108 163 163 108 163 163 108 163 163 108 163 163 108 163 163 108 163 163 108 163 163 108 0 0 255 0 0 255 179 185 134 179 185 134 179 185 134 179 185 134 179 185 134 179 185 134 179 185 134 179 185 134 179 185 134 179 185 134 179 185 134 179 185 134 179 185 134 179 185 134 179 185 134 179 185 134 179 185 134 179 185 134 179 185 134 179 185 134 179 185 134 179 185 134 179 185 134 179 185 134 179 185 134 179 185 134 179 185 134 179 185 134 179 185 134 179 185 134 179 185 134 179 185 134 179 185 134 179 185 134 179 185 134 179 185 134 179 185 134 179 185 134 179 185 134 179 185 134 0 0 255 0 0 255 180 188 139 180 188 139 180 188 139 180 188 139 180 188 139 180 188 139 180 188 139 180 188 139 180 188 139 180 188 139 180 188 139 180 188 139 180 188 139 180 188 139 180 188 139 180 188 139 180 188 139 180 188 139 180 188 139 180 188 139 180 188 139 180 188 139 180 188 139 180 188 139 180 188 139 180 188 139 180 188 139 180 188 139 180 188 139 180 188 139 180 188 139 180 188 139 180 188 139 180 188 139 180 188 139 180 188 139 180 188 139 180 188 139 180 188 139 180 188 139 180 188 139 180 188 139 180 188 139 180 188 139 180 188 139 180 188 139 180 188 139 180 188 139 180 188 139 180 188 139 180 188 139 180 188 139 180 188 139 180 188 139 180 188 139 180 188 139 180 188 139 180 188 139 180 188 139 180 188 139 0 0 255 0 0 255 0 0 255 0 0 255 185 192 151 185 192 151 185 192 151 185 192 151 185 192 151 185 192 151 185 192 151 185 192 151 185 192 151 185 192 151 185 192 151 185 192 151 185 192 151 185 192 151 185 192 151 185 192 151 185 192 151 185 192 151 185 192 151 185 192 151 185 192 151 185 192 151 185 192 151 185 192 151 185 192 151 185 192 151 185 192 151 185 192 151 185 192 151 185 192 151 185 192 151 185 192 151 185 192 151 185 192 151 185 192 151 185 192 151 0 0 255 0 0 255 0 0 255 0 0 255 0 0 255 0 0 255 0 0 255 177 179 134 177 179 134 177 179 134 177 179 134 177 179 134 177 179 134 177 179 134 177 179 134 177 179 134 177 179 134 177 179 134 177 179 134 177 179 134 177 179 134 177 179 134 177 179 134 177 179 134 177 179 134 177 179 134 177 179 134 177 179 134 177 179 134 177 179 134 177 179 134 177 179 134 177 179 134 177 179 134 177 179 134 177 179 134 177 179 134 177 179 134 177 179 134 177 179 134 177 179 134 177 179 134 177 179 134 177 179 134 177 179 134 177 179 134 177 179 134 177 179 134 177 179 134 177 179 134 177 179 134 177 179 134 177 179 134 177 179 134 177 179 134 177 179 134 177 179 134 177 179 134 177 179 134 177 179 134 177 179 134 177 179 134 177 179 134 177 179 134 163 163 108 163 163 108 163 163 108 163 163 108 163 163 108 163 163 108 163 163 108 163 163 108 163 163 108 163 163 108 163 163 108 163 163 108 163 163 108 163 163 108 163 163 108 163 163 108 163 163 108 163 163 108 163 163 108 163 163 108 163 163 108 163 163 108 163 163 108 163 163 108 163 163 108 163 163 108 163 163 108 163 163 108 163 163 108 163 163 108 163 163 108 163 163 108 163 163 108 163 163 108 163 163 108 163 163 108 163 163 108 163 163 108 163 163 108 163 163 108 163 163 108 163 163 108 163 163 108 163 163 108 163 163 108 163 163 108 163 163 108 0 0 255 0 0 255 179 185 134 179 185 134 179 185 134 179 185 134 179 185 134 179 185 134 179 185 134 179 185 134 179 185 134 179 185 134 179 185 134 179 185 134 179 185 134 179 185 134 179 185 134 179 185 134 179 185 134 179 185 134 179 185 134 179 185 134 179 185 134 179 185 134 179 185 134 179 185 134 179 185 134 179 185 134 179 185 134 179 185 134 179 185 134 179 185 134 179 185 134 179 185 134 179 185 134 179 185 134 179 185 134 179 185 134 179 185 134 179 185 134 179 185 134 179 185 134 179 185 134 0 0 255 0 0 255 180 188 139 180 188 139 180 188 139 180 188 139 180 188 139 180 188 139 180 188 139 180 188 139 180 188 139 180 188 139 180 188 139 180 188 139 180 188 139 180 188 139 180 188 139 180 188 139 180 188 139 180 188 139 180 188 139 180 188 139 180 188 139 180 188 139 180 188 139 180 188 139 180 188 139 180 188 139 180 188 139 180 188 139 180 188 139 180 188 139 180 188 139 180 188 139 180 188 139 180 188 139 180 188 139 180 188 139 180 188 139 180 188 139 180 188 139 180 188 139 180 188 139 180 188 139 180 188 139 180 188 139 180 188 139 180 188 139 180 188 139 180 188 139 180 188 139 180 188 139 180 188 139 180 188 139 180 188 139 180 188 139 180 188 139 180 188 139 180 188 139 180 188 139 180 188 139 180 188 139 180 188 139 0 0 255 0 0 255 0 0 255 0 0 255 185 192 151 185 192 151 185 192 151 185 192 151 185 192 151 185 192 151 185 192 151 185 192 151 185 192 151 185 192 151 185 192 151 185 192 151 185 192 151 185 192 151 185 192 151 185 192 151 185 192 151 185 192 151 185 192 151 185 192 151 185 192 151 185 192 151 185 192 151 185 192 151 185 192 151 185 192 151 185 192 151 185 192 151 185 192 151 185 192 151 185 192 151 0 0 255 0 0 255 0 0 255 0 0 255 0 0 255 0 0 255 0 0 255 0 0 255 0 0 255 177 179 134 177 179 134 177 179 134 177 179 134 177 179 134 177 179 134 177 179 134 177 179 134 177 179 134 177 179 134 177 179 134 177 179 134 177 179 134 177 179 134 177 179 134 177 179 134 177 179 134 177 179 134 177 179 134 177 179 134 177 179 134 177 179 134 177 179 134 177 179 134 177 179 134 177 179 134 177 179 134 177 179 134 177 179 134 177 179 134 177 179 134 177 179 134 177 179 134 177 179 134 177 179 134 177 179 134 177 179 134 177 179 134 177 179 134 177 179 134 177 179 134 177 179 134 177 179 134 177 179 134 177 179 134 177 179 134 177 179 134 177 179 134 177 179 134 177 179 134 177 179 134 177 179 134 177 179 134 177 179 134 177 179 134 177 179 134 177 179 134 177 179 134 177 179 134 163 163 108 163 163 108 163 163 108 163 163 108 163 163 108 163 163 108 163 163 108 163 163 108 163 163 108 163 163 108 163 163 108 163 163 108 163 163 108 163 163 108 163 163 108 163 163 108 163 163 108 163 163 108 163 163 108 163 163 108 163 163 108 163 163 108 163 163 108 163 163 108 163 163 108 163 163 108 163 163 108 163 163 108 163 163 108 163 163 108 163 163 108 163 163 108 163 163 108 163 163 108 163 163 108 163 163 108 163 163 108 163 163 108 163 163 108 163 163 108 163 163 108 163 163 108 163 163 108 163 163 108 163 163 108 163 163 108 163 163 108 0 0 255 0 0 255 179 185 134 179 185 134 179 185 134 179 185 134 179 185 134 179 185 134 179 185 134 179 185 134 179 185 134 179 185 134 179 185 134 179 185 134 179 185 134 179 185 134 179 185 134 179 185 134 179 185 134 179 185 134 179 185 134 179 185 134 179 185 134 179 185 134 179 185 134 179 185 134 179 185 134 179 185 134 179 185 134 179 185 134 179 185 134 179 185 134 179 185 134 179 185 134 179 185 134 179 185 134 179 185 134 179 185 134 179 185 134 179 185 134 179 185 134 179 185 134 179 185 134 0 0 255 0 0 255 180 188 139 180 188 139 180 188 139 180 188 139 180 188 139 180 188 139 180 188 139 180 188 139 180 188 139 180 188 139 180 188 139 180 188 139 180 188 139 180 188 139 180 188 139 180 188 139 180 188 139 180 188 139 180 188 139 180 188 139 180 188 139 180 188 139 180 188 139 180 188 139 180 188 139 180 188 139 180 188 139 180 188 139 180 188 139 180 188 139 180 188 139 180 188 139 180 188 139 180 188 139 180 188 139 180 188 139 180 188 139 180 188 139 180 188 139 180 188 139 180 188 139 180 188 139 180 188 139 180 188 139 180 188 139 180 188 139 180 188 139 180 188 139 180 188 139 180 188 139 180 188 139 180 188 139 180 188 139 180 188 139 180 188 139 180 188 139 180 188 139 0 0 255 0 0 255 0 0 255 0 0 255 0 0 255 0 0 255 0 0 255 185 192 151 185 192 151 185 192 151 185 192 151 185 192 151 185 192 151 185 192 151 185 192 151 185 192 151 185 192 151 185 192 151 185 192 151 185 192 151 185 192 151 185 192 151 185 192 151 185 192 151 185 192 151 185 192 151 185 192 151 185 192 151 185 192 151 185 192 151 185 192 151 185 192 151 185 192 151 185 192 151 185 192 151 185 192 151 185 192 151 185 192 151 0 0 255 0 0 255 0 0 255 0 0 255 0 0 255 177 179 134 177 179 134 177 179 134 177 179 134 177 179 134 177 179 134 177 179 134 177 179 134 177 179 134 177 179 134 177 179 134 177 179 134 177 179 134 177 179 134 177 179 134 177 179 134 177 179 134 177 179 134 177 179 134 177 179 134 177 179 134 177 179 134 177 179 134 177 179 134 177 179 134 177 179 134 177 179 134 177 179 134 177 179 134 177 179 134 177 179 134 177 179 134 177 179 134 177 179 134 177 179 134 177 179 134 177 179 134 177 179 134 177 179 134 177 179 134 177 179 134 177 179 134 177 179 134 177 179 134 177 179 134 177 179 134 177 179 134 177 179 134 177 179 134 177 179 134 177 179 134 177 179 134 177 179 134 177 179 134 177 179 134 177 179 134 177 179 134 177 179 134 177 179 134 177 179 134 177 179 134 177 179 134 177 179 134 177 179 134 163 163 108 163 163 108 163 163 108 163 163 108 163 163 108 163 163 108 163 163 108 163 163 108 163 163 108 163 163 108 163 163 108 163 163 108 163 163 108 163 163 108 163 163 108 163 163 108 163 163 108 163 163 108 163 163 108 163 163 108 163 163 108 163 163 108 163 163 108 163 163 108 163 163 108 163 163 108 163 163 108 163 163 108 163 163 108 163 163 108 163 163 108 163 163 108 163 163 108 163 163 108 163 163 108 163 163 108 163 163 108 163 163 108 163 163 108 163 163 108 163 163 108 163 163 108 163 163 108 163 163 108 163 163 108 163 163 108 163 163 108 0 0 255 0 0 255 179 185 134 179 185 134 179 185 134 179 185 134 179 185 134 179 185 134 179 185 134 179 185 134 179 185 134 179 185 134 179 185 134 179 185 134 179 185 134 179 185 134 179 185 134 179 185 134 179 185 134 179 185 134 179 185 134 179 185 134 179 185 134 179 185 134 179 185 134 179 185 134 179 185 134 179 185 134 179 185 134 179 185 134 179 185 134 179 185 134 179 185 134 179 185 134 179 185 134 179 185 134 179 185 134 179 185 134 179 185 134 179 185 134 179 185 134 179 185 134 179 185 134 0 0 255 0 0 255 180 188 139 180 188 139 180 188 139 180 188 139 180 188 139 180 188 139 180 188 139 180 188 139 180 188 139 180 188 139 180 188 139 180 188 139 180 188 139 180 188 139 180 188 139 180 188 139 180 188 139 180 188 139 180 188 139 180 188 139 180 188 139 180 188 139 180 188 139 180 188 139 180 188 139 180 188 139 180 188 139 180 188 139 180 188 139 180 188 139 180 188 139 180 188 139 180 188 139 180 188 139 180 188 139 180 188 139 180 188 139 180 188 139 180 188 139 180 188 139 180 188 139 180 188 139 180 188 139 180 188 139 180 188 139 180 188 139 180 188 139 180 188 139 180 188 139 180 188 139 180 188 139 180 188 139 180 188 139 180 188 139 180 188 139 180 188 139 0 0 255 0 0 255 0 0 255 0 0 255 0 0 255 185 192 151 185 192 151 185 192 151 185 192 151 185 192 151 185 192 151 185 192 151 185 192 151 185 192 151 185 192 151 185 192 151 185 192 151 185 192 151 185 192 151 185 192 151 185 192 151 185 192 151 185 192 151 185 192 151 185 192 151 185 192 151 185 192 151 185 192 151 185 192 151 185 192 151 185 192 151 185 192 151 185 192 151 185 192 151 185 192 151 185 192 151 185 192 151 185 192 151 185 192 151 185 192 151 0 0 255 0 0 255 0 0 255 0 0 255 0 0 255 0 0 255 0 0 255 177 179 134 177 179 134 177 179 134 177 179 134 177 179 134 177 179 134 177 179 134 177 179 134 177 179 134 177 179 134 177 179 134 177 179 134 177 179 134 177 179 134 177 179 134 177 179 134 177 179 134 177 179 134 177 179 134 177 179 134 177 179 134 177 179 134 177 179 134 177 179 134 177 179 134 177 179 134 177 179 134 177 179 134 177 179 134 177 179 134 177 179 134 177 179 134 177 179 134 177 179 134 177 179 134 177 179 134 177 179 134 177 179 134 177 179 134 177 179 134 177 179 134 177 179 134 177 179 134 177 179 134 177 179 134 177 179 134 177 179 134 177 179 134 177 179 134 177 179 134 177 179 134 177 179 134 177 179 134 177 179 134 177 179 134 177 179 134 177 179 134 177 179 134 177 179 134 177 179 134 177 179 134 163 163 108 163 163 108 163 163 108 163 163 108 163 163 108 163 163 108 163 163 108 163 163 108 163 163 108 163 163 108 163 163 108 163 163 108 163 163 108 163 163 108 163 163 108 163 163 108 163 163 108 163 163 108 163 163 108 163 163 108 163 163 108 163 163 108 163 163 108 163 163 108 163 163 108 163 163 108 163 163 108 163 163 108 163 163 108 163 163 108 163 163 108 163 163 108 163 163 108 163 163 108 163 163 108 163 163 108 163 163 108 163 163 108 163 163 108 163 163 108 163 163 108 163 163 108 163 163 108 163 163 108 163 163 108 163 163 108 163 163 108 0 0 255 0 0 255 179 185 134 179 185 134 179 185 134 179 185 134 179 185 134 179 185 134 179 185 134 179 185 134 179 185 134 179 185 134 179 185 134 179 185 134 179 185 134 179 185 134 179 185 134 179 185 134 179 185 134 179 185 134 179 185 134 179 185 134 179 185 134 179 185 134 179 185 134 179 185 134 179 185 134 179 185 134 179 185 134 179 185 134 179 185 134 179 185 134 179 185 134 179 185 134 179 185 134 179 185 134 179 185 134 179 185 134 179 185 134 179 185 134 179 185 134 179 185 134 179 185 134 0 0 255 0 0 255 180 188 139 180 188 139 180 188 139 180 188 139 180 188 139 180 188 139 180 188 139 180 188 139 180 188 139 180 188 139 180 188 139 180 188 139 180 188 139 180 188 139 180 188 139 180 188 139 180 188 139 180 188 139 180 188 139 180 188 139 180 188 139 180 188 139 180 188 139 180 188 139 180 188 139 180 188 139 180 188 139 180 188 139 180 188 139 180 188 139 180 188 139 180 188 139 180 188 139 180 188 139 180 188 139 180 188 139 180 188 139 180 188 139 180 188 139 180 188 139 180 188 139 180 188 139 180 188 139 180 188 139 180 188 139 180 188 139 180 188 139 180 188 139 180 188 139 180 188 139 180 188 139 180 188 139 180 188 139 0 0 255 0 0 255 0 0 255 0 0 255 185 192 151 185 192 151 185 192 151 185 192 151 185 192 151 185 192 151 185 192 151 185 192 151 185 192 151 185 192 151 185 192 151 185 192 151 185 192 151 185 192 151 185 192 151 185 192 151 185 192 151 185 192 151 185 192 151 185 192 151 185 192 151 185 192 151 185 192 151 185 192 151 185 192 151 185 192 151 185 192 151 185 192 151 185 192 151 185 192 151 185 192 151 185 192 151 185 192 151 185 192 151 185 192 151 185 192 151 185 192 151 185 192 151 185 192 151 185 192 151 185 192 151 0 0 255 0 0 255 0 0 255 0 0 255 0 0 255 0 0 255 0 0 255 0 0 255 0 0 255 177 179 134 177 179 134 177 179 134 177 179 134 177 179 134 177 179 134 177 179 134 177 179 134 177 179 134 177 179 134 177 179 134 177 179 134 177 179 134 177 179 134 177 179 134 177 179 134 177 179 134 177 179 134 177 179 134 177 179 134 177 179 134 177 179 134 177 179 134 177 179 134 177 179 134 177 179 134 177 179 134 177 179 134 177 179 134 177 179 134 177 179 134 177 179 134 177 179 134 177 179 134 177 179 134 177 179 134 177 179 134 177 179 134 177 179 134 177 179 134 177 179 134 177 179 134 177 179 134 177 179 134 177 179 134 177 179 134 177 179 134 177 179 134 177 179 134 177 179 134 177 179 134 177 179 134 177 179 134 177 179 134 177 179 134 177 179 134 177 179 134 163 163 108 163 163 108 163 163 108 163 163 108 163 163 108 163 163 108 163 163 108 163 163 108 163 163 108 163 163 108 163 163 108 163 163 108 163 163 108 163 163 108 163 163 108 163 163 108 163 163 108 163 163 108 163 163 108 163 163 108 163 163 108 163 163 108 163 163 108 163 163 108 163 163 108 163 163 108 163 163 108 163 163 108 163 163 108 163 163 108 163 163 108 163 163 108 163 163 108 163 163 108 163 163 108 163 163 108 163 163 108 163 163 108 163 163 108 163 163 108 163 163 108 163 163 108 163 163 108 163 163 108 163 163 108 163 163 108 0 0 255 0 0 255 0 0 255 179 185 134 179 185 134 179 185 134 179 185 134 179 185 134 179 185 134 179 185 134 179 185 134 179 185 134 179 185 134 179 185 134 179 185 134 179 185 134 179 185 134 179 185 134 179 185 134 179 185 134 179 185 134 179 185 134 179 185 134 179 185 134 179 185 134 179 185 134 179 185 134 179 185 134 179 185 134 179 185 134 179 185 134 179 185 134 179 185 134 179 185 134 179 185 134 179 185 134 179 185 134 179 185 134 179 185 134 179 185 134 179 185 134 179 185 134 179 185 134 179 185 134 0 0 255 0 0 255 180 188 139 180 188 139 180 188 139 180 188 139 180 188 139 180 188 139 180 188 139 180 188 139 180 188 139 180 188 139 180 188 139 180 188 139 180 188 139 180 188 139 180 188 139 180 188 139 180 188 139 180 188 139 180 188 139 180 188 139 180 188 139 180 188 139 180 188 139 180 188 139 180 188 139 180 188 139 180 188 139 180 188 139 180 188 139 180 188 139 180 188 139 180 188 139 180 188 139 180 188 139 180 188 139 180 188 139 180 188 139 180 188 139 180 188 139 180 188 139 180 188 139 180 188 139 180 188 139 180 188 139 180 188 139 180 188 139 180 188 139 180 188 139 180 188 139 180 188 139 180 188 139 180 188 139 0 0 255 0 0 255 0 0 255 0 0 255 185 192 151 185 192 151 185 192 151 185 192 151 185 192 151 185 192 151 185 192 151 185 192 151 185 192 151 185 192 151 185 192 151 185 192 151 185 192 151 185 192 151 185 192 151 185 192 151 185 192 151 185 192 151 185 192 151 185 192 151 185 192 151 185 192 151 185 192 151 185 192 151 185 192 151 185 192 151 185 192 151 185 192 151 185 192 151 185 192 151 185 192 151 185 192 151 185 192 151 185 192 151 185 192 151 185 192 151 185 192 151 185 192 151 185 192 151 185 192 151 185 192 151 185 192 151 185 192 151 185 192 151 185 192 151 185 192 151 185 192 151 0 0 255 0 0 255 0 0 255 0 0 255 0 0 255 0 0 255 177 179 134 177 179 134 177 179 134 177 179 134 177 179 134 177 179 134 177 179 134 177 179 134 177 179 134 177 179 134 177 179 134 177 179 134 177 179 134 177 179 134 177 179 134 177 179 134 177 179 134 177 179 134 177 179 134 177 179 134 177 179 134 177 179 134 177 179 134 177 179 134 177 179 134 177 179 134 177 179 134 177 179 134 177 179 134 177 179 134 177 179 134 177 179 134 177 179 134 177 179 134 177 179 134 177 179 134 177 179 134 177 179 134 177 179 134 177 179 134 177 179 134 177 179 134 177 179 134 177 179 134 177 179 134 177 179 134 177 179 134 177 179 134 177 179 134 177 179 134 177 179 134 177 179 134 177 179 134 177 179 134 177 179 134 163 163 108 163 163 108 163 163 108 163 163 108 163 163 108 163 163 108 163 163 108 163 163 108 163 163 108 163 163 108 163 163 108 163 163 108 163 163 108 163 163 108 163 163 108 163 163 108 163 163 108 163 163 108 163 163 108 163 163 108 163 163 108 163 163 108 163 163 108 163 163 108 163 163 108 163 163 108 163 163 108 163 163 108 163 163 108 163 163 108 163 163 108 163 163 108 163 163 108 163 163 108 163 163 108 163 163 108 163 163 108 163 163 108 163 163 108 163 163 108 163 163 108 163 163 108 163 163 108 163 163 108 163 163 108 0 0 255 0 0 255 0 0 255 179 185 134 179 185 134 179 185 134 179 185 134 179 185 134 179 185 134 179 185 134 179 185 134 179 185 134 179 185 134 179 185 134 179 185 134 179 185 134 179 185 134 179 185 134 179 185 134 179 185 134 179 185 134 179 185 134 179 185 134 179 185 134 179 185 134 179 185 134 179 185 134 179 185 134 179 185 134 179 185 134 179 185 134 179 185 134 179 185 134 179 185 134 179 185 134 179 185 134 179 185 134 179 185 134 179 185 134 179 185 134 179 185 134 179 185 134 179 185 134 179 185 134 179 185 134 0 0 255 0 0 255 180 188 139 180 188 139 180 188 139 180 188 139 180 188 139 180 188 139 180 188 139 180 188 139 180 188 139 180 188 139 180 188 139 180 188 139 180 188 139 180 188 139 180 188 139 180 188 139 180 188 139 180 188 139 180 188 139 180 188 139 180 188 139 180 188 139 180 188 139 180 188 139 180 188 139 180 188 139 180 188 139 180 188 139 180 188 139 180 188 139 180 188 139 180 188 139 180 188 139 180 188 139 180 188 139 180 188 139 180 188 139 180 188 139 180 188 139 180 188 139 180 188 139 180 188 139 180 188 139 180 188 139 180 188 139 180 188 139 180 188 139 180 188 139 180 188 139 180 188 139 180 188 139 180 188 139 0 0 255 0 0 255 185 192 151 185 192 151 185 192 151 185 192 151 185 192 151 185 192 151 185 192 151 185 192 151 185 192 151 185 192 151 185 192 151 185 192 151 185 192 151 185 192 151 185 192 151 185 192 151 185 192 151 185 192 151 185 192 151 185 192 151 185 192 151 185 192 151 185 192 151 185 192 151 185 192 151 185 192 151 185 192 151 185 192 151 185 192 151 185 192 151 185 192 151 185 192 151 185 192 151 185 192 151 185 192 151 185 192 151 185 192 151 185 192 151 185 192 151 185 192 151 185 192 151 185 192 151 185 192 151 185 192 151 185 192 151 185 192 151 185 192 151 185 192 151 185 192 151 185 192 151 185 192 151 185 192 151 185 192 151 0 0 255 0 0 255 0 0 255 0 0 255 177 179 134 177 179 134 177 179 134 177 179 134 177 179 134 177 179 134 177 179 134 177 179 134 177 179 134 177 179 134 177 179 134 177 179 134 177 179 134 177 179 134 177 179 134 177 179 134 177 179 134 177 179 134 177 179 134 177 179 134 177 179 134 177 179 134 177 179 134 177 179 134 177 179 134 177 179 134 177 179 134 177 179 134 177 179 134 177 179 134 177 179 134 177 179 134 177 179 134 177 179 134 177 179 134 177 179 134 177 179 134 177 179 134 177 179 134 177 179 134 177 179 134 177 179 134 177 179 134 177 179 134 177 179 134 177 179 134 177 179 134 177 179 134 177 179 134 177 179 134 177 179 134 177 179 134 177 179 134 163 163 108 163 163 108 163 163 108 163 163 108 163 163 108 163 163 108 163 163 108 163 163 108 163 163 108 163 163 108 163 163 108 163 163 108 163 163 108 163 163 108 163 163 108 163 163 108 163 163 108 163 163 108 163 163 108 163 163 108 163 163 108 163 163 108 163 163 108 163 163 108 163 163 108 163 163 108 163 163 108 163 163 108 163 163 108 163 163 108 163 163 108 163 163 108 163 163 108 163 163 108 163 163 108 163 163 108 163 163 108 163 163 108 163 163 108 163 163 108 163 163 108 163 163 108 163 163 108 163 163 108 0 0 255 0 0 255 179 185 134 179 185 134 179 185 134 179 185 134 179 185 134 179 185 134 179 185 134 179 185 134 179 185 134 179 185 134 179 185 134 179 185 134 179 185 134 179 185 134 179 185 134 179 185 134 179 185 134 179 185 134 179 185 134 179 185 134 179 185 134 179 185 134 179 185 134 179 185 134 179 185 134 179 185 134 179 185 134 179 185 134 179 185 134 179 185 134 179 185 134 179 185 134 179 185 134 179 185 134 179 185 134 179 185 134 179 185 134 179 185 134 179 185 134 179 185 134 179 185 134 179 185 134 179 185 134 179 185 134 0 0 255 0 0 255 180 188 139 180 188 139 180 188 139 180 188 139 180 188 139 180 188 139 180 188 139 180 188 139 180 188 139 180 188 139 180 188 139 180 188 139 180 188 139 180 188 139 180 188 139 180 188 139 180 188 139 180 188 139 180 188 139 180 188 139 180 188 139 180 188 139 180 188 139 180 188 139 180 188 139 180 188 139 180 188 139 180 188 139 180 188 139 180 188 139 180 188 139 180 188 139 180 188 139 180 188 139 180 188 139 180 188 139 180 188 139 180 188 139 180 188 139 180 188 139 180 188 139 180 188 139 180 188 139 180 188 139 180 188 139 180 188 139 180 188 139 180 188 139 180 188 139 180 188 139 180 188 139 180 188 139 0 0 255 0 0 255 185 192 151 185 192 151 185 192 151 185 192 151 185 192 151 185 192 151 185 192 151 185 192 151 185 192 151 185 192 151 185 192 151 185 192 151 185 192 151 185 192 151 185 192 151 185 192 151 185 192 151 185 192 151 185 192 151 185 192 151 185 192 151 185 192 151 185 192 151 185 192 151 185 192 151 185 192 151 185 192 151 185 192 151 185 192 151 185 192 151 185 192 151 185 192 151 185 192 151 185 192 151 185 192 151 185 192 151 185 192 151 185 192 151 185 192 151 185 192 151 185 192 151 185 192 151 185 192 151 185 192 151 185 192 151 185 192 151 185 192 151 185 192 151 185 192 151 185 192 151 185 192 151 185 192 151 185 192 151 185 192 151 185 192 151 0 0 255 0 0 255 0 0 255 0 0 255 177 179 134 177 179 134 177 179 134 177 179 134 177 179 134 177 179 134 177 179 134 177 179 134 177 179 134 177 179 134 177 179 134 177 179 134 177 179 134 177 179 134 177 179 134 177 179 134 177 179 134 177 179 134 177 179 134 177 179 134 177 179 134 177 179 134 177 179 134 177 179 134 177 179 134 177 179 134 177 179 134 177 179 134 177 179 134 177 179 134 177 179 134 177 179 134 177 179 134 177 179 134 177 179 134 177 179 134 177 179 134 177 179 134 177 179 134 177 179 134 177 179 134 177 179 134 177 179 134 177 179 134 177 179 134 177 179 134 177 179 134 177 179 134 177 179 134 177 179 134 177 179 134 163 163 108 163 163 108 163 163 108 163 163 108 163 163 108 163 163 108 163 163 108 163 163 108 163 163 108 163 163 108 163 163 108 163 163 108 163 163 108 163 163 108 163 163 108 163 163 108 163 163 108 163 163 108 163 163 108 163 163 108 163 163 108 163 163 108 163 163 108 163 163 108 163 163 108 163 163 108 163 163 108 163 163 108 163 163 108 163 163 108 163 163 108 163 163 108 163 163 108 163 163 108 163 163 108 163 163 108 163 163 108 163 163 108 163 163 108 163 163 108 163 163 108 163 163 108 163 163 108 163 163 108 0 0 255 0 0 255 179 185 134 179 185 134 179 185 134 179 185 134 179 185 134 179 185 134 179 185 134 179 185 134 179 185 134 179 185 134 179 185 134 179 185 134 179 185 134 179 185 134 179 185 134 179 185 134 179 185 134 179 185 134 179 185 134 179 185 134 179 185 134 179 185 134 179 185 134 179 185 134 179 185 134 179 185 134 179 185 134 179 185 134 179 185 134 179 185 134 179 185 134 179 185 134 179 185 134 179 185 134 179 185 134 179 185 134 179 185 134 179 185 134 179 185 134 179 185 134 179 185 134 179 185 134 179 185 134 179 185 134 0 0 255 0 0 255 180 188 139 180 188 139 180 188 139 180 188 139 180 188 139 180 188 139 180 188 139 180 188 139 180 188 139 180 188 139 180 188 139 180 188 139 180 188 139 180 188 139 180 188 139 180 188 139 180 188 139 180 188 139 180 188 139 180 188 139 180 188 139 180 188 139 180 188 139 180 188 139 180 188 139 180 188 139 180 188 139 180 188 139 180 188 139 180 188 139 180 188 139 180 188 139 180 188 139 180 188 139 180 188 139 180 188 139 180 188 139 180 188 139 180 188 139 180 188 139 180 188 139 180 188 139 180 188 139 180 188 139 180 188 139 180 188 139 180 188 139 180 188 139 180 188 139 180 188 139 180 188 139 0 0 255 0 0 255 185 192 151 185 192 151 185 192 151 185 192 151 185 192 151 185 192 151 185 192 151 185 192 151 185 192 151 185 192 151 185 192 151 185 192 151 185 192 151 185 192 151 185 192 151 185 192 151 185 192 151 185 192 151 185 192 151 185 192 151 185 192 151 185 192 151 185 192 151 185 192 151 185 192 151 185 192 151 185 192 151 185 192 151 185 192 151 185 192 151 185 192 151 185 192 151 185 192 151 185 192 151 185 192 151 185 192 151 185 192 151 185 192 151 185 192 151 185 192 151 185 192 151 185 192 151 185 192 151 185 192 151 185 192 151 185 192 151 185 192 151 185 192 151 185 192 151 185 192 151 185 192 151 185 192 151 185 192 151 185 192 151 185 192 151 185 192 151 185 192 151 185 192 151 0 0 255 0 0 255 0 0 255 177 179 134 177 179 134 177 179 134 177 179 134 177 179 134 177 179 134 177 179 134 177 179 134 177 179 134 177 179 134 177 179 134 177 179 134 177 179 134 177 179 134 177 179 134 177 179 134 177 179 134 177 179 134 177 179 134 177 179 134 177 179 134 177 179 134 177 179 134 177 179 134 177 179 134 177 179 134 177 179 134 177 179 134 177 179 134 177 179 134 177 179 134 177 179 134 177 179 134 177 179 134 177 179 134 177 179 134 177 179 134 177 179 134 177 179 134 177 179 134 177 179 134 177 179 134 177 179 134 177 179 134 177 179 134 177 179 134 177 179 134 177 179 134 177 179 134 177 179 134 163 163 108 163 163 108 163 163 108 163 163 108 163 163 108 163 163 108 163 163 108 163 163 108 163 163 108 163 163 108 163 163 108 163 163 108 163 163 108 163 163 108 163 163 108 163 163 108 163 163 108 163 163 108 163 163 108 163 163 108 163 163 108 163 163 108 163 163 108 163 163 108 163 163 108 163 163 108 163 163 108 163 163 108 163 163 108 163 163 108 163 163 108 163 163 108 163 163 108 163 163 108 163 163 108 163 163 108 163 163 108 163 163 108 163 163 108 163 163 108 163 163 108 163 163 108 163 163 108 163 163 108 0 0 255 0 0 255 179 185 134 179 185 134 179 185 134 179 185 134 179 185 134 179 185 134 179 185 134 179 185 134 179 185 134 179 185 134 179 185 134 179 185 134 179 185 134 179 185 134 179 185 134 179 185 134 179 185 134 179 185 134 179 185 134 179 185 134 179 185 134 179 185 134 179 185 134 179 185 134 179 185 134 179 185 134 179 185 134 179 185 134 179 185 134 179 185 134 179 185 134 179 185 134 179 185 134 179 185 134 179 185 134 179 185 134 179 185 134 179 185 134 179 185 134 179 185 134 179 185 134 179 185 134 179 185 134 179 185 134 0 0 255 0 0 255 180 188 139 180 188 139 180 188 139 180 188 139 180 188 139 180 188 139 180 188 139 180 188 139 180 188 139 180 188 139 180 188 139 180 188 139 180 188 139 180 188 139 180 188 139 180 188 139 180 188 139 180 188 139 180 188 139 180 188 139 180 188 139 180 188 139 180 188 139 180 188 139 180 188 139 180 188 139 180 188 139 180 188 139 180 188 139 180 188 139 180 188 139 180 188 139 180 188 139 180 188 139 180 188 139 180 188 139 180 188 139 180 188 139 180 188 139 180 188 139 180 188 139 180 188 139 180 188 139 180 188 139 180 188 139 180 188 139 180 188 139 180 188 139 180 188 139 180 188 139 180 188 139 0 0 255 0 0 255 185 192 151 185 192 151 185 192 151 185 192 151 185 192 151 185 192 151 185 192 151 185 192 151 185 192 151 185 192 151 185 192 151 185 192 151 185 192 151 185 192 151 185 192 151 185 192 151 185 192 151 185 192 151 185 192 151 185 192 151 185 192 151 185 192 151 185 192 151 185 192 151 185 192 151 185 192 151 185 192 151 185 192 151 185 192 151 185 192 151 185 192 151 185 192 151 185 192 151 185 192 151 185 192 151 185 192 151 185 192 151 185 192 151 185 192 151 185 192 151 185 192 151 185 192 151 185 192 151 185 192 151 185 192 151 185 192 151 185 192 151 185 192 151 185 192 151 185 192 151 185 192 151 185 192 151 185 192 151 185 192 151 185 192 151 185 192 151 185 192 151 185 192 151 185 192 151 185 192 151 0 0 255 0 0 255 177 179 134 177 179 134 177 179 134 177 179 134 177 179 134 177 179 134 177 179 134 177 179 134 177 179 134 177 179 134 177 179 134 177 179 134 177 179 134 177 179 134 177 179 134 177 179 134 177 179 134 177 179 134 177 179 134 177 179 134 177 179 134 177 179 134 177 179 134 177 179 134 177 179 134 177 179 134 177 179 134 177 179 134 177 179 134 177 179 134 177 179 134 177 179 134 177 179 134 177 179 134 177 179 134 177 179 134 177 179 134 177 179 134 177 179 134 177 179 134 177 179 134 177 179 134 177 179 134 177 179 134 177 179 134 177 179 134 177 179 134 177 179 134 177 179 134 163 163 108 163 163 108 163 163 108 163 163 108 163 163 108 163 163 108 163 163 108 163 163 108 163 163 108 163 163 108 163 163 108 163 163 108 163 163 108 163 163 108 163 163 108 163 163 108 163 163 108 163 163 108 163 163 108 163 163 108 163 163 108 163 163 108 163 163 108 163 163 108 163 163 108 163 163 108 163 163 108 163 163 108 163 163 108 163 163 108 163 163 108 163 163 108 163 163 108 163 163 108 163 163 108 163 163 108 163 163 108 163 163 108 163 163 108 163 163 108 163 163 108 163 163 108 163 163 108 163 163 108 0 0 255 0 0 255 179 185 134 179 185 134 179 185 134 179 185 134 179 185 134 179 185 134 179 185 134 179 185 134 179 185 134 179 185 134 179 185 134 179 185 134 179 185 134 179 185 134 179 185 134 179 185 134 179 185 134 179 185 134 179 185 134 179 185 134 179 185 134 179 185 134 179 185 134 179 185 134 179 185 134 179 185 134 179 185 134 179 185 134 179 185 134 179 185 134 179 185 134 179 185 134 179 185 134 179 185 134 179 185 134 179 185 134 179 185 134 179 185 134 179 185 134 179 185 134 179 185 134 179 185 134 179 185 134 179 185 134 179 185 134 0 0 255 0 0 255 180 188 139 180 188 139 180 188 139 180 188 139 180 188 139 180 188 139 180 188 139 180 188 139 180 188 139 180 188 139 180 188 139 180 188 139 180 188 139 180 188 139 180 188 139 180 188 139 180 188 139 180 188 139 180 188 139 180 188 139 180 188 139 180 188 139 180 188 139 180 188 139 180 188 139 180 188 139 180 188 139 180 188 139 180 188 139 180 188 139 180 188 139 180 188 139 180 188 139 180 188 139 180 188 139 180 188 139 180 188 139 180 188 139 180 188 139 180 188 139 180 188 139 180 188 139 180 188 139 180 188 139 180 188 139 180 188 139 180 188 139 180 188 139 180 188 139 180 188 139 0 0 255 0 0 255 185 192 151 185 192 151 185 192 151 185 192 151 185 192 151 185 192 151 185 192 151 185 192 151 185 192 151 185 192 151 185 192 151 185 192 151 185 192 151 185 192 151 185 192 151 185 192 151 185 192 151 185 192 151 185 192 151 185 192 151 185 192 151 185 192 151 185 192 151 185 192 151 185 192 151 185 192 151 185 192 151 185 192 151 185 192 151 185 192 151 185 192 151 185 192 151 185 192 151 185 192 151 185 192 151 185 192 151 185 192 151 185 192 151 185 192 151 185 192 151 185 192 151 185 192 151 185 192 151 185 192 151 185 192 151 185 192 151 185 192 151 185 192 151 185 192 151 185 192 151 185 192 151 185 192 151 185 192 151 185 192 151 185 192 151 185 192 151 185 192 151 185 192 151 185 192 151 185 192 151 0 0 255 0 0 255 177 179 134 177 179 134 177 179 134 177 179 134 177 179 134 177 179 134 177 179 134 177 179 134 177 179 134 177 179 134 177 179 134 177 179 134 177 179 134 177 179 134 177 179 134 177 179 134 177 179 134 177 179 134 177 179 134 177 179 134 177 179 134 177 179 134 177 179 134 177 179 134 177 179 134 177 179 134 177 179 134 177 179 134 177 179 134 177 179 134 177 179 134 177 179 134 177 179 134 177 179 134 177 179 134 177 179 134 177 179 134 177 179 134 177 179 134 177 179 134 177 179 134 177 179 134 177 179 134 177 179 134 177 179 134 177 179 134 177 179 134 177 179 134 177 179 134 163 163 108 163 163 108 163 163 108 163 163 108 163 163 108 163 163 108 163 163 108 163 163 108 163 163 108 163 163 108 163 163 108 163 163 108 163 163 108 163 163 108 163 163 108 163 163 108 163 163 108 163 163 108 163 163 108 163 163 108 163 163 108 163 163 108 163 163 108 163 163 108 163 163 108 163 163 108 163 163 108 163 163 108 163 163 108 163 163 108 163 163 108 163 163 108 163 163 108 163 163 108 163 163 108 163 163 108 163 163 108 163 163 108 163 163 108 163 163 108 163 163 108 163 163 108 163 163 108 163 163 108 0 0 255 0 0 255 179 185 134 179 185 134 179 185 134 179 185 134 179 185 134 179 185 134 179 185 134 179 185 134 179 185 134 179 185 134 179 185 134 179 185 134 179 185 134 179 185 134 179 185 134 179 185 134 179 185 134 179 185 134 179 185 134 179 185 134 179 185 134 179 185 134 179 185 134 179 185 134 179 185 134 179 185 134 179 185 134 179 185 134 179 185 134 179 185 134 179 185 134 179 185 134 179 185 134 179 185 134 179 185 134 179 185 134 179 185 134 179 185 134 179 185 134 179 185 134 179 185 134 179 185 134 179 185 134 179 185 134 179 185 134 0 0 255 0 0 255 180 188 139 180 188 139 180 188 139 180 188 139 180 188 139 180 188 139 180 188 139 180 188 139 180 188 139 180 188 139 180 188 139 180 188 139 180 188 139 180 188 139 180 188 139 180 188 139 180 188 139 180 188 139 180 188 139 180 188 139 180 188 139 180 188 139 180 188 139 180 188 139 180 188 139 180 188 139 180 188 139 180 188 139 180 188 139 180 188 139 180 188 139 180 188 139 180 188 139 180 188 139 180 188 139 180 188 139 180 188 139 180 188 139 180 188 139 180 188 139 180 188 139 180 188 139 180 188 139 180 188 139 180 188 139 180 188 139 180 188 139 180 188 139 180 188 139 0 0 255 0 0 255 185 192 151 185 192 151 185 192 151 185 192 151 185 192 151 185 192 151 185 192 151 185 192 151 185 192 151 185 192 151 185 192 151 185 192 151 185 192 151 185 192 151 185 192 151 185 192 151 185 192 151 185 192 151 185 192 151 185 192 151 185 192 151 185 192 151 185 192 151 185 192 151 185 192 151 185 192 151 185 192 151 185 192 151 185 192 151 185 192 151 185 192 151 185 192 151 185 192 151 185 192 151 185 192 151 185 192 151 185 192 151 185 192 151 185 192 151 185 192 151 185 192 151 185 192 151 185 192 151 185 192 151 185 192 151 185 192 151 185 192 151 185 192 151 185 192 151 185 192 151 185 192 151 185 192 151 185 192 151 185 192 151 185 192 151 185 192 151 185 192 151 185 192 151 185 192 151 185 192 151 185 192 151 185 192 151 0 0 255 0 0 255 177 179 134 177 179 134 177 179 134 177 179 134 177 179 134 177 179 134 177 179 134 177 179 134 177 179 134 177 179 134 177 179 134 177 179 134 177 179 134 177 179 134 177 179 134 177 179 134 177 179 134 177 179 134 177 179 134 177 179 134 177 179 134 177 179 134 177 179 134 177 179 134 177 179 134 177 179 134 177 179 134 177 179 134 177 179 134 177 179 134 177 179 134 177 179 134 177 179 134 177 179 134 177 179 134 177 179 134 177 179 134 177 179 134 177 179 134 177 179 134 177 179 134 177 179 134 177 179 134 177 179 134 177 179 134 177 179 134 177 179 134 177 179 134 163 163 108 163 163 108 163 163 108 163 163 108 163 163 108 163 163 108 163 163 108 163 163 108 163 163 108 163 163 108 163 163 108 163 163 108 163 163 108 163 163 108 163 163 108 163 163 108 163 163 108 163 163 108 163 163 108 163 163 108 163 163 108 163 163 108 163 163 108 163 163 108 163 163 108 163 163 108 163 163 108 163 163 108 163 163 108 163 163 108 163 163 108 163 163 108 163 163 108 163 163 108 163 163 108 163 163 108 163 163 108 163 163 108 163 163 108 163 163 108 163 163 108 163 163 108 163 163 108 0 0 255 0 0 255 179 185 134 179 185 134 179 185 134 179 185 134 179 185 134 179 185 134 179 185 134 179 185 134 179 185 134 179 185 134 179 185 134 179 185 134 179 185 134 179 185 134 179 185 134 179 185 134 179 185 134 179 185 134 179 185 134 179 185 134 179 185 134 179 185 134 179 185 134 179 185 134 179 185 134 179 185 134 179 185 134 179 185 134 179 185 134 179 185 134 179 185 134 179 185 134 179 185 134 179 185 134 179 185 134 179 185 134 179 185 134 179 185 134 179 185 134 179 185 134 179 185 134 179 185 134 179 185 134 179 185 134 179 185 134 179 185 134 0 0 255 0 0 255 180 188 139 180 188 139 180 188 139 180 188 139 180 188 139 180 188 139 180 188 139 180 188 139 180 188 139 180 188 139 180 188 139 180 188 139 180 188 139 180 188 139 180 188 139 180 188 139 180 188 139 180 188 139 180 188 139 180 188 139 180 188 139 180 188 139 180 188 139 180 188 139 180 188 139 180 188 139 180 188 139 180 188 139 180 188 139 180 188 139 180 188 139 180 188 139 180 188 139 180 188 139 180 188 139 180 188 139 180 188 139 180 188 139 180 188 139 180 188 139 180 188 139 180 188 139 180 188 139 180 188 139 180 188 139 180 188 139 180 188 139 180 188 139 180 188 139 0 0 255 0 0 255 185 192 151 185 192 151 185 192 151 185 192 151 185 192 151 185 192 151 185 192 151 185 192 151 185 192 151 185 192 151 185 192 151 185 192 151 185 192 151 185 192 151 185 192 151 185 192 151 185 192 151 185 192 151 185 192 151 185 192 151 185 192 151 185 192 151 185 192 151 185 192 151 185 192 151 185 192 151 185 192 151 185 192 151 185 192 151 185 192 151 185 192 151 185 192 151 185 192 151 185 192 151 185 192 151 185 192 151 185 192 151 185 192 151 185 192 151 185 192 151 185 192 151 185 192 151 185 192 151 185 192 151 185 192 151 185 192 151 185 192 151 185 192 151 185 192 151 185 192 151 185 192 151 185 192 151 185 192 151 185 192 151 185 192 151 185 192 151 185 192 151 185 192 151 185 192 151 185 192 151 185 192 151 185 192 151 0 0 255 0 0 255 177 179 134 177 179 134 177 179 134 177 179 134 177 179 134 177 179 134 177 179 134 177 179 134 177 179 134 177 179 134 177 179 134 177 179 134 177 179 134 177 179 134 177 179 134 177 179 134 177 179 134 177 179 134 177 179 134 177 179 134 177 179 134 177 179 134 177 179 134 177 179 134 177 179 134 177 179 134 177 179 134 177 179 134 177 179 134 177 179 134 177 179 134 177 179 134 177 179 134 177 179 134 177 179 134 177 179 134 177 179 134 177 179 134 177 179 134 177 179 134 177 179 134 177 179 134 177 179 134 177 179 134 177 179 134 177 179 134 177 179 134 177 179 134 163 163 108 163 163 108 163 163 108 163 163 108 163 163 108 163 163 108 163 163 108 163 163 108 163 163 108 163 163 108 163 163 108 163 163 108 163 163 108 163 163 108 163 163 108 163 163 108 163 163 108 163 163 108 163 163 108 163 163 108 163 163 108 163 163 108 163 163 108 163 163 108 163 163 108 163 163 108 163 163 108 163 163 108 163 163 108 163 163 108 163 163 108 163 163 108 163 163 108 163 163 108 163 163 108 163 163 108 163 163 108 163 163 108 163 163 108 163 163 108 163 163 108 163 163 108 0 0 255 0 0 255 179 185 134 179 185 134 179 185 134 179 185 134 179 185 134 179 185 134 179 185 134 179 185 134 179 185 134 179 185 134 179 185 134 179 185 134 179 185 134 179 185 134 179 185 134 179 185 134 179 185 134 179 185 134 179 185 134 179 185 134 179 185 134 179 185 134 179 185 134 179 185 134 179 185 134 179 185 134 179 185 134 179 185 134 179 185 134 179 185 134 179 185 134 179 185 134 179 185 134 179 185 134 179 185 134 179 185 134 179 185 134 179 185 134 179 185 134 179 185 134 179 185 134 179 185 134 179 185 134 179 185 134 179 185 134 179 185 134 179 185 134 0 0 255 0 0 255 180 188 139 180 188 139 180 188 139 180 188 139 180 188 139 180 188 139 180 188 139 180 188 139 180 188 139 180 188 139 180 188 139 180 188 139 180 188 139 180 188 139 180 188 139 180 188 139 180 188 139 180 188 139 180 188 139 180 188 139 180 188 139 180 188 139 180 188 139 180 188 139 180 188 139 180 188 139 180 188 139 180 188 139 180 188 139 180 188 139 180 188 139 180 188 139 180 188 139 180 188 139 180 188 139 180 188 139 180 188 139 180 188 139 180 188 139 180 188 139 180 188 139 180 188 139 180 188 139 180 188 139 180 188 139 180 188 139 180 188 139 180 188 139 180 188 139 0 0 255 0 0 255 185 192 151 185 192 151 185 192 151 185 192 151 185 192 151 185 192 151 185 192 151 185 192 151 185 192 151 185 192 151 185 192 151 185 192 151 185 192 151 185 192 151 185 192 151 185 192 151 185 192 151 185 192 151 185 192 151 185 192 151 185 192 151 185 192 151 185 192 151 185 192 151 185 192 151 185 192 151 185 192 151 185 192 151 185 192 151 185 192 151 185 192 151 185 192 151 185 192 151 185 192 151 185 192 151 185 192 151 185 192 151 185 192 151 185 192 151 185 192 151 185 192 151 185 192 151 185 192 151 185 192 151 185 192 151 185 192 151 185 192 151 185 192 151 185 192 151 185 192 151 185 192 151 185 192 151 185 192 151 185 192 151 185 192 151 185 192 151 185 192 151 185 192 151 185 192 151 185 192 151 185 192 151 185 192 151 0 0 255 0 0 255 177 179 134 177 179 134 177 179 134 177 179 134 177 179 134 177 179 134 177 179 134 177 179 134 177 179 134 177 179 134 177 179 134 177 179 134 177 179 134 177 179 134 177 179 134 177 179 134 177 179 134 177 179 134 177 179 134 177 179 134 177 179 134 177 179 134 177 179 134 177 179 134 177 179 134 177 179 134 177 179 134 177 179 134 177 179 134 177 179 134 177 179 134 177 179 134 177 179 134 177 179 134 177 179 134 177 179 134 177 179 134 177 179 134 177 179 134 177 179 134 177 179 134 177 179 134 177 179 134 177 179 134 177 179 134 177 179 134 177 179 134 177 179 134 163 163 108 163 163 108 163 163 108 163 163 108 163 163 108 163 163 108 163 163 108 163 163 108 163 163 108 163 163 108 163 163 108 163 163 108 163 163 108 163 163 108 163 163 108 163 163 108 163 163 108 163 163 108 163 163 108 163 163 108 163 163 108 163 163 108 163 163 108 163 163 108 163 163 108 163 163 108 163 163 108 163 163 108 163 163 108 163 163 108 163 163 108 163 163 108 163 163 108 163 163 108 163 163 108 163 163 108 163 163 108 163 163 108 163 163 108 163 163 108 0 0 255 0 0 255 0 0 255 179 185 134 179 185 134 179 185 134 179 185 134 179 185 134 179 185 134 179 185 134 179 185 134 179 185 134 179 185 134 179 185 134 179 185 134 179 185 134 179 185 134 179 185 134 179 185 134 179 185 134 179 185 134 179 185 134 179 185 134 179 185 134 179 185 134 179 185 134 179 185 134 179 185 134 179 185 134 179 185 134 179 185 134 179 185 134 179 185 134 179 185 134 179 185 134 179 185 134 179 185 134 179 185 134 179 185 134 179 185 134 179 185 134 179 185 134 179 185 134 179 185 134 179 185 134 179 185 134 179 185 134 179 185 134 179 185 134 179 185 134 179 185 134 0 0 255 0 0 255 180 188 139 180 188 139 180 188 139 180 188 139 180 188 139 180 188 139 180 188 139 180 188 139 180 188 139 180 188 139 180 188 139 180 188 139 180 188 139 180 188 139 180 188 139 180 188 139 180 188 139 180 188 139 180 188 139 180 188 139 180 188 139 180 188 139 180 188 139 180 188 139 180 188 139 180 188 139 180 188 139 180 188 139 180 188 139 180 188 139 180 188 139 180 188 139 180 188 139 180 188 139 180 188 139 180 188 139 180 188 139 180 188 139 180 188 139 180 188 139 180 188 139 180 188 139 180 188 139 180 188 139 180 188 139 180 188 139 180 188 139 180 188 139 180 188 139 0 0 255 0 0 255 185 192 151 185 192 151 185 192 151 185 192 151 185 192 151 185 192 151 185 192 151 185 192 151 185 192 151 185 192 151 185 192 151 185 192 151 185 192 151 185 192 151 185 192 151 185 192 151 185 192 151 185 192 151 185 192 151 185 192 151 185 192 151 185 192 151 185 192 151 185 192 151 185 192 151 185 192 151 185 192 151 185 192 151 185 192 151 185 192 151 185 192 151 185 192 151 185 192 151 185 192 151 185 192 151 185 192 151 185 192 151 185 192 151 185 192 151 185 192 151 185 192 151 185 192 151 185 192 151 185 192 151 185 192 151 185 192 151 185 192 151 185 192 151 185 192 151 185 192 151 185 192 151 185 192 151 185 192 151 185 192 151 185 192 151 185 192 151 185 192 151 185 192 151 185 192 151 185 192 151 185 192 151 185 192 151 0 0 255 0 0 255 177 179 134 177 179 134 177 179 134 177 179 134 177 179 134 177 179 134 177 179 134 177 179 134 177 179 134 177 179 134 177 179 134 177 179 134 177 179 134 177 179 134 177 179 134 177 179 134 177 179 134 177 179 134 177 179 134 177 179 134 177 179 134 177 179 134 177 179 134 177 179 134 177 179 134 177 179 134 177 179 134 177 179 134 177 179 134 177 179 134 177 179 134 177 179 134 177 179 134 177 179 134 177 179 134 177 179 134 177 179 134 177 179 134 177 179 134 177 179 134 177 179 134 177 179 134 177 179 134 177 179 134 177 179 134 177 179 134 177 179 134 177 179 134 163 163 108 163 163 108 163 163 108 163 163 108 163 163 108 163 163 108 163 163 108 163 163 108 163 163 108 163 163 108 163 163 108 163 163 108 163 163 108 163 163 108 163 163 108 163 163 108 163 163 108 163 163 108 163 163 108 163 163 108 163 163 108 163 163 108 163 163 108 163 163 108 163 163 108 163 163 108 163 163 108 163 163 108 163 163 108 163 163 108 163 163 108 163 163 108 163 163 108 163 163 108 163 163 108 163 163 108 163 163 108 163 163 108 163 163 108 0 0 255 0 0 255 0 0 255 179 185 134 179 185 134 179 185 134 179 185 134 179 185 134 179 185 134 179 185 134 179 185 134 179 185 134 179 185 134 179 185 134 179 185 134 179 185 134 179 185 134 179 185 134 179 185 134 179 185 134 179 185 134 179 185 134 179 185 134 179 185 134 179 185 134 179 185 134 179 185 134 179 185 134 179 185 134 179 185 134 179 185 134 179 185 134 179 185 134 179 185 134 179 185 134 179 185 134 179 185 134 179 185 134 179 185 134 179 185 134 179 185 134 179 185 134 179 185 134 179 185 134 179 185 134 179 185 134 179 185 134 179 185 134 179 185 134 179 185 134 179 185 134 0 0 255 0 0 255 180 188 139 180 188 139 180 188 139 180 188 139 180 188 139 180 188 139 180 188 139 180 188 139 180 188 139 180 188 139 180 188 139 180 188 139 180 188 139 180 188 139 180 188 139 180 188 139 180 188 139 180 188 139 180 188 139 180 188 139 180 188 139 180 188 139 180 188 139 180 188 139 180 188 139 180 188 139 180 188 139 180 188 139 180 188 139 180 188 139 180 188 139 180 188 139 180 188 139 180 188 139 180 188 139 180 188 139 180 188 139 180 188 139 180 188 139 180 188 139 180 188 139 180 188 139 180 188 139 180 188 139 180 188 139 180 188 139 180 188 139 180 188 139 180 188 139 0 0 255 0 0 255 185 192 151 185 192 151 185 192 151 185 192 151 185 192 151 185 192 151 185 192 151 185 192 151 185 192 151 185 192 151 185 192 151 185 192 151 185 192 151 185 192 151 185 192 151 185 192 151 185 192 151 185 192 151 185 192 151 185 192 151 185 192 151 185 192 151 185 192 151 185 192 151 185 192 151 185 192 151 185 192 151 185 192 151 185 192 151 185 192 151 185 192 151 185 192 151 185 192 151 185 192 151 185 192 151 185 192 151 185 192 151 185 192 151 185 192 151 185 192 151 185 192 151 185 192 151 185 192 151 185 192 151 185 192 151 185 192 151 185 192 151 185 192 151 185 192 151 185 192 151 185 192 151 185 192 151 185 192 151 185 192 151 185 192 151 185 192 151 185 192 151 185 192 151 185 192 151 185 192 151 185 192 151 185 192 151 185 192 151 185 192 151 0 0 255 0 0 255 177 179 134 177 179 134 177 179 134 177 179 134 177 179 134 177 179 134 177 179 134 177 179 134 177 179 134 177 179 134 177 179 134 177 179 134 177 179 134 177 179 134 177 179 134 177 179 134 177 179 134 177 179 134 177 179 134 177 179 134 177 179 134 177 179 134 177 179 134 177 179 134 177 179 134 177 179 134 177 179 134 177 179 134 177 179 134 177 179 134 177 179 134 177 179 134 177 179 134 177 179 134 177 179 134 177 179 134 177 179 134 177 179 134 177 179 134 177 179 134 177 179 134 177 179 134 177 179 134 177 179 134 177 179 134 177 179 134 177 179 134 163 163 108 163 163 108 163 163 108 163 163 108 163 163 108 163 163 108 163 163 108 163 163 108 163 163 108 163 163 108 163 163 108 163 163 108 163 163 108 163 163 108 163 163 108 163 163 108 163 163 108 163 163 108 163 163 108 163 163 108 163 163 108 163 163 108 163 163 108 163 163 108 163 163 108 163 163 108 163 163 108 163 163 108 163 163 108 163 163 108 163 163 108 163 163 108 163 163 108 163 163 108 163 163 108 163 163 108 0 0 255 0 0 255 0 0 255 0 0 255 179 185 134 179 185 134 179 185 134 179 185 134 179 185 134 179 185 134 179 185 134 179 185 134 179 185 134 179 185 134 179 185 134 179 185 134 179 185 134 179 185 134 179 185 134 179 185 134 179 185 134 179 185 134 179 185 134 179 185 134 179 185 134 179 185 134 179 185 134 179 185 134 179 185 134 179 185 134 179 185 134 179 185 134 179 185 134 179 185 134 179 185 134 179 185 134 179 185 134 179 185 134 179 185 134 179 185 134 179 185 134 179 185 134 179 185 134 179 185 134 179 185 134 179 185 134 179 185 134 179 185 134 179 185 134 179 185 134 179 185 134 179 185 134 179 185 134 179 185 134 0 0 255 0 0 255 180 188 139 180 188 139 180 188 139 180 188 139 180 188 139 180 188 139 180 188 139 180 188 139 180 188 139 180 188 139 180 188 139 180 188 139 180 188 139 180 188 139 180 188 139 180 188 139 180 188 139 180 188 139 180 188 139 180 188 139 180 188 139 180 188 139 180 188 139 180 188 139 180 188 139 180 188 139 180 188 139 180 188 139 180 188 139 180 188 139 180 188 139 180 188 139 180 188 139 180 188 139 180 188 139 180 188 139 180 188 139 180 188 139 180 188 139 180 188 139 180 188 139 180 188 139 180 188 139 180 188 139 180 188 139 180 188 139 180 188 139 180 188 139 0 0 255 0 0 255 185 192 151 185 192 151 185 192 151 185 192 151 185 192 151 185 192 151 185 192 151 185 192 151 185 192 151 185 192 151 185 192 151 185 192 151 185 192 151 185 192 151 185 192 151 185 192 151 185 192 151 185 192 151 185 192 151 185 192 151 185 192 151 185 192 151 185 192 151 185 192 151 185 192 151 185 192 151 185 192 151 185 192 151 185 192 151 185 192 151 185 192 151 185 192 151 185 192 151 185 192 151 185 192 151 185 192 151 185 192 151 185 192 151 185 192 151 185 192 151 185 192 151 185 192 151 185 192 151 185 192 151 185 192 151 185 192 151 185 192 151 185 192 151 185 192 151 185 192 151 185 192 151 185 192 151 185 192 151 185 192 151 185 192 151 185 192 151 185 192 151 185 192 151 185 192 151 185 192 151 185 192 151 185 192 151 185 192 151 185 192 151 185 192 151 0 0 255 0 0 255 177 179 134 177 179 134 177 179 134 177 179 134 177 179 134 177 179 134 177 179 134 177 179 134 177 179 134 177 179 134 177 179 134 177 179 134 177 179 134 177 179 134 177 179 134 177 179 134 177 179 134 177 179 134 177 179 134 177 179 134 177 179 134 177 179 134 177 179 134 177 179 134 177 179 134 177 179 134 177 179 134 177 179 134 177 179 134 177 179 134 177 179 134 177 179 134 177 179 134 177 179 134 177 179 134 177 179 134 177 179 134 177 179 134 177 179 134 177 179 134 177 179 134 177 179 134 177 179 134 177 179 134 177 179 134 177 179 134 177 179 134 163 163 108 163 163 108 163 163 108 163 163 108 163 163 108 163 163 108 163 163 108 163 163 108 163 163 108 163 163 108 163 163 108 163 163 108 163 163 108 163 163 108 163 163 108 163 163 108 163 163 108 163 163 108 163 163 108 163 163 108 163 163 108 163 163 108 163 163 108 163 163 108 163 163 108 163 163 108 163 163 108 163 163 108 163 163 108 163 163 108 163 163 108 163 163 108 163 163 108 163 163 108 0 0 255 0 0 255 0 0 255 0 0 255 0 0 255 179 185 134 179 185 134 179 185 134 179 185 134 179 185 134 179 185 134 179 185 134 179 185 134 179 185 134 179 185 134 179 185 134 179 185 134 179 185 134 179 185 134 179 185 134 179 185 134 179 185 134 179 185 134 179 185 134 179 185 134 179 185 134 179 185 134 179 185 134 179 185 134 179 185 134 179 185 134 179 185 134 179 185 134 179 185 134 179 185 134 179 185 134 179 185 134 179 185 134 179 185 134 179 185 134 179 185 134 179 185 134 179 185 134 179 185 134 179 185 134 179 185 134 179 185 134 179 185 134 179 185 134 179 185 134 179 185 134 179 185 134 179 185 134 179 185 134 179 185 134 179 185 134 0 0 255 0 0 255 180 188 139 180 188 139 180 188 139 180 188 139 180 188 139 180 188 139 180 188 139 180 188 139 180 188 139 180 188 139 180 188 139 180 188 139 180 188 139 180 188 139 180 188 139 180 188 139 180 188 139 180 188 139 180 188 139 180 188 139 180 188 139 180 188 139 180 188 139 180 188 139 180 188 139 180 188 139 180 188 139 180 188 139 180 188 139 180 188 139 180 188 139 180 188 139 180 188 139 180 188 139 180 188 139 180 188 139 180 188 139 180 188 139 180 188 139 180 188 139 180 188 139 180 188 139 180 188 139 180 188 139 180 188 139 180 188 139 180 188 139 180 188 139 0 0 255 0 0 255 185 192 151 185 192 151 185 192 151 185 192 151 185 192 151 185 192 151 185 192 151 185 192 151 185 192 151 185 192 151 185 192 151 185 192 151 185 192 151 185 192 151 185 192 151 185 192 151 185 192 151 185 192 151 185 192 151 185 192 151 185 192 151 185 192 151 185 192 151 185 192 151 185 192 151 185 192 151 185 192 151 185 192 151 185 192 151 185 192 151 185 192 151 185 192 151 185 192 151 185 192 151 185 192 151 185 192 151 185 192 151 185 192 151 185 192 151 185 192 151 185 192 151 185 192 151 185 192 151 185 192 151 185 192 151 185 192 151 185 192 151 185 192 151 185 192 151 185 192 151 185 192 151 185 192 151 185 192 151 185 192 151 185 192 151 185 192 151 185 192 151 185 192 151 185 192 151 185 192 151 185 192 151 185 192 151 185 192 151 185 192 151 185 192 151 0 0 255 0 0 255 177 179 134 177 179 134 177 179 134 177 179 134 177 179 134 177 179 134 177 179 134 177 179 134 177 179 134 177 179 134 177 179 134 177 179 134 177 179 134 177 179 134 177 179 134 177 179 134 177 179 134 177 179 134 177 179 134 177 179 134 177 179 134 177 179 134 177 179 134 177 179 134 177 179 134 177 179 134 177 179 134 177 179 134 177 179 134 177 179 134 177 179 134 177 179 134 177 179 134 177 179 134 177 179 134 177 179 134 177 179 134 177 179 134 177 179 134 177 179 134 177 179 134 177 179 134 177 179 134 177 179 134 177 179 134 177 179 134 177 179 134 163 163 108 163 163 108 163 163 108 163 163 108 163 163 108 163 163 108 163 163 108 163 163 108 163 163 108 163 163 108 163 163 108 163 163 108 163 163 108 163 163 108 163 163 108 163 163 108 163 163 108 163 163 108 163 163 108 163 163 108 163 163 108 163 163 108 163 163 108 163 163 108 163 163 108 163 163 108 163 163 108 163 163 108 163 163 108 163 163 108 163 163 108 163 163 108 163 163 108 0 0 255 0 0 255 0 0 255 179 185 134 179 185 134 179 185 134 179 185 134 179 185 134 179 185 134 179 185 134 179 185 134 179 185 134 179 185 134 179 185 134 179 185 134 179 185 134 179 185 134 179 185 134 179 185 134 179 185 134 179 185 134 179 185 134 179 185 134 179 185 134 179 185 134 179 185 134 179 185 134 179 185 134 179 185 134 179 185 134 179 185 134 179 185 134 179 185 134 179 185 134 179 185 134 179 185 134 179 185 134 179 185 134 179 185 134 179 185 134 179 185 134 179 185 134 179 185 134 179 185 134 179 185 134 179 185 134 179 185 134 179 185 134 179 185 134 179 185 134 179 185 134 179 185 134 179 185 134 179 185 134 179 185 134 179 185 134 179 185 134 0 0 255 0 0 255 180 188 139 180 188 139 180 188 139 180 188 139 180 188 139 180 188 139 180 188 139 180 188 139 180 188 139 180 188 139 180 188 139 180 188 139 180 188 139 180 188 139 180 188 139 180 188 139 180 188 139 180 188 139 180 188 139 180 188 139 180 188 139 180 188 139 180 188 139 180 188 139 180 188 139 180 188 139 180 188 139 180 188 139 180 188 139 180 188 139 180 188 139 180 188 139 180 188 139 180 188 139 180 188 139 180 188 139 180 188 139 180 188 139 180 188 139 180 188 139 180 188 139 180 188 139 180 188 139 180 188 139 180 188 139 180 188 139 180 188 139 180 188 139 0 0 255 0 0 255 185 192 151 185 192 151 185 192 151 185 192 151 185 192 151 185 192 151 185 192 151 185 192 151 185 192 151 185 192 151 185 192 151 185 192 151 185 192 151 185 192 151 185 192 151 185 192 151 185 192 151 185 192 151 185 192 151 185 192 151 185 192 151 185 192 151 185 192 151 185 192 151 185 192 151 185 192 151 185 192 151 185 192 151 185 192 151 185 192 151 185 192 151 185 192 151 185 192 151 185 192 151 185 192 151 185 192 151 185 192 151 185 192 151 185 192 151 185 192 151 185 192 151 185 192 151 185 192 151 185 192 151 185 192 151 185 192 151 185 192 151 185 192 151 185 192 151 185 192 151 185 192 151 185 192 151 185 192 151 185 192 151 185 192 151 185 192 151 185 192 151 185 192 151 185 192 151 185 192 151 185 192 151 185 192 151 185 192 151 185 192 151 185 192 151 0 0 255 0 0 255 177 179 134 177 179 134 177 179 134 177 179 134 177 179 134 177 179 134 177 179 134 177 179 134 177 179 134 177 179 134 177 179 134 177 179 134 177 179 134 177 179 134 177 179 134 177 179 134 177 179 134 177 179 134 177 179 134 177 179 134 177 179 134 177 179 134 177 179 134 177 179 134 177 179 134 177 179 134 177 179 134 177 179 134 177 179 134 177 179 134 177 179 134 177 179 134 177 179 134 177 179 134 177 179 134 177 179 134 177 179 134 177 179 134 177 179 134 177 179 134 177 179 134 177 179 134 177 179 134 177 179 134 177 179 134 177 179 134 177 179 134 163 163 108 163 163 108 163 163 108 163 163 108 163 163 108 163 163 108 163 163 108 163 163 108 163 163 108 163 163 108 163 163 108 163 163 108 163 163 108 163 163 108 163 163 108 163 163 108 163 163 108 163 163 108 163 163 108 163 163 108 163 163 108 163 163 108 163 163 108 163 163 108 163 163 108 163 163 108 163 163 108 163 163 108 163 163 108 163 163 108 163 163 108 163 163 108 0 0 255 0 0 255 179 185 134 179 185 134 179 185 134 179 185 134 179 185 134 179 185 134 179 185 134 179 185 134 179 185 134 179 185 134 179 185 134 179 185 134 179 185 134 179 185 134 179 185 134 179 185 134 179 185 134 179 185 134 179 185 134 179 185 134 179 185 134 179 185 134 179 185 134 179 185 134 179 185 134 179 185 134 179 185 134 179 185 134 179 185 134 179 185 134 179 185 134 179 185 134 179 185 134 179 185 134 179 185 134 179 185 134 179 185 134 179 185 134 179 185 134 179 185 134 179 185 134 179 185 134 179 185 134 179 185 134 179 185 134 179 185 134 179 185 134 179 185 134 179 185 134 179 185 134 179 185 134 179 185 134 179 185 134 179 185 134 179 185 134 179 185 134 0 0 255 0 0 255 180 188 139 180 188 139 180 188 139 180 188 139 180 188 139 180 188 139 180 188 139 180 188 139 180 188 139 180 188 139 180 188 139 180 188 139 180 188 139 180 188 139 180 188 139 180 188 139 180 188 139 180 188 139 180 188 139 180 188 139 180 188 139 180 188 139 180 188 139 180 188 139 180 188 139 180 188 139 180 188 139 180 188 139 180 188 139 180 188 139 180 188 139 180 188 139 180 188 139 180 188 139 180 188 139 180 188 139 180 188 139 180 188 139 180 188 139 180 188 139 180 188 139 180 188 139 180 188 139 180 188 139 180 188 139 180 188 139 180 188 139 180 188 139 0 0 255 0 0 255 185 192 151 185 192 151 185 192 151 185 192 151 185 192 151 185 192 151 185 192 151 185 192 151 185 192 151 185 192 151 185 192 151 185 192 151 185 192 151 185 192 151 185 192 151 185 192 151 185 192 151 185 192 151 185 192 151 185 192 151 185 192 151 185 192 151 185 192 151 185 192 151 185 192 151 185 192 151 185 192 151 185 192 151 185 192 151 185 192 151 185 192 151 185 192 151 185 192 151 185 192 151 185 192 151 185 192 151 185 192 151 185 192 151 185 192 151 185 192 151 185 192 151 185 192 151 185 192 151 185 192 151 185 192 151 185 192 151 185 192 151 185 192 151 185 192 151 185 192 151 185 192 151 185 192 151 185 192 151 185 192 151 185 192 151 185 192 151 185 192 151 185 192 151 185 192 151 185 192 151 185 192 151 185 192 151 185 192 151 185 192 151 185 192 151 0 0 255 0 0 255 177 179 134 177 179 134 177 179 134 177 179 134 177 179 134 177 179 134 177 179 134 177 179 134 177 179 134 177 179 134 177 179 134 177 179 134 177 179 134 177 179 134 177 179 134 177 179 134 177 179 134 177 179 134 177 179 134 177 179 134 177 179 134 177 179 134 177 179 134 177 179 134 177 179 134 177 179 134 177 179 134 177 179 134 177 179 134 177 179 134 177 179 134 177 179 134 177 179 134 177 179 134 177 179 134 177 179 134 177 179 134 177 179 134 177 179 134 177 179 134 177 179 134 177 179 134 177 179 134 177 179 134 177 179 134 177 179 134 177 179 134 163 163 108 163 163 108 163 163 108 163 163 108 163 163 108 163 163 108 163 163 108 163 163 108 163 163 108 163 163 108 163 163 108 163 163 108 163 163 108 163 163 108 163 163 108 163 163 108 163 163 108 163 163 108 163 163 108 163 163 108 163 163 108 163 163 108 163 163 108 163 163 108 163 163 108 163 163 108 163 163 108 163 163 108 163 163 108 163 163 108 163 163 108 163 163 108 0 0 255 0 0 255 179 185 134 179 185 134 179 185 134 179 185 134 179 185 134 179 185 134 179 185 134 179 185 134 179 185 134 179 185 134 179 185 134 179 185 134 179 185 134 179 185 134 179 185 134 179 185 134 179 185 134 179 185 134 179 185 134 179 185 134 179 185 134 179 185 134 179 185 134 179 185 134 179 185 134 179 185 134 179 185 134 179 185 134 179 185 134 179 185 134 179 185 134 179 185 134 179 185 134 179 185 134 179 185 134 179 185 134 179 185 134 179 185 134 179 185 134 179 185 134 179 185 134 179 185 134 179 185 134 179 185 134 179 185 134 179 185 134 179 185 134 179 185 134 179 185 134 179 185 134 179 185 134 179 185 134 179 185 134 179 185 134 179 185 134 179 185 134 0 0 255 0 0 255 180 188 139 180 188 139 180 188 139 180 188 139 180 188 139 180 188 139 180 188 139 180 188 139 180 188 139 180 188 139 180 188 139 180 188 139 180 188 139 180 188 139 180 188 139 180 188 139 180 188 139 180 188 139 180 188 139 180 188 139 180 188 139 180 188 139 180 188 139 180 188 139 180 188 139 180 188 139 180 188 139 180 188 139 180 188 139 180 188 139 180 188 139 180 188 139 180 188 139 180 188 139 180 188 139 180 188 139 180 188 139 180 188 139 180 188 139 180 188 139 180 188 139 180 188 139 180 188 139 180 188 139 180 188 139 180 188 139 180 188 139 180 188 139 0 0 255 0 0 255 185 192 151 185 192 151 185 192 151 185 192 151 185 192 151 185 192 151 185 192 151 185 192 151 185 192 151 185 192 151 185 192 151 185 192 151 185 192 151 185 192 151 185 192 151 185 192 151 185 192 151 185 192 151 185 192 151 185 192 151 185 192 151 185 192 151 185 192 151 185 192 151 185 192 151 185 192 151 185 192 151 185 192 151 185 192 151 185 192 151 185 192 151 185 192 151 185 192 151 185 192 151 185 192 151 185 192 151 185 192 151 185 192 151 185 192 151 185 192 151 185 192 151 185 192 151 185 192 151 185 192 151 185 192 151 185 192 151 185 192 151 185 192 151 185 192 151 185 192 151 185 192 151 185 192 151 185 192 151 185 192 151 185 192 151 185 192 151 185 192 151 185 192 151 185 192 151 185 192 151 185 192 151 185 192 151 185 192 151 185 192 151 185 192 151 0 0 255 0 0 255 177 179 134 177 179 134 177 179 134 177 179 134 177 179 134 177 179 134 177 179 134 177 179 134 177 179 134 177 179 134 177 179 134 177 179 134 177 179 134 177 179 134 177 179 134 177 179 134 177 179 134 177 179 134 177 179 134 177 179 134 177 179 134 177 179 134 177 179 134 177 179 134 177 179 134 177 179 134 177 179 134 177 179 134 177 179 134 177 179 134 177 179 134 177 179 134 177 179 134 177 179 134 177 179 134 177 179 134 177 179 134 177 179 134 177 179 134 177 179 134 177 179 134 177 179 134 177 179 134 177 179 134 177 179 134 177 179 134 177 179 134 163 163 108 163 163 108 163 163 108 163 163 108 163 163 108 163 163 108 163 163 108 163 163 108 163 163 108 163 163 108 163 163 108 163 163 108 163 163 108 163 163 108 163 163 108 163 163 108 163 163 108 163 163 108 163 163 108 163 163 108 163 163 108 163 163 108 163 163 108 163 163 108 163 163 108 163 163 108 163 163 108 163 163 108 163 163 108 163 163 108 163 163 108 163 163 108 0 0 255 0 0 255 179 185 134 179 185 134 179 185 134 179 185 134 179 185 134 179 185 134 179 185 134 179 185 134 179 185 134 179 185 134 179 185 134 179 185 134 179 185 134 179 185 134 179 185 134 179 185 134 179 185 134 179 185 134 179 185 134 179 185 134 179 185 134 179 185 134 179 185 134 179 185 134 179 185 134 179 185 134 179 185 134 179 185 134 179 185 134 179 185 134 179 185 134 179 185 134 179 185 134 179 185 134 179 185 134 179 185 134 179 185 134 179 185 134 179 185 134 179 185 134 179 185 134 179 185 134 179 185 134 179 185 134 179 185 134 179 185 134 179 185 134 179 185 134 179 185 134 179 185 134 179 185 134 179 185 134 179 185 134 179 185 134 179 185 134 179 185 134 0 0 255 0 0 255 180 188 139 180 188 139 180 188 139 180 188 139 180 188 139 180 188 139 180 188 139 180 188 139 180 188 139 180 188 139 180 188 139 180 188 139 180 188 139 180 188 139 180 188 139 180 188 139 180 188 139 180 188 139 180 188 139 180 188 139 180 188 139 180 188 139 180 188 139 180 188 139 180 188 139 180 188 139 180 188 139 180 188 139 180 188 139 180 188 139 180 188 139 180 188 139 180 188 139 180 188 139 180 188 139 180 188 139 0 0 255 180 188 139 180 188 139 180 188 139 180 188 139 180 188 139 180 188 139 0 0 255 0 0 255 0 0 255 0 0 255 0 0 255 0 0 255 0 0 255 185 192 151 185 192 151 185 192 151 185 192 151 185 192 151 185 192 151 185 192 151 185 192 151 185 192 151 185 192 151 185 192 151 185 192 151 185 192 151 185 192 151 185 192 151 185 192 151 185 192 151 185 192 151 185 192 151 185 192 151 185 192 151 185 192 151 185 192 151 185 192 151 185 192 151 185 192 151 185 192 151 185 192 151 185 192 151 185 192 151 185 192 151 185 192 151 185 192 151 185 192 151 185 192 151 185 192 151 185 192 151 185 192 151 185 192 151 185 192 151 185 192 151 185 192 151 185 192 151 185 192 151 185 192 151 185 192 151 185 192 151 185 192 151 185 192 151 185 192 151 185 192 151 185 192 151 185 192 151 185 192 151 185 192 151 185 192 151 185 192 151 185 192 151 185 192 151 185 192 151 185 192 151 185 192 151 185 192 151 185 192 151 185 192 151 185 192 151 0 0 255 0 0 255 177 179 134 177 179 134 177 179 134 177 179 134 177 179 134 177 179 134 0 0 255 177 179 134 177 179 134 177 179 134 177 179 134 177 179 134 177 179 134 177 179 134 177 179 134 177 179 134 177 179 134 177 179 134 177 179 134 177 179 134 177 179 134 177 179 134 177 179 134 177 179 134 177 179 134 177 179 134 177 179 134 177 179 134 177 179 134 177 179 134 177 179 134 177 179 134 177 179 134 177 179 134 177 179 134 177 179 134 177 179 134 177 179 134 177 179 134 177 179 134 177 179 134 177 179 134 177 179 134 177 179 134 177 179 134 177 179 134 163 163 108 163 163 108 163 163 108 163 163 108 163 163 108 163 163 108 163 163 108 163 163 108 163 163 108 163 163 108 163 163 108 163 163 108 163 163 108 163 163 108 163 163 108 163 163 108 163 163 108 163 163 108 163 163 108 163 163 108 163 163 108 163 163 108 163 163 108 163 163 108 163 163 108 163 163 108 163 163 108 163 163 108 163 163 108 163 163 108 163 163 108 0 0 255 0 0 255 179 185 134 179 185 134 179 185 134 179 185 134 179 185 134 179 185 134 179 185 134 179 185 134 179 185 134 179 185 134 179 185 134 179 185 134 179 185 134 179 185 134 179 185 134 179 185 134 179 185 134 179 185 134 179 185 134 179 185 134 179 185 134 179 185 134 179 185 134 179 185 134 179 185 134 179 185 134 179 185 134 179 185 134 179 185 134 179 185 134 179 185 134 179 185 134 179 185 134 179 185 134 179 185 134 179 185 134 179 185 134 179 185 134 179 185 134 179 185 134 179 185 134 179 185 134 179 185 134 179 185 134 179 185 134 179 185 134 179 185 134 179 185 134 179 185 134 179 185 134 179 185 134 179 185 134 179 185 134 179 185 134 179 185 134 179 185 134 179 185 134 0 0 255 0 0 255 180 188 139 180 188 139 180 188 139 180 188 139 180 188 139 180 188 139 180 188 139 180 188 139 180 188 139 180 188 139 180 188 139 180 188 139 180 188 139 180 188 139 180 188 139 180 188 139 180 188 139 180 188 139 180 188 139 180 188 139 180 188 139 180 188 139 180 188 139 180 188 139 180 188 139 0 0 255 0 0 255 0 0 255 0 0 255 0 0 255 0 0 255 0 0 255 0 0 255 0 0 255 0 0 255 0 0 255 0 0 255 0 0 255 0 0 255 0 0 255 0 0 255 0 0 255 0 0 255 0 0 255 0 0 255 0 0 255 0 0 255 0 0 255 0 0 255 0 0 255 185 192 151 185 192 151 185 192 151 185 192 151 185 192 151 185 192 151 185 192 151 185 192 151 185 192 151 185 192 151 185 192 151 185 192 151 185 192 151 185 192 151 185 192 151 185 192 151 185 192 151 185 192 151 185 192 151 185 192 151 185 192 151 185 192 151 185 192 151 185 192 151 185 192 151 185 192 151 185 192 151 185 192 151 185 192 151 185 192 151 185 192 151 185 192 151 185 192 151 185 192 151 185 192 151 185 192 151 185 192 151 185 192 151 185 192 151 185 192 151 185 192 151 185 192 151 185 192 151 185 192 151 185 192 151 185 192 151 185 192 151 185 192 151 185 192 151 185 192 151 185 192 151 185 192 151 185 192 151 185 192 151 185 192 151 185 192 151 185 192 151 185 192 151 185 192 151 185 192 151 185 192 151 185 192 151 185 192 151 185 192 151 185 192 151 185 192 151 0 0 255 0 0 255 0 0 255 0 0 255 0 0 255 0 0 255 0 0 255 0 0 255 0 0 255 0 0 255 0 0 255 177 179 134 177 179 134 177 179 134 177 179 134 177 179 134 177 179 134 177 179 134 177 179 134 177 179 134 177 179 134 177 179 134 177 179 134 177 179 134 177 179 134 177 179 134 177 179 134 177 179 134 177 179 134 177 179 134 177 179 134 177 179 134 177 179 134 177 179 134 177 179 134 177 179 134 177 179 134 177 179 134 177 179 134 177 179 134 177 179 134 177 179 134 177 179 134 177 179 134 177 179 134 177 179 134 177 179 134 177 179 134 163 163 108 163 163 108 163 163 108 163 163 108 163 163 108 163 163 108 163 163 108 163 163 108 163 163 108 163 163 108 163 163 108 163 163 108 163 163 108 163 163 108 163 163 108 163 163 108 163 163 108 163 163 108 163 163 108 163 163 108 163 163 108 163 163 108 163 163 108 163 163 108 163 163 108 163 163 108 163 163 108 0 0 255 0 0 255 0 0 255 0 0 255 0 0 255 0 0 255 179 185 134 179 185 134 179 185 134 179 185 134 179 185 134 179 185 134 179 185 134 179 185 134 179 185 134 179 185 134 179 185 134 179 185 134 179 185 134 179 185 134 179 185 134 179 185 134 179 185 134 179 185 134 179 185 134 179 185 134 179 185 134 179 185 134 179 185 134 179 185 134 179 185 134 179 185 134 179 185 134 179 185 134 179 185 134 179 185 134 179 185 134 179 185 134 179 185 134 179 185 134 179 185 134 179 185 134 179 185 134 179 185 134 179 185 134 179 185 134 179 185 134 179 185 134 179 185 134 179 185 134 179 185 134 179 185 134 179 185 134 179 185 134 179 185 134 179 185 134 179 185 134 179 185 134 179 185 134 179 185 134 179 185 134 179 185 134 179 185 134 0 0 255 0 0 255 180 188 139 180 188 139 180 188 139 180 188 139 180 188 139 180 188 139 180 188 139 180 188 139 180 188 139 180 188 139 180 188 139 180 188 139 180 188 139 180 188 139 180 188 139 180 188 139 180 188 139 180 188 139 0 0 255 0 0 255 180 188 139 180 188 139 180 188 139 180 188 139 0 0 255 0 0 255 0 0 255 0 0 255 0 0 255 0 0 255 0 0 255 0 0 255 0 0 255 0 0 255 0 0 255 0 0 255 194 201 166 0 0 255 0 0 255 0 0 255 0 0 255 0 0 255 0 0 255 194 201 166 194 201 166 194 201 166 194 201 166 194 201 166 194 201 166 0 0 255 0 0 255 185 192 151 185 192 151 185 192 151 185 192 151 185 192 151 185 192 151 185 192 151 185 192 151 185 192 151 185 192 151 185 192 151 185 192 151 185 192 151 185 192 151 185 192 151 185 192 151 185 192 151 185 192 151 185 192 151 185 192 151 185 192 151 185 192 151 185 192 151 185 192 151 185 192 151 185 192 151 185 192 151 185 192 151 185 192 151 185 192 151 185 192 151 185 192 151 185 192 151 185 192 151 185 192 151 185 192 151 185 192 151 185 192 151 185 192 151 185 192 151 185 192 151 185 192 151 185 192 151 185 192 151 185 192 151 185 192 151 185 192 151 185 192 151 185 192 151 185 192 151 185 192 151 185 192 151 185 192 151 185 192 151 185 192 151 185 192 151 185 192 151 185 192 151 185 192 151 185 192 151 185 192 151 185 192 151 185 192 151 185 192 151 0 0 255 0 0 255 0 0 255 0 0 255 0 0 255 0 0 255 0 0 255 0 0 255 0 0 255 190 196 162 0 0 255 0 0 255 0 0 255 0 0 255 0 0 255 0 0 255 177 179 134 177 179 134 177 179 134 177 179 134 177 179 134 177 179 134 177 179 134 177 179 134 177 179 134 177 179 134 177 179 134 177 179 134 177 179 134 177 179 134 177 179 134 177 179 134 177 179 134 177 179 134 177 179 134 177 179 134 177 179 134 177 179 134 177 179 134 177 179 134 177 179 134 177 179 134 177 179 134 177 179 134 177 179 134 177 179 134 177 179 134 177 179 134 177 179 134 163 163 108 163 163 108 163 163 108 163 163 108 163 163 108 163 163 108 163 163 108 163 163 108 163 163 108 163 163 108 163 163 108 163 163 108 163 163 108 163 163 108 163 163 108 163 163 108 163 163 108 163 163 108 163 163 108 163 163 108 163 163 108 163 163 108 163 163 108 163 163 108 163 163 108 163 163 108 0 0 255 0 0 255 0 0 255 0 0 255 0 0 255 0 0 255 0 0 255 179 185 134 179 185 134 179 185 134 179 185 134 179 185 134 179 185 134 179 185 134 179 185 134 179 185 134 179 185 134 179 185 134 179 185 134 179 185 134 179 185 134 179 185 134 179 185 134 179 185 134 179 185 134 179 185 134 179 185 134 179 185 134 179 185 134 179 185 134 179 185 134 179 185 134 179 185 134 179 185 134 179 185 134 179 185 134 179 185 134 179 185 134 179 185 134 179 185 134 179 185 134 179 185 134 179 185 134 179 185 134 179 185 134 179 185 134 179 185 134 179 185 134 179 185 134 179 185 134 179 185 134 179 185 134 179 185 134 179 185 134 179 185 134 179 185 134 179 185 134 179 185 134 179 185 134 179 185 134 179 185 134 179 185 134 179 185 134 179 185 134 0 0 255 0 0 255 180 188 139 180 188 139 180 188 139 180 188 139 180 188 139 180 188 139 180 188 139 180 188 139 180 188 139 180 188 139 180 188 139 180 188 139 180 188 139 180 188 139 0 0 255 0 0 255 0 0 255 0 0 255 0 0 255 0 0 255 0 0 255 0 0 255 0 0 255 0 0 255 0 0 255 194 201 166 194 201 166 194 201 166 194 201 166 194 201 166 194 201 166 194 201 166 194 201 166 194 201 166 194 201 166 194 201 166 194 201 166 194 201 166 194 201 166 194 201 166 194 201 166 194 201 166 194 201 166 194 201 166 194 201 166 194 201 166 194 201 166 194 201 166 194 201 166 0 0 255 0 0 255 185 192 151 185 192 151 185 192 151 185 192 151 185 192 151 185 192 151 185 192 151 185 192 151 185 192 151 185 192 151 185 192 151 185 192 151 185 192 151 185 192 151 185 192 151 185 192 151 185 192 151 185 192 151 185 192 151 185 192 151 185 192 151 185 192 151 185 192 151 185 192 151 185 192 151 185 192 151 185 192 151 185 192 151 185 192 151 185 192 151 185 192 151 185 192 151 185 192 151 185 192 151 185 192 151 185 192 151 185 192 151 185 192 151 185 192 151 185 192 151 185 192 151 185 192 151 185 192 151 185 192 151 185 192 151 185 192 151 185 192 151 185 192 151 185 192 151 185 192 151 185 192 151 185 192 151 185 192 151 185 192 151 185 192 151 185 192 151 185 192 151 185 192 151 185 192 151 185 192 151 185 192 151 185 192 151 185 192 151 0 0 255 0 0 255 190 196 162 190 196 162 190 196 162 190 196 162 190 196 162 190 196 162 190 196 162 190 196 162 190 196 162 190 196 162 190 196 162 0 0 255 0 0 255 0 0 255 0 0 255 0 0 255 177 179 134 177 179 134 177 179 134 177 179 134 177 179 134 177 179 134 177 179 134 177 179 134 177 179 134 177 179 134 177 179 134 177 179 134 177 179 134 177 179 134 177 179 134 177 179 134 177 179 134 177 179 134 177 179 134 177 179 134 177 179 134 177 179 134 177 179 134 177 179 134 177 179 134 177 179 134 177 179 134 177 179 134 177 179 134 177 179 134 177 179 134 177 179 134 163 163 108 163 163 108 163 163 108 163 163 108 163 163 108 163 163 108 163 163 108 163 163 108 163 163 108 163 163 108 163 163 108 163 163 108 163 163 108 163 163 108 163 163 108 163 163 108 163 163 108 163 163 108 163 163 108 163 163 108 163 163 108 163 163 108 163 163 108 0 0 255 0 0 255 0 0 255 0 0 255 185 185 135 185 185 135 185 185 135 185 185 135 185 185 135 0 0 255 0 0 255 0 0 255 179 185 134 179 185 134 179 185 134 179 185 134 179 185 134 179 185 134 179 185 134 179 185 134 179 185 134 179 185 134 179 185 134 179 185 134 179 185 134 179 185 134 179 185 134 179 185 134 179 185 134 179 185 134 179 185 134 179 185 134 179 185 134 179 185 134 179 185 134 179 185 134 179 185 134 179 185 134 179 185 134 179 185 134 179 185 134 179 185 134 179 185 134 179 185 134 179 185 134 179 185 134 179 185 134 179 185 134 179 185 134 179 185 134 179 185 134 179 185 134 179 185 134 179 185 134 179 185 134 179 185 134 179 185 134 179 185 134 179 185 134 179 185 134 179 185 134 179 185 134 179 185 134 179 185 134 179 185 134 179 185 134 179 185 134 0 0 255 0 0 255 180 188 139 180 188 139 180 188 139 180 188 139 180 188 139 0 0 255 0 0 255 0 0 255 0 0 255 0 0 255 0 0 255 0 0 255 0 0 255 0 0 255 0 0 255 0 0 255 0 0 255 0 0 255 194 201 166 194 201 166 0 0 255 0 0 255 0 0 255 0 0 255 194 201 166 194 201 166 194 201 166 194 201 166 194 201 166 194 201 166 194 201 166 194 201 166 194 201 166 194 201 166 194 201 166 194 201 166 194 201 166 194 201 166 194 201 166 194 201 166 194 201 166 194 201 166 194 201 166 194 201 166 194 201 166 194 201 166 194 201 166 194 201 166 194 201 166 194 201 166 0 0 255 0 0 255 185 192 151 185 192 151 185 192 151 185 192 151 185 192 151 185 192 151 185 192 151 185 192 151 185 192 151 185 192 151 185 192 151 185 192 151 185 192 151 185 192 151 185 192 151 185 192 151 185 192 151 185 192 151 185 192 151 185 192 151 185 192 151 185 192 151 185 192 151 185 192 151 185 192 151 185 192 151 185 192 151 185 192 151 185 192 151 185 192 151 185 192 151 185 192 151 185 192 151 185 192 151 185 192 151 185 192 151 185 192 151 185 192 151 185 192 151 185 192 151 185 192 151 185 192 151 185 192 151 185 192 151 185 192 151 185 192 151 185 192 151 185 192 151 185 192 151 185 192 151 185 192 151 185 192 151 185 192 151 185 192 151 185 192 151 185 192 151 185 192 151 185 192 151 185 192 151 185 192 151 185 192 151 0 0 255 0 0 255 190 196 162 190 196 162 190 196 162 190 196 162 190 196 162 190 196 162 190 196 162 190 196 162 190 196 162 190 196 162 190 196 162 190 196 162 190 196 162 190 196 162 190 196 162 190 196 162 0 0 255 0 0 255 177 179 134 0 0 255 0 0 255 0 0 255 177 179 134 177 179 134 177 179 134 177 179 134 177 179 134 177 179 134 177 179 134 177 179 134 177 179 134 177 179 134 177 179 134 177 179 134 177 179 134 177 179 134 177 179 134 177 179 134 177 179 134 177 179 134 177 179 134 177 179 134 177 179 134 177 179 134 177 179 134 177 179 134 177 179 134 177 179 134 177 179 134 163 163 108 163 163 108 163 163 108 163 163 108 163 163 108 163 163 108 163 163 108 163 163 108 163 163 108 163 163 108 163 163 108 163 163 108 163 163 108 163 163 108 163 163 108 163 163 108 163 163 108 163 163 108 0 0 255 0 0 255 0 0 255 0 0 255 0 0 255 0 0 255 0 0 255 0 0 255 185 185 135 185 185 135 185 185 135 185 185 135 185 185 135 185 185 135 185 185 135 0 0 255 0 0 255 0 0 255 179 185 134 179 185 134 179 185 134 179 185 134 179 185 134 179 185 134 179 185 134 179 185 134 179 185 134 179 185 134 179 185 134 179 185 134 179 185 134 179 185 134 179 185 134 179 185 134 179 185 134 179 185 134 179 185 134 179 185 134 179 185 134 179 185 134 179 185 134 179 185 134 179 185 134 179 185 134 179 185 134 179 185 134 179 185 134 179 185 134 179 185 134 179 185 134 179 185 134 179 185 134 179 185 134 179 185 134 179 185 134 179 185 134 179 185 134 179 185 134 179 185 134 179 185 134 179 185 134 179 185 134 179 185 134 179 185 134 179 185 134 179 185 134 179 185 134 179 185 134 179 185 134 179 185 134 179 185 134 179 185 134 0 0 255 0 0 255 180 188 139 180 188 139 0 0 255 0 0 255 0 0 255 0 0 255 0 0 255 0 0 255 0 0 255 0 0 255 0 0 255 0 0 255 0 0 255 0 0 255 194 201 166 194 201 166 194 201 166 194 201 166 194 201 166 194 201 166 194 201 166 194 201 166 194 201 166 194 201 166 194 201 166 194 201 166 194 201 166 194 201 166 194 201 166 194 201 166 194 201 166 194 201 166 194 201 166 194 201 166 194 201 166 194 201 166 194 201 166 194 201 166 194 201 166 194 201 166 194 201 166 194 201 166 194 201 166 194 201 166 194 201 166 194 201 166 194 201 166 194 201 166 194 201 166 194 201 166 194 201 166 0 0 255 0 0 255 185 192 151 185 192 151 185 192 151 185 192 151 185 192 151 185 192 151 185 192 151 185 192 151 185 192 151 185 192 151 185 192 151 185 192 151 185 192 151 185 192 151 185 192 151 185 192 151 185 192 151 185 192 151 185 192 151 185 192 151 185 192 151 185 192 151 185 192 151 185 192 151 185 192 151 185 192 151 185 192 151 185 192 151 185 192 151 185 192 151 185 192 151 185 192 151 185 192 151 185 192 151 185 192 151 185 192 151 185 192 151 185 192 151 185 192 151 185 192 151 185 192 151 185 192 151 185 192 151 185 192 151 185 192 151 185 192 151 185 192 151 185 192 151 185 192 151 185 192 151 185 192 151 185 192 151 185 192 151 185 192 151 185 192 151 185 192 151 185 192 151 185 192 151 185 192 151 0 0 255 0 0 255 190 196 162 190 196 162 190 196 162 190 196 162 190 196 162 190 196 162 190 196 162 190 196 162 190 196 162 190 196 162 190 196 162 190 196 162 190 196 162 190 196 162 190 196 162 190 196 162 190 196 162 0 0 255 0 0 255 0 0 255 0 0 255 0 0 255 0 0 255 0 0 255 177 179 134 177 179 134 177 179 134 177 179 134 177 179 134 177 179 134 177 179 134 177 179 134 177 179 134 177 179 134 177 179 134 177 179 134 177 179 134 177 179 134 177 179 134 177 179 134 177 179 134 177 179 134 177 179 134 177 179 134 177 179 134 177 179 134 177 179 134 177 179 134 177 179 134 177 179 134 163 163 108 163 163 108 163 163 108 163 163 108 163 163 108 163 163 108 163 163 108 163 163 108 163 163 108 163 163 108 163 163 108 163 163 108 163 163 108 163 163 108 163 163 108 163 163 108 163 163 108 0 0 255 0 0 255 0 0 255 0 0 255 0 0 255 0 0 255 185 185 135 185 185 135 185 185 135 185 185 135 185 185 135 185 185 135 185 185 135 185 185 135 185 185 135 185 185 135 185 185 135 185 185 135 0 0 255 0 0 255 179 185 134 179 185 134 179 185 134 179 185 134 179 185 134 179 185 134 179 185 134 179 185 134 179 185 134 179 185 134 179 185 134 179 185 134 179 185 134 179 185 134 179 185 134 179 185 134 179 185 134 179 185 134 179 185 134 179 185 134 179 185 134 179 185 134 179 185 134 179 185 134 179 185 134 179 185 134 179 185 134 179 185 134 179 185 134 179 185 134 179 185 134 179 185 134 179 185 134 179 185 134 179 185 134 179 185 134 179 185 134 179 185 134 179 185 134 179 185 134 179 185 134 179 185 134 179 185 134 179 185 134 179 185 134 179 185 134 179 185 134 179 185 134 179 185 134 179 185 134 179 185 134 179 185 134 0 0 255 0 0 255 0 0 255 0 0 255 0 0 255 0 0 255 0 0 255 0 0 255 194 201 166 194 201 166 194 201 166 194 201 166 194 201 166 194 201 166 194 201 166 194 201 166 194 201 166 194 201 166 194 201 166 194 201 166 194 201 166 194 201 166 194 201 166 194 201 166 194 201 166 194 201 166 194 201 166 194 201 166 194 201 166 194 201 166 194 201 166 194 201 166 194 201 166 194 201 166 194 201 166 194 201 166 194 201 166 194 201 166 194 201 166 194 201 166 194 201 166 194 201 166 194 201 166 194 201 166 194 201 166 194 201 166 194 201 166 194 201 166 194 201 166 194 201 166 194 201 166 194 201 166 194 201 166 194 201 166 194 201 166 0 0 255 0 0 255 185 192 151 185 192 151 185 192 151 185 192 151 185 192 151 185 192 151 185 192 151 185 192 151 185 192 151 185 192 151 185 192 151 185 192 151 185 192 151 185 192 151 185 192 151 185 192 151 185 192 151 185 192 151 185 192 151 185 192 151 185 192 151 185 192 151 185 192 151 185 192 151 185 192 151 185 192 151 185 192 151 185 192 151 185 192 151 185 192 151 185 192 151 185 192 151 185 192 151 185 192 151 185 192 151 185 192 151 185 192 151 185 192 151 185 192 151 185 192 151 185 192 151 185 192 151 185 192 151 185 192 151 185 192 151 185 192 151 185 192 151 185 192 151 185 192 151 185 192 151 185 192 151 185 192 151 185 192 151 185 192 151 185 192 151 185 192 151 185 192 151 0 0 255 0 0 255 190 196 162 190 196 162 190 196 162 190 196 162 190 196 162 190 196 162 190 196 162 190 196 162 190 196 162 190 196 162 190 196 162 190 196 162 190 196 162 190 196 162 190 196 162 190 196 162 190 196 162 190 196 162 190 196 162 0 0 255 0 0 255 190 196 162 190 196 162 190 196 162 0 0 255 0 0 255 0 0 255 0 0 255 0 0 255 0 0 255 0 0 255 177 179 134 177 179 134 177 179 134 177 179 134 177 179 134 177 179 134 177 179 134 177 179 134 177 179 134 177 179 134 177 179 134 177 179 134 177 179 134 177 179 134 177 179 134 177 179 134 177 179 134 177 179 134 177 179 134 177 179 134 163 163 108 163 163 108 163 163 108 163 163 108 163 163 108 163 163 108 163 163 108 163 163 108 163 163 108 163 163 108 163 163 108 163 163 108 163 163 108 163 163 108 163 163 108 163 163 108 163 163 108 0 0 255 0 0 255 185 185 135 185 185 135 185 185 135 185 185 135 185 185 135 185 185 135 185 185 135 185 185 135 185 185 135 185 185 135 185 185 135 185 185 135 185 185 135 185 185 135 185 185 135 185 185 135 185 185 135 0 0 255 0 0 255 179 185 134 179 185 134 179 185 134 179 185 134 179 185 134 179 185 134 179 185 134 179 185 134 179 185 134 179 185 134 179 185 134 179 185 134 179 185 134 179 185 134 179 185 134 179 185 134 179 185 134 179 185 134 179 185 134 179 185 134 179 185 134 179 185 134 179 185 134 179 185 134 179 185 134 179 185 134 179 185 134 179 185 134 179 185 134 179 185 134 179 185 134 179 185 134 179 185 134 179 185 134 179 185 134 179 185 134 179 185 134 179 185 134 179 185 134 179 185 134 179 185 134 179 185 134 179 185 134 179 185 134 0 0 255 0 0 255 0 0 255 0 0 255 0 0 255 179 185 134 179 185 134 0 0 255 0 0 255 194 201 166 0 0 255 0 0 255 194 201 166 194 201 166 194 201 166 194 201 166 194 201 166 194 201 166 194 201 166 194 201 166 194 201 166 194 201 166 194 201 166 194 201 166 194 201 166 194 201 166 194 201 166 194 201 166 194 201 166 194 201 166 194 201 166 194 201 166 194 201 166 194 201 166 194 201 166 194 201 166 194 201 166 194 201 166 194 201 166 194 201 166 194 201 166 194 201 166 194 201 166 194 201 166 194 201 166 194 201 166 194 201 166 194 201 166 194 201 166 194 201 166 194 201 166 194 201 166 194 201 166 194 201 166 194 201 166 194 201 166 194 201 166 194 201 166 194 201 166 194 201 166 194 201 166 194 201 166 194 201 166 0 0 255 0 0 255 185 192 151 185 192 151 185 192 151 185 192 151 185 192 151 185 192 151 185 192 151 185 192 151 185 192 151 185 192 151 185 192 151 185 192 151 185 192 151 185 192 151 185 192 151 185 192 151 185 192 151 185 192 151 185 192 151 185 192 151 185 192 151 185 192 151 185 192 151 185 192 151 185 192 151 185 192 151 185 192 151 185 192 151 185 192 151 185 192 151 185 192 151 185 192 151 185 192 151 185 192 151 185 192 151 185 192 151 185 192 151 185 192 151 185 192 151 185 192 151 185 192 151 185 192 151 185 192 151 185 192 151 185 192 151 185 192 151 185 192 151 185 192 151 185 192 151 185 192 151 185 192 151 185 192 151 185 192 151 185 192 151 185 192 151 0 0 255 0 0 255 190 196 162 190 196 162 190 196 162 190 196 162 190 196 162 190 196 162 190 196 162 190 196 162 190 196 162 190 196 162 190 196 162 190 196 162 190 196 162 190 196 162 190 196 162 190 196 162 190 196 162 190 196 162 190 196 162 190 196 162 190 196 162 190 196 162 190 196 162 190 196 162 190 196 162 190 196 162 0 0 255 0 0 255 0 0 255 0 0 255 0 0 255 0 0 255 0 0 255 177 179 134 177 179 134 177 179 134 177 179 134 177 179 134 177 179 134 177 179 134 177 179 134 177 179 134 177 179 134 177 179 134 177 179 134 177 179 134 177 179 134 177 179 134 177 179 134 177 179 134 177 179 134 177 179 134 163 163 108 163 163 108 163 163 108 163 163 108 163 163 108 163 163 108 163 163 108 163 163 108 163 163 108 163 163 108 163 163 108 163 163 108 163 163 108 163 163 108 163 163 108 163 163 108 0 0 255 0 0 255 185 185 135 185 185 135 185 185 135 185 185 135 185 185 135 185 185 135 185 185 135 185 185 135 185 185 135 185 185 135 185 185 135 185 185 135 185 185 135 185 185 135 185 185 135 185 185 135 185 185 135 185 185 135 0 0 255 0 0 255 0 0 255 179 185 134 179 185 134 179 185 134 179 185 134 179 185 134 179 185 134 179 185 134 179 185 134 179 185 134 179 185 134 179 185 134 179 185 134 179 185 134 179 185 134 179 185 134 179 185 134 179 185 134 179 185 134 179 185 134 179 185 134 179 185 134 179 185 134 179 185 134 179 185 134 179 185 134 179 185 134 179 185 134 179 185 134 179 185 134 179 185 134 179 185 134 179 185 134 179 185 134 179 185 134 179 185 134 179 185 134 179 185 134 179 185 134 179 185 134 179 185 134 179 185 134 179 185 134 0 0 255 0 0 255 0 0 255 0 0 255 0 0 255 0 0 255 0 0 255 0 0 255 0 0 255 194 201 166 194 201 166 194 201 166 194 201 166 194 201 166 194 201 166 194 201 166 194 201 166 194 201 166 194 201 166 194 201 166 194 201 166 194 201 166 194 201 166 194 201 166 194 201 166 194 201 166 194 201 166 194 201 166 194 201 166 194 201 166 194 201 166 194 201 166 194 201 166 194 201 166 194 201 166 194 201 166 194 201 166 194 201 166 194 201 166 194 201 166 194 201 166 194 201 166 194 201 166 194 201 166 194 201 166 194 201 166 194 201 166 194 201 166 194 201 166 194 201 166 194 201 166 194 201 166 194 201 166 194 201 166 194 201 166 194 201 166 194 201 166 194 201 166 194 201 166 194 201 166 194 201 166 194 201 166 194 201 166 194 201 166 0 0 255 0 0 255 185 192 151 185 192 151 185 192 151 185 192 151 185 192 151 185 192 151 185 192 151 185 192 151 185 192 151 185 192 151 185 192 151 185 192 151 185 192 151 185 192 151 185 192 151 185 192 151 185 192 151 185 192 151 185 192 151 185 192 151 185 192 151 185 192 151 185 192 151 185 192 151 185 192 151 185 192 151 185 192 151 185 192 151 185 192 151 185 192 151 185 192 151 185 192 151 185 192 151 185 192 151 185 192 151 185 192 151 185 192 151 185 192 151 185 192 151 185 192 151 185 192 151 185 192 151 185 192 151 185 192 151 185 192 151 185 192 151 185 192 151 185 192 151 185 192 151 185 192 151 185 192 151 185 192 151 185 192 151 185 192 151 0 0 255 0 0 255 190 196 162 190 196 162 190 196 162 190 196 162 190 196 162 190 196 162 190 196 162 190 196 162 190 196 162 190 196 162 190 196 162 190 196 162 190 196 162 190 196 162 190 196 162 190 196 162 190 196 162 190 196 162 190 196 162 190 196 162 190 196 162 190 196 162 190 196 162 190 196 162 190 196 162 190 196 162 190 196 162 190 196 162 190 196 162 190 196 162 190 196 162 190 196 162 0 0 255 0 0 255 0 0 255 0 0 255 0 0 255 177 179 134 177 179 134 177 179 134 177 179 134 177 179 134 177 179 134 177 179 134 177 179 134 177 179 134 177 179 134 177 179 134 177 179 134 177 179 134 177 179 134 177 179 134 177 179 134 163 163 108 163 163 108 163 163 108 163 163 108 163 163 108 163 163 108 163 163 108 163 163 108 163 163 108 163 163 108 163 163 108 163 163 108 0 0 255 0 0 255 0 0 255 0 0 255 0 0 255 185 185 135 185 185 135 185 185 135 185 185 135 185 185 135 185 185 135 185 185 135 185 185 135 185 185 135 185 185 135 185 185 135 185 185 135 185 185 135 185 185 135 185 185 135 185 185 135 185 185 135 185 185 135 185 185 135 185 185 135 0 0 255 0 0 255 0 0 255 179 185 134 179 185 134 179 185 134 179 185 134 179 185 134 179 185 134 179 185 134 179 185 134 179 185 134 179 185 134 179 185 134 179 185 134 179 185 134 179 185 134 179 185 134 179 185 134 179 185 134 179 185 134 179 185 134 179 185 134 179 185 134 179 185 134 179 185 134 179 185 134 179 185 134 179 185 134 179 185 134 179 185 134 179 185 134 179 185 134 179 185 134 179 185 134 179 185 134 179 185 134 179 185 134 179 185 134 179 185 134 179 185 134 0 0 255 0 0 255 0 0 255 0 0 255 0 0 255 193 198 157 193 198 157 193 198 157 193 198 157 0 0 255 0 0 255 0 0 255 194 201 166 194 201 166 194 201 166 194 201 166 194 201 166 194 201 166 194 201 166 194 201 166 194 201 166 194 201 166 194 201 166 194 201 166 194 201 166 194 201 166 194 201 166 194 201 166 194 201 166 194 201 166 194 201 166 194 201 166 194 201 166 194 201 166 194 201 166 194 201 166 194 201 166 194 201 166 194 201 166 194 201 166 194 201 166 194 201 166 194 201 166 194 201 166 194 201 166 194 201 166 194 201 166 194 201 166 194 201 166 194 201 166 194 201 166 194 201 166 194 201 166 194 201 166 194 201 166 194 201 166 194 201 166 194 201 166 194 201 166 194 201 166 194 201 166 194 201 166 194 201 166 194 201 166 194 201 166 194 201 166 194 201 166 0 0 255 0 0 255 0 0 255 185 192 151 185 192 151 0 0 255 0 0 255 0 0 255 0 0 255 0 0 255 0 0 255 0 0 255 0 0 255 0 0 255 0 0 255 0 0 255 0 0 255 0 0 255 185 192 151 185 192 151 185 192 151 185 192 151 185 192 151 185 192 151 185 192 151 185 192 151 185 192 151 185 192 151 185 192 151 185 192 151 185 192 151 185 192 151 185 192 151 185 192 151 185 192 151 185 192 151 185 192 151 185 192 151 185 192 151 185 192 151 185 192 151 185 192 151 185 192 151 185 192 151 185 192 151 185 192 151 185 192 151 185 192 151 185 192 151 185 192 151 185 192 151 185 192 151 185 192 151 185 192 151 185 192 151 0 0 255 0 0 255 190 196 162 190 196 162 190 196 162 190 196 162 190 196 162 190 196 162 190 196 162 190 196 162 190 196 162 190 196 162 190 196 162 190 196 162 190 196 162 190 196 162 190 196 162 190 196 162 190 196 162 190 196 162 190 196 162 190 196 162 190 196 162 190 196 162 190 196 162 190 196 162 190 196 162 190 196 162 190 196 162 190 196 162 190 196 162 190 196 162 190 196 162 190 196 162 190 196 162 190 196 162 0 0 255 0 0 255 0 0 255 0 0 255 0 0 255 177 179 134 177 179 134 177 179 134 177 179 134 177 179 134 177 179 134 177 179 134 177 179 134 177 179 134 177 179 134 177 179 134 177 179 134 177 179 134 0 0 255 190 196 162 163 163 108 163 163 108 163 163 108 163 163 108 163 163 108 163 163 108 163 163 108 163 163 108 163 163 108 163 163 108 163 163 108 0 0 255 0 0 255 0 0 255 0 0 255 0 0 255 185 185 135 185 185 135 185 185 135 185 185 135 185 185 135 185 185 135 185 185 135 185 185 135 185 185 135 185 185 135 185 185 135 185 185 135 185 185 135 185 185 135 185 185 135 185 185 135 185 185 135 185 185 135 185 185 135 185 185 135 185 185 135 185 185 135 185 185 135 0 0 255 0 0 255 179 185 134 179 185 134 179 185 134 179 185 134 179 185 134 179 185 134 179 185 134 179 185 134 179 185 134 179 185 134 179 185 134 179 185 134 179 185 134 179 185 134 179 185 134 179 185 134 179 185 134 179 185 134 179 185 134 179 185 134 179 185 134 179 185 134 179 185 134 179 185 134 179 185 134 179 185 134 179 185 134 179 185 134 179 185 134 179 185 134 179 185 134 0 0 255 179 185 134 179 185 134 0 0 255 0 0 255 0 0 255 0 0 255 0 0 255 0 0 255 0 0 255 193 198 157 193 198 157 193 198 157 193 198 157 193 198 157 193 198 157 0 0 255 0 0 255 194 201 166 194 201 166 194 201 166 194 201 166 194 201 166 194 201 166 194 201 166 194 201 166 194 201 166 194 201 166 194 201 166 194 201 166 194 201 166 194 201 166 194 201 166 194 201 166 194 201 166 194 201 166 194 201 166 194 201 166 194 201 166 194 201 166 194 201 166 194 201 166 194 201 166 194 201 166 194 201 166 194 201 166 194 201 166 194 201 166 194 201 166 194 201 166 194 201 166 194 201 166 194 201 166 194 201 166 194 201 166 194 201 166 194 201 166 194 201 166 194 201 166 194 201 166 194 201 166 194 201 166 194 201 166 194 201 166 194 201 166 194 201 166 194 201 166 194 201 166 194 201 166 194 201 166 194 201 166 194 201 166 194 201 166 194 201 166 0 0 255 0 0 255 0 0 255 0 0 255 0 0 255 0 0 255 0 0 255 0 0 255 0 0 255 0 0 255 0 0 255 0 0 255 0 0 255 0 0 255 0 0 255 0 0 255 0 0 255 0 0 255 0 0 255 0 0 255 0 0 255 0 0 255 185 192 151 185 192 151 185 192 151 185 192 151 185 192 151 185 192 151 185 192 151 185 192 151 185 192 151 185 192 151 185 192 151 185 192 151 185 192 151 185 192 151 185 192 151 185 192 151 185 192 151 185 192 151 185 192 151 185 192 151 185 192 151 185 192 151 185 192 151 185 192 151 185 192 151 185 192 151 185 192 151 185 192 151 185 192 151 185 192 151 185 192 151 0 0 255 0 0 255 190 196 162 190 196 162 190 196 162 190 196 162 190 196 162 190 196 162 190 196 162 190 196 162 190 196 162 190 196 162 190 196 162 190 196 162 190 196 162 190 196 162 190 196 162 190 196 162 190 196 162 190 196 162 190 196 162 190 196 162 190 196 162 190 196 162 190 196 162 190 196 162 190 196 162 190 196 162 190 196 162 190 196 162 190 196 162 190 196 162 190 196 162 190 196 162 190 196 162 190 196 162 190 196 162 190 196 162 190 196 162 190 196 162 0 0 255 0 0 255 0 0 255 0 0 255 0 0 255 0 0 255 177 179 134 177 179 134 177 179 134 0 0 255 177 179 134 177 179 134 177 179 134 177 179 134 177 179 134 177 179 134 177 179 134 163 163 108 163 163 108 163 163 108 163 163 108 163 163 108 163 163 108 163 163 108 163 163 108 163 163 108 163 163 108 0 0 255 0 0 255 185 185 135 185 185 135 185 185 135 185 185 135 185 185 135 185 185 135 185 185 135 185 185 135 185 185 135 185 185 135 185 185 135 185 185 135 185 185 135 185 185 135 185 185 135 185 185 135 185 185 135 185 185 135 185 185 135 185 185 135 185 185 135 185 185 135 185 185 135 185 185 135 185 185 135 185 185 135 185 185 135 185 185 135 0 0 255 0 0 255 179 185 134 179 185 134 179 185 134 179 185 134 179 185 134 179 185 134 179 185 134 179 185 134 179 185 134 179 185 134 179 185 134 179 185 134 179 185 134 179 185 134 179 185 134 179 185 134 179 185 134 179 185 134 179 185 134 179 185 134 179 185 134 179 185 134 179 185 134 179 185 134 179 185 134 0 0 255 0 0 255 0 0 255 0 0 255 0 0 255 0 0 255 0 0 255 0 0 255 0 0 255 0 0 255 0 0 255 193 198 157 193 198 157 193 198 157 193 198 157 193 198 157 193 198 157 193 198 157 193 198 157 193 198 157 193 198 157 0 0 255 0 0 255 194 201 166 194 201 166 194 201 166 194 201 166 194 201 166 194 201 166 194 201 166 194 201 166 194 201 166 194 201 166 194 201 166 194 201 166 194 201 166 194 201 166 194 201 166 194 201 166 194 201 166 194 201 166 194 201 166 194 201 166 194 201 166 194 201 166 194 201 166 194 201 166 194 201 166 194 201 166 194 201 166 194 201 166 194 201 166 194 201 166 194 201 166 194 201 166 194 201 166 194 201 166 194 201 166 194 201 166 194 201 166 194 201 166 194 201 166 194 201 166 194 201 166 194 201 166 194 201 166 194 201 166 194 201 166 194 201 166 194 201 166 194 201 166 194 201 166 194 201 166 194 201 166 194 201 166 194 201 166 194 201 166 194 201 166 194 201 166 194 201 166 0 0 255 0 0 255 0 0 255 194 202 170 194 202 170 194 202 170 194 202 170 194 202 170 194 202 170 194 202 170 194 202 170 194 202 170 194 202 170 194 202 170 194 202 170 194 202 170 0 0 255 0 0 255 0 0 255 0 0 255 0 0 255 0 0 255 0 0 255 0 0 255 0 0 255 0 0 255 0 0 255 0 0 255 185 192 151 185 192 151 185 192 151 185 192 151 185 192 151 185 192 151 185 192 151 185 192 151 185 192 151 185 192 151 185 192 151 185 192 151 185 192 151 185 192 151 185 192 151 185 192 151 185 192 151 185 192 151 185 192 151 185 192 151 185 192 151 185 192 151 185 192 151 185 192 151 0 0 255 0 0 255 190 196 162 190 196 162 190 196 162 190 196 162 190 196 162 190 196 162 190 196 162 190 196 162 190 196 162 190 196 162 190 196 162 190 196 162 190 196 162 190 196 162 190 196 162 190 196 162 190 196 162 190 196 162 190 196 162 190 196 162 190 196 162 190 196 162 190 196 162 190 196 162 190 196 162 190 196 162 190 196 162 190 196 162 190 196 162 190 196 162 190 196 162 190 196 162 190 196 162 190 196 162 190 196 162 190 196 162 190 196 162 190 196 162 190 196 162 0 0 255 0 0 255 0 0 255 0 0 255 0 0 255 0 0 255 177 179 134 0 0 255 0 0 255 0 0 255 177 179 134 177 179 134 177 179 134 0 0 255 0 0 255 190 196 162 163 163 108 163 163 108 163 163 108 163 163 108 163 163 108 163 163 108 0 0 255 0 0 255 0 0 255 0 0 255 0 0 255 185 185 135 185 185 135 185 185 135 185 185 135 185 185 135 185 185 135 185 185 135 185 185 135 185 185 135 185 185 135 185 185 135 185 185 135 185 185 135 185 185 135 185 185 135 185 185 135 185 185 135 185 185 135 185 185 135 185 185 135 185 185 135 185 185 135 185 185 135 185 185 135 185 185 135 185 185 135 185 185 135 185 185 135 185 185 135 185 185 135 0 0 255 0 0 255 179 185 134 179 185 134 179 185 134 179 185 134 179 185 134 179 185 134 179 185 134 179 185 134 179 185 134 179 185 134 179 185 134 179 185 134 179 185 134 179 185 134 179 185 134 179 185 134 179 185 134 179 185 134 179 185 134 179 185 134 179 185 134 0 0 255 0 0 255 0 0 255 0 0 255 0 0 255 0 0 255 0 0 255 0 0 255 193 198 157 0 0 255 0 0 255 193 198 157 193 198 157 193 198 157 193 198 157 193 198 157 193 198 157 193 198 157 193 198 157 193 198 157 193 198 157 193 198 157 193 198 157 193 198 157 0 0 255 0 0 255 194 201 166 194 201 166 194 201 166 194 201 166 194 201 166 194 201 166 194 201 166 194 201 166 194 201 166 194 201 166 194 201 166 194 201 166 194 201 166 194 201 166 194 201 166 194 201 166 194 201 166 194 201 166 194 201 166 194 201 166 194 201 166 194 201 166 194 201 166 194 201 166 194 201 166 194 201 166 194 201 166 194 201 166 194 201 166 194 201 166 194 201 166 194 201 166 194 201 166 194 201 166 194 201 166 194 201 166 194 201 166 194 201 166 194 201 166 194 201 166 194 201 166 194 201 166 194 201 166 194 201 166 194 201 166 194 201 166 194 201 166 194 201 166 194 201 166 194 201 166 194 201 166 194 201 166 194 201 166 194 201 166 194 201 166 194 201 166 194 201 166 0 0 255 0 0 255 194 202 170 194 202 170 194 202 170 194 202 170 194 202 170 194 202 170 194 202 170 194 202 170 194 202 170 194 202 170 194 202 170 194 202 170 194 202 170 194 202 170 194 202 170 194 202 170 194 202 170 194 202 170 194 202 170 0 0 255 0 0 255 0 0 255 0 0 255 0 0 255 0 0 255 0 0 255 0 0 255 0 0 255 0 0 255 0 0 255 185 192 151 185 192 151 185 192 151 185 192 151 0 0 255 185 192 151 185 192 151 185 192 151 185 192 151 185 192 151 185 192 151 185 192 151 185 192 151 185 192 151 185 192 151 185 192 151 185 192 151 185 192 151 185 192 151 0 0 255 0 0 255 190 196 162 190 196 162 190 196 162 190 196 162 190 196 162 190 196 162 190 196 162 190 196 162 190 196 162 190 196 162 190 196 162 190 196 162 190 196 162 190 196 162 190 196 162 190 196 162 190 196 162 190 196 162 190 196 162 190 196 162 190 196 162 190 196 162 190 196 162 190 196 162 190 196 162 190 196 162 190 196 162 190 196 162 190 196 162 190 196 162 190 196 162 190 196 162 190 196 162 190 196 162 190 196 162 190 196 162 190 196 162 190 196 162 190 196 162 190 196 162 190 196 162 190 196 162 190 196 162 190 196 162 190 196 162 0 0 255 0 0 255 0 0 255 0 0 255 0 0 255 0 0 255 0 0 255 0 0 255 0 0 255 0 0 255 190 196 162 163 163 108 163 163 108 163 163 108 163 163 108 163 163 108 0 0 255 0 0 255 0 0 255 0 0 255 0 0 255 185 185 135 185 185 135 185 185 135 185 185 135 185 185 135 185 185 135 185 185 135 185 185 135 185 185 135 185 185 135 185 185 135 185 185 135 185 185 135 185 185 135 185 185 135 185 185 135 185 185 135 185 185 135 185 185 135 185 185 135 185 185 135 185 185 135 185 185 135 185 185 135 185 185 135 185 185 135 185 185 135 185 185 135 185 185 135 185 185 135 185 185 135 185 185 135 0 0 255 0 0 255 179 185 134 179 185 134 179 185 134 179 185 134 179 185 134 179 185 134 179 185 134 179 185 134 179 185 134 179 185 134 179 185 134 179 185 134 179 185 134 179 185 134 179 185 134 179 185 134 179 185 134 0 0 255 0 0 255 0 0 255 0 0 255 0 0 255 0 0 255 193 198 157 193 198 157 193 198 157 193 198 157 193 198 157 193 198 157 193 198 157 193 198 157 193 198 157 193 198 157 193 198 157 193 198 157 193 198 157 193 198 157 193 198 157 193 198 157 193 198 157 193 198 157 193 198 157 193 198 157 193 198 157 0 0 255 0 0 255 194 201 166 194 201 166 194 201 166 194 201 166 194 201 166 194 201 166 194 201 166 194 201 166 194 201 166 194 201 166 194 201 166 194 201 166 194 201 166 194 201 166 194 201 166 194 201 166 194 201 166 194 201 166 194 201 166 194 201 166 194 201 166 194 201 166 194 201 166 194 201 166 194 201 166 194 201 166 194 201 166 194 201 166 194 201 166 194 201 166 194 201 166 194 201 166 194 201 166 194 201 166 194 201 166 194 201 166 194 201 166 194 201 166 194 201 166 194 201 166 194 201 166 194 201 166 194 201 166 194 201 166 194 201 166 194 201 166 194 201 166 194 201 166 194 201 166 194 201 166 194 201 166 194 201 166 194 201 166 194 201 166 194 201 166 194 201 166 194 201 166 0 0 255 0 0 255 194 202 170 194 202 170 194 202 170 194 202 170 194 202 170 194 202 170 194 202 170 194 202 170 194 202 170 194 202 170 194 202 170 194 202 170 194 202 170 194 202 170 194 202 170 194 202 170 194 202 170 194 202 170 194 202 170 194 202 170 194 202 170 194 202 170 194 202 170 194 202 170 194 202 170 194 202 170 0 0 255 0 0 255 0 0 255 0 0 255 0 0 255 0 0 255 0 0 255 0 0 255 0 0 255 0 0 255 0 0 255 0 0 255 0 0 255 0 0 255 0 0 255 185 192 151 185 192 151 185 192 151 185 192 151 185 192 151 185 192 151 185 192 151 0 0 255 0 0 255 190 196 162 190 196 162 190 196 162 190 196 162 190 196 162 190 196 162 190 196 162 190 196 162 190 196 162 190 196 162 190 196 162 190 196 162 190 196 162 190 196 162 190 196 162 190 196 162 190 196 162 190 196 162 190 196 162 190 196 162 190 196 162 190 196 162 190 196 162 190 196 162 190 196 162 190 196 162 190 196 162 190 196 162 190 196 162 190 196 162 190 196 162 190 196 162 190 196 162 190 196 162 190 196 162 190 196 162 190 196 162 190 196 162 190 196 162 190 196 162 190 196 162 190 196 162 190 196 162 190 196 162 190 196 162 190 196 162 190 196 162 0 0 255 0 0 255 190 196 162 190 196 162 0 0 255 0 0 255 0 0 255 190 196 162 190 196 162 190 196 162 185 185 135 0 0 255 0 0 255 0 0 255 0 0 255 0 0 255 185 185 135 185 185 135 185 185 135 185 185 135 185 185 135 185 185 135 185 185 135 185 185 135 185 185 135 185 185 135 185 185 135 185 185 135 185 185 135 185 185 135 185 185 135 185 185 135 185 185 135 185 185 135 185 185 135 185 185 135 185 185 135 185 185 135 185 185 135 185 185 135 185 185 135 185 185 135 185 185 135 185 185 135 185 185 135 185 185 135 185 185 135 185 185 135 185 185 135 185 185 135 185 185 135 185 185 135 185 185 135 0 0 255 0 0 255 179 185 134 179 185 134 179 185 134 179 185 134 179 185 134 179 185 134 179 185 134 179 185 134 179 185 134 179 185 134 179 185 134 0 0 255 0 0 255 179 185 134 0 0 255 0 0 255 0 0 255 0 0 255 0 0 255 193 198 157 193 198 157 193 198 157 193 198 157 193 198 157 193 198 157 193 198 157 193 198 157 193 198 157 193 198 157 193 198 157 193 198 157 193 198 157 193 198 157 193 198 157 193 198 157 193 198 157 193 198 157 193 198 157 193 198 157 193 198 157 193 198 157 193 198 157 193 198 157 0 0 255 0 0 255 194 201 166 194 201 166 194 201 166 194 201 166 194 201 166 194 201 166 194 201 166 194 201 166 194 201 166 194 201 166 194 201 166 194 201 166 194 201 166 194 201 166 194 201 166 194 201 166 194 201 166 194 201 166 194 201 166 194 201 166 194 201 166 194 201 166 194 201 166 194 201 166 194 201 166 194 201 166 194 201 166 194 201 166 194 201 166 194 201 166 194 201 166 194 201 166 194 201 166 194 201 166 194 201 166 194 201 166 194 201 166 194 201 166 194 201 166 194 201 166 194 201 166 194 201 166 194 201 166 194 201 166 194 201 166 194 201 166 194 201 166 194 201 166 194 201 166 194 201 166 194 201 166 194 201 166 194 201 166 194 201 166 194 201 166 194 201 166 194 201 166 0 0 255 0 0 255 194 202 170 194 202 170 194 202 170 194 202 170 194 202 170 194 202 170 194 202 170 194 202 170 194 202 170 194 202 170 194 202 170 194 202 170 194 202 170 194 202 170 194 202 170 194 202 170 194 202 170 194 202 170 194 202 170 194 202 170 194 202 170 194 202 170 194 202 170 194 202 170 194 202 170 194 202 170 194 202 170 194 202 170 194 202 170 194 202 170 0 0 255 0 0 255 0 0 255 0 0 255 194 202 170 0 0 255 0 0 255 0 0 255 0 0 255 0 0 255 0 0 255 0 0 255 0 0 255 0 0 255 0 0 255 0 0 255 0 0 255 0 0 255 0 0 255 190 196 162 190 196 162 190 196 162 190 196 162 190 196 162 190 196 162 190 196 162 190 196 162 190 196 162 190 196 162 190 196 162 190 196 162 190 196 162 190 196 162 190 196 162 190 196 162 190 196 162 190 196 162 190 196 162 190 196 162 190 196 162 190 196 162 190 196 162 190 196 162 190 196 162 190 196 162 190 196 162 190 196 162 190 196 162 190 196 162 190 196 162 190 196 162 190 196 162 190 196 162 190 196 162 190 196 162 190 196 162 190 196 162 190 196 162 190 196 162 190 196 162 190 196 162 190 196 162 190 196 162 190 196 162 190 196 162 190 196 162 190 196 162 190 196 162 190 196 162 190 196 162 190 196 162 190 196 162 190 196 162 190 196 162 190 196 162 190 196 162 190 196 162 185 185 135 0 0 255 0 0 255 0 0 255 0 0 255 185 185 135 185 185 135 185 185 135 185 185 135 185 185 135 185 185 135 185 185 135 185 185 135 185 185 135 185 185 135 185 185 135 185 185 135 185 185 135 185 185 135 185 185 135 185 185 135 185 185 135 185 185 135 185 185 135 185 185 135 185 185 135 185 185 135 185 185 135 185 185 135 185 185 135 185 185 135 185 185 135 185 185 135 185 185 135 185 185 135 185 185 135 185 185 135 185 185 135 185 185 135 185 185 135 185 185 135 185 185 135 185 185 135 185 185 135 0 0 255 0 0 255 0 0 255 179 185 134 179 185 134 179 185 134 179 185 134 179 185 134 179 185 134 179 185 134 179 185 134 0 0 255 0 0 255 0 0 255 0 0 255 0 0 255 0 0 255 193 198 157 193 198 157 193 198 157 193 198 157 193 198 157 193 198 157 193 198 157 193 198 157 193 198 157 193 198 157 193 198 157 193 198 157 193 198 157 193 198 157 193 198 157 193 198 157 193 198 157 193 198 157 193 198 157 193 198 157 193 198 157 193 198 157 193 198 157 193 198 157 193 198 157 193 198 157 193 198 157 193 198 157 0 0 255 0 0 255 194 201 166 194 201 166 194 201 166 194 201 166 194 201 166 194 201 166 194 201 166 194 201 166 194 201 166 194 201 166 194 201 166 194 201 166 194 201 166 194 201 166 194 201 166 194 201 166 194 201 166 194 201 166 194 201 166 194 201 166 194 201 166 194 201 166 194 201 166 194 201 166 194 201 166 194 201 166 194 201 166 194 201 166 194 201 166 194 201 166 194 201 166 194 201 166 194 201 166 194 201 166 194 201 166 194 201 166 194 201 166 194 201 166 194 201 166 194 201 166 194 201 166 194 201 166 194 201 166 194 201 166 194 201 166 194 201 166 194 201 166 194 201 166 194 201 166 194 201 166 194 201 166 194 201 166 194 201 166 194 201 166 194 201 166 0 0 255 0 0 255 194 202 170 194 202 170 194 202 170 194 202 170 194 202 170 194 202 170 194 202 170 194 202 170 194 202 170 194 202 170 194 202 170 194 202 170 194 202 170 194 202 170 194 202 170 194 202 170 194 202 170 194 202 170 194 202 170 194 202 170 194 202 170 194 202 170 194 202 170 194 202 170 194 202 170 194 202 170 194 202 170 194 202 170 194 202 170 194 202 170 194 202 170 194 202 170 194 202 170 194 202 170 194 202 170 194 202 170 194 202 170 194 202 170 194 202 170 194 202 170 194 202 170 194 202 170 0 0 255 0 0 255 0 0 255 0 0 255 0 0 255 0 0 255 0 0 255 190 196 162 190 196 162 190 196 162 190 196 162 190 196 162 190 196 162 190 196 162 190 196 162 190 196 162 190 196 162 190 196 162 190 196 162 190 196 162 190 196 162 190 196 162 190 196 162 190 196 162 190 196 162 190 196 162 190 196 162 190 196 162 190 196 162 190 196 162 190 196 162 190 196 162 190 196 162 190 196 162 190 196 162 190 196 162 190 196 162 190 196 162 190 196 162 190 196 162 190 196 162 190 196 162 190 196 162 190 196 162 190 196 162 190 196 162 190 196 162 190 196 162 190 196 162 190 196 162 190 196 162 190 196 162 190 196 162 190 196 162 190 196 162 190 196 162 190 196 162 190 196 162 190 196 162 190 196 162 190 196 162 190 196 162 190 196 162 190 196 162 190 196 162 190 196 162 185 185 135 185 185 135 185 185 135 185 185 135 185 185 135 185 185 135 185 185 135 185 185 135 185 185 135 185 185 135 185 185 135 185 185 135 185 185 135 185 185 135 185 185 135 185 185 135 185 185 135 185 185 135 185 185 135 185 185 135 185 185 135 185 185 135 185 185 135 185 185 135 185 185 135 185 185 135 185 185 135 185 185 135 185 185 135 185 185 135 185 185 135 185 185 135 185 185 135 185 185 135 185 185 135 185 185 135 185 185 135 185 185 135 185 185 135 185 185 135 185 185 135 185 185 135 185 185 135 185 185 135 185 185 135 0 0 255 0 0 255 0 0 255 179 185 134 179 185 134 179 185 134 179 185 134 179 185 134 179 185 134 0 0 255 0 0 255 193 198 157 193 198 157 0 0 255 193 198 157 193 198 157 193 198 157 193 198 157 193 198 157 193 198 157 193 198 157 193 198 157 193 198 157 193 198 157 193 198 157 193 198 157 193 198 157 193 198 157 193 198 157 193 198 157 193 198 157 193 198 157 193 198 157 193 198 157 193 198 157 193 198 157 193 198 157 193 198 157 193 198 157 193 198 157 193 198 157 193 198 157 193 198 157 193 198 157 0 0 255 0 0 255 194 201 166 194 201 166 194 201 166 194 201 166 194 201 166 194 201 166 194 201 166 194 201 166 194 201 166 194 201 166 194 201 166 194 201 166 194 201 166 194 201 166 194 201 166 194 201 166 194 201 166 194 201 166 194 201 166 194 201 166 194 201 166 194 201 166 194 201 166 194 201 166 194 201 166 194 201 166 194 201 166 194 201 166 194 201 166 194 201 166 194 201 166 194 201 166 194 201 166 194 201 166 194 201 166 194 201 166 194 201 166 194 201 166 194 201 166 194 201 166 194 201 166 194 201 166 194 201 166 194 201 166 194 201 166 194 201 166 194 201 166 194 201 166 194 201 166 194 201 166 194 201 166 194 201 166 194 201 166 194 201 166 194 201 166 0 0 255 0 0 255 194 202 170 194 202 170 194 202 170 194 202 170 194 202 170 194 202 170 194 202 170 194 202 170 194 202 170 194 202 170 194 202 170 194 202 170 194 202 170 194 202 170 194 202 170 194 202 170 194 202 170 194 202 170 194 202 170 194 202 170 194 202 170 194 202 170 194 202 170 194 202 170 194 202 170 194 202 170 194 202 170 194 202 170 194 202 170 194 202 170 194 202 170 194 202 170 194 202 170 194 202 170 194 202 170 194 202 170 194 202 170 194 202 170 194 202 170 194 202 170 194 202 170 194 202 170 194 202 170 194 202 170 194 202 170 194 202 170 194 202 170 0 0 255 0 0 255 190 196 162 190 196 162 190 196 162 190 196 162 190 196 162 190 196 162 190 196 162 190 196 162 190 196 162 190 196 162 190 196 162 190 196 162 190 196 162 190 196 162 190 196 162 190 196 162 190 196 162 190 196 162 190 196 162 190 196 162 190 196 162 190 196 162 190 196 162 190 196 162 190 196 162 190 196 162 190 196 162 190 196 162 190 196 162 190 196 162 190 196 162 190 196 162 190 196 162 190 196 162 190 196 162 190 196 162 190 196 162 190 196 162 190 196 162 190 196 162 190 196 162 190 196 162 190 196 162 190 196 162 190 196 162 190 196 162 190 196 162 190 196 162 190 196 162 190 196 162 190 196 162 190 196 162 190 196 162 190 196 162 190 196 162 190 196 162 190 196 162 190 196 162 190 196 162 185 185 135 185 185 135 185 185 135 185 185 135 185 185 135 185 185 135 185 185 135 185 185 135 185 185 135 185 185 135 185 185 135 185 185 135 185 185 135 185 185 135 185 185 135 185 185 135 185 185 135 185 185 135 185 185 135 185 185 135 185 185 135 185 185 135 185 185 135 185 185 135 185 185 135 185 185 135 185 185 135 185 185 135 185 185 135 185 185 135 185 185 135 185 185 135 185 185 135 185 185 135 185 185 135 185 185 135 185 185 135 185 185 135 185 185 135 185 185 135 185 185 135 185 185 135 185 185 135 185 185 135 185 185 135 185 185 135 0 0 255 0 0 255 0 0 255 179 185 134 0 0 255 0 0 255 0 0 255 0 0 255 0 0 255 193 198 157 193 198 157 193 198 157 193 198 157 193 198 157 193 198 157 193 198 157 193 198 157 193 198 157 193 198 157 193 198 157 193 198 157 193 198 157 193 198 157 193 198 157 193 198 157 193 198 157 193 198 157 193 198 157 193 198 157 193 198 157 193 198 157 193 198 157 193 198 157 193 198 157 193 198 157 193 198 157 193 198 157 193 198 157 193 198 157 193 198 157 193 198 157 193 198 157 193 198 157 0 0 255 0 0 255 194 201 166 194 201 166 194 201 166 194 201 166 194 201 166 194 201 166 194 201 166 194 201 166 194 201 166 194 201 166 194 201 166 194 201 166 194 201 166 194 201 166 194 201 166 194 201 166 194 201 166 194 201 166 194 201 166 194 201 166 194 201 166 194 201 166 194 201 166 194 201 166 194 201 166 194 201 166 194 201 166 194 201 166 194 201 166 194 201 166 194 201 166 194 201 166 194 201 166 194 201 166 194 201 166 194 201 166 194 201 166 194 201 166 194 201 166 194 201 166 194 201 166 194 201 166 194 201 166 194 201 166 194 201 166 194 201 166 194 201 166 194 201 166 194 201 166 194 201 166 194 201 166 194 201 166 194 201 166 194 201 166 194 201 166 0 0 255 0 0 255 194 202 170 194 202 170 194 202 170 194 202 170 194 202 170 194 202 170 194 202 170 194 202 170 194 202 170 194 202 170 194 202 170 194 202 170 194 202 170 194 202 170 194 202 170 194 202 170 194 202 170 194 202 170 194 202 170 194 202 170 194 202 170 194 202 170 194 202 170 194 202 170 194 202 170 194 202 170 194 202 170 194 202 170 194 202 170 194 202 170 194 202 170 194 202 170 194 202 170 194 202 170 194 202 170 194 202 170 194 202 170 194 202 170 194 202 170 194 202 170 194 202 170 194 202 170 194 202 170 194 202 170 194 202 170 194 202 170 194 202 170 0 0 255 0 0 255 190 196 162 190 196 162 190 196 162 190 196 162 190 196 162 190 196 162 190 196 162 190 196 162 190 196 162 190 196 162 190 196 162 190 196 162 190 196 162 190 196 162 190 196 162 190 196 162 190 196 162 190 196 162 190 196 162 190 196 162 190 196 162 190 196 162 190 196 162 190 196 162 190 196 162 190 196 162 190 196 162 190 196 162 190 196 162 190 196 162 190 196 162 190 196 162 190 196 162 190 196 162 190 196 162 190 196 162 190 196 162 190 196 162 190 196 162 190 196 162 190 196 162 190 196 162 190 196 162 190 196 162 190 196 162 190 196 162 190 196 162 190 196 162 190 196 162 190 196 162 190 196 162 190 196 162 190 196 162 190 196 162 190 196 162 190 196 162 190 196 162 190 196 162 190 196 162 185 185 135 185 185 135 185 185 135 185 185 135 185 185 135 185 185 135 185 185 135 185 185 135 185 185 135 185 185 135 185 185 135 185 185 135 185 185 135 185 185 135 185 185 135 185 185 135 185 185 135 185 185 135 185 185 135 185 185 135 185 185 135 185 185 135 185 185 135 185 185 135 185 185 135 185 185 135 185 185 135 185 185 135 185 185 135 185 185 135 185 185 135 185 185 135 185 185 135 185 185 135 185 185 135 185 185 135 185 185 135 185 185 135 185 185 135 185 185 135 185 185 135 185 185 135 185 185 135 185 185 135 185 185 135 185 185 135 185 185 135 0 0 255 0 0 255 0 0 255 0 0 255 0 0 255 0 0 255 0 0 255 193 198 157 193 198 157 193 198 157 193 198 157 193 198 157 193 198 157 193 198 157 193 198 157 193 198 157 193 198 157 193 198 157 193 198 157 193 198 157 193 198 157 193 198 157 193 198 157 193 198 157 193 198 157 193 198 157 193 198 157 193 198 157 193 198 157 193 198 157 193 198 157 193 198 157 193 198 157 193 198 157 193 198 157 193 198 157 193 198 157 193 198 157 193 198 157 193 198 157 193 198 157 193 198 157 193 198 157 0 0 255 0 0 255 194 201 166 194 201 166 194 201 166 194 201 166 194 201 166 194 201 166 194 201 166 194 201 166 194 201 166 194 201 166 194 201 166 194 201 166 194 201 166 194 201 166 194 201 166 194 201 166 194 201 166 194 201 166 194 201 166 194 201 166 194 201 166 194 201 166 194 201 166 194 201 166 194 201 166 194 201 166 194 201 166 194 201 166 194 201 166 194 201 166 194 201 166 194 201 166 194 201 166 194 201 166 194 201 166 194 201 166 194 201 166 194 201 166 194 201 166 194 201 166 194 201 166 194 201 166 194 201 166 194 201 166 194 201 166 194 201 166 194 201 166 194 201 166 194 201 166 194 201 166 194 201 166 194 201 166 194 201 166 194 201 166 0 0 255 0 0 255 194 202 170 194 202 170 194 202 170 194 202 170 194 202 170 194 202 170 194 202 170 194 202 170 194 202 170 194 202 170 194 202 170 194 202 170 194 202 170 194 202 170 194 202 170 194 202 170 194 202 170 194 202 170 194 202 170 194 202 170 194 202 170 194 202 170 194 202 170 194 202 170 194 202 170 194 202 170 194 202 170 194 202 170 194 202 170 194 202 170 194 202 170 194 202 170 194 202 170 194 202 170 194 202 170 194 202 170 194 202 170 194 202 170 194 202 170 194 202 170 194 202 170 194 202 170 194 202 170 194 202 170 194 202 170 194 202 170 194 202 170 194 202 170 0 0 255 0 0 255 190 196 162 190 196 162 190 196 162 190 196 162 190 196 162 190 196 162 190 196 162 190 196 162 190 196 162 190 196 162 190 196 162 190 196 162 190 196 162 190 196 162 190 196 162 190 196 162 190 196 162 190 196 162 190 196 162 190 196 162 190 196 162 190 196 162 190 196 162 190 196 162 190 196 162 190 196 162 190 196 162 190 196 162 190 196 162 190 196 162 190 196 162 190 196 162 190 196 162 190 196 162 190 196 162 190 196 162 190 196 162 190 196 162 190 196 162 190 196 162 190 196 162 190 196 162 190 196 162 190 196 162 190 196 162 190 196 162 190 196 162 190 196 162 190 196 162 190 196 162 190 196 162 190 196 162 190 196 162 190 196 162 190 196 162 190 196 162 190 196 162 190 196 162 185 185 135 185 185 135 185 185 135 185 185 135 185 185 135 185 185 135 185 185 135 185 185 135 185 185 135 185 185 135 185 185 135 185 185 135 185 185 135 185 185 135 185 185 135 185 185 135 185 185 135 185 185 135 185 185 135 185 185 135 185 185 135 185 185 135 185 185 135 185 185 135 185 185 135 185 185 135 185 185 135 185 185 135 185 185 135 185 185 135 185 185 135 185 185 135 185 185 135 185 185 135 185 185 135 185 185 135 185 185 135 185 185 135 185 185 135 185 185 135 185 185 135 185 185 135 185 185 135 185 185 135 185 185 135 185 185 135 185 185 135 185 185 135 0 0 255 0 0 255 193 198 157 193 198 157 193 198 157 193 198 157 193 198 157 193 198 157 193 198 157 193 198 157 193 198 157 193 198 157 193 198 157 193 198 157 193 198 157 193 198 157 193 198 157 193 198 157 193 198 157 193 198 157 193 198 157 193 198 157 193 198 157 193 198 157 193 198 157 193 198 157 193 198 157 193 198 157 193 198 157 193 198 157 193 198 157 193 198 157 193 198 157 193 198 157 193 198 157 193 198 157 193 198 157 193 198 157 193 198 157 193 198 157 193 198 157 193 198 157 0 0 255 0 0 255 194 201 166 194 201 166 194 201 166 194 201 166 194 201 166 194 201 166 194 201 166 194 201 166 194 201 166 194 201 166 194 201 166 194 201 166 194 201 166 194 201 166 194 201 166 194 201 166 194 201 166 194 201 166 194 201 166 194 201 166 194 201 166 194 201 166 194 201 166 194 201 166 194 201 166 194 201 166 194 201 166 194 201 166 194 201 166 194 201 166 194 201 166 194 201 166 194 201 166 194 201 166 194 201 166 194 201 166 194 201 166 194 201 166 194 201 166 194 201 166 194 201 166 194 201 166 194 201 166 194 201 166 194 201 166 194 201 166 194 201 166 194 201 166 194 201 166 194 201 166 194 201 166 194 201 166 194 201 166 194 201 166 0 0 255 0 0 255 194 202 170 194 202 170 194 202 170 194 202 170 194 202 170 194 202 170 194 202 170 194 202 170 194 202 170 194 202 170 194 202 170 194 202 170 194 202 170 194 202 170 194 202 170 194 202 170 194 202 170 194 202 170 194 202 170 194 202 170 194 202 170 194 202 170 194 202 170 194 202 170 194 202 170 194 202 170 194 202 170 194 202 170 194 202 170 194 202 170 194 202 170 194 202 170 194 202 170 194 202 170 194 202 170 194 202 170 194 202 170 194 202 170 194 202 170 194 202 170 194 202 170 194 202 170 194 202 170 194 202 170 194 202 170 194 202 170 194 202 170 194 202 170 0 0 255 0 0 255 190 196 162 190 196 162 190 196 162 190 196 162 190 196 162 190 196 162 190 196 162 190 196 162 190 196 162 190 196 162 190 196 162 190 196 162 190 196 162 190 196 162 190 196 162 190 196 162 190 196 162 190 196 162 190 196 162 190 196 162 190 196 162 190 196 162 190 196 162 190 196 162 190 196 162 190 196 162 190 196 162 190 196 162 190 196 162 190 196 162 190 196 162 190 196 162 190 196 162 190 196 162 190 196 162 190 196 162 190 196 162 190 196 162 190 196 162 190 196 162 190 196 162 190 196 162 190 196 162 190 196 162 190 196 162 190 196 162 190 196 162 190 196 162 190 196 162 190 196 162 190 196 162 190 196 162 190 196 162 190 196 162 190 196 162 190 196 162 190 196 162 190 196 162 185 185 135 185 185 135 185 185 135 185 185 135 185 185 135 185 185 135 185 185 135 185 185 135 185 185 135 185 185 135 185 185 135 185 185 135 185 185 135 185 185 135 185 185 135 185 185 135 185 185 135 185 185 135 185 185 135 185 185 135 185 185 135 185 185 135 185 185 135 185 185 135 185 185 135 185 185 135 185 185 135 185 185 135 185 185 135 185 185 135 185 185 135 185 185 135 185 185 135 185 185 135 185 185 135 185 185 135 185 185 135 185 185 135 185 185 135 185 185 135 185 185 135 185 185 135 185 185 135 185 185 135 185 185 135 185 185 135 185 185 135 0 0 255 0 0 255 193 198 157 193 198 157 193 198 157 193 198 157 193 198 157 193 198 157 193 198 157 193 198 157 193 198 157 193 198 157 193 198 157 193 198 157 193 198 157 193 198 157 193 198 157 193 198 157 193 198 157 193 198 157 193 198 157 193 198 157 193 198 157 193 198 157 193 198 157 193 198 157 193 198 157 193 198 157 193 198 157 193 198 157 193 198 157 193 198 157 193 198 157 193 198 157 193 198 157 193 198 157 193 198 157 193 198 157 193 198 157 193 198 157 193 198 157 193 198 157 193 198 157 0 0 255 0 0 255 194 201 166 194 201 166 194 201 166 194 201 166 194 201 166 194 201 166 194 201 166 194 201 166 194 201 166 194 201 166 194 201 166 194 201 166 194 201 166 194 201 166 194 201 166 194 201 166 194 201 166 194 201 166 194 201 166 194 201 166 194 201 166 194 201 166 194 201 166 194 201 166 194 201 166 194 201 166 194 201 166 194 201 166 194 201 166 194 201 166 194 201 166 194 201 166 194 201 166 194 201 166 194 201 166 194 201 166 194 201 166 194 201 166 194 201 166 194 201 166 194 201 166 194 201 166 194 201 166 194 201 166 194 201 166 194 201 166 194 201 166 194 201 166 194 201 166 194 201 166 194 201 166 194 201 166 194 201 166 0 0 255 0 0 255 194 202 170 194 202 170 194 202 170 194 202 170 194 202 170 194 202 170 194 202 170 194 202 170 194 202 170 194 202 170 194 202 170 194 202 170 194 202 170 194 202 170 194 202 170 194 202 170 194 202 170 194 202 170 194 202 170 194 202 170 194 202 170 194 202 170 194 202 170 194 202 170 194 202 170 194 202 170 194 202 170 194 202 170 194 202 170 194 202 170 194 202 170 194 202 170 194 202 170 194 202 170 194 202 170 194 202 170 194 202 170 194 202 170 194 202 170 194 202 170 194 202 170 194 202 170 194 202 170 194 202 170 194 202 170 194 202 170 194 202 170 194 202 170 194 202 170 0 0 255 0 0 255 190 196 162 190 196 162 190 196 162 190 196 162 190 196 162 190 196 162 190 196 162 190 196 162 190 196 162 190 196 162 190 196 162 190 196 162 190 196 162 190 196 162 190 196 162 190 196 162 190 196 162 190 196 162 190 196 162 190 196 162 190 196 162 190 196 162 190 196 162 190 196 162 190 196 162 190 196 162 190 196 162 190 196 162 190 196 162 190 196 162 190 196 162 190 196 162 190 196 162 190 196 162 190 196 162 190 196 162 190 196 162 190 196 162 190 196 162 190 196 162 190 196 162 190 196 162 190 196 162 190 196 162 190 196 162 190 196 162 190 196 162 190 196 162 190 196 162 190 196 162 190 196 162 190 196 162 190 196 162 190 196 162 190 196 162 190 196 162 190 196 162 190 196 162 185 185 135 185 185 135 185 185 135 185 185 135 185 185 135 185 185 135 185 185 135 185 185 135 185 185 135 185 185 135 185 185 135 185 185 135 185 185 135 185 185 135 185 185 135 185 185 135 185 185 135 185 185 135 185 185 135 185 185 135 185 185 135 185 185 135 185 185 135 185 185 135 185 185 135 185 185 135 185 185 135 185 185 135 185 185 135 185 185 135 185 185 135 185 185 135 185 185 135 185 185 135 185 185 135 185 185 135 185 185 135 185 185 135 185 185 135 185 185 135 185 185 135 185 185 135 185 185 135 185 185 135 185 185 135 185 185 135 185 185 135 0 0 255 0 0 255 193 198 157 193 198 157 193 198 157 193 198 157 193 198 157 193 198 157 193 198 157 193 198 157 193 198 157 193 198 157 193 198 157 193 198 157 193 198 157 193 198 157 193 198 157 193 198 157 193 198 157 193 198 157 193 198 157 193 198 157 193 198 157 193 198 157 193 198 157 193 198 157 193 198 157 193 198 157 193 198 157 193 198 157 193 198 157 193 198 157 193 198 157 193 198 157 193 198 157 193 198 157 193 198 157 193 198 157 193 198 157 193 198 157 193 198 157 193 198 157 193 198 157 0 0 255 0 0 255 194 201 166 194 201 166 194 201 166 194 201 166 194 201 166 194 201 166 194 201 166 194 201 166 194 201 166 194 201 166 194 201 166 194 201 166 194 201 166 194 201 166 194 201 166 194 201 166 194 201 166 194 201 166 194 201 166 194 201 166 194 201 166 194 201 166 194 201 166 194 201 166 194 201 166 194 201 166 194 201 166 194 201 166 194 201 166 194 201 166 194 201 166 194 201 166 194 201 166 194 201 166 194 201 166 194 201 166 194 201 166 194 201 166 194 201 166 194 201 166 194 201 166 194 201 166 194 201 166 194 201 166 194 201 166 194 201 166 194 201 166 194 201 166 194 201 166 194 201 166 194 201 166 194 201 166 194 201 166 0 0 255 0 0 255 194 202 170 194 202 170 194 202 170 194 202 170 194 202 170 194 202 170 194 202 170 194 202 170 194 202 170 194 202 170 194 202 170 194 202 170 194 202 170 194 202 170 194 202 170 194 202 170 194 202 170 194 202 170 194 202 170 194 202 170 194 202 170 194 202 170 194 202 170 194 202 170 194 202 170 194 202 170 194 202 170 194 202 170 194 202 170 194 202 170 194 202 170 194 202 170 194 202 170 194 202 170 194 202 170 194 202 170 194 202 170 194 202 170 194 202 170 194 202 170 194 202 170 194 202 170 194 202 170 194 202 170 194 202 170 194 202 170 194 202 170 194 202 170 194 202 170 0 0 255 0 0 255 190 196 162 190 196 162 190 196 162 190 196 162 190 196 162 190 196 162 190 196 162 190 196 162 190 196 162 190 196 162 190 196 162 190 196 162 190 196 162 190 196 162 190 196 162 190 196 162 190 196 162 190 196 162 190 196 162 190 196 162 190 196 162 190 196 162 190 196 162 190 196 162 190 196 162 190 196 162 190 196 162 190 196 162 190 196 162 190 196 162 190 196 162 190 196 162 190 196 162 190 196 162 190 196 162 190 196 162 190 196 162 190 196 162 190 196 162 190 196 162 190 196 162 190 196 162 190 196 162 190 196 162 190 196 162 190 196 162 190 196 162 190 196 162 190 196 162 190 196 162 190 196 162 190 196 162 190 196 162 190 196 162 190 196 162 190 196 162 190 196 162 190 196 162 185 185 135 185 185 135 185 185 135 185 185 135 185 185 135 185 185 135 185 185 135 185 185 135 185 185 135 185 185 135 185 185 135 185 185 135 185 185 135 185 185 135 185 185 135 185 185 135 185 185 135 185 185 135 185 185 135 185 185 135 185 185 135 185 185 135 185 185 135 185 185 135 185 185 135 185 185 135 185 185 135 185 185 135 185 185 135 185 185 135 185 185 135 185 185 135 185 185 135 185 185 135 185 185 135 185 185 135 185 185 135 185 185 135 185 185 135 185 185 135 185 185 135 185 185 135 185 185 135 185 185 135 185 185 135 185 185 135 0 0 255 0 0 255 193 198 157 193 198 157 193 198 157 193 198 157 193 198 157 193 198 157 193 198 157 193 198 157 193 198 157 193 198 157 193 198 157 193 198 157 193 198 157 193 198 157 193 198 157 193 198 157 193 198 157 193 198 157 193 198 157 193 198 157 193 198 157 193 198 157 193 198 157 193 198 157 193 198 157 193 198 157 193 198 157 193 198 157 193 198 157 193 198 157 193 198 157 193 198 157 193 198 157 193 198 157 193 198 157 193 198 157 193 198 157 193 198 157 193 198 157 193 198 157 193 198 157 193 198 157 0 0 255 0 0 255 194 201 166 194 201 166 194 201 166 194 201 166 194 201 166 194 201 166 194 201 166 194 201 166 194 201 166 194 201 166 194 201 166 194 201 166 194 201 166 194 201 166 194 201 166 194 201 166 194 201 166 194 201 166 194 201 166 194 201 166 194 201 166 194 201 166 194 201 166 194 201 166 194 201 166 194 201 166 194 201 166 194 201 166 194 201 166 194 201 166 194 201 166 194 201 166 194 201 166 194 201 166 194 201 166 194 201 166 194 201 166 194 201 166 194 201 166 194 201 166 194 201 166 194 201 166 194 201 166 194 201 166 194 201 166 194 201 166 194 201 166 194 201 166 194 201 166 194 201 166 194 201 166 194 201 166 194 201 166 0 0 255 0 0 255 194 202 170 194 202 170 194 202 170 194 202 170 194 202 170 194 202 170 194 202 170 194 202 170 194 202 170 194 202 170 194 202 170 194 202 170 194 202 170 194 202 170 194 202 170 194 202 170 194 202 170 194 202 170 194 202 170 194 202 170 194 202 170 194 202 170 194 202 170 194 202 170 194 202 170 194 202 170 194 202 170 194 202 170 194 202 170 194 202 170 194 202 170 194 202 170 194 202 170 194 202 170 194 202 170 194 202 170 194 202 170 194 202 170 194 202 170 194 202 170 194 202 170 194 202 170 194 202 170 194 202 170 194 202 170 194 202 170 194 202 170 194 202 170 194 202 170 0 0 255 0 0 255 190 196 162 190 196 162 190 196 162 190 196 162 190 196 162 190 196 162 190 196 162 190 196 162 190 196 162 190 196 162 190 196 162 190 196 162 190 196 162 190 196 162 190 196 162 190 196 162 190 196 162 190 196 162 190 196 162 190 196 162 190 196 162 190 196 162 190 196 162 190 196 162 190 196 162 190 196 162 190 196 162 190 196 162 190 196 162 190 196 162 190 196 162 190 196 162 190 196 162 190 196 162 190 196 162 190 196 162 190 196 162 190 196 162 190 196 162 190 196 162 190 196 162 190 196 162 190 196 162 190 196 162 190 196 162 190 196 162 190 196 162 190 196 162 190 196 162 190 196 162 190 196 162 190 196 162 190 196 162 190 196 162 190 196 162 190 196 162 190 196 162 190 196 162 185 185 135 185 185 135 185 185 135 185 185 135 185 185 135 185 185 135 185 185 135 185 185 135 185 185 135 185 185 135 185 185 135 185 185 135 185 185 135 185 185 135 185 185 135 185 185 135 185 185 135 185 185 135 185 185 135 185 185 135 185 185 135 185 185 135 185 185 135 185 185 135 185 185 135 185 185 135 185 185 135 185 185 135 185 185 135 185 185 135 185 185 135 185 185 135 185 185 135 185 185 135 185 185 135 185 185 135 185 185 135 185 185 135 185 185 135 185 185 135 185 185 135 185 185 135 185 185 135 185 185 135 185 185 135 185 185 135 0 0 255 0 0 255 193 198 157 193 198 157 193 198 157 193 198 157 193 198 157 193 198 157 193 198 157 193 198 157 193 198 157 193 198 157 193 198 157 193 198 157 193 198 157 193 198 157 193 198 157 193 198 157 193 198 157 193 198 157 193 198 157 193 198 157 193 198 157 193 198 157 193 198 157 193 198 157 193 198 157 193 198 157 193 198 157 193 198 157 193 198 157 193 198 157 193 198 157 193 198 157 193 198 157 193 198 157 193 198 157 193 198 157 193 198 157 193 198 157 193 198 157 193 198 157 193 198 157 193 198 157 193 198 157 0 0 255 0 0 255 194 201 166 194 201 166 194 201 166 194 201 166 194 201 166 194 201 166 194 201 166 194 201 166 194 201 166 194 201 166 194 201 166 194 201 166 194 201 166 194 201 166 194 201 166 194 201 166 194 201 166 194 201 166 194 201 166 194 201 166 194 201 166 194 201 166 194 201 166 194 201 166 194 201 166 194 201 166 194 201 166 194 201 166 194 201 166 194 201 166 194 201 166 194 201 166 194 201 166 194 201 166 194 201 166 194 201 166 194 201 166 194 201 166 194 201 166 194 201 166 194 201 166 194 201 166 194 201 166 194 201 166 194 201 166 194 201 166 194 201 166 194 201 166 194 201 166 194 201 166 194 201 166 194 201 166 0 0 255 0 0 255 194 202 170 194 202 170 194 202 170 194 202 170 194 202 170 194 202 170 194 202 170 194 202 170 194 202 170 194 202 170 194 202 170 194 202 170 194 202 170 194 202 170 194 202 170 194 202 170 194 202 170 194 202 170 194 202 170 194 202 170 194 202 170 194 202 170 194 202 170 194 202 170 194 202 170 194 202 170 194 202 170 194 202 170 194 202 170 194 202 170 194 202 170 194 202 170 194 202 170 194 202 170 194 202 170 194 202 170 194 202 170 194 202 170 194 202 170 194 202 170 194 202 170 194 202 170 194 202 170 194 202 170 194 202 170 194 202 170 194 202 170 194 202 170 194 202 170 0 0 255 0 0 255 190 196 162 190 196 162 190 196 162 190 196 162 190 196 162 190 196 162 190 196 162 190 196 162 190 196 162 190 196 162 190 196 162 190 196 162 190 196 162 190 196 162 190 196 162 190 196 162 190 196 162 190 196 162 190 196 162 190 196 162 190 196 162 190 196 162 190 196 162 190 196 162 190 196 162 190 196 162 190 196 162 190 196 162 190 196 162 190 196 162 190 196 162 190 196 162 190 196 162 190 196 162 190 196 162 190 196 162 190 196 162 190 196 162 190 196 162 190 196 162 190 196 162 190 196 162 190 196 162 190 196 162 190 196 162 190 196 162 190 196 162 190 196 162 190 196 162 190 196 162 190 196 162 190 196 162 190 196 162 190 196 162 190 196 162 190 196 162 190 196 162 190 196 162 185 185 135 185 185 135 185 185 135 185 185 135 185 185 135 185 185 135 185 185 135 185 185 135 185 185 135 185 185 135 185 185 135 185 185 135 185 185 135 185 185 135 185 185 135 185 185 135 185 185 135 185 185 135 185 185 135 185 185 135 185 185 135 185 185 135 185 185 135 185 185 135 185 185 135 185 185 135 185 185 135 185 185 135 185 185 135 185 185 135 185 185 135 185 185 135 185 185 135 185 185 135 185 185 135 185 185 135 185 185 135 185 185 135 185 185 135 185 185 135 185 185 135 185 185 135 185 185 135 185 185 135 185 185 135 185 185 135 0 0 255 0 0 255 193 198 157 193 198 157 193 198 157 193 198 157 193 198 157 193 198 157 193 198 157 193 198 157 193 198 157 193 198 157 193 198 157 193 198 157 193 198 157 193 198 157 193 198 157 193 198 157 193 198 157 193 198 157 193 198 157 193 198 157 193 198 157 193 198 157 193 198 157 193 198 157 193 198 157 193 198 157 193 198 157 193 198 157 193 198 157 193 198 157 193 198 157 193 198 157 193 198 157 193 198 157 193 198 157 193 198 157 193 198 157 193 198 157 193 198 157 193 198 157 193 198 157 193 198 157 193 198 157 0 0 255 0 0 255 194 201 166 194 201 166 194 201 166 194 201 166 194 201 166 194 201 166 194 201 166 194 201 166 194 201 166 194 201 166 194 201 166 194 201 166 194 201 166 194 201 166 194 201 166 194 201 166 194 201 166 194 201 166 194 201 166 194 201 166 194 201 166 194 201 166 194 201 166 194 201 166 194 201 166 194 201 166 194 201 166 194 201 166 194 201 166 194 201 166 194 201 166 194 201 166 194 201 166 194 201 166 194 201 166 194 201 166 194 201 166 194 201 166 194 201 166 194 201 166 194 201 166 194 201 166 194 201 166 194 201 166 194 201 166 194 201 166 194 201 166 194 201 166 194 201 166 194 201 166 194 201 166 194 201 166 0 0 255 0 0 255 194 202 170 194 202 170 194 202 170 194 202 170 194 202 170 194 202 170 194 202 170 194 202 170 194 202 170 194 202 170 194 202 170 194 202 170 194 202 170 194 202 170 194 202 170 194 202 170 194 202 170 194 202 170 194 202 170 194 202 170 194 202 170 194 202 170 194 202 170 194 202 170 194 202 170 194 202 170 194 202 170 194 202 170 194 202 170 194 202 170 194 202 170 194 202 170 194 202 170 194 202 170 194 202 170 194 202 170 194 202 170 194 202 170 194 202 170 194 202 170 194 202 170 194 202 170 194 202 170 194 202 170 194 202 170 194 202 170 194 202 170 194 202 170 194 202 170 194 202 170 0 0 255 0 0 255 190 196 162 190 196 162 190 196 162 190 196 162 190 196 162 190 196 162 190 196 162 190 196 162 190 196 162 190 196 162 190 196 162 190 196 162 190 196 162 190 196 162 190 196 162 190 196 162 190 196 162 190 196 162 190 196 162 190 196 162 190 196 162 190 196 162 190 196 162 190 196 162 190 196 162 190 196 162 190 196 162 190 196 162 190 196 162 190 196 162 190 196 162 190 196 162 190 196 162 190 196 162 190 196 162 190 196 162 190 196 162 190 196 162 190 196 162 190 196 162 190 196 162 190 196 162 190 196 162 190 196 162 190 196 162 190 196 162 190 196 162 190 196 162 190 196 162 190 196 162 190 196 162 190 196 162 190 196 162 190 196 162 190 196 162 190 196 162 190 196 162 185 185 135 185 185 135 185 185 135 185 185 135 185 185 135 185 185 135 185 185 135 185 185 135 185 185 135 185 185 135 185 185 135 185 185 135 185 185 135 185 185 135 185 185 135 185 185 135 185 185 135 185 185 135 185 185 135 185 185 135 185 185 135 185 185 135 185 185 135 185 185 135 185 185 135 185 185 135 185 185 135 185 185 135 185 185 135 185 185 135 185 185 135 185 185 135 185 185 135 185 185 135 185 185 135 185 185 135 185 185 135 185 185 135 185 185 135 185 185 135 185 185 135 185 185 135 185 185 135 185 185 135 185 185 135 185 185 135 0 0 255 0 0 255 193 198 157 193 198 157 193 198 157 193 198 157 193 198 157 193 198 157 193 198 157 193 198 157 193 198 157 193 198 157 193 198 157 193 198 157 193 198 157 193 198 157 193 198 157 193 198 157 193 198 157 193 198 157 193 198 157 193 198 157 193 198 157 193 198 157 193 198 157 193 198 157 193 198 157 193 198 157 193 198 157 193 198 157 193 198 157 193 198 157 193 198 157 193 198 157 193 198 157 193 198 157 193 198 157 193 198 157 193 198 157 193 198 157 193 198 157 193 198 157 193 198 157 193 198 157 193 198 157 0 0 255 0 0 255 194 201 166 194 201 166 194 201 166 194 201 166 194 201 166 194 201 166 194 201 166 194 201 166 194 201 166 194 201 166 194 201 166 194 201 166 194 201 166 194 201 166 194 201 166 194 201 166 194 201 166 194 201 166 194 201 166 194 201 166 194 201 166 194 201 166 194 201 166 194 201 166 194 201 166 194 201 166 194 201 166 194 201 166 194 201 166 194 201 166 194 201 166 194 201 166 194 201 166 194 201 166 194 201 166 194 201 166 194 201 166 194 201 166 194 201 166 194 201 166 194 201 166 194 201 166 194 201 166 194 201 166 194 201 166 194 201 166 194 201 166 194 201 166 194 201 166 194 201 166 194 201 166 194 201 166 0 0 255 0 0 255 194 202 170 194 202 170 194 202 170 194 202 170 194 202 170 194 202 170 194 202 170 194 202 170 194 202 170 194 202 170 194 202 170 194 202 170 194 202 170 194 202 170 194 202 170 194 202 170 194 202 170 194 202 170 194 202 170 194 202 170 194 202 170 194 202 170 194 202 170 194 202 170 194 202 170 194 202 170 194 202 170 194 202 170 194 202 170 194 202 170 194 202 170 194 202 170 194 202 170 194 202 170 194 202 170 194 202 170 194 202 170 194 202 170 194 202 170 194 202 170 194 202 170 194 202 170 194 202 170 194 202 170 194 202 170 194 202 170 194 202 170 194 202 170 194 202 170 194 202 170 0 0 255 0 0 255 190 196 162 190 196 162 190 196 162 190 196 162 190 196 162 190 196 162 190 196 162 190 196 162 190 196 162 190 196 162 190 196 162 190 196 162 190 196 162 190 196 162 190 196 162 190 196 162 190 196 162 190 196 162 190 196 162 190 196 162 190 196 162 190 196 162 190 196 162 190 196 162 190 196 162 190 196 162 190 196 162 190 196 162 190 196 162 190 196 162 190 196 162 190 196 162 190 196 162 190 196 162 190 196 162 190 196 162 190 196 162 190 196 162 190 196 162 190 196 162 190 196 162 190 196 162 190 196 162 190 196 162 190 196 162 190 196 162 190 196 162 190 196 162 190 196 162 190 196 162 190 196 162 190 196 162 190 196 162 190 196 162 190 196 162 190 196 162 190 196 162 185 185 135 185 185 135 185 185 135 185 185 135 185 185 135 185 185 135 185 185 135 185 185 135 185 185 135 185 185 135 185 185 135 185 185 135 185 185 135 185 185 135 185 185 135 185 185 135 185 185 135 185 185 135 185 185 135 185 185 135 185 185 135 185 185 135 185 185 135 185 185 135 185 185 135 185 185 135 185 185 135 185 185 135 185 185 135 185 185 135 185 185 135 185 185 135 185 185 135 185 185 135 185 185 135 185 185 135 185 185 135 185 185 135 185 185 135 185 185 135 185 185 135 185 185 135 185 185 135 185 185 135 185 185 135 0 0 255 0 0 255 193 198 157 193 198 157 193 198 157 193 198 157 193 198 157 193 198 157 193 198 157 193 198 157 193 198 157 193 198 157 193 198 157 193 198 157 193 198 157 193 198 157 193 198 157 193 198 157 193 198 157 193 198 157 193 198 157 193 198 157 193 198 157 193 198 157 193 198 157 193 198 157 193 198 157 193 198 157 193 198 157 193 198 157 193 198 157 193 198 157 193 198 157 193 198 157 193 198 157 193 198 157 193 198 157 193 198 157 193 198 157 193 198 157 193 198 157 193 198 157 193 198 157 193 198 157 193 198 157 193 198 157 0 0 255 0 0 255 194 201 166 194 201 166 194 201 166 194 201 166 194 201 166 194 201 166 194 201 166 194 201 166 194 201 166 194 201 166 194 201 166 194 201 166 194 201 166 194 201 166 194 201 166 194 201 166 194 201 166 194 201 166 194 201 166 194 201 166 194 201 166 194 201 166 194 201 166 194 201 166 194 201 166 194 201 166 194 201 166 194 201 166 194 201 166 194 201 166 194 201 166 194 201 166 194 201 166 194 201 166 194 201 166 194 201 166 194 201 166 194 201 166 194 201 166 194 201 166 194 201 166 194 201 166 194 201 166 194 201 166 194 201 166 194 201 166 194 201 166 194 201 166 194 201 166 194 201 166 194 201 166 0 0 255 0 0 255 194 202 170 194 202 170 194 202 170 194 202 170 194 202 170 194 202 170 194 202 170 194 202 170 194 202 170 194 202 170 194 202 170 194 202 170 194 202 170 194 202 170 194 202 170 194 202 170 194 202 170 194 202 170 194 202 170 194 202 170 194 202 170 194 202 170 194 202 170 194 202 170 194 202 170 194 202 170 194 202 170 194 202 170 194 202 170 194 202 170 194 202 170 194 202 170 194 202 170 194 202 170 194 202 170 194 202 170 194 202 170 194 202 170 194 202 170 194 202 170 194 202 170 194 202 170 194 202 170 194 202 170 194 202 170 194 202 170 194 202 170 194 202 170 194 202 170 194 202 170 194 202 170 0 0 255 0 0 255 190 196 162 190 196 162 190 196 162 190 196 162 190 196 162 190 196 162 190 196 162 190 196 162 190 196 162 190 196 162 190 196 162 190 196 162 190 196 162 190 196 162 190 196 162 190 196 162 190 196 162 190 196 162 190 196 162 190 196 162 190 196 162 190 196 162 190 196 162 190 196 162 190 196 162 190 196 162 190 196 162 190 196 162 190 196 162 190 196 162 190 196 162 190 196 162 190 196 162 190 196 162 190 196 162 190 196 162 190 196 162 190 196 162 190 196 162 190 196 162 190 196 162 190 196 162 190 196 162 190 196 162 190 196 162 190 196 162 190 196 162 190 196 162 190 196 162 190 196 162 190 196 162 190 196 162 190 196 162 190 196 162 190 196 162 190 196 162 190 196 162 185 185 135 185 185 135 185 185 135 185 185 135 185 185 135 185 185 135 185 185 135 185 185 135 185 185 135 185 185 135 185 185 135 185 185 135 185 185 135 185 185 135 185 185 135 185 185 135 185 185 135 185 185 135 185 185 135 185 185 135 185 185 135 185 185 135 185 185 135 185 185 135 185 185 135 185 185 135 185 185 135 185 185 135 185 185 135 185 185 135 185 185 135 185 185 135 185 185 135 185 185 135 185 185 135 185 185 135 185 185 135 185 185 135 185 185 135 185 185 135 185 185 135 185 185 135 185 185 135 185 185 135 185 185 135 0 0 255 0 0 255 193 198 157 193 198 157 193 198 157 193 198 157 193 198 157 193 198 157 193 198 157 193 198 157 193 198 157 193 198 157 193 198 157 193 198 157 193 198 157 193 198 157 193 198 157 193 198 157 193 198 157 193 198 157 193 198 157 193 198 157 193 198 157 193 198 157 193 198 157 193 198 157 193 198 157 193 198 157 193 198 157 193 198 157 193 198 157 193 198 157 193 198 157 193 198 157 193 198 157 193 198 157 193 198 157 193 198 157 193 198 157 193 198 157 193 198 157 193 198 157 193 198 157 193 198 157 193 198 157 193 198 157 0 0 255 0 0 255 194 201 166 194 201 166 194 201 166 194 201 166 194 201 166 194 201 166 194 201 166 194 201 166 194 201 166 194 201 166 194 201 166 194 201 166 194 201 166 194 201 166 194 201 166 194 201 166 194 201 166 194 201 166 194 201 166 194 201 166 194 201 166 194 201 166 194 201 166 194 201 166 194 201 166 194 201 166 194 201 166 194 201 166 194 201 166 194 201 166 194 201 166 194 201 166 194 201 166 194 201 166 194 201 166 194 201 166 194 201 166 194 201 166 194 201 166 194 201 166 194 201 166 194 201 166 194 201 166 194 201 166 194 201 166 194 201 166 194 201 166 194 201 166 194 201 166 194 201 166 194 201 166 0 0 255 0 0 255 194 202 170 194 202 170 194 202 170 194 202 170 194 202 170 194 202 170 194 202 170 194 202 170 194 202 170 194 202 170 194 202 170 194 202 170 194 202 170 194 202 170 194 202 170 194 202 170 194 202 170 194 202 170 194 202 170 194 202 170 194 202 170 194 202 170 194 202 170 194 202 170 194 202 170 194 202 170 194 202 170 194 202 170 194 202 170 194 202 170 194 202 170 194 202 170 194 202 170 194 202 170 194 202 170 194 202 170 194 202 170 194 202 170 194 202 170 194 202 170 194 202 170 194 202 170 194 202 170 194 202 170 194 202 170 194 202 170 194 202 170 194 202 170 194 202 170 194 202 170 194 202 170 0 0 255 0 0 255 190 196 162 190 196 162 190 196 162 190 196 162 190 196 162 190 196 162 190 196 162 190 196 162 190 196 162 190 196 162 190 196 162 190 196 162 190 196 162 190 196 162 190 196 162 190 196 162 190 196 162 190 196 162 190 196 162 190 196 162 190 196 162 190 196 162 190 196 162 190 196 162 190 196 162 190 196 162 190 196 162 190 196 162 190 196 162 190 196 162 190 196 162 190 196 162 190 196 162 190 196 162 190 196 162 190 196 162 190 196 162 190 196 162 190 196 162 190 196 162 190 196 162 190 196 162 190 196 162 190 196 162 190 196 162 190 196 162 190 196 162 190 196 162 190 196 162 190 196 162 190 196 162 190 196 162 190 196 162 190 196 162 190 196 162 190 196 162 190 196 162 185 185 135 185 185 135 185 185 135 185 185 135 185 185 135 185 185 135 185 185 135 185 185 135 185 185 135 185 185 135 185 185 135 185 185 135 185 185 135 185 185 135 185 185 135 185 185 135 185 185 135 185 185 135 185 185 135 185 185 135 185 185 135 185 185 135 185 185 135 185 185 135 185 185 135 185 185 135 185 185 135 185 185 135 185 185 135 185 185 135 185 185 135 185 185 135 185 185 135 185 185 135 185 185 135 185 185 135 185 185 135 185 185 135 185 185 135 185 185 135 185 185 135 185 185 135 185 185 135 185 185 135 0 0 255 0 0 255 193 198 157 193 198 157 193 198 157 193 198 157 193 198 157 193 198 157 193 198 157 193 198 157 193 198 157 193 198 157 193 198 157 193 198 157 193 198 157 193 198 157 193 198 157 193 198 157 193 198 157 193 198 157 193 198 157 193 198 157 193 198 157 193 198 157 193 198 157 193 198 157 193 198 157 193 198 157 193 198 157 193 198 157 193 198 157 193 198 157 193 198 157 193 198 157 193 198 157 193 198 157 193 198 157 193 198 157 193 198 157 193 198 157 193 198 157 193 198 157 193 198 157 193 198 157 193 198 157 193 198 157 193 198 157 0 0 255 0 0 255 194 201 166 194 201 166 194 201 166 194 201 166 194 201 166 194 201 166 194 201 166 194 201 166 194 201 166 194 201 166 194 201 166 194 201 166 194 201 166 194 201 166 194 201 166 194 201 166 194 201 166 194 201 166 194 201 166 194 201 166 194 201 166 194 201 166 194 201 166 194 201 166 194 201 166 194 201 166 194 201 166 194 201 166 194 201 166 194 201 166 194 201 166 194 201 166 194 201 166 194 201 166 194 201 166 194 201 166 194 201 166 194 201 166 194 201 166 194 201 166 194 201 166 194 201 166 194 201 166 194 201 166 194 201 166 194 201 166 194 201 166 194 201 166 194 201 166 194 201 166 194 201 166 0 0 255 0 0 255 194 202 170 194 202 170 194 202 170 194 202 170 194 202 170 194 202 170 194 202 170 194 202 170 194 202 170 194 202 170 194 202 170 194 202 170 194 202 170 194 202 170 194 202 170 194 202 170 194 202 170 194 202 170 194 202 170 194 202 170 194 202 170 194 202 170 194 202 170 194 202 170 194 202 170 194 202 170 194 202 170 194 202 170 194 202 170 194 202 170 194 202 170 194 202 170 194 202 170 194 202 170 194 202 170 194 202 170 194 202 170 194 202 170 194 202 170 194 202 170 194 202 170 194 202 170 194 202 170 194 202 170 194 202 170 194 202 170 194 202 170 194 202 170 194 202 170 194 202 170 194 202 170 0 0 255 0 0 255 190 196 162 190 196 162 190 196 162 190 196 162 190 196 162 190 196 162 190 196 162 190 196 162 190 196 162 190 196 162 190 196 162 190 196 162 190 196 162 190 196 162 190 196 162 190 196 162 190 196 162 190 196 162 190 196 162 190 196 162 190 196 162 190 196 162 190 196 162 190 196 162 190 196 162 190 196 162 190 196 162 190 196 162 190 196 162 190 196 162 190 196 162 190 196 162 190 196 162 190 196 162 190 196 162 190 196 162 190 196 162 190 196 162 190 196 162 190 196 162 190 196 162 190 196 162 190 196 162 190 196 162 190 196 162 190 196 162 190 196 162 190 196 162 190 196 162 190 196 162 190 196 162 190 196 162 190 196 162 190 196 162 190 196 162 190 196 162 190 196 162 185 185 135 185 185 135 185 185 135 185 185 135 185 185 135 185 185 135 185 185 135 185 185 135 185 185 135 185 185 135 185 185 135 185 185 135 185 185 135 185 185 135 185 185 135 185 185 135 185 185 135 185 185 135 185 185 135 185 185 135 185 185 135 185 185 135 185 185 135 185 185 135 185 185 135 185 185 135 185 185 135 185 185 135 185 185 135 185 185 135 185 185 135 185 185 135 185 185 135 185 185 135 185 185 135 185 185 135 185 185 135 185 185 135 185 185 135 185 185 135 185 185 135 185 185 135 185 185 135 185 185 135 0 0 255 0 0 255 193 198 157 193 198 157 193 198 157 193 198 157 193 198 157 193 198 157 193 198 157 193 198 157 193 198 157 193 198 157 193 198 157 193 198 157 193 198 157 193 198 157 193 198 157 193 198 157 193 198 157 193 198 157 193 198 157 193 198 157 193 198 157 193 198 157 193 198 157 193 198 157 193 198 157 193 198 157 193 198 157 193 198 157 193 198 157 193 198 157 193 198 157 193 198 157 193 198 157 193 198 157 193 198 157 193 198 157 193 198 157 193 198 157 193 198 157 193 198 157 193 198 157 193 198 157 193 198 157 193 198 157 193 198 157 0 0 255 0 0 255 194 201 166 194 201 166 194 201 166 194 201 166 194 201 166 194 201 166 194 201 166 194 201 166 194 201 166 194 201 166 194 201 166 194 201 166 194 201 166 194 201 166 194 201 166 194 201 166 194 201 166 194 201 166 194 201 166 194 201 166 194 201 166 194 201 166 194 201 166 194 201 166 194 201 166 194 201 166 194 201 166 194 201 166 194 201 166 194 201 166 194 201 166 194 201 166 194 201 166 194 201 166 194 201 166 194 201 166 194 201 166 194 201 166 194 201 166 194 201 166 194 201 166 194 201 166 194 201 166 194 201 166 194 201 166 194 201 166 194 201 166 194 201 166 194 201 166 194 201 166 194 201 166 0 0 255 0 0 255 194 202 170 194 202 170 194 202 170 194 202 170 194 202 170 194 202 170 194 202 170 194 202 170 194 202 170 194 202 170 194 202 170 194 202 170 194 202 170 194 202 170 194 202 170 194 202 170 194 202 170 194 202 170 194 202 170 194 202 170 194 202 170 194 202 170 194 202 170 194 202 170 194 202 170 194 202 170 194 202 170 194 202 170 194 202 170 194 202 170 194 202 170 194 202 170 194 202 170 194 202 170 194 202 170 194 202 170 194 202 170 194 202 170 194 202 170 194 202 170 194 202 170 194 202 170 194 202 170 194 202 170 194 202 170 194 202 170 194 202 170 194 202 170 194 202 170 194 202 170 194 202 170 0 0 255 0 0 255 190 196 162 190 196 162 190 196 162 190 196 162 190 196 162 190 196 162 190 196 162 190 196 162 190 196 162 190 196 162 190 196 162 190 196 162 190 196 162 190 196 162 190 196 162 190 196 162 190 196 162 190 196 162 190 196 162 190 196 162 190 196 162 190 196 162 190 196 162 190 196 162 190 196 162 190 196 162 190 196 162 190 196 162 190 196 162 190 196 162 190 196 162 190 196 162 190 196 162 190 196 162 190 196 162 190 196 162 190 196 162 190 196 162 190 196 162 190 196 162 190 196 162 190 196 162 190 196 162 190 196 162 190 196 162 190 196 162 190 196 162 190 196 162 190 196 162 190 196 162 190 196 162 190 196 162 190 196 162 190 196 162 190 196 162 190 196 162 190 196 162 185 185 135 185 185 135 185 185 135 185 185 135 185 185 135 185 185 135 185 185 135 185 185 135 185 185 135 185 185 135 185 185 135 185 185 135 185 185 135 185 185 135 185 185 135 185 185 135 185 185 135 185 185 135 185 185 135 185 185 135 185 185 135 185 185 135 185 185 135 185 185 135 185 185 135 185 185 135 185 185 135 185 185 135 185 185 135 185 185 135 185 185 135 185 185 135 185 185 135 185 185 135 185 185 135 185 185 135 185 185 135 185 185 135 185 185 135 185 185 135 185 185 135 185 185 135 185 185 135 185 185 135 0 0 255 0 0 255 193 198 157 193 198 157 193 198 157 193 198 157 193 198 157 193 198 157 193 198 157 193 198 157 193 198 157 193 198 157 193 198 157 193 198 157 193 198 157 193 198 157 193 198 157 193 198 157 193 198 157 193 198 157 193 198 157 193 198 157 193 198 157 193 198 157 193 198 157 193 198 157 193 198 157 193 198 157 193 198 157 193 198 157 193 198 157 193 198 157 193 198 157 193 198 157 193 198 157 193 198 157 193 198 157 193 198 157 193 198 157 193 198 157 193 198 157 193 198 157 193 198 157 193 198 157 193 198 157 193 198 157 193 198 157 0 0 255 0 0 255 194 201 166 194 201 166 194 201 166 194 201 166 194 201 166 194 201 166 194 201 166 194 201 166 194 201 166 194 201 166 194 201 166 194 201 166 194 201 166 194 201 166 194 201 166 194 201 166 194 201 166 194 201 166 194 201 166 194 201 166 194 201 166 194 201 166 194 201 166 194 201 166 194 201 166 194 201 166 194 201 166 194 201 166 194 201 166 194 201 166 194 201 166 194 201 166 194 201 166 194 201 166 194 201 166 194 201 166 194 201 166 194 201 166 194 201 166 194 201 166 194 201 166 194 201 166 194 201 166 194 201 166 194 201 166 194 201 166 194 201 166 194 201 166 194 201 166 194 201 166 194 201 166 0 0 255 0 0 255 194 202 170 194 202 170 194 202 170 194 202 170 194 202 170 194 202 170 194 202 170 194 202 170 194 202 170 194 202 170 194 202 170 194 202 170 194 202 170 194 202 170 194 202 170 194 202 170 194 202 170 194 202 170 194 202 170 194 202 170 194 202 170 194 202 170 194 202 170 194 202 170 194 202 170 194 202 170 194 202 170 194 202 170 194 202 170 194 202 170 194 202 170 194 202 170 194 202 170 194 202 170 194 202 170 194 202 170 194 202 170 194 202 170 194 202 170 194 202 170 194 202 170 194 202 170 194 202 170 194 202 170 194 202 170 194 202 170 194 202 170 194 202 170 194 202 170 194 202 170 194 202 170 194 202 170 0 0 255 0 0 255 190 196 162 190 196 162 190 196 162 190 196 162 190 196 162 190 196 162 190 196 162 190 196 162 190 196 162 190 196 162 190 196 162 190 196 162 190 196 162 190 196 162 190 196 162 190 196 162 190 196 162 190 196 162 190 196 162 190 196 162 190 196 162 190 196 162 190 196 162 190 196 162 190 196 162 190 196 162 190 196 162 190 196 162 190 196 162 190 196 162 190 196 162 190 196 162 190 196 162 190 196 162 190 196 162 190 196 162 190 196 162 190 196 162 190 196 162 190 196 162 190 196 162 190 196 162 190 196 162 190 196 162 190 196 162 190 196 162 190 196 162 190 196 162 190 196 162 190 196 162 190 196 162 190 196 162 190 196 162 190 196 162 190 196 162 190 196 162 185 185 135 185 185 135 185 185 135 185 185 135 185 185 135 185 185 135 185 185 135 185 185 135 185 185 135 185 185 135 185 185 135 185 185 135 185 185 135 185 185 135 185 185 135 185 185 135 185 185 135 185 185 135 185 185 135 185 185 135 185 185 135 185 185 135 185 185 135 185 185 135 185 185 135 185 185 135 185 185 135 185 185 135 185 185 135 185 185 135 185 185 135 185 185 135 185 185 135 185 185 135 185 185 135 185 185 135 185 185 135 185 185 135 185 185 135 185 185 135 185 185 135 185 185 135 185 185 135 185 185 135 0 0 255 0 0 255 193 198 157 193 198 157 193 198 157 193 198 157 193 198 157 193 198 157 193 198 157 193 198 157 193 198 157 193 198 157 193 198 157 193 198 157 193 198 157 193 198 157 193 198 157 193 198 157 193 198 157 193 198 157 193 198 157 193 198 157 193 198 157 193 198 157 193 198 157 193 198 157 193 198 157 193 198 157 193 198 157 193 198 157 193 198 157 193 198 157 193 198 157 193 198 157 193 198 157 193 198 157 193 198 157 193 198 157 193 198 157 193 198 157 193 198 157 193 198 157 193 198 157 193 198 157 193 198 157 193 198 157 193 198 157 0 0 255 0 0 255 194 201 166 194 201 166 194 201 166 194 201 166 194 201 166 194 201 166 194 201 166 194 201 166 194 201 166 194 201 166 194 201 166 194 201 166 194 201 166 194 201 166 194 201 166 194 201 166 194 201 166 194 201 166 194 201 166 194 201 166 194 201 166 194 201 166 194 201 166 194 201 166 194 201 166 194 201 166 194 201 166 194 201 166 194 201 166 194 201 166 194 201 166 194 201 166 194 201 166 194 201 166 194 201 166 194 201 166 194 201 166 194 201 166 194 201 166 194 201 166 194 201 166 194 201 166 194 201 166 194 201 166 194 201 166 194 201 166 194 201 166 194 201 166 194 201 166 194 201 166 0 0 255 0 0 255 194 202 170 194 202 170 194 202 170 194 202 170 194 202 170 194 202 170 194 202 170 194 202 170 194 202 170 194 202 170 194 202 170 194 202 170 194 202 170 194 202 170 194 202 170 194 202 170 194 202 170 194 202 170 194 202 170 194 202 170 194 202 170 194 202 170 194 202 170 194 202 170 194 202 170 194 202 170 194 202 170 194 202 170 194 202 170 194 202 170 194 202 170 194 202 170 194 202 170 194 202 170 194 202 170 194 202 170 194 202 170 194 202 170 194 202 170 194 202 170 194 202 170 194 202 170 194 202 170 194 202 170 194 202 170 194 202 170 194 202 170 194 202 170 194 202 170 194 202 170 194 202 170 194 202 170 194 202 170 0 0 255 0 0 255 190 196 162 190 196 162 190 196 162 190 196 162 190 196 162 190 196 162 190 196 162 190 196 162 190 196 162 190 196 162 190 196 162 190 196 162 190 196 162 190 196 162 190 196 162 190 196 162 190 196 162 190 196 162 190 196 162 190 196 162 190 196 162 190 196 162 190 196 162 190 196 162 190 196 162 190 196 162 190 196 162 190 196 162 190 196 162 190 196 162 190 196 162 190 196 162 190 196 162 190 196 162 190 196 162 190 196 162 190 196 162 190 196 162 190 196 162 190 196 162 190 196 162 190 196 162 190 196 162 190 196 162 190 196 162 190 196 162 190 196 162 190 196 162 190 196 162 190 196 162 190 196 162 190 196 162 190 196 162 190 196 162 190 196 162 190 196 162 185 185 135 185 185 135 185 185 135 185 185 135 185 185 135 185 185 135 185 185 135 185 185 135 185 185 135 185 185 135 185 185 135 185 185 135 185 185 135 185 185 135 185 185 135 185 185 135 185 185 135 185 185 135 185 185 135 185 185 135 185 185 135 185 185 135 185 185 135 185 185 135 185 185 135 185 185 135 185 185 135 185 185 135 185 185 135 185 185 135 185 185 135 185 185 135 185 185 135 185 185 135 185 185 135 185 185 135 185 185 135 185 185 135 185 185 135 185 185 135 185 185 135 185 185 135 185 185 135 0 0 255 0 0 255 193 198 157 193 198 157 193 198 157 193 198 157 193 198 157 193 198 157 193 198 157 193 198 157 193 198 157 193 198 157 193 198 157 193 198 157 193 198 157 193 198 157 193 198 157 193 198 157 193 198 157 193 198 157 193 198 157 193 198 157 193 198 157 193 198 157 193 198 157 193 198 157 193 198 157 193 198 157 193 198 157 193 198 157 193 198 157 193 198 157 193 198 157 193 198 157 193 198 157 193 198 157 193 198 157 193 198 157 193 198 157 193 198 157 193 198 157 193 198 157 193 198 157 193 198 157 193 198 157 193 198 157 193 198 157 193 198 157 0 0 255 0 0 255 194 201 166 194 201 166 194 201 166 194 201 166 194 201 166 194 201 166 194 201 166 194 201 166 194 201 166 194 201 166 194 201 166 194 201 166 194 201 166 194 201 166 194 201 166 194 201 166 194 201 166 194 201 166 194 201 166 194 201 166 194 201 166 194 201 166 194 201 166 194 201 166 194 201 166 194 201 166 194 201 166 194 201 166 194 201 166 194 201 166 194 201 166 194 201 166 194 201 166 194 201 166 194 201 166 194 201 166 194 201 166 194 201 166 194 201 166 194 201 166 194 201 166 194 201 166 194 201 166 194 201 166 194 201 166 194 201 166 194 201 166 194 201 166 194 201 166 194 201 166 0 0 255 0 0 255 194 202 170 194 202 170 194 202 170 194 202 170 194 202 170 194 202 170 194 202 170 194 202 170 194 202 170 194 202 170 194 202 170 194 202 170 194 202 170 194 202 170 194 202 170 194 202 170 194 202 170 194 202 170 194 202 170 194 202 170 194 202 170 194 202 170 194 202 170 194 202 170 194 202 170 194 202 170 194 202 170 194 202 170 194 202 170 194 202 170 194 202 170 194 202 170 194 202 170 194 202 170 194 202 170 194 202 170 194 202 170 194 202 170 194 202 170 194 202 170 194 202 170 194 202 170 194 202 170 194 202 170 194 202 170 194 202 170 194 202 170 194 202 170 194 202 170 194 202 170 194 202 170 194 202 170 194 202 170 0 0 255 0 0 255 190 196 162 190 196 162 190 196 162 190 196 162 190 196 162 190 196 162 190 196 162 190 196 162 190 196 162 190 196 162 190 196 162 190 196 162 190 196 162 190 196 162 190 196 162 190 196 162 190 196 162 190 196 162 190 196 162 190 196 162 190 196 162 190 196 162 190 196 162 190 196 162 190 196 162 190 196 162 190 196 162 190 196 162 190 196 162 190 196 162 190 196 162 190 196 162 190 196 162 190 196 162 190 196 162 190 196 162 190 196 162 190 196 162 190 196 162 190 196 162 190 196 162 190 196 162 190 196 162 190 196 162 190 196 162 190 196 162 190 196 162 190 196 162 190 196 162 190 196 162 190 196 162 190 196 162 190 196 162 190 196 162 190 196 162 190 196 162 185 185 135 185 185 135 185 185 135 185 185 135 185 185 135 185 185 135 185 185 135 185 185 135 185 185 135 185 185 135 185 185 135 185 185 135 185 185 135 185 185 135 185 185 135 185 185 135 185 185 135 185 185 135 185 185 135 185 185 135 185 185 135 185 185 135 185 185 135 185 185 135 185 185 135 185 185 135 185 185 135 185 185 135 185 185 135 185 185 135 185 185 135 185 185 135 185 185 135 185 185 135 185 185 135 185 185 135 185 185 135 185 185 135 185 185 135 185 185 135 185 185 135 185 185 135 185 185 135 0 0 255 0 0 255 193 198 157 193 198 157 193 198 157 193 198 157 193 198 157 193 198 157 193 198 157 193 198 157 193 198 157 193 198 157 193 198 157 193 198 157 193 198 157 193 198 157 193 198 157 193 198 157 193 198 157 193 198 157 193 198 157 193 198 157 193 198 157 193 198 157 193 198 157 193 198 157 193 198 157 193 198 157 193 198 157 193 198 157 193 198 157 193 198 157 193 198 157 193 198 157 193 198 157 193 198 157 193 198 157 193 198 157 193 198 157 193 198 157 193 198 157 193 198 157 193 198 157 193 198 157 193 198 157 193 198 157 193 198 157 193 198 157 193 198 157 0 0 255 0 0 255 194 201 166 194 201 166 194 201 166 194 201 166 194 201 166 194 201 166 194 201 166 194 201 166 194 201 166 194 201 166 194 201 166 194 201 166 194 201 166 194 201 166 194 201 166 194 201 166 194 201 166 194 201 166 194 201 166 194 201 166 194 201 166 194 201 166 194 201 166 194 201 166 194 201 166 194 201 166 194 201 166 194 201 166 194 201 166 194 201 166 194 201 166 194 201 166 194 201 166 194 201 166 194 201 166 194 201 166 194 201 166 194 201 166 194 201 166 194 201 166 194 201 166 194 201 166 194 201 166 194 201 166 194 201 166 194 201 166 194 201 166 194 201 166 194 201 166 0 0 255 0 0 255 194 202 170 194 202 170 194 202 170 194 202 170 194 202 170 194 202 170 194 202 170 194 202 170 194 202 170 194 202 170 194 202 170 194 202 170 194 202 170 194 202 170 194 202 170 194 202 170 194 202 170 194 202 170 194 202 170 194 202 170 194 202 170 194 202 170 194 202 170 194 202 170 194 202 170 194 202 170 194 202 170 194 202 170 194 202 170 194 202 170 194 202 170 194 202 170 194 202 170 194 202 170 194 202 170 194 202 170 194 202 170 194 202 170 194 202 170 194 202 170 194 202 170 194 202 170 194 202 170 194 202 170 194 202 170 194 202 170 194 202 170 194 202 170 194 202 170 194 202 170 194 202 170 194 202 170 194 202 170 0 0 255 0 0 255 190 196 162 190 196 162 190 196 162 190 196 162 190 196 162 190 196 162 190 196 162 190 196 162 190 196 162 190 196 162 190 196 162 190 196 162 190 196 162 190 196 162 190 196 162 190 196 162 190 196 162 190 196 162 190 196 162 190 196 162 190 196 162 190 196 162 190 196 162 190 196 162 190 196 162 190 196 162 190 196 162 190 196 162 190 196 162 190 196 162 190 196 162 190 196 162 190 196 162 190 196 162 190 196 162 190 196 162 190 196 162 190 196 162 190 196 162 190 196 162 190 196 162 190 196 162 190 196 162 190 196 162 190 196 162 190 196 162 190 196 162 190 196 162 190 196 162 190 196 162 190 196 162 190 196 162 190 196 162 190 196 162 190 196 162 190 196 162 185 185 135 185 185 135 185 185 135 185 185 135 185 185 135 185 185 135 185 185 135 185 185 135 185 185 135 185 185 135 185 185 135 185 185 135 185 185 135 185 185 135 185 185 135 185 185 135 185 185 135 185 185 135 185 185 135 185 185 135 185 185 135 185 185 135 185 185 135 185 185 135 185 185 135 185 185 135 185 185 135 185 185 135 185 185 135 185 185 135 185 185 135 185 185 135 185 185 135 185 185 135 185 185 135 185 185 135 185 185 135 185 185 135 185 185 135 185 185 135 185 185 135 185 185 135 185 185 135 0 0 255 0 0 255 193 198 157 193 198 157 193 198 157 193 198 157 193 198 157 193 198 157 193 198 157 193 198 157 193 198 157 193 198 157 193 198 157 193 198 157 193 198 157 193 198 157 193 198 157 193 198 157 193 198 157 193 198 157 193 198 157 193 198 157 193 198 157 193 198 157 193 198 157 193 198 157 193 198 157 193 198 157 193 198 157 193 198 157 193 198 157 193 198 157 193 198 157 193 198 157 193 198 157 193 198 157 193 198 157 193 198 157 193 198 157 193 198 157 193 198 157 193 198 157 193 198 157 193 198 157 193 198 157 193 198 157 193 198 157 193 198 157 193 198 157 0 0 255 0 0 255 194 201 166 194 201 166 194 201 166 194 201 166 194 201 166 194 201 166 194 201 166 194 201 166 194 201 166 194 201 166 194 201 166 194 201 166 194 201 166 194 201 166 194 201 166 194 201 166 194 201 166 194 201 166 194 201 166 194 201 166 194 201 166 194 201 166 194 201 166 194 201 166 194 201 166 194 201 166 194 201 166 194 201 166 194 201 166 194 201 166 194 201 166 194 201 166 194 201 166 194 201 166 194 201 166 194 201 166 194 201 166 194 201 166 194 201 166 194 201 166 194 201 166 194 201 166 194 201 166 194 201 166 194 201 166 194 201 166 194 201 166 194 201 166 194 201 166 0 0 255 0 0 255 194 202 170 194 202 170 194 202 170 194 202 170 194 202 170 194 202 170 194 202 170 194 202 170 194 202 170 194 202 170 194 202 170 194 202 170 194 202 170 194 202 170 194 202 170 194 202 170 194 202 170 194 202 170 194 202 170 194 202 170 194 202 170 194 202 170 194 202 170 194 202 170 194 202 170 194 202 170 194 202 170 194 202 170 194 202 170 194 202 170 194 202 170 194 202 170 194 202 170 194 202 170 194 202 170 194 202 170 194 202 170 194 202 170 194 202 170 194 202 170 194 202 170 194 202 170 194 202 170 194 202 170 194 202 170 194 202 170 194 202 170 194 202 170 194 202 170 194 202 170 194 202 170 194 202 170 194 202 170 0 0 255 0 0 255 190 196 162 190 196 162 190 196 162 190 196 162 190 196 162 190 196 162 190 196 162 190 196 162 190 196 162 190 196 162 190 196 162 190 196 162 190 196 162 190 196 162 190 196 162 190 196 162 190 196 162 190 196 162 190 196 162 190 196 162 190 196 162 190 196 162 190 196 162 190 196 162 190 196 162 190 196 162 190 196 162 190 196 162 190 196 162 190 196 162 190 196 162 190 196 162 190 196 162 190 196 162 190 196 162 190 196 162 190 196 162 190 196 162 190 196 162 190 196 162 190 196 162 190 196 162 190 196 162 190 196 162 190 196 162 190 196 162 190 196 162 190 196 162 190 196 162 190 196 162 190 196 162 190 196 162 190 196 162 190 196 162 190 196 162 190 196 162 185 185 135 185 185 135 185 185 135 185 185 135 185 185 135 185 185 135 185 185 135 185 185 135 185 185 135 185 185 135 185 185 135 185 185 135 185 185 135 185 185 135 185 185 135 185 185 135 185 185 135 185 185 135 185 185 135 185 185 135 185 185 135 185 185 135 185 185 135 185 185 135 185 185 135 185 185 135 185 185 135 185 185 135 185 185 135 185 185 135 185 185 135 185 185 135 185 185 135 185 185 135 185 185 135 185 185 135 185 185 135 185 185 135 185 185 135 185 185 135 185 185 135 185 185 135 0 0 255 0 0 255 193 198 157 193 198 157 193 198 157 193 198 157 193 198 157 193 198 157 193 198 157 193 198 157 193 198 157 193 198 157 193 198 157 193 198 157 193 198 157 193 198 157 193 198 157 193 198 157 193 198 157 193 198 157 193 198 157 193 198 157 193 198 157 193 198 157 193 198 157 193 198 157 193 198 157 193 198 157 193 198 157 193 198 157 193 198 157 193 198 157 193 198 157 193 198 157 193 198 157 193 198 157 193 198 157 193 198 157 193 198 157 193 198 157 193 198 157 193 198 157 193 198 157 193 198 157 193 198 157 193 198 157 193 198 157 193 198 157 193 198 157 193 198 157 0 0 255 0 0 255 194 201 166 194 201 166 194 201 166 194 201 166 194 201 166 194 201 166 194 201 166 194 201 166 194 201 166 194 201 166 194 201 166 194 201 166 194 201 166 194 201 166 194 201 166 194 201 166 194 201 166 194 201 166 194 201 166 194 201 166 194 201 166 194 201 166 194 201 166 194 201 166 194 201 166 194 201 166 194 201 166 194 201 166 194 201 166 194 201 166 194 201 166 194 201 166 194 201 166 194 201 166 194 201 166 194 201 166 194 201 166 194 201 166 194 201 166 194 201 166 194 201 166 194 201 166 194 201 166 194 201 166 194 201 166 194 201 166 194 201 166 194 201 166 194 201 166 0 0 255 0 0 255 194 202 170 194 202 170 194 202 170 194 202 170 194 202 170 194 202 170 194 202 170 194 202 170 194 202 170 194 202 170 194 202 170 194 202 170 194 202 170 194 202 170 194 202 170 194 202 170 194 202 170 194 202 170 194 202 170 194 202 170 194 202 170 194 202 170 194 202 170 194 202 170 194 202 170 194 202 170 194 202 170 194 202 170 194 202 170 194 202 170 194 202 170 194 202 170 194 202 170 194 202 170 194 202 170 194 202 170 194 202 170 194 202 170 194 202 170 194 202 170 194 202 170 194 202 170 194 202 170 194 202 170 194 202 170 194 202 170 194 202 170 194 202 170 194 202 170 194 202 170 194 202 170 194 202 170 194 202 170 0 0 255 0 0 255 190 196 162 190 196 162 190 196 162 190 196 162 190 196 162 190 196 162 190 196 162 190 196 162 190 196 162 190 196 162 190 196 162 190 196 162 190 196 162 190 196 162 190 196 162 190 196 162 190 196 162 190 196 162 190 196 162 190 196 162 190 196 162 190 196 162 190 196 162 190 196 162 190 196 162 190 196 162 190 196 162 190 196 162 190 196 162 190 196 162 190 196 162 190 196 162 190 196 162 190 196 162 190 196 162 190 196 162 190 196 162 190 196 162 190 196 162 190 196 162 190 196 162 190 196 162 190 196 162 190 196 162 190 196 162 190 196 162 190 196 162 190 196 162 190 196 162 190 196 162 190 196 162 190 196 162 190 196 162 190 196 162 190 196 162 190 196 162 185 185 135 185 185 135 185 185 135 185 185 135 185 185 135 185 185 135 185 185 135 185 185 135 185 185 135 185 185 135 185 185 135 185 185 135 185 185 135 185 185 135 185 185 135 185 185 135 185 185 135 185 185 135 185 185 135 185 185 135 185 185 135 185 185 135 185 185 135 185 185 135 185 185 135 185 185 135 185 185 135 185 185 135 185 185 135 185 185 135 185 185 135 185 185 135 185 185 135 185 185 135 185 185 135 185 185 135 185 185 135 185 185 135 185 185 135 185 185 135 185 185 135 185 185 135 0 0 255 0 0 255 193 198 157 193 198 157 193 198 157 193 198 157 193 198 157 193 198 157 193 198 157 193 198 157 193 198 157 193 198 157 193 198 157 193 198 157 193 198 157 193 198 157 193 198 157 193 198 157 193 198 157 193 198 157 193 198 157 193 198 157 193 198 157 193 198 157 193 198 157 193 198 157 193 198 157 193 198 157 193 198 157 193 198 157 193 198 157 193 198 157 193 198 157 193 198 157 193 198 157 193 198 157 193 198 157 193 198 157 193 198 157 193 198 157 193 198 157 193 198 157 193 198 157 193 198 157 193 198 157 193 198 157 193 198 157 193 198 157 193 198 157 193 198 157 0 0 255 0 0 255 194 201 166 194 201 166 194 201 166 194 201 166 194 201 166 194 201 166 194 201 166 194 201 166 194 201 166 194 201 166 194 201 166 194 201 166 194 201 166 194 201 166 194 201 166 194 201 166 194 201 166 194 201 166 194 201 166 194 201 166 194 201 166 194 201 166 194 201 166 194 201 166 194 201 166 194 201 166 194 201 166 194 201 166 194 201 166 194 201 166 194 201 166 194 201 166 194 201 166 194 201 166 194 201 166 194 201 166 194 201 166 194 201 166 194 201 166 194 201 166 194 201 166 194 201 166 194 201 166 194 201 166 194 201 166 194 201 166 194 201 166 194 201 166 194 201 166 0 0 255 0 0 255 194 202 170 194 202 170 194 202 170 194 202 170 194 202 170 194 202 170 194 202 170 194 202 170 194 202 170 194 202 170 194 202 170 194 202 170 194 202 170 194 202 170 194 202 170 194 202 170 194 202 170 194 202 170 194 202 170 194 202 170 194 202 170 194 202 170 194 202 170 194 202 170 194 202 170 194 202 170 194 202 170 194 202 170 194 202 170 194 202 170 194 202 170 194 202 170 194 202 170 194 202 170 194 202 170 194 202 170 194 202 170 194 202 170 194 202 170 194 202 170 194 202 170 194 202 170 194 202 170 194 202 170 194 202 170 194 202 170 194 202 170 194 202 170 194 202 170 194 202 170 194 202 170 194 202 170 194 202 170 0 0 255 0 0 255 190 196 162 190 196 162 190 196 162 190 196 162 190 196 162 190 196 162 190 196 162 190 196 162 190 196 162 190 196 162 190 196 162 190 196 162 190 196 162 190 196 162 190 196 162 190 196 162 190 196 162 190 196 162 190 196 162 190 196 162 190 196 162 190 196 162 190 196 162 190 196 162 190 196 162 190 196 162 190 196 162 190 196 162 190 196 162 190 196 162 190 196 162 190 196 162 190 196 162 190 196 162 190 196 162 190 196 162 190 196 162 190 196 162 190 196 162 190 196 162 190 196 162 190 196 162 190 196 162 190 196 162 190 196 162 190 196 162 190 196 162 190 196 162 190 196 162 190 196 162 190 196 162 190 196 162 190 196 162 190 196 162 190 196 162 190 196 162 185 185 135 185 185 135 185 185 135 185 185 135 185 185 135 185 185 135 185 185 135 185 185 135 185 185 135 185 185 135 185 185 135 185 185 135 185 185 135 185 185 135 185 185 135 185 185 135 185 185 135 185 185 135 185 185 135 185 185 135 185 185 135 185 185 135 185 185 135 185 185 135 185 185 135 185 185 135 185 185 135 185 185 135 185 185 135 185 185 135 185 185 135 185 185 135 185 185 135 185 185 135 185 185 135 185 185 135 185 185 135 185 185 135 185 185 135 185 185 135 185 185 135 185 185 135 0 0 255 0 0 255 193 198 157 193 198 157 193 198 157 193 198 157 193 198 157 193 198 157 193 198 157 193 198 157 193 198 157 193 198 157 193 198 157 193 198 157 193 198 157 193 198 157 193 198 157 193 198 157 193 198 157 193 198 157 193 198 157 193 198 157 193 198 157 193 198 157 193 198 157 193 198 157 193 198 157 193 198 157 193 198 157 193 198 157 193 198 157 193 198 157 193 198 157 193 198 157 193 198 157 193 198 157 193 198 157 193 198 157 193 198 157 193 198 157 193 198 157 193 198 157 193 198 157 193 198 157 193 198 157 193 198 157 193 198 157 193 198 157 193 198 157 193 198 157 193 198 157 0 0 255 0 0 255 194 201 166 194 201 166 194 201 166 194 201 166 194 201 166 194 201 166 194 201 166 194 201 166 194 201 166 194 201 166 194 201 166 194 201 166 194 201 166 194 201 166 194 201 166 194 201 166 194 201 166 194 201 166 194 201 166 194 201 166 194 201 166 194 201 166 194 201 166 194 201 166 194 201 166 194 201 166 194 201 166 194 201 166 194 201 166 194 201 166 194 201 166 194 201 166 194 201 166 194 201 166 194 201 166 194 201 166 194 201 166 194 201 166 194 201 166 194 201 166 194 201 166 194 201 166 194 201 166 194 201 166 194 201 166 194 201 166 194 201 166 194 201 166 0 0 255 0 0 255 194 202 170 194 202 170 194 202 170 194 202 170 194 202 170 194 202 170 194 202 170 194 202 170 194 202 170 194 202 170 194 202 170 194 202 170 194 202 170 194 202 170 194 202 170 194 202 170 194 202 170 194 202 170 194 202 170 194 202 170 194 202 170 194 202 170 194 202 170 194 202 170 194 202 170 194 202 170 194 202 170 194 202 170 194 202 170 194 202 170 194 202 170 194 202 170 194 202 170 194 202 170 194 202 170 194 202 170 194 202 170 194 202 170 194 202 170 194 202 170 194 202 170 194 202 170 194 202 170 194 202 170 194 202 170 194 202 170 194 202 170 194 202 170 194 202 170 194 202 170 194 202 170 194 202 170 194 202 170 0 0 255 0 0 255 190 196 162 190 196 162 190 196 162 190 196 162 190 196 162 190 196 162 190 196 162 190 196 162 190 196 162 190 196 162 190 196 162 190 196 162 190 196 162 190 196 162 190 196 162 190 196 162 190 196 162 190 196 162 190 196 162 190 196 162 190 196 162 190 196 162 190 196 162 190 196 162 190 196 162 190 196 162 190 196 162 190 196 162 190 196 162 190 196 162 190 196 162 190 196 162 190 196 162 190 196 162 190 196 162 190 196 162 190 196 162 190 196 162 190 196 162 190 196 162 190 196 162 190 196 162 190 196 162 190 196 162 190 196 162 190 196 162 190 196 162 190 196 162 190 196 162 190 196 162 190 196 162 190 196 162 190 196 162 190 196 162 190 196 162 190 196 162 185 185 135 185 185 135 185 185 135 185 185 135 185 185 135 185 185 135 185 185 135 185 185 135 185 185 135 185 185 135 185 185 135 185 185 135 185 185 135 185 185 135 185 185 135 185 185 135 185 185 135 185 185 135 185 185 135 185 185 135 185 185 135 185 185 135 185 185 135 185 185 135 185 185 135 185 185 135 185 185 135 185 185 135 185 185 135 185 185 135 185 185 135 185 185 135 185 185 135 185 185 135 185 185 135 185 185 135 185 185 135 185 185 135 185 185 135 185 185 135 185 185 135 0 0 255 0 0 255 193 198 157 193 198 157 193 198 157 193 198 157 193 198 157 193 198 157 193 198 157 193 198 157 193 198 157 193 198 157 193 198 157 193 198 157 193 198 157 193 198 157 193 198 157 193 198 157 193 198 157 193 198 157 193 198 157 193 198 157 193 198 157 193 198 157 193 198 157 193 198 157 193 198 157 193 198 157 193 198 157 193 198 157 193 198 157 193 198 157 193 198 157 193 198 157 193 198 157 193 198 157 193 198 157 193 198 157 193 198 157 193 198 157 193 198 157 193 198 157 193 198 157 193 198 157 193 198 157 193 198 157 193 198 157 193 198 157 193 198 157 193 198 157 193 198 157 193 198 157 0 0 255 0 0 255 194 201 166 194 201 166 194 201 166 194 201 166 194 201 166 194 201 166 194 201 166 194 201 166 194 201 166 194 201 166 194 201 166 194 201 166 194 201 166 194 201 166 194 201 166 194 201 166 194 201 166 194 201 166 194 201 166 194 201 166 194 201 166 194 201 166 194 201 166 194 201 166 194 201 166 194 201 166 194 201 166 194 201 166 194 201 166 194 201 166 194 201 166 194 201 166 194 201 166 194 201 166 194 201 166 194 201 166 194 201 166 194 201 166 194 201 166 194 201 166 194 201 166 194 201 166 194 201 166 194 201 166 194 201 166 194 201 166 194 201 166 0 0 255 0 0 255 194 202 170 194 202 170 194 202 170 194 202 170 194 202 170 194 202 170 194 202 170 194 202 170 194 202 170 194 202 170 194 202 170 194 202 170 194 202 170 194 202 170 194 202 170 194 202 170 194 202 170 194 202 170 194 202 170 194 202 170 194 202 170 194 202 170 194 202 170 194 202 170 194 202 170 194 202 170 194 202 170 194 202 170 194 202 170 194 202 170 194 202 170 194 202 170 194 202 170 194 202 170 194 202 170 194 202 170 194 202 170 194 202 170 194 202 170 194 202 170 194 202 170 194 202 170 194 202 170 194 202 170 194 202 170 194 202 170 194 202 170 194 202 170 194 202 170 194 202 170 194 202 170 194 202 170 194 202 170 194 202 170 194 202 170 0 0 255 0 0 255 190 196 162 190 196 162 190 196 162 190 196 162 190 196 162 190 196 162 190 196 162 190 196 162 190 196 162 190 196 162 190 196 162 190 196 162 190 196 162 190 196 162 190 196 162 190 196 162 190 196 162 190 196 162 190 196 162 190 196 162 190 196 162 190 196 162 190 196 162 190 196 162 190 196 162 190 196 162 190 196 162 190 196 162 190 196 162 190 196 162 190 196 162 190 196 162 190 196 162 190 196 162 190 196 162 190 196 162 190 196 162 190 196 162 190 196 162 190 196 162 190 196 162 190 196 162 190 196 162 190 196 162 190 196 162 190 196 162 190 196 162 190 196 162 190 196 162 190 196 162 190 196 162 190 196 162 190 196 162 190 196 162 190 196 162 185 185 135 185 185 135 185 185 135 185 185 135 185 185 135 185 185 135 185 185 135 185 185 135 185 185 135 185 185 135 185 185 135 185 185 135 185 185 135 185 185 135 185 185 135 185 185 135 185 185 135 185 185 135 185 185 135 185 185 135 185 185 135 185 185 135 185 185 135 185 185 135 185 185 135 185 185 135 185 185 135 185 185 135 185 185 135 185 185 135 185 185 135 185 185 135 185 185 135 185 185 135 185 185 135 185 185 135 185 185 135 185 185 135 185 185 135 185 185 135 185 185 135 0 0 255 0 0 255 193 198 157 193 198 157 193 198 157 193 198 157 193 198 157 193 198 157 193 198 157 193 198 157 193 198 157 193 198 157 193 198 157 193 198 157 193 198 157 193 198 157 193 198 157 193 198 157 193 198 157 193 198 157 193 198 157 193 198 157 193 198 157 193 198 157 193 198 157 193 198 157 193 198 157 193 198 157 193 198 157 193 198 157 193 198 157 193 198 157 193 198 157 193 198 157 193 198 157 193 198 157 193 198 157 193 198 157 193 198 157 193 198 157 193 198 157 193 198 157 193 198 157 193 198 157 193 198 157 193 198 157 193 198 157 193 198 157 193 198 157 193 198 157 193 198 157 193 198 157 0 0 255 0 0 255 194 201 166 194 201 166 194 201 166 194 201 166 194 201 166 194 201 166 194 201 166 194 201 166 194 201 166 194 201 166 194 201 166 194 201 166 194 201 166 194 201 166 194 201 166 194 201 166 194 201 166 194 201 166 194 201 166 194 201 166 194 201 166 194 201 166 194 201 166 194 201 166 194 201 166 194 201 166 194 201 166 194 201 166 194 201 166 194 201 166 194 201 166 194 201 166 194 201 166 194 201 166 194 201 166 194 201 166 194 201 166 194 201 166 194 201 166 194 201 166 194 201 166 194 201 166 194 201 166 194 201 166 194 201 166 194 201 166 194 201 166 0 0 255 0 0 255 194 202 170 194 202 170 194 202 170 194 202 170 194 202 170 194 202 170 194 202 170 194 202 170 194 202 170 194 202 170 194 202 170 194 202 170 194 202 170 194 202 170 194 202 170 194 202 170 194 202 170 194 202 170 194 202 170 194 202 170 194 202 170 194 202 170 194 202 170 194 202 170 194 202 170 194 202 170 194 202 170 194 202 170 194 202 170 194 202 170 194 202 170 194 202 170 194 202 170 194 202 170 194 202 170 194 202 170 194 202 170 194 202 170 194 202 170 194 202 170 194 202 170 194 202 170 194 202 170 194 202 170 194 202 170 194 202 170 194 202 170 194 202 170 194 202 170 194 202 170 194 202 170 194 202 170 194 202 170 194 202 170 194 202 170 0 0 255 0 0 255 190 196 162 190 196 162 190 196 162 190 196 162 190 196 162 190 196 162 190 196 162 190 196 162 190 196 162 190 196 162 190 196 162 190 196 162 190 196 162 190 196 162 190 196 162 190 196 162 190 196 162 190 196 162 190 196 162 190 196 162 190 196 162 190 196 162 190 196 162 190 196 162 190 196 162 190 196 162 190 196 162 190 196 162 190 196 162 190 196 162 190 196 162 190 196 162 190 196 162 190 196 162 190 196 162 190 196 162 190 196 162 190 196 162 190 196 162 190 196 162 190 196 162 190 196 162 190 196 162 190 196 162 190 196 162 190 196 162 190 196 162 190 196 162 190 196 162 190 196 162 190 196 162 190 196 162 190 196 162 190 196 162 190 196 162 185 185 135 185 185 135 185 185 135 185 185 135 185 185 135 185 185 135 185 185 135 185 185 135 185 185 135 185 185 135 185 185 135 185 185 135 185 185 135 185 185 135 185 185 135 185 185 135 185 185 135 185 185 135 185 185 135 185 185 135 185 185 135 185 185 135 185 185 135 185 185 135 185 185 135 185 185 135 185 185 135 185 185 135 185 185 135 185 185 135 185 185 135 185 185 135 185 185 135 185 185 135 185 185 135 185 185 135 185 185 135 185 185 135 185 185 135 185 185 135 185 185 135 0 0 255 0 0 255 193 198 157 193 198 157 193 198 157 193 198 157 193 198 157 193 198 157 193 198 157 193 198 157 193 198 157 193 198 157 193 198 157 193 198 157 193 198 157 193 198 157 193 198 157 193 198 157 193 198 157 193 198 157 193 198 157 193 198 157 193 198 157 193 198 157 193 198 157 193 198 157 193 198 157 193 198 157 193 198 157 193 198 157 193 198 157 193 198 157 193 198 157 193 198 157 193 198 157 193 198 157 193 198 157 193 198 157 193 198 157 193 198 157 193 198 157 193 198 157 193 198 157 193 198 157 193 198 157 193 198 157 193 198 157 193 198 157 193 198 157 193 198 157 193 198 157 193 198 157 0 0 255 0 0 255 194 201 166 194 201 166 194 201 166 194 201 166 194 201 166 194 201 166 194 201 166 194 201 166 194 201 166 194 201 166 194 201 166 194 201 166 194 201 166 194 201 166 194 201 166 194 201 166 194 201 166 194 201 166 194 201 166 194 201 166 194 201 166 194 201 166 194 201 166 194 201 166 194 201 166 194 201 166 194 201 166 194 201 166 194 201 166 194 201 166 194 201 166 194 201 166 194 201 166 194 201 166 194 201 166 194 201 166 194 201 166 194 201 166 194 201 166 194 201 166 194 201 166 194 201 166 194 201 166 194 201 166 194 201 166 194 201 166 194 201 166 0 0 255 0 0 255 194 202 170 194 202 170 194 202 170 194 202 170 194 202 170 194 202 170 194 202 170 194 202 170 194 202 170 194 202 170 194 202 170 194 202 170 194 202 170 194 202 170 194 202 170 194 202 170 194 202 170 194 202 170 194 202 170 194 202 170 194 202 170 194 202 170 194 202 170 194 202 170 194 202 170 194 202 170 194 202 170 194 202 170 194 202 170 194 202 170 194 202 170 194 202 170 194 202 170 194 202 170 194 202 170 194 202 170 194 202 170 194 202 170 194 202 170 194 202 170 194 202 170 194 202 170 194 202 170 194 202 170 194 202 170 194 202 170 194 202 170 194 202 170 194 202 170 194 202 170 194 202 170 194 202 170 194 202 170 194 202 170 194 202 170 0 0 255 0 0 255 190 196 162 190 196 162 190 196 162 190 196 162 190 196 162 190 196 162 190 196 162 190 196 162 190 196 162 190 196 162 190 196 162 190 196 162 190 196 162 190 196 162 190 196 162 190 196 162 190 196 162 190 196 162 190 196 162 190 196 162 190 196 162 190 196 162 190 196 162 190 196 162 190 196 162 190 196 162 190 196 162 190 196 162 190 196 162 190 196 162 190 196 162 190 196 162 190 196 162 190 196 162 190 196 162 190 196 162 190 196 162 190 196 162 190 196 162 190 196 162 190 196 162 190 196 162 190 196 162 190 196 162 190 196 162 190 196 162 190 196 162 190 196 162 190 196 162 190 196 162 190 196 162 190 196 162 190 196 162 190 196 162 190 196 162 185 185 135 185 185 135 185 185 135 185 185 135 185 185 135 185 185 135 185 185 135 185 185 135 185 185 135 185 185 135 185 185 135 185 185 135 185 185 135 185 185 135 185 185 135 185 185 135 185 185 135 185 185 135 185 185 135 185 185 135 185 185 135 185 185 135 185 185 135 185 185 135 185 185 135 185 185 135 185 185 135 185 185 135 185 185 135 185 185 135 185 185 135 185 185 135 185 185 135 185 185 135 185 185 135 185 185 135 185 185 135 185 185 135 185 185 135 185 185 135 185 185 135 0 0 255 0 0 255 193 198 157 193 198 157 193 198 157 193 198 157 193 198 157 193 198 157 193 198 157 193 198 157 193 198 157 193 198 157 193 198 157 193 198 157 193 198 157 193 198 157 193 198 157 193 198 157 193 198 157 193 198 157 193 198 157 193 198 157 193 198 157 193 198 157 193 198 157 193 198 157 193 198 157 193 198 157 193 198 157 193 198 157 193 198 157 193 198 157 193 198 157 193 198 157 193 198 157 193 198 157 193 198 157 193 198 157 193 198 157 193 198 157 193 198 157 193 198 157 193 198 157 193 198 157 193 198 157 193 198 157 193 198 157 193 198 157 193 198 157 193 198 157 193 198 157 193 198 157 0 0 255 0 0 255 194 201 166 194 201 166 194 201 166 194 201 166 194 201 166 194 201 166 194 201 166 194 201 166 194 201 166 194 201 166 194 201 166 194 201 166 194 201 166 194 201 166 194 201 166 194 201 166 194 201 166 194 201 166 194 201 166 194 201 166 194 201 166 194 201 166 194 201 166 194 201 166 194 201 166 194 201 166 194 201 166 194 201 166 194 201 166 194 201 166 194 201 166 194 201 166 194 201 166 194 201 166 194 201 166 194 201 166 194 201 166 194 201 166 194 201 166 194 201 166 194 201 166 194 201 166 194 201 166 194 201 166 194 201 166 194 201 166 194 201 166 0 0 255 0 0 255 194 202 170 194 202 170 194 202 170 194 202 170 194 202 170 194 202 170 194 202 170 194 202 170 194 202 170 194 202 170 194 202 170 194 202 170 194 202 170 194 202 170 194 202 170 194 202 170 194 202 170 194 202 170 194 202 170 194 202 170 194 202 170 194 202 170 194 202 170 194 202 170 194 202 170 194 202 170 194 202 170 194 202 170 194 202 170 194 202 170 194 202 170 194 202 170 194 202 170 194 202 170 194 202 170 194 202 170 194 202 170 194 202 170 194 202 170 194 202 170 194 202 170 194 202 170 194 202 170 194 202 170 194 202 170 194 202 170 194 202 170 194 202 170 194 202 170 194 202 170 194 202 170 194 202 170 194 202 170 194 202 170 194 202 170 0 0 255 0 0 255 190 196 162 190 196 162 190 196 162 190 196 162 190 196 162 190 196 162 190 196 162 190 196 162 190 196 162 190 196 162 190 196 162 190 196 162 190 196 162 190 196 162 190 196 162 190 196 162 190 196 162 190 196 162 190 196 162 190 196 162 190 196 162 190 196 162 190 196 162 190 196 162 190 196 162 190 196 162 190 196 162 190 196 162 190 196 162 190 196 162 190 196 162 190 196 162 190 196 162 190 196 162 190 196 162 190 196 162 190 196 162 190 196 162 190 196 162 190 196 162 190 196 162 190 196 162 190 196 162 190 196 162 190 196 162 190 196 162 190 196 162 190 196 162 190 196 162 190 196 162 190 196 162 190 196 162 190 196 162 190 196 162 190 196 162 185 185 135 185 185 135 185 185 135 185 185 135 185 185 135 185 185 135 185 185 135 185 185 135 185 185 135 185 185 135 185 185 135 185 185 135 185 185 135 185 185 135 185 185 135 185 185 135 185 185 135 185 185 135 185 185 135 185 185 135 185 185 135 185 185 135 185 185 135 185 185 135 185 185 135 185 185 135 185 185 135 185 185 135 185 185 135 185 185 135 185 185 135 185 185 135 185 185 135 185 185 135 185 185 135 185 185 135 185 185 135 185 185 135 185 185 135 185 185 135 185 185 135 0 0 255 0 0 255 193 198 157 193 198 157 193 198 157 193 198 157 193 198 157 193 198 157 193 198 157 193 198 157 193 198 157 193 198 157 193 198 157 193 198 157 193 198 157 193 198 157 193 198 157 193 198 157 193 198 157 193 198 157 193 198 157 193 198 157 193 198 157 193 198 157 193 198 157 193 198 157 193 198 157 193 198 157 193 198 157 193 198 157 193 198 157 193 198 157 193 198 157 193 198 157 193 198 157 193 198 157 193 198 157 193 198 157 193 198 157 193 198 157 193 198 157 193 198 157 193 198 157 193 198 157 193 198 157 193 198 157 193 198 157 193 198 157 193 198 157 193 198 157 193 198 157 193 198 157 193 198 157 0 0 255 0 0 255 194 201 166 194 201 166 194 201 166 194 201 166 194 201 166 194 201 166 194 201 166 194 201 166 194 201 166 194 201 166 194 201 166 194 201 166 194 201 166 194 201 166 194 201 166 194 201 166 194 201 166 194 201 166 194 201 166 194 201 166 194 201 166 194 201 166 194 201 166 194 201 166 194 201 166 194 201 166 194 201 166 194 201 166 194 201 166 194 201 166 194 201 166 194 201 166 194 201 166 194 201 166 194 201 166 194 201 166 194 201 166 194 201 166 194 201 166 194 201 166 194 201 166 194 201 166 194 201 166 194 201 166 194 201 166 194 201 166 0 0 255 0 0 255 194 202 170 194 202 170 194 202 170 194 202 170 194 202 170 194 202 170 194 202 170 194 202 170 194 202 170 194 202 170 194 202 170 194 202 170 194 202 170 194 202 170 194 202 170 194 202 170 194 202 170 194 202 170 194 202 170 194 202 170 194 202 170 194 202 170 194 202 170 194 202 170 194 202 170 194 202 170 194 202 170 194 202 170 194 202 170 194 202 170 194 202 170 194 202 170 194 202 170 194 202 170 194 202 170 194 202 170 194 202 170 194 202 170 194 202 170 194 202 170 194 202 170 194 202 170 194 202 170 194 202 170 194 202 170 194 202 170 194 202 170 194 202 170 194 202 170 194 202 170 194 202 170 194 202 170 194 202 170 194 202 170 194 202 170 0 0 255 0 0 255 190 196 162 190 196 162 190 196 162 190 196 162 190 196 162 190 196 162 190 196 162 190 196 162 190 196 162 190 196 162 190 196 162 190 196 162 190 196 162 190 196 162 190 196 162 190 196 162 190 196 162 190 196 162 190 196 162 190 196 162 190 196 162 190 196 162 190 196 162 190 196 162 190 196 162 190 196 162 190 196 162 190 196 162 190 196 162 190 196 162 190 196 162 190 196 162 190 196 162 190 196 162 190 196 162 190 196 162 190 196 162 190 196 162 190 196 162 190 196 162 190 196 162 190 196 162 190 196 162 190 196 162 190 196 162 190 196 162 190 196 162 190 196 162 190 196 162 190 196 162 190 196 162 190 196 162 190 196 162 190 196 162 190 196 162 185 185 135 185 185 135 185 185 135 185 185 135 185 185 135 185 185 135 185 185 135 185 185 135 185 185 135 185 185 135 185 185 135 185 185 135 185 185 135 185 185 135 185 185 135 185 185 135 185 185 135 185 185 135 185 185 135 185 185 135 185 185 135 185 185 135 185 185 135 185 185 135 185 185 135 185 185 135 185 185 135 185 185 135 185 185 135 185 185 135 185 185 135 185 185 135 185 185 135 185 185 135 185 185 135 185 185 135 185 185 135 185 185 135 185 185 135 185 185 135 0 0 255 0 0 255 193 198 157 193 198 157 193 198 157 193 198 157 193 198 157 193 198 157 193 198 157 193 198 157 193 198 157 193 198 157 193 198 157 193 198 157 193 198 157 193 198 157 193 198 157 193 198 157 193 198 157 193 198 157 193 198 157 193 198 157 193 198 157 193 198 157 193 198 157 193 198 157 193 198 157 193 198 157 193 198 157 193 198 157 193 198 157 193 198 157 193 198 157 193 198 157 193 198 157 193 198 157 193 198 157 193 198 157 193 198 157 193 198 157 193 198 157 193 198 157 193 198 157 193 198 157 193 198 157 193 198 157 193 198 157 193 198 157 193 198 157 193 198 157 193 198 157 193 198 157 193 198 157 193 198 157 0 0 255 0 0 255 194 201 166 194 201 166 194 201 166 194 201 166 194 201 166 194 201 166 194 201 166 194 201 166 194 201 166 194 201 166 194 201 166 194 201 166 194 201 166 194 201 166 194 201 166 194 201 166 194 201 166 194 201 166 194 201 166 194 201 166 194 201 166 194 201 166 194 201 166 194 201 166 194 201 166 194 201 166 194 201 166 194 201 166 194 201 166 194 201 166 194 201 166 194 201 166 194 201 166 194 201 166 194 201 166 194 201 166 194 201 166 194 201 166 194 201 166 194 201 166 194 201 166 194 201 166 194 201 166 194 201 166 194 201 166 194 201 166 0 0 255 0 0 255 194 202 170 194 202 170 194 202 170 194 202 170 194 202 170 194 202 170 194 202 170 194 202 170 194 202 170 194 202 170 194 202 170 194 202 170 194 202 170 194 202 170 194 202 170 194 202 170 194 202 170 194 202 170 194 202 170 194 202 170 194 202 170 194 202 170 194 202 170 194 202 170 194 202 170 194 202 170 194 202 170 194 202 170 194 202 170 194 202 170 194 202 170 194 202 170 194 202 170 194 202 170 194 202 170 194 202 170 194 202 170 194 202 170 194 202 170 194 202 170 194 202 170 194 202 170 194 202 170 194 202 170 194 202 170 194 202 170 194 202 170 194 202 170 194 202 170 194 202 170 194 202 170 194 202 170 194 202 170 194 202 170 194 202 170 0 0 255 0 0 255 190 196 162 190 196 162 190 196 162 190 196 162 190 196 162 190 196 162 190 196 162 190 196 162 190 196 162 190 196 162 190 196 162 190 196 162 190 196 162 190 196 162 190 196 162 190 196 162 190 196 162 190 196 162 190 196 162 190 196 162 190 196 162 190 196 162 190 196 162 190 196 162 190 196 162 190 196 162 190 196 162 190 196 162 190 196 162 190 196 162 190 196 162 190 196 162 190 196 162 190 196 162 190 196 162 190 196 162 190 196 162 190 196 162 190 196 162 190 196 162 190 196 162 190 196 162 190 196 162 190 196 162 190 196 162 190 196 162 190 196 162 190 196 162 190 196 162 190 196 162 190 196 162 190 196 162 190 196 162 190 196 162 190 196 162 185 185 135 185 185 135 185 185 135 185 185 135 185 185 135 185 185 135 185 185 135 185 185 135 185 185 135 185 185 135 185 185 135 185 185 135 185 185 135 185 185 135 185 185 135 185 185 135 185 185 135 185 185 135 185 185 135 185 185 135 185 185 135 185 185 135 185 185 135 185 185 135 185 185 135 185 185 135 185 185 135 185 185 135 185 185 135 185 185 135 185 185 135 185 185 135 185 185 135 185 185 135 185 185 135 185 185 135 185 185 135 185 185 135 185 185 135 0 0 255 0 0 255 193 198 157 193 198 157 193 198 157 193 198 157 193 198 157 193 198 157 193 198 157 193 198 157 193 198 157 193 198 157 193 198 157 193 198 157 193 198 157 193 198 157 193 198 157 193 198 157 193 198 157 193 198 157 193 198 157 193 198 157 193 198 157 193 198 157 193 198 157 193 198 157 193 198 157 193 198 157 193 198 157 193 198 157 193 198 157 193 198 157 193 198 157 193 198 157 193 198 157 193 198 157 193 198 157 193 198 157 193 198 157 193 198 157 193 198 157 193 198 157 193 198 157 193 198 157 193 198 157 193 198 157 193 198 157 193 198 157 193 198 157 193 198 157 193 198 157 193 198 157 193 198 157 193 198 157 193 198 157 0 0 255 0 0 255 194 201 166 194 201 166 194 201 166 194 201 166 194 201 166 194 201 166 194 201 166 194 201 166 194 201 166 194 201 166 194 201 166 194 201 166 194 201 166 194 201 166 194 201 166 194 201 166 194 201 166 194 201 166 194 201 166 194 201 166 194 201 166 194 201 166 194 201 166 194 201 166 194 201 166 194 201 166 194 201 166 194 201 166 194 201 166 194 201 166 194 201 166 194 201 166 194 201 166 194 201 166 194 201 166 194 201 166 194 201 166 194 201 166 194 201 166 194 201 166 194 201 166 194 201 166 194 201 166 194 201 166 194 201 166 194 201 166 0 0 255 0 0 255 194 202 170 194 202 170 194 202 170 194 202 170 194 202 170 194 202 170 194 202 170 194 202 170 194 202 170 194 202 170 194 202 170 194 202 170 194 202 170 194 202 170 194 202 170 194 202 170 194 202 170 194 202 170 194 202 170 194 202 170 194 202 170 194 202 170 194 202 170 194 202 170 194 202 170 194 202 170 194 202 170 194 202 170 194 202 170 194 202 170 194 202 170 194 202 170 194 202 170 194 202 170 194 202 170 194 202 170 194 202 170 194 202 170 194 202 170 194 202 170 194 202 170 194 202 170 194 202 170 194 202 170 194 202 170 194 202 170 194 202 170 194 202 170 194 202 170 194 202 170 194 202 170 194 202 170 194 202 170 194 202 170 194 202 170 0 0 255 0 0 255 190 196 162 190 196 162 190 196 162 190 196 162 190 196 162 190 196 162 190 196 162 190 196 162 190 196 162 190 196 162 190 196 162 190 196 162 190 196 162 190 196 162 190 196 162 190 196 162 190 196 162 190 196 162 190 196 162 190 196 162 190 196 162 190 196 162 190 196 162 190 196 162 190 196 162 190 196 162 190 196 162 190 196 162 190 196 162 190 196 162 190 196 162 190 196 162 190 196 162 190 196 162 190 196 162 190 196 162 190 196 162 190 196 162 190 196 162 190 196 162 190 196 162 190 196 162 190 196 162 190 196 162 190 196 162 190 196 162 190 196 162 190 196 162 190 196 162 190 196 162 190 196 162 190 196 162 190 196 162 190 196 162 190 196 162 185 185 135 185 185 135 185 185 135 185 185 135 185 185 135 185 185 135 185 185 135 185 185 135 185 185 135 185 185 135 185 185 135 185 185 135 185 185 135 185 185 135 185 185 135 185 185 135 185 185 135 185 185 135 185 185 135 185 185 135 185 185 135 185 185 135 185 185 135 185 185 135 185 185 135 185 185 135 185 185 135 185 185 135 185 185 135 185 185 135 185 185 135 185 185 135 185 185 135 185 185 135 185 185 135 185 185 135 185 185 135 185 185 135 185 185 135 0 0 255 0 0 255 193 198 157 193 198 157 193 198 157 193 198 157 193 198 157 193 198 157 193 198 157 193 198 157 193 198 157 193 198 157 193 198 157 193 198 157 193 198 157 193 198 157 193 198 157 193 198 157 193 198 157 193 198 157 193 198 157 193 198 157 193 198 157 193 198 157 193 198 157 193 198 157 193 198 157 193 198 157 193 198 157 193 198 157 193 198 157 193 198 157 193 198 157 193 198 157 193 198 157 193 198 157 193 198 157 193 198 157 193 198 157 193 198 157 193 198 157 193 198 157 193 198 157 193 198 157 193 198 157 193 198 157 193 198 157 193 198 157 193 198 157 193 198 157 193 198 157 193 198 157 193 198 157 193 198 157 193 198 157 0 0 255 0 0 255 194 201 166 194 201 166 194 201 166 194 201 166 194 201 166 194 201 166 194 201 166 194 201 166 194 201 166 194 201 166 194 201 166 194 201 166 194 201 166 194 201 166 194 201 166 194 201 166 194 201 166 194 201 166 194 201 166 194 201 166 194 201 166 194 201 166 194 201 166 194 201 166 194 201 166 194 201 166 194 201 166 194 201 166 194 201 166 194 201 166 194 201 166 194 201 166 194 201 166 194 201 166 194 201 166 194 201 166 194 201 166 194 201 166 194 201 166 194 201 166 194 201 166 194 201 166 194 201 166 194 201 166 194 201 166 0 0 255 0 0 255 194 202 170 194 202 170 194 202 170 194 202 170 194 202 170 194 202 170 194 202 170 194 202 170 194 202 170 194 202 170 194 202 170 194 202 170 194 202 170 194 202 170 194 202 170 194 202 170 194 202 170 194 202 170 194 202 170 194 202 170 194 202 170 194 202 170 194 202 170 194 202 170 194 202 170 194 202 170 194 202 170 194 202 170 194 202 170 194 202 170 194 202 170 194 202 170 194 202 170 194 202 170 194 202 170 194 202 170 194 202 170 194 202 170 194 202 170 194 202 170 194 202 170 194 202 170 194 202 170 194 202 170 194 202 170 194 202 170 194 202 170 194 202 170 194 202 170 194 202 170 194 202 170 194 202 170 194 202 170 194 202 170 194 202 170 194 202 170 0 0 255 0 0 255 190 196 162 190 196 162 190 196 162 190 196 162 190 196 162 190 196 162 190 196 162 190 196 162 190 196 162 190 196 162 190 196 162 190 196 162 190 196 162 190 196 162 190 196 162 190 196 162 190 196 162 190 196 162 190 196 162 190 196 162 190 196 162 190 196 162 190 196 162 190 196 162 190 196 162 190 196 162 190 196 162 190 196 162 190 196 162 190 196 162 190 196 162 190 196 162 190 196 162 190 196 162 190 196 162 190 196 162 190 196 162 190 196 162 190 196 162 190 196 162 190 196 162 190 196 162 190 196 162 190 196 162 190 196 162 190 196 162 190 196 162 190 196 162 190 196 162 190 196 162 190 196 162 190 196 162 190 196 162 190 196 162 190 196 162 185 185 135 185 185 135 185 185 135 185 185 135 185 185 135 185 185 135 185 185 135 185 185 135 185 185 135 185 185 135 185 185 135 185 185 135 185 185 135 185 185 135 185 185 135 185 185 135 185 185 135 185 185 135 185 185 135 185 185 135 185 185 135 185 185 135 185 185 135 185 185 135 185 185 135 185 185 135 185 185 135 185 185 135 185 185 135 185 185 135 185 185 135 185 185 135 185 185 135 185 185 135 185 185 135 185 185 135 185 185 135 185 185 135 185 185 135 0 0 255 0 0 255 193 198 157 193 198 157 193 198 157 193 198 157 193 198 157 193 198 157 193 198 157 193 198 157 193 198 157 193 198 157 193 198 157 193 198 157 193 198 157 193 198 157 193 198 157 193 198 157 193 198 157 193 198 157 193 198 157 193 198 157 193 198 157 193 198 157 193 198 157 193 198 157 193 198 157 193 198 157 193 198 157 193 198 157 193 198 157 193 198 157 193 198 157 193 198 157 193 198 157 193 198 157 193 198 157 193 198 157 193 198 157 193 198 157 193 198 157 193 198 157 193 198 157 193 198 157 193 198 157 193 198 157 193 198 157 193 198 157 193 198 157 193 198 157 193 198 157 193 198 157 193 198 157 193 198 157 193 198 157 193 198 157 0 0 255 0 0 255 194 201 166 194 201 166 194 201 166 194 201 166 194 201 166 194 201 166 194 201 166 194 201 166 194 201 166 194 201 166 194 201 166 194 201 166 194 201 166 194 201 166 194 201 166 194 201 166 194 201 166 194 201 166 194 201 166 194 201 166 194 201 166 194 201 166 194 201 166 194 201 166 194 201 166 194 201 166 194 201 166 194 201 166 194 201 166 194 201 166 194 201 166 194 201 166 194 201 166 194 201 166 194 201 166 194 201 166 194 201 166 194 201 166 194 201 166 194 201 166 194 201 166 194 201 166 194 201 166 194 201 166 0 0 255 0 0 255 194 202 170 194 202 170 194 202 170 194 202 170 194 202 170 194 202 170 194 202 170 194 202 170 194 202 170 194 202 170 194 202 170 194 202 170 194 202 170 194 202 170 194 202 170 194 202 170 194 202 170 194 202 170 194 202 170 194 202 170 194 202 170 194 202 170 194 202 170 194 202 170 194 202 170 194 202 170 194 202 170 194 202 170 194 202 170 194 202 170 194 202 170 194 202 170 194 202 170 194 202 170 194 202 170 194 202 170 194 202 170 194 202 170 194 202 170 194 202 170 194 202 170 194 202 170 194 202 170 194 202 170 194 202 170 194 202 170 194 202 170 194 202 170 194 202 170 194 202 170 194 202 170 194 202 170 194 202 170 194 202 170 194 202 170 194 202 170 0 0 255 0 0 255 190 196 162 190 196 162 190 196 162 190 196 162 190 196 162 190 196 162 190 196 162 190 196 162 190 196 162 190 196 162 190 196 162 190 196 162 190 196 162 190 196 162 190 196 162 190 196 162 190 196 162 190 196 162 190 196 162 190 196 162 190 196 162 190 196 162 190 196 162 190 196 162 190 196 162 190 196 162 190 196 162 190 196 162 190 196 162 190 196 162 190 196 162 190 196 162 190 196 162 190 196 162 190 196 162 190 196 162 190 196 162 190 196 162 190 196 162 190 196 162 190 196 162 190 196 162 190 196 162 190 196 162 190 196 162 190 196 162 190 196 162 190 196 162 190 196 162 190 196 162 190 196 162 190 196 162 190 196 162 190 196 162 190 196 162 185 185 135 185 185 135 185 185 135 185 185 135 185 185 135 185 185 135 185 185 135 185 185 135 185 185 135 185 185 135 185 185 135 185 185 135 185 185 135 185 185 135 185 185 135 185 185 135 185 185 135 185 185 135 185 185 135 185 185 135 185 185 135 185 185 135 185 185 135 185 185 135 185 185 135 185 185 135 185 185 135 185 185 135 185 185 135 185 185 135 185 185 135 185 185 135 185 185 135 185 185 135 185 185 135 185 185 135 185 185 135 185 185 135 185 185 135 0 0 255 0 0 255 193 198 157 193 198 157 193 198 157 193 198 157 193 198 157 193 198 157 193 198 157 193 198 157 193 198 157 193 198 157 193 198 157 193 198 157 193 198 157 193 198 157 193 198 157 193 198 157 193 198 157 193 198 157 193 198 157 193 198 157 193 198 157 193 198 157 193 198 157 193 198 157 193 198 157 193 198 157 193 198 157 193 198 157 193 198 157 193 198 157 193 198 157 193 198 157 193 198 157 193 198 157 193 198 157 193 198 157 193 198 157 193 198 157 193 198 157 193 198 157 193 198 157 193 198 157 193 198 157 193 198 157 193 198 157 193 198 157 193 198 157 193 198 157 193 198 157 193 198 157 193 198 157 193 198 157 193 198 157 193 198 157 0 0 255 0 0 255 194 201 166 194 201 166 194 201 166 194 201 166 194 201 166 194 201 166 194 201 166 194 201 166 194 201 166 194 201 166 194 201 166 194 201 166 194 201 166 194 201 166 194 201 166 194 201 166 194 201 166 194 201 166 194 201 166 194 201 166 194 201 166 194 201 166 194 201 166 194 201 166 194 201 166 194 201 166 194 201 166 194 201 166 194 201 166 194 201 166 194 201 166 194 201 166 194 201 166 194 201 166 194 201 166 194 201 166 194 201 166 194 201 166 194 201 166 194 201 166 194 201 166 194 201 166 194 201 166 194 201 166 0 0 255 0 0 255 194 202 170 194 202 170 194 202 170 194 202 170 194 202 170 194 202 170 194 202 170 194 202 170 194 202 170 194 202 170 194 202 170 194 202 170 194 202 170 194 202 170 194 202 170 194 202 170 194 202 170 194 202 170 194 202 170 194 202 170 194 202 170 194 202 170 194 202 170 194 202 170 194 202 170 194 202 170 194 202 170 194 202 170 194 202 170 194 202 170 194 202 170 194 202 170 194 202 170 194 202 170 0 0 255 0 0 255 0 0 255 0 0 255 0 0 255 194 202 170 194 202 170 194 202 170 194 202 170 194 202 170 194 202 170 194 202 170 194 202 170 194 202 170 194 202 170 194 202 170 194 202 170 194 202 170 194 202 170 194 202 170 194 202 170 194 202 170 0 0 255 0 0 255 190 196 162 190 196 162 190 196 162 190 196 162 190 196 162 190 196 162 190 196 162 190 196 162 190 196 162 190 196 162 190 196 162 190 196 162 190 196 162 190 196 162 190 196 162 190 196 162 190 196 162 190 196 162 190 196 162 190 196 162 190 196 162 190 196 162 190 196 162 190 196 162 190 196 162 190 196 162 190 196 162 190 196 162 190 196 162 190 196 162 190 196 162 190 196 162 190 196 162 190 196 162 190 196 162 190 196 162 190 196 162 190 196 162 190 196 162 190 196 162 190 196 162 190 196 162 190 196 162 190 196 162 190 196 162 190 196 162 190 196 162 190 196 162 190 196 162 190 196 162 190 196 162 190 196 162 190 196 162 190 196 162 190 196 162 185 185 135 185 185 135 185 185 135 185 185 135 185 185 135 185 185 135 185 185 135 185 185 135 185 185 135 185 185 135 185 185 135 185 185 135 185 185 135 185 185 135 185 185 135 185 185 135 185 185 135 185 185 135 185 185 135 185 185 135 185 185 135 185 185 135 185 185 135 185 185 135 185 185 135 185 185 135 185 185 135 185 185 135 185 185 135 185 185 135 185 185 135 185 185 135 185 185 135 185 185 135 185 185 135 185 185 135 185 185 135 185 185 135 0 0 255 0 0 255 193 198 157 193 198 157 193 198 157 193 198 157 193 198 157 193 198 157 193 198 157 193 198 157 193 198 157 193 198 157 193 198 157 193 198 157 193 198 157 193 198 157 193 198 157 193 198 157 193 198 157 193 198 157 193 198 157 193 198 157 193 198 157 193 198 157 193 198 157 193 198 157 193 198 157 193 198 157 193 198 157 193 198 157 193 198 157 193 198 157 193 198 157 193 198 157 193 198 157 193 198 157 193 198 157 193 198 157 193 198 157 193 198 157 193 198 157 193 198 157 193 198 157 193 198 157 193 198 157 193 198 157 193 198 157 193 198 157 193 198 157 193 198 157 193 198 157 193 198 157 193 198 157 193 198 157 193 198 157 193 198 157 193 198 157 0 0 255 0 0 255 194 201 166 194 201 166 194 201 166 194 201 166 194 201 166 194 201 166 194 201 166 194 201 166 194 201 166 194 201 166 194 201 166 194 201 166 194 201 166 194 201 166 194 201 166 194 201 166 194 201 166 194 201 166 194 201 166 194 201 166 194 201 166 194 201 166 194 201 166 194 201 166 194 201 166 194 201 166 194 201 166 194 201 166 194 201 166 194 201 166 194 201 166 194 201 166 194 201 166 194 201 166 194 201 166 194 201 166 194 201 166 194 201 166 194 201 166 194 201 166 194 201 166 194 201 166 194 201 166 194 201 166 0 0 255 0 0 255 194 202 170 194 202 170 194 202 170 194 202 170 194 202 170 194 202 170 194 202 170 194 202 170 194 202 170 194 202 170 194 202 170 194 202 170 194 202 170 194 202 170 194 202 170 194 202 170 194 202 170 194 202 170 194 202 170 194 202 170 194 202 170 194 202 170 194 202 170 194 202 170 194 202 170 194 202 170 194 202 170 194 202 170 194 202 170 194 202 170 194 202 170 194 202 170 0 0 255 0 0 255 0 0 255 0 0 255 0 0 255 0 0 255 0 0 255 0 0 255 0 0 255 194 202 170 194 202 170 194 202 170 194 202 170 194 202 170 194 202 170 194 202 170 194 202 170 194 202 170 194 202 170 194 202 170 194 202 170 194 202 170 194 202 170 194 202 170 0 0 255 0 0 255 190 196 162 190 196 162 190 196 162 190 196 162 190 196 162 190 196 162 190 196 162 190 196 162 190 196 162 190 196 162 190 196 162 190 196 162 190 196 162 190 196 162 190 196 162 190 196 162 190 196 162 190 196 162 190 196 162 190 196 162 190 196 162 190 196 162 190 196 162 190 196 162 190 196 162 190 196 162 190 196 162 190 196 162 190 196 162 190 196 162 190 196 162 190 196 162 190 196 162 190 196 162 190 196 162 190 196 162 190 196 162 190 196 162 190 196 162 190 196 162 190 196 162 190 196 162 190 196 162 190 196 162 190 196 162 190 196 162 190 196 162 190 196 162 190 196 162 190 196 162 190 196 162 190 196 162 190 196 162 190 196 162 190 196 162 185 185 135 185 185 135 185 185 135 185 185 135 185 185 135 185 185 135 185 185 135 185 185 135 185 185 135 185 185 135 185 185 135 185 185 135 185 185 135 185 185 135 185 185 135 185 185 135 185 185 135 185 185 135 185 185 135 185 185 135 185 185 135 185 185 135 185 185 135 185 185 135 185 185 135 185 185 135 185 185 135 185 185 135 185 185 135 185 185 135 185 185 135 185 185 135 185 185 135 185 185 135 185 185 135 185 185 135 185 185 135 185 185 135 185 185 135 0 0 255 0 0 255 193 198 157 193 198 157 193 198 157 193 198 157 193 198 157 193 198 157 193 198 157 193 198 157 193 198 157 193 198 157 193 198 157 193 198 157 193 198 157 193 198 157 193 198 157 193 198 157 193 198 157 193 198 157 193 198 157 193 198 157 193 198 157 193 198 157 193 198 157 193 198 157 193 198 157 193 198 157 193 198 157 193 198 157 193 198 157 193 198 157 193 198 157 193 198 157 193 198 157 193 198 157 193 198 157 193 198 157 193 198 157 193 198 157 193 198 157 193 198 157 193 198 157 193 198 157 193 198 157 193 198 157 193 198 157 193 198 157 193 198 157 193 198 157 193 198 157 193 198 157 193 198 157 193 198 157 193 198 157 193 198 157 0 0 255 0 0 255 194 201 166 194 201 166 194 201 166 194 201 166 194 201 166 194 201 166 194 201 166 194 201 166 194 201 166 194 201 166 194 201 166 194 201 166 194 201 166 194 201 166 194 201 166 194 201 166 194 201 166 194 201 166 194 201 166 194 201 166 194 201 166 194 201 166 194 201 166 194 201 166 194 201 166 194 201 166 194 201 166 194 201 166 194 201 166 194 201 166 194 201 166 194 201 166 194 201 166 194 201 166 194 201 166 194 201 166 194 201 166 194 201 166 194 201 166 194 201 166 194 201 166 194 201 166 194 201 166 194 201 166 0 0 255 0 0 255 194 202 170 194 202 170 194 202 170 194 202 170 194 202 170 194 202 170 194 202 170 194 202 170 194 202 170 194 202 170 194 202 170 194 202 170 194 202 170 194 202 170 194 202 170 194 202 170 194 202 170 194 202 170 194 202 170 194 202 170 194 202 170 194 202 170 194 202 170 194 202 170 194 202 170 194 202 170 194 202 170 194 202 170 194 202 170 194 202 170 194 202 170 0 0 255 0 0 255 0 0 255 0 0 255 0 0 255 0 0 255 0 0 255 0 0 255 0 0 255 0 0 255 0 0 255 194 202 170 194 202 170 194 202 170 194 202 170 194 202 170 194 202 170 194 202 170 194 202 170 194 202 170 194 202 170 194 202 170 194 202 170 194 202 170 194 202 170 0 0 255 0 0 255 190 196 162 190 196 162 190 196 162 190 196 162 190 196 162 190 196 162 190 196 162 190 196 162 190 196 162 190 196 162 190 196 162 190 196 162 190 196 162 190 196 162 190 196 162 190 196 162 190 196 162 190 196 162 190 196 162 190 196 162 190 196 162 190 196 162 190 196 162 190 196 162 190 196 162 190 196 162 190 196 162 190 196 162 190 196 162 190 196 162 190 196 162 190 196 162 190 196 162 190 196 162 190 196 162 190 196 162 190 196 162 190 196 162 190 196 162 190 196 162 190 196 162 190 196 162 190 196 162 190 196 162 190 196 162 190 196 162 190 196 162 190 196 162 190 196 162 190 196 162 190 196 162 190 196 162 190 196 162 190 196 162 190 196 162 185 185 135 185 185 135 185 185 135 185 185 135 185 185 135 185 185 135 185 185 135 185 185 135 185 185 135 185 185 135 185 185 135 185 185 135 185 185 135 185 185 135 185 185 135 185 185 135 185 185 135 185 185 135 185 185 135 185 185 135 185 185 135 185 185 135 185 185 135 185 185 135 185 185 135 185 185 135 185 185 135 185 185 135 185 185 135 185 185 135 185 185 135 185 185 135 185 185 135 185 185 135 185 185 135 185 185 135 185 185 135 185 185 135 185 185 135 0 0 255 0 0 255 193 198 157 193 198 157 193 198 157 193 198 157 193 198 157 193 198 157 193 198 157 193 198 157 193 198 157 193 198 157 193 198 157 193 198 157 193 198 157 193 198 157 193 198 157 193 198 157 193 198 157 193 198 157 193 198 157 193 198 157 193 198 157 193 198 157 193 198 157 193 198 157 193 198 157 193 198 157 193 198 157 193 198 157 193 198 157 193 198 157 193 198 157 193 198 157 193 198 157 193 198 157 193 198 157 193 198 157 193 198 157 193 198 157 193 198 157 193 198 157 193 198 157 193 198 157 193 198 157 193 198 157 193 198 157 193 198 157 193 198 157 193 198 157 193 198 157 193 198 157 193 198 157 193 198 157 193 198 157 193 198 157 0 0 255 0 0 255 194 201 166 194 201 166 194 201 166 194 201 166 194 201 166 194 201 166 194 201 166 194 201 166 194 201 166 194 201 166 194 201 166 194 201 166 194 201 166 194 201 166 194 201 166 194 201 166 194 201 166 194 201 166 194 201 166 194 201 166 194 201 166 194 201 166 194 201 166 194 201 166 194 201 166 194 201 166 194 201 166 194 201 166 194 201 166 194 201 166 194 201 166 194 201 166 194 201 166 194 201 166 194 201 166 194 201 166 194 201 166 194 201 166 194 201 166 194 201 166 194 201 166 194 201 166 194 201 166 194 201 166 0 0 255 0 0 255 194 202 170 194 202 170 194 202 170 194 202 170 194 202 170 194 202 170 194 202 170 194 202 170 194 202 170 194 202 170 194 202 170 194 202 170 194 202 170 194 202 170 194 202 170 194 202 170 194 202 170 194 202 170 194 202 170 194 202 170 194 202 170 194 202 170 194 202 170 194 202 170 194 202 170 194 202 170 194 202 170 194 202 170 194 202 170 194 202 170 0 0 255 0 0 255 0 0 255 70 38 44 70 38 44 0 0 255 0 0 255 0 0 255 0 0 255 0 0 255 0 0 255 0 0 255 0 0 255 194 202 170 194 202 170 194 202 170 194 202 170 194 202 170 194 202 170 194 202 170 194 202 170 194 202 170 194 202 170 194 202 170 194 202 170 0 0 255 0 0 255 190 196 162 190 196 162 190 196 162 190 196 162 190 196 162 190 196 162 190 196 162 190 196 162 190 196 162 190 196 162 190 196 162 190 196 162 190 196 162 190 196 162 190 196 162 190 196 162 190 196 162 190 196 162 190 196 162 190 196 162 190 196 162 190 196 162 190 196 162 190 196 162 190 196 162 190 196 162 190 196 162 190 196 162 190 196 162 190 196 162 190 196 162 190 196 162 190 196 162 190 196 162 190 196 162 190 196 162 190 196 162 190 196 162 190 196 162 190 196 162 190 196 162 190 196 162 190 196 162 190 196 162 190 196 162 190 196 162 190 196 162 190 196 162 190 196 162 190 196 162 190 196 162 190 196 162 190 196 162 190 196 162 190 196 162 190 196 162 185 185 135 185 185 135 185 185 135 185 185 135 185 185 135 185 185 135 185 185 135 185 185 135 185 185 135 185 185 135 185 185 135 185 185 135 185 185 135 185 185 135 185 185 135 185 185 135 185 185 135 185 185 135 185 185 135 185 185 135 185 185 135 185 185 135 185 185 135 185 185 135 185 185 135 185 185 135 185 185 135 185 185 135 185 185 135 185 185 135 185 185 135 185 185 135 185 185 135 185 185 135 185 185 135 185 185 135 185 185 135 185 185 135 185 185 135 185 185 135 0 0 255 0 0 255 193 198 157 193 198 157 193 198 157 193 198 157 193 198 157 193 198 157 193 198 157 193 198 157 193 198 157 193 198 157 193 198 157 193 198 157 193 198 157 193 198 157 193 198 157 193 198 157 193 198 157 193 198 157 193 198 157 193 198 157 193 198 157 193 198 157 193 198 157 193 198 157 193 198 157 193 198 157 193 198 157 193 198 157 193 198 157 193 198 157 193 198 157 193 198 157 193 198 157 193 198 157 193 198 157 193 198 157 193 198 157 193 198 157 193 198 157 193 198 157 193 198 157 193 198 157 193 198 157 193 198 157 193 198 157 193 198 157 193 198 157 193 198 157 193 198 157 193 198 157 193 198 157 193 198 157 193 198 157 0 0 255 0 0 255 0 0 255 0 0 255 194 201 166 194 201 166 194 201 166 194 201 166 194 201 166 194 201 166 194 201 166 194 201 166 194 201 166 194 201 166 194 201 166 194 201 166 194 201 166 194 201 166 194 201 166 194 201 166 194 201 166 0 0 255 0 0 255 0 0 255 0 0 255 0 0 255 0 0 255 0 0 255 0 0 255 194 201 166 194 201 166 194 201 166 194 201 166 194 201 166 194 201 166 194 201 166 194 201 166 194 201 166 194 201 166 194 201 166 194 201 166 194 201 166 194 201 166 194 201 166 194 201 166 194 201 166 0 0 255 0 0 255 194 202 170 194 202 170 194 202 170 194 202 170 194 202 170 194 202 170 194 202 170 194 202 170 194 202 170 194 202 170 194 202 170 194 202 170 194 202 170 194 202 170 194 202 170 194 202 170 194 202 170 194 202 170 194 202 170 194 202 170 194 202 170 194 202 170 194 202 170 194 202 170 194 202 170 194 202 170 194 202 170 194 202 170 194 202 170 0 0 255 0 0 255 0 0 255 70 38 44 70 38 44 0 0 255 0 0 255 0 0 255 0 0 255 0 0 255 0 0 255 0 0 255 0 0 255 0 0 255 194 202 170 194 202 170 194 202 170 194 202 170 194 202 170 194 202 170 194 202 170 194 202 170 194 202 170 194 202 170 194 202 170 194 202 170 0 0 255 0 0 255 190 196 162 190 196 162 190 196 162 190 196 162 190 196 162 190 196 162 190 196 162 190 196 162 190 196 162 190 196 162 190 196 162 190 196 162 190 196 162 190 196 162 190 196 162 190 196 162 190 196 162 190 196 162 190 196 162 190 196 162 190 196 162 190 196 162 190 196 162 190 196 162 190 196 162 190 196 162 190 196 162 190 196 162 190 196 162 190 196 162 190 196 162 190 196 162 190 196 162 190 196 162 190 196 162 190 196 162 190 196 162 190 196 162 190 196 162 190 196 162 190 196 162 190 196 162 190 196 162 190 196 162 190 196 162 190 196 162 190 196 162 190 196 162 190 196 162 190 196 162 190 196 162 190 196 162 190 196 162 190 196 162 190 196 162 190 196 162 185 185 135 185 185 135 185 185 135 185 185 135 185 185 135 185 185 135 185 185 135 185 185 135 185 185 135 185 185 135 185 185 135 185 185 135 185 185 135 185 185 135 185 185 135 185 185 135 185 185 135 185 185 135 185 185 135 185 185 135 185 185 135 185 185 135 185 185 135 185 185 135 185 185 135 185 185 135 185 185 135 185 185 135 185 185 135 185 185 135 185 185 135 185 185 135 185 185 135 185 185 135 185 185 135 185 185 135 185 185 135 185 185 135 185 185 135 0 0 255 0 0 255 193 198 157 193 198 157 193 198 157 193 198 157 193 198 157 193 198 157 193 198 157 193 198 157 193 198 157 193 198 157 193 198 157 193 198 157 193 198 157 193 198 157 193 198 157 193 198 157 193 198 157 193 198 157 193 198 157 193 198 157 193 198 157 193 198 157 193 198 157 193 198 157 193 198 157 193 198 157 193 198 157 193 198 157 193 198 157 193 198 157 193 198 157 193 198 157 193 198 157 193 198 157 193 198 157 193 198 157 193 198 157 193 198 157 193 198 157 193 198 157 193 198 157 193 198 157 193 198 157 193 198 157 193 198 157 193 198 157 193 198 157 193 198 157 193 198 157 193 198 157 193 198 157 193 198 157 193 198 157 193 198 157 193 198 157 0 0 255 0 0 255 0 0 255 0 0 255 0 0 255 194 201 166 194 201 166 194 201 166 194 201 166 194 201 166 194 201 166 194 201 166 194 201 166 194 201 166 194 201 166 194 201 166 194 201 166 194 201 166 194 201 166 0 0 255 0 0 255 0 0 255 0 0 255 0 0 255 0 0 255 0 0 255 0 0 255 0 0 255 0 0 255 194 201 166 194 201 166 194 201 166 194 201 166 194 201 166 194 201 166 194 201 166 194 201 166 194 201 166 194 201 166 194 201 166 194 201 166 194 201 166 194 201 166 194 201 166 194 201 166 0 0 255 0 0 255 194 202 170 194 202 170 194 202 170 194 202 170 194 202 170 194 202 170 194 202 170 194 202 170 194 202 170 194 202 170 194 202 170 194 202 170 194 202 170 194 202 170 194 202 170 194 202 170 194 202 170 194 202 170 194 202 170 194 202 170 194 202 170 194 202 170 194 202 170 194 202 170 194 202 170 194 202 170 194 202 170 194 202 170 0 0 255 0 0 255 0 0 255 70 38 44 70 38 44 70 38 44 70 38 44 0 0 255 0 0 255 0 0 255 0 0 255 70 38 44 70 38 44 0 0 255 0 0 255 0 0 255 194 202 170 194 202 170 194 202 170 194 202 170 194 202 170 194 202 170 194 202 170 194 202 170 194 202 170 194 202 170 0 0 255 0 0 255 0 0 255 0 0 255 0 0 255 0 0 255 0 0 255 190 196 162 190 196 162 190 196 162 190 196 162 190 196 162 190 196 162 190 196 162 190 196 162 190 196 162 190 196 162 190 196 162 190 196 162 190 196 162 190 196 162 190 196 162 190 196 162 190 196 162 190 196 162 190 196 162 190 196 162 190 196 162 190 196 162 190 196 162 190 196 162 190 196 162 190 196 162 190 196 162 190 196 162 190 196 162 190 196 162 190 196 162 190 196 162 190 196 162 190 196 162 190 196 162 190 196 162 190 196 162 190 196 162 190 196 162 190 196 162 190 196 162 190 196 162 190 196 162 190 196 162 190 196 162 190 196 162 190 196 162 190 196 162 190 196 162 190 196 162 190 196 162 190 196 162 185 185 135 185 185 135 185 185 135 185 185 135 185 185 135 185 185 135 185 185 135 185 185 135 185 185 135 185 185 135 185 185 135 185 185 135 185 185 135 185 185 135 185 185 135 185 185 135 185 185 135 185 185 135 185 185 135 185 185 135 185 185 135 185 185 135 185 185 135 185 185 135 185 185 135 185 185 135 185 185 135 185 185 135 185 185 135 185 185 135 185 185 135 185 185 135 185 185 135 185 185 135 185 185 135 185 185 135 185 185 135 185 185 135 185 185 135 0 0 255 0 0 255 193 198 157 193 198 157 193 198 157 193 198 157 193 198 157 193 198 157 193 198 157 193 198 157 193 198 157 193 198 157 193 198 157 193 198 157 193 198 157 193 198 157 193 198 157 193 198 157 193 198 157 193 198 157 193 198 157 193 198 157 193 198 157 193 198 157 193 198 157 193 198 157 193 198 157 193 198 157 193 198 157 193 198 157 193 198 157 193 198 157 193 198 157 193 198 157 193 198 157 193 198 157 193 198 157 193 198 157 193 198 157 193 198 157 193 198 157 193 198 157 193 198 157 193 198 157 193 198 157 193 198 157 193 198 157 193 198 157 193 198 157 193 198 157 193 198 157 193 198 157 193 198 157 193 198 157 193 198 157 0 0 255 0 0 255 0 0 255 0 0 255 0 0 255 0 0 255 0 0 255 0 0 255 194 201 166 194 201 166 194 201 166 194 201 166 194 201 166 194 201 166 194 201 166 194 201 166 194 201 166 194 201 166 194 201 166 194 201 166 0 0 255 0 0 255 0 0 255 0 0 255 70 38 44 70 38 44 70 38 44 70 38 44 70 38 44 0 0 255 0 0 255 0 0 255 194 201 166 194 201 166 194 201 166 194 201 166 194 201 166 194 201 166 194 201 166 194 201 166 194 201 166 194 201 166 194 201 166 194 201 166 0 0 255 0 0 255 0 0 255 0 0 255 0 0 255 0 0 255 194 202 170 194 202 170 194 202 170 194 202 170 194 202 170 194 202 170 194 202 170 194 202 170 194 202 170 194 202 170 194 202 170 194 202 170 194 202 170 194 202 170 194 202 170 194 202 170 194 202 170 194 202 170 194 202 170 194 202 170 194 202 170 194 202 170 194 202 170 194 202 170 194 202 170 194 202 170 194 202 170 0 0 255 0 0 255 0 0 255 70 38 44 70 38 44 70 38 44 70 38 44 0 0 255 0 0 255 0 0 255 70 38 44 70 38 44 70 38 44 0 0 255 0 0 255 0 0 255 194 202 170 194 202 170 194 202 170 194 202 170 194 202 170 194 202 170 194 202 170 194 202 170 194 202 170 0 0 255 0 0 255 0 0 255 0 0 255 0 0 255 0 0 255 0 0 255 0 0 255 0 0 255 0 0 255 190 196 162 190 196 162 190 196 162 190 196 162 190 196 162 190 196 162 190 196 162 190 196 162 190 196 162 190 196 162 190 196 162 190 196 162 190 196 162 190 196 162 190 196 162 190 196 162 190 196 162 190 196 162 190 196 162 190 196 162 190 196 162 190 196 162 190 196 162 190 196 162 190 196 162 190 196 162 190 196 162 190 196 162 190 196 162 190 196 162 190 196 162 190 196 162 190 196 162 190 196 162 190 196 162 190 196 162 190 196 162 190 196 162 190 196 162 190 196 162 190 196 162 190 196 162 190 196 162 190 196 162 190 196 162 190 196 162 190 196 162 190 196 162 190 196 162 190 196 162 185 185 135 185 185 135 185 185 135 185 185 135 185 185 135 185 185 135 185 185 135 185 185 135 185 185 135 185 185 135 185 185 135 185 185 135 185 185 135 185 185 135 185 185 135 185 185 135 185 185 135 185 185 135 185 185 135 185 185 135 185 185 135 185 185 135 185 185 135 185 185 135 185 185 135 185 185 135 185 185 135 185 185 135 185 185 135 185 185 135 185 185 135 185 185 135 185 185 135 185 185 135 185 185 135 185 185 135 185 185 135 185 185 135 185 185 135 0 0 255 0 0 255 193 198 157 193 198 157 193 198 157 193 198 157 193 198 157 193 198 157 193 198 157 193 198 157 193 198 157 193 198 157 193 198 157 193 198 157 193 198 157 193 198 157 193 198 157 193 198 157 193 198 157 193 198 157 193 198 157 0 0 255 0 0 255 0 0 255 0 0 255 0 0 255 193 198 157 193 198 157 193 198 157 193 198 157 193 198 157 193 198 157 193 198 157 193 198 157 193 198 157 193 198 157 193 198 157 193 198 157 193 198 157 193 198 157 193 198 157 193 198 157 193 198 157 193 198 157 193 198 157 193 198 157 193 198 157 193 198 157 193 198 157 193 198 157 193 198 157 193 198 157 193 198 157 193 198 157 0 0 255 0 0 255 0 0 255 0 0 255 0 0 255 0 0 255 0 0 255 0 0 255 0 0 255 0 0 255 194 201 166 194 201 166 194 201 166 194 201 166 194 201 166 194 201 166 194 201 166 194 201 166 194 201 166 194 201 166 0 0 255 0 0 255 0 0 255 70 38 44 70 38 44 70 38 44 70 38 44 70 38 44 70 38 44 70 38 44 70 38 44 0 0 255 0 0 255 0 0 255 194 201 166 194 201 166 194 201 166 194 201 166 194 201 166 194 201 166 194 201 166 194 201 166 194 201 166 194 201 166 0 0 255 0 0 255 0 0 255 0 0 255 0 0 255 0 0 255 0 0 255 0 0 255 194 202 170 194 202 170 194 202 170 194 202 170 194 202 170 194 202 170 194 202 170 194 202 170 194 202 170 194 202 170 194 202 170 194 202 170 194 202 170 194 202 170 194 202 170 194 202 170 194 202 170 194 202 170 194 202 170 194 202 170 194 202 170 194 202 170 194 202 170 194 202 170 194 202 170 0 0 255 0 0 255 0 0 255 70 38 44 70 38 44 70 38 44 70 38 44 0 0 255 0 0 255 0 0 255 0 0 255 0 0 255 70 38 44 70 38 44 0 0 255 0 0 255 0 0 255 194 202 170 194 202 170 194 202 170 194 202 170 194 202 170 194 202 170 194 202 170 194 202 170 0 0 255 0 0 255 0 0 255 0 0 255 95 139 71 95 139 71 95 139 71 95 139 71 0 0 255 0 0 255 0 0 255 0 0 255 190 196 162 190 196 162 190 196 162 190 196 162 190 196 162 190 196 162 190 196 162 190 196 162 190 196 162 190 196 162 190 196 162 190 196 162 190 196 162 190 196 162 190 196 162 190 196 162 190 196 162 190 196 162 190 196 162 190 196 162 190 196 162 190 196 162 190 196 162 190 196 162 190 196 162 190 196 162 190 196 162 190 196 162 190 196 162 190 196 162 190 196 162 190 196 162 190 196 162 190 196 162 190 196 162 190 196 162 190 196 162 190 196 162 190 196 162 190 196 162 190 196 162 190 196 162 190 196 162 0 0 255 0 0 255 0 0 255 0 0 255 0 0 255 193 197 164 185 185 135 185 185 135 185 185 135 185 185 135 185 185 135 185 185 135 185 185 135 185 185 135 185 185 135 185 185 135 185 185 135 185 185 135 185 185 135 185 185 135 185 185 135 185 185 135 185 185 135 185 185 135 185 185 135 185 185 135 185 185 135 185 185 135 185 185 135 185 185 135 185 185 135 185 185 135 185 185 135 185 185 135 185 185 135 185 185 135 185 185 135 185 185 135 185 185 135 185 185 135 185 185 135 185 185 135 185 185 135 185 185 135 185 185 135 0 0 255 0 0 255 193 198 157 193 198 157 193 198 157 193 198 157 193 198 157 193 198 157 193 198 157 193 198 157 193 198 157 193 198 157 193 198 157 193 198 157 193 198 157 193 198 157 193 198 157 193 198 157 193 198 157 0 0 255 0 0 255 0 0 255 0 0 255 0 0 255 0 0 255 0 0 255 0 0 255 0 0 255 193 198 157 193 198 157 193 198 157 193 198 157 193 198 157 193 198 157 193 198 157 193 198 157 193 198 157 193 198 157 193 198 157 193 198 157 193 198 157 193 198 157 193 198 157 193 198 157 193 198 157 193 198 157 193 198 157 193 198 157 193 198 157 193 198 157 193 198 157 193 198 157 193 198 157 0 0 255 0 0 255 0 0 255 0 0 255 70 38 44 70 38 44 70 38 44 70 38 44 0 0 255 0 0 255 0 0 255 0 0 255 194 201 166 194 201 166 194 201 166 194 201 166 194 201 166 194 201 166 194 201 166 194 201 166 0 0 255 0 0 255 0 0 255 70 38 44 70 38 44 70 38 44 70 38 44 70 38 44 0 0 255 0 0 255 70 38 44 70 38 44 70 38 44 0 0 255 0 0 255 194 201 166 194 201 166 194 201 166 194 201 166 194 201 166 194 201 166 194 201 166 194 201 166 0 0 255 0 0 255 0 0 255 0 0 255 0 0 255 0 0 255 0 0 255 0 0 255 0 0 255 0 0 255 0 0 255 194 202 170 194 202 170 194 202 170 194 202 170 194 202 170 194 202 170 194 202 170 194 202 170 194 202 170 194 202 170 194 202 170 194 202 170 194 202 170 194 202 170 194 202 170 194 202 170 194 202 170 194 202 170 194 202 170 194 202 170 194 202 170 194 202 170 194 202 170 0 0 255 0 0 255 0 0 255 0 0 255 70 38 44 70 38 44 70 38 44 70 38 44 0 0 255 0 0 255 0 0 255 0 0 255 0 0 255 70 38 44 70 38 44 0 0 255 0 0 255 0 0 255 194 202 170 194 202 170 194 202 170 194 202 170 194 202 170 194 202 170 194 202 170 194 202 170 0 0 255 0 0 255 0 0 255 95 139 71 95 139 71 95 139 71 95 139 71 95 139 71 95 139 71 95 139 71 95 139 71 0 0 255 0 0 255 190 196 162 190 196 162 190 196 162 190 196 162 190 196 162 190 196 162 190 196 162 190 196 162 190 196 162 190 196 162 190 196 162 190 196 162 190 196 162 190 196 162 190 196 162 190 196 162 190 196 162 190 196 162 190 196 162 190 196 162 190 196 162 190 196 162 190 196 162 190 196 162 190 196 162 190 196 162 190 196 162 190 196 162 190 196 162 190 196 162 190 196 162 190 196 162 190 196 162 190 196 162 190 196 162 190 196 162 190 196 162 0 0 255 0 0 255 0 0 255 0 0 255 0 0 255 0 0 255 0 0 255 0 0 255 0 0 255 0 0 255 193 197 164 185 185 135 185 185 135 185 185 135 185 185 135 185 185 135 185 185 135 185 185 135 185 185 135 185 185 135 185 185 135 185 185 135 185 185 135 185 185 135 185 185 135 185 185 135 185 185 135 185 185 135 185 185 135 185 185 135 185 185 135 185 185 135 185 185 135 185 185 135 185 185 135 185 185 135 185 185 135 185 185 135 185 185 135 185 185 135 185 185 135 185 185 135 185 185 135 185 185 135 185 185 135 185 185 135 185 185 135 185 185 135 185 185 135 0 0 255 0 0 255 193 198 157 193 198 157 193 198 157 193 198 157 193 198 157 193 198 157 193 198 157 193 198 157 193 198 157 193 198 157 193 198 157 193 198 157 193 198 157 193 198 157 193 198 157 193 198 157 193 198 157 0 0 255 0 0 255 0 0 255 0 0 255 0 0 255 0 0 255 0 0 255 0 0 255 0 0 255 0 0 255 0 0 255 0 0 255 193 198 157 193 198 157 193 198 157 193 198 157 193 198 157 193 198 157 193 198 157 193 198 157 193 198 157 193 198 157 193 198 157 193 198 157 193 198 157 193 198 157 193 198 157 193 198 157 193 198 157 193 198 157 193 198 157 193 198 157 193 198 157 193 198 157 0 0 255 0 0 255 0 0 255 70 38 44 70 38 44 70 38 44 70 38 44 70 38 44 70 38 44 70 38 44 0 0 255 0 0 255 0 0 255 0 0 255 194 201 166 194 201 166 194 201 166 194 201 166 194 201 166 194 201 166 194 201 166 0 0 255 0 0 255 70 38 44 70 38 44 70 38 44 70 38 44 70 38 44 0 0 255 0 0 255 0 0 255 0 0 255 70 38 44 70 38 44 0 0 255 0 0 255 0 0 255 194 201 166 194 201 166 194 201 166 194 201 166 194 201 166 194 201 166 0 0 255 0 0 255 0 0 255 0 0 255 185 64 42 185 64 42 185 64 42 185 64 42 0 0 255 185 64 42 0 0 255 0 0 255 0 0 255 194 202 170 194 202 170 194 202 170 194 202 170 194 202 170 194 202 170 194 202 170 194 202 170 194 202 170 194 202 170 194 202 170 194 202 170 194 202 170 194 202 170 194 202 170 194 202 170 194 202 170 194 202 170 194 202 170 194 202 170 194 202 170 0 0 255 0 0 255 0 0 255 0 0 255 0 0 255 70 38 44 70 38 44 70 38 44 70 38 44 0 0 255 0 0 255 0 0 255 0 0 255 70 38 44 70 38 44 70 38 44 0 0 255 0 0 255 0 0 255 194 202 170 194 202 170 194 202 170 194 202 170 194 202 170 194 202 170 194 202 170 0 0 255 0 0 255 0 0 255 95 139 71 95 139 71 95 139 71 95 139 71 95 139 71 95 139 71 95 139 71 95 139 71 95 139 71 95 139 71 0 0 255 0 0 255 190 196 162 190 196 162 190 196 162 190 196 162 190 196 162 190 196 162 190 196 162 190 196 162 190 196 162 190 196 162 190 196 162 190 196 162 190 196 162 190 196 162 190 196 162 190 196 162 190 196 162 190 196 162 190 196 162 190 196 162 190 196 162 190 196 162 190 196 162 190 196 162 190 196 162 190 196 162 190 196 162 190 196 162 190 196 162 0 0 255 0 0 255 0 0 255 0 0 255 0 0 255 0 0 255 0 0 255 0 0 255 0 0 255 0 0 255 0 0 255 0 0 255 193 197 164 193 197 164 193 197 164 193 197 164 193 197 164 193 197 164 185 185 135 185 185 135 185 185 135 185 185 135 185 185 135 185 185 135 185 185 135 185 185 135 185 185 135 185 185 135 185 185 135 185 185 135 185 185 135 185 185 135 185 185 135 185 185 135 185 185 135 185 185 135 185 185 135 185 185 135 185 185 135 185 185 135 185 185 135 185 185 135 185 185 135 185 185 135 185 185 135 185 185 135 185 185 135 185 185 135 185 185 135 185 185 135 185 185 135 185 185 135 185 185 135 185 185 135 185 185 135 185 185 135 0 0 255 0 0 255 193 198 157 193 198 157 193 198 157 193 198 157 193 198 157 193 198 157 193 198 157 193 198 157 193 198 157 193 198 157 193 198 157 193 198 157 193 198 157 193 198 157 193 198 157 193 198 157 0 0 255 0 0 255 0 0 255 179 67 44 179 67 44 179 67 44 179 67 44 179 67 44 179 67 44 179 67 44 0 0 255 0 0 255 0 0 255 0 0 255 193 198 157 193 198 157 193 198 157 193 198 157 193 198 157 193 198 157 193 198 157 193 198 157 193 198 157 193 198 157 193 198 157 193 198 157 193 198 157 193 198 157 193 198 157 193 198 157 193 198 157 193 198 157 193 198 157 193 198 157 193 198 157 0 0 255 0 0 255 70 38 44 70 38 44 70 38 44 70 38 44 70 38 44 0 0 255 0 0 255 0 0 255 70 38 44 0 0 255 0 0 255 0 0 255 194 201 166 194 201 166 194 201 166 194 201 166 194 201 166 194 201 166 0 0 255 0 0 255 0 0 255 70 38 44 70 38 44 70 38 44 70 38 44 70 38 44 0 0 255 0 0 255 0 0 255 0 0 255 70 38 44 70 38 44 0 0 255 0 0 255 0 0 255 194 201 166 194 201 166 194 201 166 194 201 166 194 201 166 194 201 166 0 0 255 0 0 255 0 0 255 185 64 42 185 64 42 185 64 42 185 64 42 185 64 42 185 64 42 185 64 42 185 64 42 0 0 255 0 0 255 0 0 255 194 202 170 194 202 170 194 202 170 194 202 170 194 202 170 194 202 170 194 202 170 194 202 170 194 202 170 194 202 170 194 202 170 194 202 170 194 202 170 194 202 170 194 202 170 194 202 170 194 202 170 194 202 170 194 202 170 0 0 255 0 0 255 0 0 255 0 0 255 0 0 255 0 0 255 70 38 44 70 38 44 70 38 44 70 38 44 70 38 44 0 0 255 0 0 255 70 38 44 70 38 44 70 38 44 70 38 44 0 0 255 0 0 255 0 0 255 0 0 255 0 0 255 0 0 255 0 0 255 0 0 255 0 0 255 0 0 255 0 0 255 0 0 255 95 139 71 95 139 71 95 139 71 95 139 71 95 139 71 95 139 71 95 139 71 95 139 71 0 0 255 0 0 255 95 139 71 95 139 71 0 0 255 0 0 255 190 196 162 190 196 162 190 196 162 190 196 162 190 196 162 190 196 162 190 196 162 190 196 162 190 196 162 190 196 162 190 196 162 190 196 162 190 196 162 190 196 162 190 196 162 190 196 162 190 196 162 190 196 162 190 196 162 190 196 162 190 196 162 190 196 162 190 196 162 0 0 255 0 0 255 0 0 255 0 0 255 0 0 255 0 0 255 0 0 255 0 0 255 0 0 255 0 0 255 0 0 255 0 0 255 193 197 164 193 197 164 193 197 164 193 197 164 193 197 164 193 197 164 193 197 164 193 197 164 193 197 164 193 197 164 193 197 164 185 185 135 185 185 135 185 185 135 185 185 135 185 185 135 185 185 135 185 185 135 185 185 135 185 185 135 185 185 135 185 185 135 185 185 135 185 185 135 185 185 135 185 185 135 185 185 135 185 185 135 185 185 135 185 185 135 185 185 135 185 185 135 185 185 135 185 185 135 185 185 135 185 185 135 185 185 135 185 185 135 185 185 135 185 185 135 185 185 135 185 185 135 185 185 135 185 185 135 185 185 135 185 185 135 185 185 135 185 185 135 0 0 255 0 0 255 193 198 157 193 198 157 193 198 157 193 198 157 193 198 157 193 198 157 193 198 157 193 198 157 193 198 157 193 198 157 193 198 157 193 198 157 193 198 157 193 198 157 193 198 157 193 198 157 0 0 255 0 0 255 0 0 255 179 67 44 179 67 44 179 67 44 179 67 44 179 67 44 179 67 44 179 67 44 179 67 44 179 67 44 179 67 44 0 0 255 0 0 255 0 0 255 193 198 157 193 198 157 193 198 157 193 198 157 193 198 157 193 198 157 193 198 157 193 198 157 193 198 157 193 198 157 193 198 157 193 198 157 193 198 157 193 198 157 193 198 157 193 198 157 193 198 157 193 198 157 193 198 157 0 0 255 0 0 255 0 0 255 70 38 44 70 38 44 70 38 44 70 38 44 0 0 255 0 0 255 0 0 255 0 0 255 0 0 255 70 38 44 0 0 255 0 0 255 0 0 255 194 201 166 194 201 166 194 201 166 194 201 166 0 0 255 0 0 255 0 0 255 0 0 255 70 38 44 70 38 44 70 38 44 70 38 44 70 38 44 70 38 44 0 0 255 0 0 255 70 38 44 70 38 44 70 38 44 0 0 255 0 0 255 0 0 255 194 201 166 194 201 166 194 201 166 194 201 166 194 201 166 0 0 255 0 0 255 0 0 255 185 64 42 185 64 42 185 64 42 185 64 42 185 64 42 185 64 42 185 64 42 185 64 42 185 64 42 0 0 255 0 0 255 0 0 255 194 202 170 194 202 170 194 202 170 194 202 170 194 202 170 194 202 170 194 202 170 194 202 170 194 202 170 194 202 170 194 202 170 194 202 170 194 202 170 194 202 170 194 202 170 194 202 170 194 202 170 194 202 170 194 202 170 0 0 255 0 0 255 0 0 255 95 139 71 0 0 255 0 0 255 70 38 44 70 38 44 70 38 44 70 38 44 70 38 44 70 38 44 70 38 44 70 38 44 70 38 44 70 38 44 0 0 255 0 0 255 95 139 71 0 0 255 0 0 255 0 0 255 0 0 255 0 0 255 0 0 255 0 0 255 0 0 255 0 0 255 0 0 255 95 139 71 95 139 71 95 139 71 95 139 71 95 139 71 95 139 71 95 139 71 0 0 255 0 0 255 0 0 255 0 0 255 95 139 71 0 0 255 0 0 255 190 196 162 190 196 162 190 196 162 190 196 162 190 196 162 190 196 162 190 196 162 190 196 162 190 196 162 190 196 162 190 196 162 190 196 162 190 196 162 190 196 162 190 196 162 190 196 162 190 196 162 0 0 255 0 0 255 0 0 255 0 0 255 0 0 255 0 0 255 0 0 255 0 0 255 0 0 255 0 0 255 0 0 255 193 197 164 193 197 164 193 197 164 193 197 164 193 197 164 193 197 164 193 197 164 193 197 164 193 197 164 193 197 164 193 197 164 193 197 164 193 197 164 193 197 164 193 197 164 193 197 164 193 197 164 193 197 164 185 185 135 185 185 135 185 185 135 185 185 135 185 185 135 185 185 135 185 185 135 185 185 135 185 185 135 185 185 135 185 185 135 185 185 135 185 185 135 185 185 135 185 185 135 185 185 135 185 185 135 185 185 135 185 185 135 185 185 135 185 185 135 185 185 135 185 185 135 185 185 135 185 185 135 185 185 135 185 185 135 185 185 135 185 185 135 185 185 135 185 185 135 185 185 135 185 185 135 185 185 135 185 185 135 185 185 135 185 185 135 0 0 255 0 0 255 193 198 157 193 198 157 193 198 157 193 198 157 193 198 157 193 198 157 193 198 157 193 198 157 193 198 157 193 198 157 193 198 157 193 198 157 193 198 157 193 198 157 193 198 157 193 198 157 0 0 255 0 0 255 0 0 255 179 67 44 179 67 44 179 67 44 179 67 44 179 67 44 179 67 44 179 67 44 179 67 44 179 67 44 179 67 44 179 67 44 0 0 255 0 0 255 0 0 255 193 198 157 193 198 157 193 198 157 193 198 157 193 198 157 193 198 157 193 198 157 193 198 157 193 198 157 193 198 157 193 198 157 193 198 157 193 198 157 193 198 157 193 198 157 193 198 157 193 198 157 0 0 255 0 0 255 0 0 255 70 38 44 70 38 44 70 38 44 70 38 44 70 38 44 0 0 255 0 0 255 0 0 255 0 0 255 0 0 255 70 38 44 70 38 44 0 0 255 0 0 255 194 201 166 194 201 166 194 201 166 194 201 166 0 0 255 0 0 255 0 0 255 70 38 44 70 38 44 70 38 44 70 38 44 70 38 44 70 38 44 70 38 44 70 38 44 70 38 44 70 38 44 70 38 44 70 38 44 0 0 255 0 0 255 194 201 166 194 201 166 194 201 166 194 201 166 194 201 166 194 201 166 0 0 255 0 0 255 0 0 255 185 64 42 185 64 42 185 64 42 185 64 42 185 64 42 0 0 255 0 0 255 0 0 255 185 64 42 185 64 42 0 0 255 0 0 255 0 0 255 194 202 170 194 202 170 194 202 170 194 202 170 194 202 170 194 202 170 194 202 170 194 202 170 0 0 255 0 0 255 0 0 255 194 202 170 194 202 170 194 202 170 194 202 170 194 202 170 194 202 170 194 202 170 0 0 255 0 0 255 0 0 255 95 139 71 0 0 255 0 0 255 70 38 44 70 38 44 70 38 44 70 38 44 70 38 44 70 38 44 70 38 44 70 38 44 70 38 44 70 38 44 0 0 255 0 0 255 95 139 71 95 139 71 95 139 71 95 139 71 95 139 71 0 0 255 0 0 255 0 0 255 0 0 255 0 0 255 95 139 71 95 139 71 95 139 71 95 139 71 95 139 71 95 139 71 95 139 71 95 139 71 0 0 255 0 0 255 0 0 255 95 139 71 95 139 71 0 0 255 0 0 255 190 196 162 190 196 162 190 196 162 190 196 162 190 196 162 190 196 162 190 196 162 190 196 162 190 196 162 190 196 162 190 196 162 0 0 255 0 0 255 0 0 255 0 0 255 0 0 255 0 0 255 0 0 255 0 0 255 0 0 255 0 0 255 0 0 255 0 0 255 193 197 164 193 197 164 193 197 164 193 197 164 193 197 164 193 197 164 193 197 164 193 197 164 193 197 164 193 197 164 193 197 164 193 197 164 193 197 164 193 197 164 193 197 164 193 197 164 193 197 164 193 197 164 193 197 164 193 197 164 193 197 164 193 197 164 193 197 164 185 185 135 185 185 135 185 185 135 185 185 135 185 185 135 185 185 135 185 185 135 185 185 135 185 185 135 185 185 135 185 185 135 185 185 135 185 185 135 185 185 135 185 185 135 185 185 135 185 185 135 185 185 135 185 185 135 185 185 135 185 185 135 185 185 135 185 185 135 185 185 135 185 185 135 185 185 135 185 185 135 185 185 135 185 185 135 185 185 135 185 185 135 185 185 135 185 185 135 185 185 135 185 185 135 185 185 135 185 185 135 185 185 135 0 0 255 0 0 255 193 198 157 193 198 157 193 198 157 193 198 157 193 198 157 193 198 157 193 198 157 193 198 157 193 198 157 193 198 157 193 198 157 193 198 157 193 198 157 193 198 157 0 0 255 0 0 255 0 0 255 179 67 44 179 67 44 179 67 44 179 67 44 179 67 44 179 67 44 179 67 44 179 67 44 179 67 44 179 67 44 179 67 44 179 67 44 179 67 44 0 0 255 0 0 255 193 198 157 193 198 157 193 198 157 193 198 157 193 198 157 193 198 157 193 198 157 193 198 157 0 0 255 0 0 255 0 0 255 0 0 255 193 198 157 193 198 157 193 198 157 193 198 157 0 0 255 0 0 255 0 0 255 0 0 255 70 38 44 70 38 44 70 38 44 70 38 44 70 38 44 70 38 44 0 0 255 0 0 255 0 0 255 70 38 44 70 38 44 70 38 44 0 0 255 0 0 255 194 201 166 194 201 166 194 201 166 0 0 255 0 0 255 0 0 255 0 0 255 0 0 255 70 38 44 70 38 44 70 38 44 70 38 44 70 38 44 70 38 44 70 38 44 70 38 44 70 38 44 70 38 44 0 0 255 0 0 255 0 0 255 194 201 166 194 201 166 194 201 166 194 201 166 194 201 166 0 0 255 0 0 255 0 0 255 0 0 255 185 64 42 185 64 42 185 64 42 185 64 42 0 0 255 0 0 255 0 0 255 0 0 255 0 0 255 185 64 42 0 0 255 0 0 255 0 0 255 194 202 170 194 202 170 194 202 170 194 202 170 194 202 170 0 0 255 0 0 255 0 0 255 0 0 255 0 0 255 0 0 255 0 0 255 0 0 255 194 202 170 194 202 170 194 202 170 194 202 170 194 202 170 0 0 255 0 0 255 0 0 255 95 139 71 95 139 71 0 0 255 0 0 255 0 0 255 70 38 44 70 38 44 70 38 44 70 38 44 70 38 44 70 38 44 70 38 44 0 0 255 0 0 255 95 139 71 95 139 71 95 139 71 95 139 71 95 139 71 95 139 71 95 139 71 95 139 71 95 139 71 95 139 71 95 139 71 95 139 71 95 139 71 95 139 71 95 139 71 95 139 71 95 139 71 95 139 71 95 139 71 95 139 71 0 0 255 95 139 71 95 139 71 95 139 71 95 139 71 0 0 255 0 0 255 190 196 162 190 196 162 190 196 162 190 196 162 0 0 255 0 0 255 0 0 255 0 0 255 0 0 255 0 0 255 0 0 255 0 0 255 0 0 255 0 0 255 0 0 255 0 0 255 193 197 164 193 197 164 193 197 164 193 197 164 193 197 164 193 197 164 193 197 164 193 197 164 193 197 164 193 197 164 193 197 164 193 197 164 193 197 164 193 197 164 193 197 164 193 197 164 193 197 164 193 197 164 193 197 164 193 197 164 193 197 164 193 197 164 193 197 164 193 197 164 193 197 164 193 197 164 193 197 164 193 197 164 193 197 164 185 185 135 185 185 135 185 185 135 185 185 135 185 185 135 185 185 135 185 185 135 185 185 135 185 185 135 185 185 135 185 185 135 185 185 135 185 185 135 185 185 135 185 185 135 185 185 135 185 185 135 185 185 135 185 185 135 185 185 135 185 185 135 185 185 135 185 185 135 185 185 135 185 185 135 185 185 135 185 185 135 185 185 135 185 185 135 185 185 135 185 185 135 185 185 135 185 185 135 185 185 135 185 185 135 185 185 135 185 185 135 185 185 135 0 0 255 0 0 255 193 198 157 193 198 157 193 198 157 193 198 157 193 198 157 193 198 157 193 198 157 193 198 157 193 198 157 193 198 157 193 198 157 193 198 157 193 198 157 0 0 255 0 0 255 0 0 255 0 0 255 179 67 44 179 67 44 179 67 44 179 67 44 179 67 44 179 67 44 179 67 44 179 67 44 179 67 44 179 67 44 179 67 44 179 67 44 179 67 44 0 0 255 0 0 255 0 0 255 193 198 157 193 198 157 193 198 157 193 198 157 193 198 157 0 0 255 0 0 255 0 0 255 0 0 255 0 0 255 0 0 255 0 0 255 0 0 255 193 198 157 193 198 157 0 0 255 0 0 255 0 0 255 0 0 255 70 38 44 70 38 44 70 38 44 70 38 44 70 38 44 70 38 44 70 38 44 70 38 44 70 38 44 70 38 44 70 38 44 70 38 44 0 0 255 0 0 255 194 201 166 194 201 166 194 201 166 0 0 255 0 0 255 0 0 255 0 0 255 0 0 255 70 38 44 70 38 44 70 38 44 70 38 44 70 38 44 70 38 44 70 38 44 70 38 44 70 38 44 70 38 44 0 0 255 0 0 255 194 201 166 194 201 166 194 201 166 194 201 166 194 201 166 0 0 255 0 0 255 0 0 255 0 0 255 0 0 255 0 0 255 185 64 42 185 64 42 185 64 42 185 64 42 0 0 255 0 0 255 0 0 255 0 0 255 185 64 42 0 0 255 0 0 255 0 0 255 194 202 170 194 202 170 194 202 170 194 202 170 0 0 255 0 0 255 0 0 255 0 0 255 0 0 255 0 0 255 0 0 255 0 0 255 0 0 255 0 0 255 0 0 255 194 202 170 194 202 170 194 202 170 194 202 170 0 0 255 0 0 255 0 0 255 95 139 71 95 139 71 0 0 255 0 0 255 0 0 255 0 0 255 70 38 44 70 38 44 70 38 44 70 38 44 70 38 44 0 0 255 0 0 255 95 139 71 95 139 71 95 139 71 95 139 71 95 139 71 95 139 71 95 139 71 95 139 71 95 139 71 95 139 71 95 139 71 95 139 71 95 139 71 95 139 71 95 139 71 95 139 71 95 139 71 95 139 71 95 139 71 95 139 71 95 139 71 95 139 71 95 139 71 95 139 71 0 0 255 0 0 255 190 196 162 190 196 162 0 0 255 0 0 255 0 0 255 0 0 255 0 0 255 0 0 255 0 0 255 0 0 255 0 0 255 193 197 164 193 197 164 193 197 164 193 197 164 193 197 164 193 197 164 193 197 164 193 197 164 193 197 164 193 197 164 193 197 164 193 197 164 193 197 164 193 197 164 193 197 164 193 197 164 193 197 164 193 197 164 193 197 164 193 197 164 193 197 164 193 197 164 193 197 164 193 197 164 193 197 164 193 197 164 193 197 164 193 197 164 193 197 164 193 197 164 193 197 164 193 197 164 193 197 164 193 197 164 193 197 164 185 185 135 185 185 135 185 185 135 185 185 135 185 185 135 185 185 135 185 185 135 185 185 135 185 185 135 185 185 135 185 185 135 185 185 135 185 185 135 185 185 135 185 185 135 185 185 135 185 185 135 185 185 135 185 185 135 185 185 135 185 185 135 185 185 135 185 185 135 185 185 135 185 185 135 185 185 135 185 185 135 185 185 135 185 185 135 185 185 135 185 185 135 185 185 135 185 185 135 185 185 135 185 185 135 185 185 135 185 185 135 185 185 135 0 0 255 0 0 255 193 198 157 193 198 157 193 198 157 193 198 157 193 198 157 193 198 157 193 198 157 193 198 157 193 198 157 193 198 157 193 198 157 193 198 157 0 0 255 0 0 255 0 0 255 0 0 255 179 67 44 179 67 44 179 67 44 179 67 44 179 67 44 179 67 44 179 67 44 179 67 44 179 67 44 179 67 44 179 67 44 179 67 44 179 67 44 179 67 44 179 67 44 0 0 255 0 0 255 193 198 157 193 198 157 193 198 157 193 198 157 0 0 255 0 0 255 0 0 255 0 0 255 0 0 255 0 0 255 0 0 255 0 0 255 0 0 255 0 0 255 0 0 255 0 0 255 0 0 255 0 0 255 0 0 255 70 38 44 70 38 44 70 38 44 70 38 44 70 38 44 70 38 44 70 38 44 70 38 44 70 38 44 70 38 44 70 38 44 70 38 44 0 0 255 0 0 255 0 0 255 194 201 166 194 201 166 0 0 255 0 0 255 0 0 255 0 0 255 0 0 255 70 38 44 70 38 44 70 38 44 70 38 44 70 38 44 70 38 44 70 38 44 70 38 44 0 0 255 0 0 255 0 0 255 0 0 255 194 201 166 194 201 166 194 201 166 194 201 166 0 0 255 0 0 255 0 0 255 0 0 255 185 64 42 0 0 255 0 0 255 185 64 42 185 64 42 185 64 42 185 64 42 185 64 42 0 0 255 0 0 255 185 64 42 185 64 42 0 0 255 0 0 255 0 0 255 194 202 170 194 202 170 194 202 170 0 0 255 0 0 255 0 0 255 0 0 255 185 64 42 185 64 42 185 64 42 185 64 42 185 64 42 0 0 255 0 0 255 0 0 255 0 0 255 194 202 170 194 202 170 194 202 170 194 202 170 0 0 255 0 0 255 0 0 255 0 0 255 0 0 255 0 0 255 0 0 255 0 0 255 0 0 255 70 38 44 70 38 44 70 38 44 70 38 44 0 0 255 0 0 255 95 139 71 95 139 71 95 139 71 95 139 71 95 139 71 95 139 71 95 139 71 95 139 71 95 139 71 95 139 71 95 139 71 95 139 71 95 139 71 95 139 71 95 139 71 95 139 71 95 139 71 95 139 71 95 139 71 95 139 71 95 139 71 95 139 71 95 139 71 95 139 71 0 0 255 0 0 255 190 196 162 0 0 255 0 0 255 0 0 255 0 0 255 193 197 164 193 197 164 193 197 164 193 197 164 193 197 164 193 197 164 193 197 164 193 197 164 193 197 164 193 197 164 193 197 164 193 197 164 193 197 164 193 197 164 193 197 164 193 197 164 193 197 164 193 197 164 193 197 164 193 197 164 193 197 164 193 197 164 193 197 164 193 197 164 193 197 164 193 197 164 193 197 164 193 197 164 193 197 164 193 197 164 193 197 164 193 197 164 193 197 164 193 197 164 193 197 164 193 197 164 193 197 164 193 197 164 193 197 164 193 197 164 193 197 164 185 185 135 185 185 135 185 185 135 185 185 135 185 185 135 185 185 135 185 185 135 185 185 135 185 185 135 185 185 135 185 185 135 185 185 135 185 185 135 185 185 135 185 185 135 185 185 135 185 185 135 185 185 135 185 185 135 185 185 135 185 185 135 185 185 135 185 185 135 185 185 135 185 185 135 185 185 135 185 185 135 185 185 135 185 185 135 185 185 135 185 185 135 185 185 135 0 0 255 185 185 135 185 185 135 185 185 135 185 185 135 185 185 135 0 0 255 0 0 255 0 0 255 193 198 157 193 198 157 193 198 157 193 198 157 193 198 157 193 198 157 193 198 157 193 198 157 193 198 157 193 198 157 193 198 157 0 0 255 0 0 255 0 0 255 0 0 255 179 67 44 179 67 44 179 67 44 179 67 44 179 67 44 179 67 44 179 67 44 179 67 44 179 67 44 179 67 44 179 67 44 179 67 44 179 67 44 179 67 44 179 67 44 0 0 255 0 0 255 193 198 157 193 198 157 193 198 157 0 0 255 0 0 255 0 0 255 70 38 44 70 38 44 70 38 44 70 38 44 70 38 44 70 38 44 0 0 255 0 0 255 0 0 255 0 0 255 107 129 71 0 0 255 0 0 255 70 38 44 70 38 44 70 38 44 70 38 44 70 38 44 70 38 44 70 38 44 70 38 44 70 38 44 70 38 44 70 38 44 70 38 44 0 0 255 0 0 255 0 0 255 0 0 255 194 201 166 0 0 255 0 0 255 0 0 255 0 0 255 0 0 255 70 38 44 70 38 44 70 38 44 70 38 44 70 38 44 70 38 44 0 0 255 0 0 255 0 0 255 0 0 255 0 0 255 194 201 166 194 201 166 194 201 166 194 201 166 0 0 255 0 0 255 0 0 255 0 0 255 0 0 255 0 0 255 0 0 255 0 0 255 0 0 255 185 64 42 185 64 42 185 64 42 185 64 42 185 64 42 185 64 42 185 64 42 185 64 42 0 0 255 0 0 255 0 0 255 194 202 170 194 202 170 0 0 255 0 0 255 0 0 255 185 64 42 185 64 42 185 64 42 185 64 42 185 64 42 185 64 42 185 64 42 185 64 42 185 64 42 0 0 255 0 0 255 0 0 255 194 202 170 194 202 170 194 202 170 194 202 170 0 0 255 0 0 255 0 0 255 0 0 255 0 0 255 0 0 255 0 0 255 0 0 255 0 0 255 0 0 255 70 38 44 0 0 255 0 0 255 95 139 71 95 139 71 95 139 71 95 139 71 95 139 71 95 139 71 0 0 255 0 0 255 0 0 255 95 139 71 95 139 71 95 139 71 95 139 71 95 139 71 95 139 71 95 139 71 95 139 71 95 139 71 95 139 71 95 139 71 95 139 71 95 139 71 95 139 71 95 139 71 95 139 71 0 0 255 0 0 255 0 0 255 0 0 255 193 197 164 193 197 164 193 197 164 193 197 164 193 197 164 193 197 164 193 197 164 193 197 164 193 197 164 193 197 164 193 197 164 193 197 164 193 197 164 193 197 164 193 197 164 193 197 164 193 197 164 193 197 164 193 197 164 193 197 164 193 197 164 193 197 164 193 197 164 193 197 164 193 197 164 193 197 164 193 197 164 193 197 164 193 197 164 193 197 164 193 197 164 193 197 164 193 197 164 193 197 164 193 197 164 193 197 164 193 197 164 193 197 164 193 197 164 193 197 164 193 197 164 193 197 164 193 197 164 193 197 164 185 185 135 185 185 135 185 185 135 185 185 135 185 185 135 185 185 135 185 185 135 185 185 135 185 185 135 185 185 135 185 185 135 185 185 135 185 185 135 185 185 135 185 185 135 185 185 135 185 185 135 185 185 135 185 185 135 185 185 135 0 0 255 0 0 255 0 0 255 0 0 255 0 0 255 0 0 255 0 0 255 0 0 255 0 0 255 0 0 255 0 0 255 0 0 255 0 0 255 0 0 255 185 185 135 185 185 135 0 0 255 0 0 255 0 0 255 0 0 255 0 0 255 0 0 255 193 198 157 193 198 157 193 198 157 193 198 157 193 198 157 193 198 157 193 198 157 193 198 157 193 198 157 0 0 255 0 0 255 0 0 255 0 0 255 0 0 255 179 67 44 179 67 44 179 67 44 179 67 44 179 67 44 179 67 44 179 67 44 179 67 44 179 67 44 179 67 44 179 67 44 179 67 44 179 67 44 179 67 44 179 67 44 0 0 255 0 0 255 193 198 157 193 198 157 193 198 157 0 0 255 0 0 255 70 38 44 70 38 44 70 38 44 70 38 44 70 38 44 70 38 44 70 38 44 70 38 44 70 38 44 0 0 255 0 0 255 107 129 71 107 129 71 0 0 255 0 0 255 70 38 44 70 38 44 70 38 44 70 38 44 70 38 44 70 38 44 70 38 44 70 38 44 70 38 44 70 38 44 70 38 44 70 38 44 0 0 255 0 0 255 0 0 255 0 0 255 194 201 166 0 0 255 0 0 255 0 0 255 0 0 255 0 0 255 0 0 255 70 38 44 70 38 44 0 0 255 0 0 255 0 0 255 0 0 255 0 0 255 0 0 255 194 201 166 194 201 166 194 201 166 0 0 255 0 0 255 0 0 255 0 0 255 0 0 255 0 0 255 0 0 255 0 0 255 0 0 255 0 0 255 0 0 255 185 64 42 185 64 42 185 64 42 185 64 42 185 64 42 185 64 42 185 64 42 185 64 42 0 0 255 0 0 255 194 202 170 194 202 170 0 0 255 0 0 255 0 0 255 185 64 42 185 64 42 185 64 42 185 64 42 185 64 42 185 64 42 185 64 42 185 64 42 185 64 42 185 64 42 185 64 42 0 0 255 0 0 255 194 202 170 194 202 170 194 202 170 194 202 170 194 202 170 194 202 170 0 0 255 0 0 255 0 0 255 0 0 255 0 0 255 0 0 255 0 0 255 0 0 255 0 0 255 0 0 255 0 0 255 95 139 71 95 139 71 95 139 71 95 139 71 95 139 71 0 0 255 0 0 255 0 0 255 0 0 255 0 0 255 95 139 71 95 139 71 95 139 71 95 139 71 95 139 71 95 139 71 95 139 71 95 139 71 95 139 71 95 139 71 95 139 71 95 139 71 95 139 71 95 139 71 0 0 255 0 0 255 0 0 255 0 0 255 193 197 164 193 197 164 193 197 164 193 197 164 193 197 164 193 197 164 193 197 164 193 197 164 193 197 164 193 197 164 193 197 164 193 197 164 193 197 164 193 197 164 193 197 164 193 197 164 193 197 164 193 197 164 193 197 164 193 197 164 193 197 164 193 197 164 193 197 164 193 197 164 193 197 164 193 197 164 193 197 164 193 197 164 193 197 164 193 197 164 193 197 164 193 197 164 193 197 164 193 197 164 193 197 164 193 197 164 193 197 164 193 197 164 193 197 164 193 197 164 193 197 164 193 197 164 193 197 164 193 197 164 193 197 164 185 185 135 185 185 135 185 185 135 185 185 135 185 185 135 185 185 135 185 185 135 185 185 135 0 0 255 0 0 255 0 0 255 0 0 255 0 0 255 0 0 255 0 0 255 0 0 255 0 0 255 0 0 255 0 0 255 0 0 255 0 0 255 0 0 255 0 0 255 0 0 255 0 0 255 0 0 255 0 0 255 0 0 255 0 0 255 0 0 255 0 0 255 0 0 255 0 0 255 0 0 255 0 0 255 0 0 255 0 0 255 0 0 255 0 0 255 0 0 255 0 0 255 0 0 255 0 0 255 193 198 157 193 198 157 193 198 157 193 198 157 193 198 157 193 198 157 193 198 157 193 198 157 193 198 157 0 0 255 0 0 255 0 0 255 0 0 255 0 0 255 179 67 44 179 67 44 179 67 44 179 67 44 179 67 44 179 67 44 179 67 44 179 67 44 179 67 44 179 67 44 179 67 44 179 67 44 179 67 44 179 67 44 0 0 255 0 0 255 193 198 157 193 198 157 0 0 255 0 0 255 0 0 255 70 38 44 70 38 44 70 38 44 70 38 44 70 38 44 70 38 44 70 38 44 70 38 44 70 38 44 70 38 44 0 0 255 0 0 255 0 0 255 0 0 255 0 0 255 0 0 255 70 38 44 70 38 44 70 38 44 70 38 44 70 38 44 70 38 44 70 38 44 70 38 44 70 38 44 70 38 44 70 38 44 70 38 44 70 38 44 0 0 255 0 0 255 0 0 255 194 201 166 0 0 255 0 0 255 0 0 255 0 0 255 0 0 255 0 0 255 0 0 255 0 0 255 0 0 255 0 0 255 0 0 255 0 0 255 194 201 166 194 201 166 194 201 166 0 0 255 0 0 255 0 0 255 0 0 255 0 0 255 0 0 255 0 0 255 0 0 255 95 139 71 0 0 255 0 0 255 0 0 255 0 0 255 185 64 42 185 64 42 185 64 42 185 64 42 185 64 42 185 64 42 0 0 255 0 0 255 0 0 255 194 202 170 194 202 170 0 0 255 0 0 255 0 0 255 185 64 42 185 64 42 185 64 42 185 64 42 185 64 42 0 0 255 0 0 255 0 0 255 185 64 42 185 64 42 185 64 42 0 0 255 0 0 255 0 0 255 194 202 170 194 202 170 194 202 170 194 202 170 194 202 170 194 202 170 194 202 170 194 202 170 0 0 255 0 0 255 0 0 255 0 0 255 0 0 255 0 0 255 0 0 255 95 139 71 95 139 71 95 139 71 95 139 71 95 139 71 95 139 71 95 139 71 0 0 255 0 0 255 0 0 255 95 139 71 95 139 71 95 139 71 95 139 71 95 139 71 95 139 71 95 139 71 95 139 71 95 139 71 95 139 71 95 139 71 95 139 71 95 139 71 95 139 71 0 0 255 0 0 255 0 0 255 0 0 255 193 197 164 193 197 164 193 197 164 193 197 164 193 197 164 193 197 164 193 197 164 193 197 164 193 197 164 193 197 164 193 197 164 193 197 164 193 197 164 193 197 164 193 197 164 193 197 164 193 197 164 193 197 164 193 197 164 193 197 164 193 197 164 193 197 164 193 197 164 193 197 164 193 197 164 193 197 164 193 197 164 193 197 164 193 197 164 193 197 164 193 197 164 193 197 164 193 197 164 193 197 164 193 197 164 193 197 164 193 197 164 193 197 164 193 197 164 193 197 164 193 197 164 193 197 164 193 197 164 193 197 164 193 197 164 193 197 164 185 185 135 0 0 255 0 0 255 0 0 255 0 0 255 0 0 255 0 0 255 0 0 255 0 0 255 0 0 255 0 0 255 0 0 255 0 0 255 0 0 255 0 0 255 0 0 255 0 0 255 0 0 255 0 0 255 0 0 255 192 190 139 192 190 139 192 190 139 192 190 139 192 190 139 192 190 139 192 190 139 192 190 139 192 190 139 192 190 139 192 190 139 192 190 139 0 0 255 0 0 255 0 0 255 0 0 255 0 0 255 0 0 255 0 0 255 0 0 255 0 0 255 0 0 255 0 0 255 193 198 157 193 198 157 193 198 157 193 198 157 193 198 157 193 198 157 193 198 157 193 198 157 193 198 157 0 0 255 0 0 255 0 0 255 0 0 255 0 0 255 179 67 44 179 67 44 179 67 44 179 67 44 179 67 44 179 67 44 179 67 44 179 67 44 179 67 44 179 67 44 179 67 44 179 67 44 179 67 44 179 67 44 0 0 255 0 0 255 193 198 157 193 198 157 0 0 255 0 0 255 70 38 44 70 38 44 70 38 44 70 38 44 70 38 44 70 38 44 70 38 44 0 0 255 0 0 255 70 38 44 70 38 44 70 38 44 0 0 255 0 0 255 0 0 255 0 0 255 0 0 255 0 0 255 0 0 255 0 0 255 0 0 255 70 38 44 70 38 44 70 38 44 70 38 44 70 38 44 70 38 44 70 38 44 70 38 44 70 38 44 70 38 44 0 0 255 0 0 255 0 0 255 194 201 166 194 201 166 0 0 255 0 0 255 0 0 255 0 0 255 0 0 255 0 0 255 0 0 255 0 0 255 194 201 166 194 201 166 194 201 166 194 201 166 0 0 255 0 0 255 0 0 255 95 139 71 95 139 71 95 139 71 95 139 71 95 139 71 95 139 71 95 139 71 95 139 71 0 0 255 0 0 255 185 64 42 185 64 42 185 64 42 185 64 42 185 64 42 0 0 255 0 0 255 0 0 255 0 0 255 194 202 170 194 202 170 0 0 255 0 0 255 0 0 255 185 64 42 185 64 42 185 64 42 185 64 42 185 64 42 0 0 255 0 0 255 0 0 255 0 0 255 0 0 255 185 64 42 185 64 42 0 0 255 0 0 255 0 0 255 194 202 170 194 202 170 194 202 170 194 202 170 194 202 170 194 202 170 194 202 170 194 202 170 194 202 170 194 202 170 194 202 170 0 0 255 0 0 255 95 139 71 95 139 71 95 139 71 95 139 71 95 139 71 95 139 71 95 139 71 95 139 71 95 139 71 95 139 71 0 0 255 95 139 71 95 139 71 95 139 71 95 139 71 0 0 255 0 0 255 0 0 255 95 139 71 0 0 255 0 0 255 0 0 255 0 0 255 0 0 255 0 0 255 0 0 255 0 0 255 0 0 255 0 0 255 193 197 164 193 197 164 193 197 164 193 197 164 193 197 164 193 197 164 193 197 164 193 197 164 193 197 164 193 197 164 193 197 164 193 197 164 193 197 164 193 197 164 193 197 164 193 197 164 193 197 164 193 197 164 193 197 164 193 197 164 193 197 164 193 197 164 193 197 164 193 197 164 193 197 164 193 197 164 193 197 164 193 197 164 193 197 164 193 197 164 193 197 164 193 197 164 193 197 164 193 197 164 193 197 164 193 197 164 193 197 164 193 197 164 193 197 164 193 197 164 193 197 164 193 197 164 193 197 164 193 197 164 193 197 164 193 197 164 193 197 164 192 190 139 0 0 255 0 0 255 0 0 255 0 0 255 0 0 255 0 0 255 0 0 255 192 190 139 192 190 139 192 190 139 192 190 139 192 190 139 192 190 139 192 190 139 192 190 139 192 190 139 192 190 139 192 190 139 192 190 139 192 190 139 192 190 139 192 190 139 192 190 139 192 190 139 192 190 139 192 190 139 192 190 139 192 190 139 192 190 139 192 190 139 0 0 255 0 0 255 0 0 255 0 0 255 70 38 44 70 38 44 70 38 44 70 38 44 70 38 44 0 0 255 0 0 255 0 0 255 0 0 255 193 198 157 193 198 157 193 198 157 193 198 157 193 198 157 193 198 157 193 198 157 193 198 157 193 198 157 0 0 255 0 0 255 0 0 255 0 0 255 0 0 255 179 67 44 179 67 44 179 67 44 179 67 44 179 67 44 179 67 44 179 67 44 179 67 44 179 67 44 179 67 44 179 67 44 179 67 44 0 0 255 0 0 255 193 198 157 193 198 157 0 0 255 0 0 255 0 0 255 70 38 44 70 38 44 70 38 44 70 38 44 70 38 44 70 38 44 0 0 255 0 0 255 0 0 255 0 0 255 70 38 44 70 38 44 0 0 255 0 0 255 193 198 157 0 0 255 0 0 255 0 0 255 0 0 255 0 0 255 0 0 255 0 0 255 70 38 44 70 38 44 70 38 44 70 38 44 70 38 44 70 38 44 70 38 44 70 38 44 70 38 44 70 38 44 0 0 255 0 0 255 0 0 255 194 201 166 194 201 166 194 201 166 194 201 166 194 201 166 194 201 166 194 201 166 194 201 166 194 201 166 194 201 166 194 201 166 194 201 166 0 0 255 0 0 255 0 0 255 95 139 71 95 139 71 95 139 71 95 139 71 0 0 255 0 0 255 95 139 71 95 139 71 95 139 71 95 139 71 0 0 255 0 0 255 185 64 42 185 64 42 185 64 42 0 0 255 0 0 255 0 0 255 0 0 255 0 0 255 0 0 255 0 0 255 0 0 255 0 0 255 0 0 255 185 64 42 185 64 42 185 64 42 185 64 42 185 64 42 185 64 42 0 0 255 0 0 255 0 0 255 185 64 42 185 64 42 185 64 42 0 0 255 0 0 255 0 0 255 194 202 170 194 202 170 194 202 170 194 202 170 194 202 170 194 202 170 194 202 170 194 202 170 194 202 170 194 202 170 0 0 255 0 0 255 0 0 255 0 0 255 0 0 255 0 0 255 95 139 71 0 0 255 0 0 255 95 139 71 95 139 71 95 139 71 95 139 71 95 139 71 95 139 71 95 139 71 95 139 71 0 0 255 0 0 255 0 0 255 0 0 255 0 0 255 0 0 255 0 0 255 0 0 255 0 0 255 0 0 255 0 0 255 0 0 255 0 0 255 193 197 164 193 197 164 193 197 164 193 197 164 193 197 164 193 197 164 193 197 164 193 197 164 193 197 164 193 197 164 193 197 164 193 197 164 193 197 164 193 197 164 193 197 164 193 197 164 193 197 164 193 197 164 193 197 164 193 197 164 193 197 164 193 197 164 193 197 164 193 197 164 193 197 164 193 197 164 193 197 164 193 197 164 193 197 164 193 197 164 193 197 164 193 197 164 193 197 164 193 197 164 193 197 164 193 197 164 193 197 164 193 197 164 193 197 164 193 197 164 193 197 164 193 197 164 193 197 164 193 197 164 193 197 164 193 197 164 193 197 164 193 197 164 193 197 164 192 190 139 192 190 139 192 190 139 192 190 139 192 190 139 192 190 139 192 190 139 192 190 139 192 190 139 192 190 139 192 190 139 192 190 139 192 190 139 192 190 139 192 190 139 192 190 139 192 190 139 192 190 139 192 190 139 192 190 139 192 190 139 192 190 139 192 190 139 192 190 139 192 190 139 192 190 139 192 190 139 192 190 139 192 190 139 192 190 139 192 190 139 0 0 255 0 0 255 0 0 255 70 38 44 70 38 44 70 38 44 70 38 44 70 38 44 70 38 44 70 38 44 0 0 255 0 0 255 0 0 255 193 198 157 193 198 157 193 198 157 193 198 157 193 198 157 193 198 157 193 198 157 193 198 157 193 198 157 193 198 157 0 0 255 0 0 255 0 0 255 0 0 255 0 0 255 179 67 44 179 67 44 179 67 44 179 67 44 179 67 44 179 67 44 179 67 44 179 67 44 179 67 44 179 67 44 0 0 255 0 0 255 193 198 157 193 198 157 0 0 255 0 0 255 0 0 255 0 0 255 70 38 44 70 38 44 70 38 44 70 38 44 70 38 44 70 38 44 0 0 255 0 0 255 0 0 255 0 0 255 70 38 44 70 38 44 0 0 255 0 0 255 193 198 157 193 198 157 193 198 157 0 0 255 0 0 255 0 0 255 0 0 255 0 0 255 0 0 255 70 38 44 70 38 44 70 38 44 70 38 44 70 38 44 70 38 44 70 38 44 70 38 44 70 38 44 70 38 44 0 0 255 0 0 255 194 201 166 194 201 166 194 201 166 194 201 166 194 201 166 194 201 166 194 201 166 194 201 166 194 201 166 194 201 166 194 201 166 194 201 166 0 0 255 0 0 255 0 0 255 95 139 71 95 139 71 95 139 71 0 0 255 0 0 255 0 0 255 0 0 255 95 139 71 95 139 71 95 139 71 0 0 255 0 0 255 0 0 255 0 0 255 0 0 255 0 0 255 193 176 76 193 176 76 193 176 76 0 0 255 0 0 255 0 0 255 193 176 76 0 0 255 0 0 255 185 64 42 185 64 42 185 64 42 185 64 42 185 64 42 185 64 42 185 64 42 0 0 255 185 64 42 185 64 42 185 64 42 185 64 42 0 0 255 0 0 255 0 0 255 194 202 170 194 202 170 194 202 170 194 202 170 194 202 170 194 202 170 194 202 170 194 202 170 194 202 170 194 202 170 194 202 170 0 0 255 0 0 255 0 0 255 0 0 255 0 0 255 0 0 255 0 0 255 0 0 255 0 0 255 95 139 71 95 139 71 95 139 71 95 139 71 95 139 71 95 139 71 0 0 255 0 0 255 0 0 255 0 0 255 0 0 255 0 0 255 193 176 76 193 176 76 193 176 76 193 176 76 193 176 76 193 176 76 0 0 255 0 0 255 193 197 164 193 197 164 193 197 164 193 197 164 193 197 164 193 197 164 193 197 164 193 197 164 193 197 164 193 197 164 193 197 164 0 0 255 0 0 255 0 0 255 0 0 255 0 0 255 0 0 255 193 197 164 193 197 164 193 197 164 193 197 164 193 197 164 193 197 164 193 197 164 193 197 164 193 197 164 193 197 164 193 197 164 193 197 164 193 197 164 193 197 164 193 197 164 193 197 164 193 197 164 193 197 164 193 197 164 193 197 164 193 197 164 193 197 164 193 197 164 193 197 164 193 197 164 193 197 164 193 197 164 193 197 164 193 197 164 193 197 164 193 197 164 193 197 164 192 190 139 192 190 139 192 190 139 192 190 139 192 190 139 192 190 139 192 190 139 192 190 139 192 190 139 192 190 139 192 190 139 192 190 139 192 190 139 192 190 139 192 190 139 192 190 139 192 190 139 192 190 139 192 190 139 192 190 139 192 190 139 192 190 139 192 190 139 192 190 139 192 190 139 192 190 139 192 190 139 192 190 139 192 190 139 192 190 139 0 0 255 0 0 255 0 0 255 70 38 44 70 38 44 70 38 44 70 38 44 70 38 44 70 38 44 70 38 44 70 38 44 0 0 255 0 0 255 0 0 255 0 0 255 193 198 157 193 198 157 193 198 157 193 198 157 193 198 157 193 198 157 193 198 157 193 198 157 193 198 157 193 198 157 0 0 255 0 0 255 0 0 255 0 0 255 0 0 255 0 0 255 0 0 255 0 0 255 0 0 255 179 67 44 0 0 255 0 0 255 0 0 255 0 0 255 0 0 255 193 198 157 193 198 157 0 0 255 0 0 255 0 0 255 0 0 255 0 0 255 70 38 44 70 38 44 70 38 44 70 38 44 70 38 44 70 38 44 0 0 255 0 0 255 0 0 255 0 0 255 0 0 255 70 38 44 0 0 255 0 0 255 193 198 157 193 198 157 193 198 157 193 198 157 193 198 157 193 198 157 0 0 255 0 0 255 0 0 255 70 38 44 70 38 44 70 38 44 70 38 44 70 38 44 70 38 44 0 0 255 70 38 44 70 38 44 70 38 44 0 0 255 0 0 255 194 201 166 194 201 166 194 201 166 194 201 166 194 201 166 194 201 166 194 201 166 194 201 166 194 201 166 194 201 166 194 201 166 0 0 255 0 0 255 0 0 255 0 0 255 95 139 71 95 139 71 95 139 71 0 0 255 0 0 255 193 176 76 0 0 255 0 0 255 95 139 71 0 0 255 0 0 255 0 0 255 0 0 255 0 0 255 0 0 255 193 176 76 193 176 76 193 176 76 193 176 76 193 176 76 193 176 76 193 176 76 193 176 76 0 0 255 0 0 255 185 64 42 185 64 42 185 64 42 185 64 42 185 64 42 185 64 42 185 64 42 185 64 42 185 64 42 185 64 42 185 64 42 185 64 42 0 0 255 0 0 255 0 0 255 0 0 255 0 0 255 194 202 170 194 202 170 194 202 170 194 202 170 194 202 170 194 202 170 194 202 170 194 202 170 0 0 255 0 0 255 0 0 255 0 0 255 70 38 44 70 38 44 0 0 255 70 38 44 0 0 255 0 0 255 95 139 71 95 139 71 95 139 71 95 139 71 95 139 71 95 139 71 0 0 255 0 0 255 0 0 255 0 0 255 193 176 76 193 176 76 193 176 76 193 176 76 193 176 76 193 176 76 193 176 76 193 176 76 0 0 255 0 0 255 193 197 164 193 197 164 193 197 164 193 197 164 193 197 164 193 197 164 193 197 164 193 197 164 193 197 164 0 0 255 0 0 255 0 0 255 0 0 255 0 0 255 0 0 255 0 0 255 0 0 255 0 0 255 193 197 164 193 197 164 193 197 164 193 197 164 193 197 164 193 197 164 193 197 164 193 197 164 193 197 164 193 197 164 193 197 164 193 197 164 193 197 164 193 197 164 193 197 164 193 197 164 193 197 164 193 197 164 193 197 164 193 197 164 193 197 164 193 197 164 193 197 164 193 197 164 193 197 164 193 197 164 193 197 164 193 197 164 193 197 164 193 197 164 193 197 164 192 190 139 192 190 139 192 190 139 192 190 139 192 190 139 192 190 139 192 190 139 192 190 139 192 190 139 192 190 139 192 190 139 192 190 139 192 190 139 192 190 139 192 190 139 192 190 139 192 190 139 192 190 139 192 190 139 192 190 139 192 190 139 192 190 139 192 190 139 192 190 139 192 190 139 192 190 139 192 190 139 192 190 139 192 190 139 192 190 139 0 0 255 0 0 255 0 0 255 70 38 44 70 38 44 70 38 44 70 38 44 0 0 255 0 0 255 70 38 44 70 38 44 70 38 44 0 0 255 0 0 255 0 0 255 193 198 157 0 0 255 193 198 157 193 198 157 193 198 157 193 198 157 193 198 157 193 198 157 193 198 157 193 198 157 193 198 157 0 0 255 0 0 255 0 0 255 0 0 255 0 0 255 0 0 255 0 0 255 0 0 255 0 0 255 0 0 255 0 0 255 0 0 255 0 0 255 193 198 157 193 198 157 193 198 157 0 0 255 0 0 255 0 0 255 0 0 255 0 0 255 0 0 255 70 38 44 70 38 44 70 38 44 70 38 44 70 38 44 70 38 44 0 0 255 0 0 255 0 0 255 0 0 255 0 0 255 0 0 255 0 0 255 193 198 157 193 198 157 193 198 157 193 198 157 193 198 157 0 0 255 0 0 255 0 0 255 70 38 44 70 38 44 70 38 44 70 38 44 70 38 44 70 38 44 0 0 255 0 0 255 0 0 255 70 38 44 70 38 44 0 0 255 0 0 255 0 0 255 194 201 166 0 0 255 0 0 255 0 0 255 0 0 255 0 0 255 0 0 255 0 0 255 0 0 255 0 0 255 0 0 255 0 0 255 0 0 255 0 0 255 95 139 71 95 139 71 95 139 71 0 0 255 0 0 255 0 0 255 0 0 255 95 139 71 95 139 71 0 0 255 0 0 255 0 0 255 0 0 255 0 0 255 193 176 76 193 176 76 193 176 76 193 176 76 193 176 76 193 176 76 193 176 76 193 176 76 193 176 76 193 176 76 0 0 255 0 0 255 0 0 255 185 64 42 185 64 42 185 64 42 185 64 42 185 64 42 185 64 42 185 64 42 185 64 42 185 64 42 185 64 42 0 0 255 0 0 255 0 0 255 0 0 255 0 0 255 0 0 255 0 0 255 194 202 170 194 202 170 194 202 170 194 202 170 194 202 170 0 0 255 0 0 255 0 0 255 0 0 255 70 38 44 70 38 44 70 38 44 70 38 44 70 38 44 70 38 44 0 0 255 0 0 255 95 139 71 95 139 71 95 139 71 95 139 71 0 0 255 0 0 255 0 0 255 0 0 255 0 0 255 193 176 76 193 176 76 193 176 76 193 176 76 193 176 76 193 176 76 193 176 76 193 176 76 193 176 76 0 0 255 0 0 255 193 197 164 193 197 164 193 197 164 193 197 164 193 197 164 193 197 164 193 197 164 0 0 255 0 0 255 0 0 255 0 0 255 0 0 255 0 0 255 0 0 255 0 0 255 0 0 255 0 0 255 0 0 255 193 197 164 193 197 164 193 197 164 193 197 164 193 197 164 193 197 164 193 197 164 193 197 164 193 197 164 193 197 164 193 197 164 193 197 164 193 197 164 193 197 164 193 197 164 193 197 164 193 197 164 193 197 164 193 197 164 193 197 164 193 197 164 193 197 164 193 197 164 193 197 164 193 197 164 193 197 164 193 197 164 193 197 164 193 197 164 193 197 164 192 190 139 192 190 139 192 190 139 192 190 139 192 190 139 192 190 139 192 190 139 192 190 139 192 190 139 192 190 139 192 190 139 192 190 139 192 190 139 192 190 139 192 190 139 192 190 139 192 190 139 192 190 139 192 190 139 192 190 139 192 190 139 192 190 139 192 190 139 192 190 139 192 190 139 192 190 139 192 190 139 192 190 139 192 190 139 0 0 255 0 0 255 0 0 255 70 38 44 70 38 44 70 38 44 70 38 44 0 0 255 0 0 255 0 0 255 0 0 255 70 38 44 70 38 44 0 0 255 0 0 255 0 0 255 0 0 255 0 0 255 0 0 255 0 0 255 0 0 255 0 0 255 0 0 255 0 0 255 0 0 255 0 0 255 0 0 255 0 0 255 0 0 255 193 198 157 0 0 255 0 0 255 0 0 255 0 0 255 0 0 255 0 0 255 0 0 255 0 0 255 193 198 157 193 198 157 0 0 255 0 0 255 0 0 255 0 0 255 0 0 255 179 67 44 179 67 44 0 0 255 0 0 255 70 38 44 70 38 44 70 38 44 70 38 44 70 38 44 70 38 44 70 38 44 0 0 255 0 0 255 0 0 255 0 0 255 0 0 255 0 0 255 0 0 255 0 0 255 0 0 255 0 0 255 0 0 255 0 0 255 0 0 255 0 0 255 70 38 44 70 38 44 70 38 44 70 38 44 70 38 44 0 0 255 0 0 255 0 0 255 0 0 255 70 38 44 70 38 44 0 0 255 0 0 255 0 0 255 0 0 255 0 0 255 0 0 255 0 0 255 0 0 255 0 0 255 0 0 255 0 0 255 0 0 255 0 0 255 0 0 255 0 0 255 0 0 255 0 0 255 95 139 71 95 139 71 95 139 71 95 139 71 0 0 255 0 0 255 0 0 255 0 0 255 0 0 255 0 0 255 0 0 255 0 0 255 0 0 255 0 0 255 193 176 76 193 176 76 193 176 76 193 176 76 193 176 76 193 176 76 193 176 76 193 176 76 193 176 76 193 176 76 193 176 76 0 0 255 0 0 255 0 0 255 185 64 42 185 64 42 185 64 42 185 64 42 185 64 42 185 64 42 185 64 42 185 64 42 0 0 255 0 0 255 0 0 255 0 0 255 0 0 255 0 0 255 0 0 255 0 0 255 0 0 255 194 202 170 194 202 170 194 202 170 0 0 255 0 0 255 0 0 255 70 38 44 70 38 44 70 38 44 70 38 44 70 38 44 70 38 44 70 38 44 70 38 44 0 0 255 0 0 255 95 139 71 95 139 71 95 139 71 0 0 255 0 0 255 0 0 255 0 0 255 0 0 255 0 0 255 0 0 255 193 176 76 193 176 76 193 176 76 193 176 76 193 176 76 193 176 76 193 176 76 193 176 76 193 176 76 0 0 255 0 0 255 193 197 164 193 197 164 193 197 164 193 197 164 193 197 164 0 0 255 0 0 255 0 0 255 0 0 255 0 0 255 70 38 44 70 38 44 70 38 44 70 38 44 0 0 255 0 0 255 0 0 255 0 0 255 193 197 164 193 197 164 193 197 164 193 197 164 193 197 164 193 197 164 193 197 164 193 197 164 193 197 164 193 197 164 193 197 164 193 197 164 193 197 164 193 197 164 193 197 164 193 197 164 193 197 164 193 197 164 193 197 164 193 197 164 193 197 164 193 197 164 193 197 164 193 197 164 193 197 164 193 197 164 193 197 164 193 197 164 193 197 164 192 190 139 192 190 139 192 190 139 192 190 139 192 190 139 192 190 139 192 190 139 192 190 139 192 190 139 192 190 139 192 190 139 192 190 139 192 190 139 192 190 139 192 190 139 192 190 139 192 190 139 192 190 139 192 190 139 192 190 139 192 190 139 192 190 139 192 190 139 192 190 139 192 190 139 192 190 139 192 190 139 192 190 139 0 0 255 0 0 255 0 0 255 0 0 255 70 38 44 70 38 44 70 38 44 70 38 44 0 0 255 0 0 255 0 0 255 0 0 255 70 38 44 0 0 255 0 0 255 0 0 255 192 190 139 0 0 255 192 190 139 0 0 255 0 0 255 0 0 255 0 0 255 0 0 255 0 0 255 0 0 255 0 0 255 0 0 255 0 0 255 0 0 255 0 0 255 0 0 255 193 198 157 193 198 157 193 198 157 193 198 157 193 198 157 193 198 157 193 198 157 0 0 255 0 0 255 0 0 255 0 0 255 0 0 255 0 0 255 179 67 44 179 67 44 179 67 44 179 67 44 0 0 255 0 0 255 70 38 44 70 38 44 70 38 44 70 38 44 70 38 44 0 0 255 0 0 255 0 0 255 0 0 255 0 0 255 193 176 76 0 0 255 0 0 255 0 0 255 0 0 255 0 0 255 0 0 255 0 0 255 0 0 255 0 0 255 70 38 44 70 38 44 70 38 44 70 38 44 70 38 44 0 0 255 0 0 255 0 0 255 0 0 255 70 38 44 70 38 44 0 0 255 0 0 255 0 0 255 0 0 255 193 176 76 193 176 76 193 176 76 193 176 76 193 176 76 193 176 76 193 176 76 193 176 76 193 176 76 193 176 76 0 0 255 0 0 255 0 0 255 0 0 255 95 139 71 95 139 71 95 139 71 95 139 71 0 0 255 0 0 255 0 0 255 0 0 255 193 176 76 193 176 76 0 0 255 0 0 255 193 176 76 193 176 76 193 176 76 193 176 76 193 176 76 193 176 76 193 176 76 193 176 76 193 176 76 193 176 76 193 176 76 193 176 76 193 176 76 0 0 255 0 0 255 185 64 42 185 64 42 185 64 42 185 64 42 185 64 42 185 64 42 0 0 255 0 0 255 0 0 255 70 38 44 70 38 44 70 38 44 70 38 44 70 38 44 0 0 255 0 0 255 0 0 255 0 0 255 194 202 170 0 0 255 0 0 255 0 0 255 70 38 44 70 38 44 70 38 44 70 38 44 70 38 44 70 38 44 70 38 44 70 38 44 70 38 44 70 38 44 0 0 255 0 0 255 0 0 255 0 0 255 0 0 255 193 197 164 0 0 255 0 0 255 0 0 255 0 0 255 0 0 255 193 176 76 193 176 76 193 176 76 193 176 76 193 176 76 193 176 76 193 176 76 193 176 76 193 176 76 0 0 255 0 0 255 193 197 164 193 197 164 193 197 164 193 197 164 0 0 255 0 0 255 0 0 255 0 0 255 70 38 44 70 38 44 70 38 44 70 38 44 0 0 255 0 0 255 0 0 255 70 38 44 0 0 255 0 0 255 0 0 255 193 197 164 193 197 164 193 197 164 193 197 164 193 197 164 193 197 164 193 197 164 193 197 164 193 197 164 193 197 164 193 197 164 193 197 164 193 197 164 193 197 164 193 197 164 193 197 164 193 197 164 193 197 164 193 197 164 193 197 164 193 197 164 193 197 164 193 197 164 193 197 164 193 197 164 193 197 164 193 197 164 193 197 164 192 190 139 192 190 139 192 190 139 192 190 139 192 190 139 192 190 139 192 190 139 192 190 139 192 190 139 192 190 139 192 190 139 192 190 139 192 190 139 192 190 139 192 190 139 192 190 139 192 190 139 192 190 139 192 190 139 192 190 139 192 190 139 192 190 139 192 190 139 192 190 139 192 190 139 192 190 139 192 190 139 192 190 139 0 0 255 0 0 255 0 0 255 0 0 255 70 38 44 70 38 44 70 38 44 70 38 44 70 38 44 0 0 255 0 0 255 70 38 44 70 38 44 0 0 255 0 0 255 0 0 255 192 190 139 192 190 139 192 190 139 0 0 255 0 0 255 0 0 255 0 0 255 0 0 255 0 0 255 0 0 255 0 0 255 0 0 255 0 0 255 0 0 255 0 0 255 0 0 255 0 0 255 193 198 157 193 198 157 193 198 157 193 198 157 193 198 157 0 0 255 0 0 255 0 0 255 179 67 44 179 67 44 179 67 44 179 67 44 179 67 44 179 67 44 179 67 44 179 67 44 0 0 255 0 0 255 70 38 44 70 38 44 70 38 44 0 0 255 0 0 255 0 0 255 0 0 255 193 176 76 193 176 76 193 176 76 193 176 76 193 176 76 193 176 76 193 176 76 193 176 76 193 176 76 0 0 255 0 0 255 0 0 255 0 0 255 70 38 44 70 38 44 70 38 44 70 38 44 70 38 44 70 38 44 0 0 255 0 0 255 70 38 44 70 38 44 70 38 44 0 0 255 0 0 255 193 176 76 193 176 76 193 176 76 193 176 76 193 176 76 193 176 76 193 176 76 193 176 76 193 176 76 193 176 76 193 176 76 193 176 76 193 176 76 0 0 255 0 0 255 0 0 255 0 0 255 95 139 71 95 139 71 0 0 255 0 0 255 193 176 76 193 176 76 193 176 76 193 176 76 193 176 76 193 176 76 193 176 76 193 176 76 193 176 76 193 176 76 193 176 76 193 176 76 193 176 76 193 176 76 193 176 76 193 176 76 193 176 76 193 176 76 193 176 76 193 176 76 193 176 76 0 0 255 0 0 255 185 64 42 185 64 42 185 64 42 185 64 42 0 0 255 0 0 255 0 0 255 70 38 44 70 38 44 70 38 44 70 38 44 0 0 255 70 38 44 70 38 44 70 38 44 0 0 255 0 0 255 0 0 255 0 0 255 0 0 255 0 0 255 70 38 44 70 38 44 70 38 44 70 38 44 70 38 44 70 38 44 70 38 44 70 38 44 70 38 44 70 38 44 0 0 255 0 0 255 0 0 255 0 0 255 0 0 255 0 0 255 0 0 255 0 0 255 0 0 255 0 0 255 0 0 255 193 176 76 193 176 76 193 176 76 193 176 76 193 176 76 193 176 76 193 176 76 193 176 76 193 176 76 193 176 76 0 0 255 0 0 255 193 197 164 193 197 164 193 197 164 0 0 255 0 0 255 0 0 255 70 38 44 70 38 44 70 38 44 70 38 44 0 0 255 0 0 255 0 0 255 0 0 255 0 0 255 0 0 255 0 0 255 0 0 255 193 197 164 193 197 164 193 197 164 193 197 164 193 197 164 193 197 164 193 197 164 193 197 164 193 197 164 193 197 164 193 197 164 193 197 164 193 197 164 193 197 164 193 197 164 193 197 164 193 197 164 193 197 164 193 197 164 193 197 164 193 197 164 193 197 164 193 197 164 193 197 164 193 197 164 193 197 164 193 197 164 193 197 164 192 190 139 192 190 139 192 190 139 192 190 139 192 190 139 192 190 139 192 190 139 192 190 139 192 190 139 192 190 139 192 190 139 192 190 139 192 190 139 192 190 139 192 190 139 192 190 139 192 190 139 192 190 139 192 190 139 192 190 139 192 190 139 192 190 139 192 190 139 192 190 139 192 190 139 192 190 139 192 190 139 0 0 255 0 0 255 0 0 255 0 0 255 0 0 255 70 38 44 70 38 44 70 38 44 70 38 44 70 38 44 70 38 44 70 38 44 70 38 44 70 38 44 0 0 255 0 0 255 0 0 255 192 190 139 192 190 139 0 0 255 0 0 255 0 0 255 0 0 255 70 38 44 70 38 44 70 38 44 70 38 44 70 38 44 70 38 44 70 38 44 70 38 44 0 0 255 0 0 255 0 0 255 0 0 255 193 198 157 193 198 157 193 198 157 193 198 157 0 0 255 0 0 255 179 67 44 179 67 44 179 67 44 179 67 44 179 67 44 179 67 44 179 67 44 179 67 44 179 67 44 179 67 44 0 0 255 0 0 255 70 38 44 0 0 255 0 0 255 0 0 255 0 0 255 193 176 76 193 176 76 193 176 76 193 176 76 193 176 76 193 176 76 193 176 76 193 176 76 193 176 76 193 176 76 193 176 76 0 0 255 0 0 255 0 0 255 70 38 44 70 38 44 70 38 44 70 38 44 70 38 44 70 38 44 70 38 44 70 38 44 70 38 44 70 38 44 0 0 255 0 0 255 0 0 255 193 176 76 193 176 76 193 176 76 193 176 76 193 176 76 193 176 76 193 176 76 193 176 76 193 176 76 193 176 76 193 176 76 193 176 76 193 176 76 0 0 255 0 0 255 0 0 255 0 0 255 0 0 255 0 0 255 0 0 255 193 176 76 193 176 76 193 176 76 193 176 76 193 176 76 193 176 76 193 176 76 193 176 76 193 176 76 193 176 76 193 176 76 193 176 76 193 176 76 193 176 76 193 176 76 193 176 76 193 176 76 193 176 76 193 176 76 193 176 76 193 176 76 193 176 76 193 176 76 0 0 255 0 0 255 185 64 42 185 64 42 0 0 255 0 0 255 70 38 44 70 38 44 70 38 44 70 38 44 70 38 44 0 0 255 0 0 255 0 0 255 70 38 44 70 38 44 70 38 44 0 0 255 0 0 255 0 0 255 0 0 255 70 38 44 70 38 44 70 38 44 70 38 44 70 38 44 70 38 44 70 38 44 0 0 255 0 0 255 70 38 44 70 38 44 0 0 255 0 0 255 0 0 255 0 0 255 0 0 255 0 0 255 0 0 255 0 0 255 0 0 255 0 0 255 0 0 255 0 0 255 193 176 76 193 176 76 193 176 76 193 176 76 193 176 76 193 176 76 193 176 76 193 176 76 193 176 76 193 176 76 0 0 255 0 0 255 0 0 255 0 0 255 0 0 255 0 0 255 0 0 255 70 38 44 70 38 44 70 38 44 0 0 255 0 0 255 0 0 255 0 0 255 0 0 255 0 0 255 0 0 255 0 0 255 0 0 255 193 197 164 193 197 164 193 197 164 193 197 164 193 197 164 193 197 164 193 197 164 193 197 164 193 197 164 193 197 164 193 197 164 193 197 164 193 197 164 193 197 164 193 197 164 193 197 164 193 197 164 193 197 164 193 197 164 193 197 164 193 197 164 193 197 164 193 197 164 193 197 164 193 197 164 193 197 164 193 197 164 193 197 164 192 190 139 192 190 139 192 190 139 192 190 139 192 190 139 192 190 139 192 190 139 192 190 139 192 190 139 192 190 139 192 190 139 192 190 139 192 190 139 192 190 139 192 190 139 192 190 139 192 190 139 192 190 139 192 190 139 192 190 139 192 190 139 192 190 139 192 190 139 192 190 139 192 190 139 192 190 139 192 190 139 0 0 255 0 0 255 0 0 255 0 0 255 0 0 255 70 38 44 70 38 44 70 38 44 70 38 44 70 38 44 70 38 44 70 38 44 70 38 44 0 0 255 0 0 255 0 0 255 192 190 139 192 190 139 0 0 255 0 0 255 0 0 255 70 38 44 70 38 44 70 38 44 70 38 44 70 38 44 70 38 44 70 38 44 70 38 44 70 38 44 70 38 44 70 38 44 0 0 255 0 0 255 0 0 255 0 0 255 193 198 157 193 198 157 0 0 255 0 0 255 179 67 44 179 67 44 179 67 44 179 67 44 179 67 44 179 67 44 179 67 44 179 67 44 179 67 44 179 67 44 179 67 44 0 0 255 0 0 255 0 0 255 0 0 255 0 0 255 0 0 255 193 176 76 193 176 76 193 176 76 193 176 76 193 176 76 193 176 76 193 176 76 193 176 76 193 176 76 193 176 76 193 176 76 193 176 76 193 176 76 0 0 255 0 0 255 70 38 44 70 38 44 70 38 44 70 38 44 70 38 44 70 38 44 70 38 44 70 38 44 70 38 44 70 38 44 0 0 255 0 0 255 0 0 255 193 176 76 193 176 76 193 176 76 193 176 76 193 176 76 193 176 76 193 176 76 193 176 76 193 176 76 193 176 76 193 176 76 193 176 76 193 176 76 193 176 76 0 0 255 0 0 255 0 0 255 0 0 255 0 0 255 193 176 76 193 176 76 193 176 76 193 176 76 193 176 76 193 176 76 193 176 76 193 176 76 193 176 76 193 176 76 193 176 76 193 176 76 193 176 76 193 176 76 193 176 76 193 176 76 193 176 76 193 176 76 193 176 76 193 176 76 193 176 76 193 176 76 193 176 76 193 176 76 193 176 76 0 0 255 0 0 255 0 0 255 0 0 255 70 38 44 70 38 44 70 38 44 70 38 44 70 38 44 0 0 255 0 0 255 0 0 255 0 0 255 0 0 255 70 38 44 70 38 44 0 0 255 0 0 255 0 0 255 0 0 255 70 38 44 70 38 44 70 38 44 70 38 44 70 38 44 70 38 44 0 0 255 0 0 255 0 0 255 0 0 255 70 38 44 0 0 255 0 0 255 0 0 255 0 0 255 0 0 255 0 0 255 0 0 255 95 139 71 0 0 255 0 0 255 0 0 255 0 0 255 193 176 76 193 176 76 193 176 76 193 176 76 193 176 76 193 176 76 193 176 76 193 176 76 193 176 76 193 176 76 193 176 76 0 0 255 0 0 255 0 0 255 0 0 255 0 0 255 70 38 44 70 38 44 70 38 44 70 38 44 0 0 255 0 0 255 0 0 255 0 0 255 0 0 255 0 0 255 0 0 255 0 0 255 0 0 255 0 0 255 193 197 164 193 197 164 193 197 164 193 197 164 193 197 164 193 197 164 193 197 164 193 197 164 193 197 164 193 197 164 193 197 164 193 197 164 193 197 164 193 197 164 193 197 164 193 197 164 193 197 164 193 197 164 193 197 164 193 197 164 193 197 164 193 197 164 193 197 164 193 197 164 193 197 164 193 197 164 193 197 164 192 190 139 192 190 139 192 190 139 192 190 139 192 190 139 192 190 139 192 190 139 192 190 139 192 190 139 192 190 139 192 190 139 192 190 139 192 190 139 192 190 139 192 190 139 192 190 139 192 190 139 192 190 139 192 190 139 192 190 139 192 190 139 192 190 139 192 190 139 192 190 139 192 190 139 192 190 139 192 190 139 192 190 139 0 0 255 0 0 255 107 129 71 0 0 255 0 0 255 70 38 44 70 38 44 70 38 44 70 38 44 70 38 44 70 38 44 0 0 255 0 0 255 0 0 255 0 0 255 192 190 139 192 190 139 0 0 255 0 0 255 70 38 44 70 38 44 70 38 44 70 38 44 70 38 44 70 38 44 70 38 44 70 38 44 70 38 44 70 38 44 0 0 255 70 38 44 70 38 44 0 0 255 0 0 255 0 0 255 193 198 157 0 0 255 0 0 255 0 0 255 179 67 44 179 67 44 179 67 44 179 67 44 179 67 44 179 67 44 179 67 44 179 67 44 179 67 44 179 67 44 179 67 44 179 67 44 0 0 255 0 0 255 0 0 255 0 0 255 193 176 76 193 176 76 193 176 76 193 176 76 193 176 76 193 176 76 193 176 76 193 176 76 193 176 76 193 176 76 193 176 76 193 176 76 193 176 76 193 176 76 0 0 255 0 0 255 0 0 255 70 38 44 70 38 44 70 38 44 70 38 44 70 38 44 70 38 44 70 38 44 70 38 44 70 38 44 0 0 255 0 0 255 0 0 255 193 176 76 193 176 76 193 176 76 193 176 76 193 176 76 193 176 76 193 176 76 193 176 76 193 176 76 193 176 76 193 176 76 193 176 76 193 176 76 193 176 76 0 0 255 0 0 255 0 0 255 0 0 255 0 0 255 193 176 76 193 176 76 193 176 76 193 176 76 193 176 76 193 176 76 193 176 76 193 176 76 193 176 76 193 176 76 193 176 76 193 176 76 193 176 76 193 176 76 193 176 76 193 176 76 193 176 76 193 176 76 193 176 76 193 176 76 193 176 76 193 176 76 193 176 76 193 176 76 193 176 76 193 176 76 0 0 255 0 0 255 0 0 255 0 0 255 70 38 44 70 38 44 70 38 44 70 38 44 0 0 255 0 0 255 0 0 255 0 0 255 0 0 255 0 0 255 70 38 44 70 38 44 0 0 255 0 0 255 0 0 255 70 38 44 70 38 44 70 38 44 70 38 44 70 38 44 70 38 44 0 0 255 0 0 255 0 0 255 0 0 255 70 38 44 0 0 255 0 0 255 0 0 255 0 0 255 0 0 255 0 0 255 0 0 255 95 139 71 0 0 255 0 0 255 0 0 255 0 0 255 193 176 76 193 176 76 193 176 76 193 176 76 193 176 76 193 176 76 193 176 76 193 176 76 193 176 76 193 176 76 193 176 76 193 176 76 0 0 255 0 0 255 0 0 255 0 0 255 70 38 44 70 38 44 70 38 44 70 38 44 70 38 44 0 0 255 0 0 255 0 0 255 0 0 255 70 38 44 0 0 255 0 0 255 0 0 255 193 197 164 193 197 164 193 197 164 193 197 164 193 197 164 193 197 164 193 197 164 193 197 164 193 197 164 193 197 164 193 197 164 193 197 164 193 197 164 193 197 164 193 197 164 193 197 164 193 197 164 193 197 164 193 197 164 193 197 164 193 197 164 193 197 164 193 197 164 193 197 164 193 197 164 193 197 164 193 197 164 193 197 164 192 190 139 192 190 139 192 190 139 192 190 139 192 190 139 192 190 139 192 190 139 192 190 139 192 190 139 192 190 139 192 190 139 192 190 139 192 190 139 192 190 139 192 190 139 192 190 139 192 190 139 192 190 139 192 190 139 192 190 139 192 190 139 192 190 139 192 190 139 192 190 139 192 190 139 192 190 139 192 190 139 192 190 139 0 0 255 0 0 255 107 129 71 0 0 255 0 0 255 70 38 44 70 38 44 70 38 44 70 38 44 0 0 255 0 0 255 0 0 255 0 0 255 0 0 255 192 190 139 192 190 139 0 0 255 0 0 255 0 0 255 70 38 44 70 38 44 70 38 44 70 38 44 70 38 44 70 38 44 70 38 44 70 38 44 70 38 44 0 0 255 0 0 255 0 0 255 70 38 44 70 38 44 0 0 255 0 0 255 0 0 255 0 0 255 0 0 255 179 67 44 179 67 44 179 67 44 179 67 44 179 67 44 179 67 44 179 67 44 179 67 44 179 67 44 179 67 44 179 67 44 179 67 44 179 67 44 179 67 44 179 67 44 0 0 255 0 0 255 193 176 76 193 176 76 193 176 76 193 176 76 193 176 76 193 176 76 0 0 255 193 176 76 193 176 76 193 176 76 193 176 76 193 176 76 193 176 76 193 176 76 0 0 255 0 0 255 0 0 255 70 38 44 70 38 44 70 38 44 70 38 44 70 38 44 70 38 44 70 38 44 70 38 44 70 38 44 0 0 255 0 0 255 0 0 255 193 176 76 193 176 76 193 176 76 193 176 76 193 176 76 193 176 76 193 176 76 193 176 76 193 176 76 193 176 76 193 176 76 193 176 76 193 176 76 193 176 76 193 176 76 0 0 255 0 0 255 0 0 255 193 176 76 193 176 76 193 176 76 193 176 76 193 176 76 193 176 76 193 176 76 193 176 76 193 176 76 193 176 76 193 176 76 193 176 76 193 176 76 193 176 76 193 176 76 193 176 76 193 176 76 193 176 76 193 176 76 193 176 76 193 176 76 193 176 76 193 176 76 193 176 76 193 176 76 193 176 76 193 176 76 193 176 76 0 0 255 0 0 255 70 38 44 70 38 44 70 38 44 70 38 44 70 38 44 70 38 44 0 0 255 0 0 255 0 0 255 0 0 255 70 38 44 70 38 44 70 38 44 0 0 255 0 0 255 0 0 255 0 0 255 70 38 44 70 38 44 70 38 44 70 38 44 70 38 44 70 38 44 0 0 255 0 0 255 70 38 44 70 38 44 0 0 255 0 0 255 0 0 255 0 0 255 193 197 164 0 0 255 0 0 255 0 0 255 0 0 255 0 0 255 0 0 255 193 176 76 193 176 76 193 176 76 193 176 76 193 176 76 193 176 76 193 176 76 193 176 76 193 176 76 193 176 76 193 176 76 193 176 76 193 176 76 0 0 255 0 0 255 0 0 255 0 0 255 70 38 44 70 38 44 70 38 44 70 38 44 70 38 44 70 38 44 0 0 255 0 0 255 70 38 44 70 38 44 0 0 255 0 0 255 0 0 255 193 197 164 193 197 164 193 197 164 193 197 164 193 197 164 193 197 164 193 197 164 193 197 164 193 197 164 193 197 164 193 197 164 193 197 164 193 197 164 193 197 164 193 197 164 193 197 164 193 197 164 193 197 164 193 197 164 193 197 164 193 197 164 193 197 164 193 197 164 193 197 164 193 197 164 193 197 164 193 197 164 193 197 164 192 190 139 192 190 139 192 190 139 192 190 139 192 190 139 192 190 139 192 190 139 192 190 139 192 190 139 192 190 139 192 190 139 192 190 139 192 190 139 192 190 139 192 190 139 192 190 139 192 190 139 192 190 139 192 190 139 192 190 139 192 190 139 192 190 139 192 190 139 192 190 139 192 190 139 192 190 139 192 190 139 192 190 139 192 190 139 0 0 255 0 0 255 0 0 255 0 0 255 0 0 255 70 38 44 70 38 44 0 0 255 0 0 255 0 0 255 0 0 255 0 0 255 192 190 139 192 190 139 192 190 139 0 0 255 0 0 255 0 0 255 70 38 44 70 38 44 70 38 44 70 38 44 70 38 44 70 38 44 70 38 44 70 38 44 0 0 255 0 0 255 0 0 255 0 0 255 0 0 255 70 38 44 0 0 255 0 0 255 0 0 255 0 0 255 0 0 255 179 67 44 179 67 44 179 67 44 179 67 44 179 67 44 179 67 44 179 67 44 179 67 44 179 67 44 179 67 44 179 67 44 179 67 44 179 67 44 179 67 44 179 67 44 0 0 255 0 0 255 193 176 76 193 176 76 193 176 76 193 176 76 193 176 76 0 0 255 0 0 255 0 0 255 193 176 76 193 176 76 193 176 76 193 176 76 193 176 76 193 176 76 193 176 76 0 0 255 0 0 255 0 0 255 70 38 44 70 38 44 70 38 44 70 38 44 70 38 44 70 38 44 70 38 44 70 38 44 0 0 255 0 0 255 0 0 255 193 176 76 193 176 76 193 176 76 193 176 76 193 176 76 193 176 76 193 176 76 193 176 76 193 176 76 193 176 76 193 176 76 193 176 76 193 176 76 193 176 76 193 176 76 193 176 76 193 176 76 193 176 76 193 176 76 193 176 76 193 176 76 193 176 76 193 176 76 193 176 76 193 176 76 193 176 76 193 176 76 193 176 76 193 176 76 193 176 76 193 176 76 193 176 76 193 176 76 193 176 76 193 176 76 193 176 76 193 176 76 193 176 76 193 176 76 193 176 76 193 176 76 193 176 76 193 176 76 193 176 76 193 176 76 0 0 255 0 0 255 0 0 255 70 38 44 70 38 44 70 38 44 70 38 44 70 38 44 70 38 44 70 38 44 0 0 255 0 0 255 70 38 44 70 38 44 70 38 44 70 38 44 0 0 255 0 0 255 0 0 255 0 0 255 0 0 255 0 0 255 0 0 255 0 0 255 70 38 44 70 38 44 70 38 44 70 38 44 70 38 44 70 38 44 0 0 255 0 0 255 0 0 255 0 0 255 0 0 255 0 0 255 0 0 255 0 0 255 0 0 255 0 0 255 193 176 76 193 176 76 193 176 76 193 176 76 193 176 76 193 176 76 193 176 76 193 176 76 193 176 76 193 176 76 193 176 76 193 176 76 193 176 76 0 0 255 0 0 255 95 139 71 95 139 71 0 0 255 0 0 255 70 38 44 70 38 44 70 38 44 70 38 44 70 38 44 70 38 44 70 38 44 0 0 255 0 0 255 0 0 255 0 0 255 0 0 255 193 197 164 193 197 164 193 197 164 193 197 164 193 197 164 193 197 164 193 197 164 193 197 164 193 197 164 193 197 164 193 197 164 193 197 164 193 197 164 193 197 164 193 197 164 193 197 164 193 197 164 193 197 164 193 197 164 193 197 164 193 197 164 193 197 164 193 197 164 193 197 164 193 197 164 193 197 164 193 197 164 193 197 164 192 190 139 192 190 139 192 190 139 192 190 139 192 190 139 192 190 139 192 190 139 192 190 139 192 190 139 192 190 139 192 190 139 192 190 139 192 190 139 192 190 139 192 190 139 192 190 139 192 190 139 192 190 139 192 190 139 192 190 139 192 190 139 192 190 139 192 190 139 192 190 139 192 190 139 192 190 139 192 190 139 192 190 139 192 190 139 192 190 139 0 0 255 0 0 255 0 0 255 0 0 255 0 0 255 0 0 255 0 0 255 0 0 255 0 0 255 0 0 255 192 190 139 192 190 139 192 190 139 0 0 255 0 0 255 0 0 255 0 0 255 70 38 44 70 38 44 70 38 44 70 38 44 70 38 44 70 38 44 70 38 44 70 38 44 70 38 44 0 0 255 0 0 255 0 0 255 0 0 255 70 38 44 70 38 44 0 0 255 0 0 255 0 0 255 0 0 255 179 67 44 179 67 44 179 67 44 179 67 44 179 67 44 179 67 44 179 67 44 0 0 255 179 67 44 179 67 44 179 67 44 179 67 44 179 67 44 179 67 44 179 67 44 0 0 255 0 0 255 193 176 76 193 176 76 193 176 76 193 176 76 0 0 255 0 0 255 0 0 255 0 0 255 193 176 76 193 176 76 193 176 76 193 176 76 193 176 76 193 176 76 0 0 255 0 0 255 0 0 255 0 0 255 0 0 255 70 38 44 70 38 44 70 38 44 70 38 44 70 38 44 70 38 44 70 38 44 0 0 255 0 0 255 0 0 255 193 176 76 193 176 76 193 176 76 193 176 76 193 176 76 193 176 76 193 176 76 193 176 76 193 176 76 193 176 76 193 176 76 193 176 76 193 176 76 193 176 76 193 176 76 193 176 76 193 176 76 193 176 76 193 176 76 193 176 76 193 176 76 193 176 76 193 176 76 193 176 76 193 176 76 193 176 76 193 176 76 193 176 76 193 176 76 193 176 76 193 176 76 193 176 76 193 176 76 193 176 76 193 176 76 193 176 76 193 176 76 193 176 76 193 176 76 193 176 76 193 176 76 193 176 76 193 176 76 193 176 76 193 176 76 0 0 255 0 0 255 0 0 255 70 38 44 70 38 44 70 38 44 70 38 44 70 38 44 70 38 44 70 38 44 70 38 44 70 38 44 70 38 44 70 38 44 70 38 44 0 0 255 0 0 255 185 64 42 185 64 42 185 64 42 0 0 255 0 0 255 0 0 255 0 0 255 0 0 255 70 38 44 70 38 44 70 38 44 70 38 44 0 0 255 0 0 255 0 0 255 0 0 255 0 0 255 0 0 255 0 0 255 193 176 76 193 176 76 0 0 255 193 176 76 193 176 76 193 176 76 193 176 76 193 176 76 193 176 76 193 176 76 193 176 76 193 176 76 193 176 76 193 176 76 193 176 76 193 176 76 193 176 76 0 0 255 0 0 255 0 0 255 95 139 71 0 0 255 0 0 255 70 38 44 70 38 44 70 38 44 70 38 44 70 38 44 70 38 44 0 0 255 0 0 255 0 0 255 0 0 255 0 0 255 193 197 164 193 197 164 193 197 164 193 197 164 193 197 164 193 197 164 193 197 164 193 197 164 193 197 164 193 197 164 193 197 164 193 197 164 193 197 164 193 197 164 193 197 164 193 197 164 193 197 164 193 197 164 193 197 164 193 197 164 193 197 164 193 197 164 193 197 164 193 197 164 193 197 164 193 197 164 193 197 164 193 197 164 193 197 164 192 190 139 192 190 139 192 190 139 192 190 139 192 190 139 192 190 139 192 190 139 192 190 139 192 190 139 192 190 139 192 190 139 192 190 139 192 190 139 192 190 139 192 190 139 192 190 139 192 190 139 192 190 139 192 190 139 192 190 139 192 190 139 192 190 139 192 190 139 192 190 139 192 190 139 192 190 139 192 190 139 192 190 139 192 190 139 192 190 139 192 190 139 0 0 255 0 0 255 0 0 255 0 0 255 0 0 255 0 0 255 0 0 255 192 190 139 192 190 139 192 190 139 192 190 139 0 0 255 0 0 255 107 129 71 0 0 255 0 0 255 70 38 44 70 38 44 70 38 44 70 38 44 70 38 44 70 38 44 70 38 44 70 38 44 70 38 44 70 38 44 0 0 255 0 0 255 70 38 44 70 38 44 70 38 44 0 0 255 0 0 255 0 0 255 0 0 255 0 0 255 179 67 44 179 67 44 179 67 44 179 67 44 179 67 44 0 0 255 0 0 255 0 0 255 179 67 44 179 67 44 179 67 44 179 67 44 179 67 44 179 67 44 0 0 255 0 0 255 193 176 76 193 176 76 193 176 76 193 176 76 193 176 76 0 0 255 0 0 255 193 176 76 193 176 76 193 176 76 193 176 76 193 176 76 193 176 76 193 176 76 0 0 255 0 0 255 0 0 255 0 0 255 0 0 255 70 38 44 70 38 44 70 38 44 70 38 44 70 38 44 70 38 44 70 38 44 70 38 44 0 0 255 0 0 255 0 0 255 193 176 76 193 176 76 193 176 76 193 176 76 193 176 76 193 176 76 193 176 76 193 176 76 193 176 76 193 176 76 193 176 76 193 176 76 193 176 76 193 176 76 193 176 76 193 176 76 193 176 76 193 176 76 193 176 76 193 176 76 193 176 76 193 176 76 193 176 76 193 176 76 193 176 76 193 176 76 193 176 76 193 176 76 193 176 76 193 176 76 193 176 76 193 176 76 193 176 76 193 176 76 193 176 76 193 176 76 193 176 76 193 176 76 193 176 76 193 176 76 193 176 76 193 176 76 193 176 76 193 176 76 0 0 255 0 0 255 0 0 255 0 0 255 70 38 44 70 38 44 70 38 44 70 38 44 70 38 44 70 38 44 70 38 44 70 38 44 70 38 44 70 38 44 0 0 255 0 0 255 185 64 42 185 64 42 185 64 42 185 64 42 185 64 42 185 64 42 185 64 42 185 64 42 0 0 255 0 0 255 0 0 255 70 38 44 70 38 44 0 0 255 0 0 255 0 0 255 0 0 255 0 0 255 0 0 255 193 176 76 193 176 76 193 176 76 193 176 76 193 176 76 193 176 76 193 176 76 193 176 76 193 176 76 193 176 76 193 176 76 193 176 76 193 176 76 193 176 76 193 176 76 193 176 76 0 0 255 0 0 255 0 0 255 0 0 255 0 0 255 95 139 71 0 0 255 0 0 255 0 0 255 0 0 255 0 0 255 70 38 44 70 38 44 0 0 255 0 0 255 0 0 255 95 139 71 0 0 255 0 0 255 193 197 164 193 197 164 193 197 164 193 197 164 193 197 164 193 197 164 193 197 164 193 197 164 193 197 164 193 197 164 193 197 164 193 197 164 193 197 164 193 197 164 193 197 164 193 197 164 193 197 164 193 197 164 193 197 164 193 197 164 193 197 164 193 197 164 193 197 164 193 197 164 193 197 164 193 197 164 193 197 164 193 197 164 193 197 164 192 190 139 192 190 139 192 190 139 192 190 139 192 190 139 192 190 139 192 190 139 192 190 139 192 190 139 192 190 139 192 190 139 192 190 139 192 190 139 192 190 139 192 190 139 192 190 139 192 190 139 192 190 139 192 190 139 192 190 139 192 190 139 192 190 139 192 190 139 192 190 139 192 190 139 192 190 139 192 190 139 192 190 139 192 190 139 192 190 139 192 190 139 192 190 139 192 190 139 192 190 139 192 190 139 192 190 139 192 190 139 192 190 139 192 190 139 192 190 139 192 190 139 192 190 139 0 0 255 0 0 255 107 129 71 107 129 71 0 0 255 0 0 255 70 38 44 70 38 44 70 38 44 70 38 44 70 38 44 70 38 44 70 38 44 70 38 44 70 38 44 70 38 44 70 38 44 70 38 44 70 38 44 70 38 44 0 0 255 0 0 255 0 0 255 0 0 255 0 0 255 179 67 44 179 67 44 179 67 44 179 67 44 0 0 255 0 0 255 0 0 255 0 0 255 179 67 44 179 67 44 179 67 44 179 67 44 179 67 44 179 67 44 0 0 255 0 0 255 193 176 76 193 176 76 193 176 76 193 176 76 193 176 76 193 176 76 193 176 76 193 176 76 193 176 76 193 176 76 193 176 76 193 176 76 193 176 76 0 0 255 0 0 255 193 198 157 0 0 255 0 0 255 0 0 255 70 38 44 70 38 44 70 38 44 70 38 44 70 38 44 70 38 44 70 38 44 70 38 44 70 38 44 0 0 255 0 0 255 0 0 255 193 176 76 193 176 76 193 176 76 193 176 76 193 176 76 193 176 76 193 176 76 193 176 76 193 176 76 193 176 76 193 176 76 193 176 76 193 176 76 193 176 76 193 176 76 193 176 76 193 176 76 193 176 76 193 176 76 193 176 76 193 176 76 193 176 76 193 176 76 193 176 76 193 176 76 193 176 76 193 176 76 193 176 76 193 176 76 193 176 76 193 176 76 193 176 76 193 176 76 193 176 76 193 176 76 193 176 76 193 176 76 193 176 76 193 176 76 193 176 76 193 176 76 193 176 76 193 176 76 0 0 255 0 0 255 0 0 255 0 0 255 0 0 255 0 0 255 0 0 255 70 38 44 70 38 44 70 38 44 70 38 44 70 38 44 70 38 44 0 0 255 0 0 255 185 64 42 185 64 42 185 64 42 185 64 42 185 64 42 185 64 42 185 64 42 185 64 42 185 64 42 185 64 42 0 0 255 0 0 255 0 0 255 0 0 255 0 0 255 0 0 255 0 0 255 193 176 76 193 176 76 193 176 76 193 176 76 193 176 76 193 176 76 193 176 76 193 176 76 193 176 76 193 176 76 193 176 76 193 176 76 193 176 76 193 176 76 193 176 76 193 176 76 193 176 76 193 176 76 0 0 255 0 0 255 0 0 255 193 197 164 0 0 255 0 0 255 0 0 255 0 0 255 185 64 42 0 0 255 0 0 255 0 0 255 0 0 255 0 0 255 0 0 255 0 0 255 0 0 255 0 0 255 0 0 255 193 197 164 193 197 164 193 197 164 193 197 164 193 197 164 193 197 164 193 197 164 193 197 164 193 197 164 193 197 164 193 197 164 193 197 164 193 197 164 193 197 164 193 197 164 193 197 164 193 197 164 193 197 164 193 197 164 193 197 164 193 197 164 193 197 164 193 197 164 193 197 164 193 197 164 193 197 164 193 197 164 193 197 164 193 197 164 193 197 164 192 190 139 192 190 139 192 190 139 192 190 139 192 190 139 192 190 139 192 190 139 192 190 139 192 190 139 192 190 139 192 190 139 192 190 139 192 190 139 192 190 139 192 190 139 192 190 139 192 190 139 192 190 139 192 190 139 192 190 139 192 190 139 192 190 139 192 190 139 192 190 139 192 190 139 192 190 139 192 190 139 192 190 139 192 190 139 192 190 139 192 190 139 192 190 139 192 190 139 192 190 139 192 190 139 192 190 139 192 190 139 192 190 139 192 190 139 192 190 139 192 190 139 192 190 139 0 0 255 0 0 255 107 129 71 107 129 71 0 0 255 0 0 255 0 0 255 0 0 255 70 38 44 70 38 44 70 38 44 70 38 44 70 38 44 70 38 44 70 38 44 70 38 44 70 38 44 70 38 44 70 38 44 70 38 44 0 0 255 0 0 255 0 0 255 0 0 255 0 0 255 179 67 44 179 67 44 179 67 44 179 67 44 0 0 255 0 0 255 0 0 255 179 67 44 179 67 44 179 67 44 179 67 44 179 67 44 179 67 44 179 67 44 0 0 255 0 0 255 193 176 76 193 176 76 193 176 76 193 176 76 193 176 76 193 176 76 193 176 76 193 176 76 193 176 76 193 176 76 193 176 76 193 176 76 193 176 76 0 0 255 0 0 255 0 0 255 0 0 255 0 0 255 70 38 44 70 38 44 70 38 44 70 38 44 70 38 44 0 0 255 0 0 255 70 38 44 70 38 44 70 38 44 70 38 44 0 0 255 0 0 255 0 0 255 0 0 255 0 0 255 193 176 76 193 176 76 193 176 76 193 176 76 193 176 76 193 176 76 193 176 76 193 176 76 193 176 76 193 176 76 193 176 76 193 176 76 193 176 76 193 176 76 193 176 76 193 176 76 193 176 76 193 176 76 193 176 76 193 176 76 193 176 76 193 176 76 193 176 76 193 176 76 193 176 76 193 176 76 193 176 76 193 176 76 193 176 76 0 0 255 0 0 255 0 0 255 0 0 255 0 0 255 193 176 76 193 176 76 193 176 76 193 176 76 193 176 76 193 176 76 193 176 76 0 0 255 0 0 255 0 0 255 0 0 255 0 0 255 0 0 255 0 0 255 0 0 255 70 38 44 70 38 44 70 38 44 0 0 255 0 0 255 185 64 42 185 64 42 185 64 42 185 64 42 185 64 42 185 64 42 185 64 42 185 64 42 185 64 42 185 64 42 185 64 42 185 64 42 185 64 42 0 0 255 0 0 255 0 0 255 0 0 255 193 176 76 193 176 76 193 176 76 193 176 76 193 176 76 193 176 76 193 176 76 193 176 76 193 176 76 193 176 76 193 176 76 193 176 76 193 176 76 193 176 76 193 176 76 193 176 76 193 176 76 193 176 76 0 0 255 0 0 255 193 197 164 193 197 164 193 197 164 193 197 164 0 0 255 0 0 255 0 0 255 185 64 42 185 64 42 185 64 42 185 64 42 0 0 255 0 0 255 0 0 255 0 0 255 0 0 255 0 0 255 193 197 164 193 197 164 193 197 164 193 197 164 193 197 164 193 197 164 193 197 164 193 197 164 193 197 164 193 197 164 193 197 164 193 197 164 193 197 164 193 197 164 193 197 164 193 197 164 193 197 164 193 197 164 193 197 164 193 197 164 193 197 164 193 197 164 193 197 164 193 197 164 193 197 164 193 197 164 193 197 164 193 197 164 193 197 164 193 197 164 193 197 164 192 190 139 192 190 139 192 190 139 192 190 139 192 190 139 192 190 139 192 190 139 192 190 139 192 190 139 192 190 139 192 190 139 192 190 139 192 190 139 192 190 139 192 190 139 192 190 139 192 190 139 192 190 139 192 190 139 192 190 139 192 190 139 192 190 139 192 190 139 192 190 139 192 190 139 192 190 139 192 190 139 192 190 139 192 190 139 192 190 139 192 190 139 192 190 139 192 190 139 192 190 139 192 190 139 192 190 139 192 190 139 192 190 139 192 190 139 192 190 139 192 190 139 192 190 139 0 0 255 0 0 255 107 129 71 107 129 71 107 129 71 0 0 255 0 0 255 0 0 255 0 0 255 0 0 255 70 38 44 70 38 44 70 38 44 70 38 44 70 38 44 70 38 44 70 38 44 70 38 44 70 38 44 0 0 255 0 0 255 0 0 255 0 0 255 0 0 255 179 67 44 179 67 44 179 67 44 179 67 44 179 67 44 179 67 44 0 0 255 179 67 44 179 67 44 179 67 44 179 67 44 179 67 44 179 67 44 179 67 44 179 67 44 179 67 44 0 0 255 0 0 255 193 176 76 193 176 76 193 176 76 193 176 76 193 176 76 193 176 76 193 176 76 193 176 76 193 176 76 193 176 76 193 176 76 193 176 76 0 0 255 0 0 255 0 0 255 0 0 255 70 38 44 70 38 44 70 38 44 70 38 44 70 38 44 0 0 255 0 0 255 0 0 255 0 0 255 70 38 44 70 38 44 70 38 44 0 0 255 0 0 255 0 0 255 0 0 255 0 0 255 0 0 255 193 176 76 193 176 76 193 176 76 193 176 76 193 176 76 193 176 76 193 176 76 193 176 76 193 176 76 193 176 76 193 176 76 193 176 76 193 176 76 193 176 76 193 176 76 193 176 76 193 176 76 193 176 76 193 176 76 193 176 76 193 176 76 193 176 76 193 176 76 193 176 76 193 176 76 193 176 76 193 176 76 0 0 255 0 0 255 0 0 255 0 0 255 0 0 255 0 0 255 0 0 255 193 176 76 193 176 76 193 176 76 193 176 76 193 176 76 193 176 76 193 176 76 193 176 76 193 176 76 193 176 76 193 176 76 0 0 255 0 0 255 0 0 255 0 0 255 70 38 44 70 38 44 0 0 255 0 0 255 185 64 42 185 64 42 185 64 42 185 64 42 185 64 42 185 64 42 185 64 42 185 64 42 185 64 42 185 64 42 185 64 42 185 64 42 185 64 42 0 0 255 0 0 255 0 0 255 0 0 255 0 0 255 193 176 76 193 176 76 193 176 76 193 176 76 193 176 76 193 176 76 193 176 76 193 176 76 193 176 76 193 176 76 193 176 76 193 176 76 193 176 76 0 0 255 0 0 255 0 0 255 0 0 255 0 0 255 193 197 164 193 197 164 193 197 164 193 197 164 193 197 164 0 0 255 0 0 255 185 64 42 185 64 42 185 64 42 185 64 42 185 64 42 185 64 42 185 64 42 0 0 255 0 0 255 0 0 255 193 197 164 193 197 164 193 197 164 193 197 164 193 197 164 193 197 164 193 197 164 193 197 164 193 197 164 193 197 164 193 197 164 193 197 164 193 197 164 193 197 164 193 197 164 193 197 164 193 197 164 193 197 164 193 197 164 193 197 164 193 197 164 193 197 164 193 197 164 193 197 164 193 197 164 193 197 164 193 197 164 193 197 164 193 197 164 193 197 164 193 197 164 193 197 164 192 190 139 192 190 139 192 190 139 192 190 139 192 190 139 192 190 139 192 190 139 192 190 139 192 190 139 192 190 139 192 190 139 192 190 139 192 190 139 192 190 139 192 190 139 192 190 139 192 190 139 192 190 139 192 190 139 192 190 139 192 190 139 192 190 139 192 190 139 192 190 139 192 190 139 192 190 139 192 190 139 192 190 139 192 190 139 192 190 139 192 190 139 192 190 139 192 190 139 192 190 139 192 190 139 192 190 139 192 190 139 192 190 139 192 190 139 192 190 139 192 190 139 0 0 255 0 0 255 107 129 71 107 129 71 107 129 71 107 129 71 107 129 71 107 129 71 107 129 71 0 0 255 0 0 255 0 0 255 70 38 44 70 38 44 70 38 44 70 38 44 70 38 44 70 38 44 70 38 44 0 0 255 0 0 255 0 0 255 0 0 255 0 0 255 179 67 44 179 67 44 179 67 44 179 67 44 179 67 44 179 67 44 179 67 44 179 67 44 179 67 44 179 67 44 179 67 44 179 67 44 179 67 44 179 67 44 179 67 44 179 67 44 179 67 44 0 0 255 0 0 255 193 176 76 193 176 76 193 176 76 193 176 76 193 176 76 193 176 76 193 176 76 193 176 76 193 176 76 193 176 76 193 176 76 193 176 76 193 176 76 0 0 255 0 0 255 0 0 255 70 38 44 70 38 44 70 38 44 70 38 44 70 38 44 0 0 255 0 0 255 0 0 255 0 0 255 70 38 44 70 38 44 70 38 44 0 0 255 0 0 255 0 0 255 0 0 255 0 0 255 0 0 255 0 0 255 193 176 76 193 176 76 193 176 76 193 176 76 193 176 76 193 176 76 193 176 76 193 176 76 193 176 76 193 176 76 193 176 76 193 176 76 193 176 76 193 176 76 193 176 76 193 176 76 193 176 76 193 176 76 193 176 76 193 176 76 193 176 76 193 176 76 193 176 76 193 176 76 193 176 76 0 0 255 0 0 255 0 0 255 70 38 44 0 0 255 0 0 255 0 0 255 0 0 255 0 0 255 193 176 76 193 176 76 193 176 76 193 176 76 193 176 76 193 176 76 193 176 76 193 176 76 193 176 76 193 176 76 193 176 76 0 0 255 0 0 255 0 0 255 0 0 255 0 0 255 0 0 255 185 64 42 185 64 42 185 64 42 185 64 42 185 64 42 185 64 42 185 64 42 185 64 42 185 64 42 185 64 42 185 64 42 185 64 42 185 64 42 185 64 42 185 64 42 0 0 255 0 0 255 0 0 255 0 0 255 193 176 76 193 176 76 193 176 76 193 176 76 193 176 76 193 176 76 193 176 76 193 176 76 193 176 76 193 176 76 193 176 76 193 176 76 0 0 255 0 0 255 0 0 255 0 0 255 0 0 255 193 197 164 193 197 164 193 197 164 193 197 164 193 197 164 0 0 255 0 0 255 0 0 255 185 64 42 185 64 42 185 64 42 185 64 42 185 64 42 185 64 42 185 64 42 0 0 255 0 0 255 193 197 164 193 197 164 193 197 164 193 197 164 193 197 164 193 197 164 193 197 164 193 197 164 193 197 164 193 197 164 193 197 164 193 197 164 193 197 164 193 197 164 193 197 164 193 197 164 193 197 164 193 197 164 193 197 164 193 197 164 193 197 164 193 197 164 193 197 164 193 197 164 193 197 164 193 197 164 193 197 164 193 197 164 193 197 164 193 197 164 193 197 164 193 197 164 193 197 164 192 190 139 192 190 139 192 190 139 192 190 139 192 190 139 192 190 139 192 190 139 192 190 139 192 190 139 192 190 139 192 190 139 192 190 139 192 190 139 192 190 139 192 190 139 192 190 139 192 190 139 192 190 139 192 190 139 192 190 139 192 190 139 192 190 139 192 190 139 192 190 139 192 190 139 192 190 139 192 190 139 192 190 139 192 190 139 192 190 139 192 190 139 192 190 139 192 190 139 192 190 139 192 190 139 192 190 139 192 190 139 192 190 139 192 190 139 192 190 139 0 0 255 0 0 255 107 129 71 107 129 71 107 129 71 107 129 71 107 129 71 107 129 71 107 129 71 107 129 71 107 129 71 107 129 71 0 0 255 0 0 255 70 38 44 70 38 44 70 38 44 70 38 44 0 0 255 0 0 255 0 0 255 0 0 255 0 0 255 179 67 44 179 67 44 179 67 44 179 67 44 179 67 44 179 67 44 179 67 44 179 67 44 179 67 44 179 67 44 179 67 44 179 67 44 179 67 44 179 67 44 179 67 44 179 67 44 179 67 44 179 67 44 179 67 44 179 67 44 0 0 255 0 0 255 0 0 255 193 176 76 193 176 76 193 176 76 193 176 76 193 176 76 193 176 76 193 176 76 193 176 76 193 176 76 193 176 76 193 176 76 193 176 76 0 0 255 0 0 255 70 38 44 70 38 44 70 38 44 70 38 44 70 38 44 70 38 44 0 0 255 0 0 255 70 38 44 70 38 44 70 38 44 70 38 44 0 0 255 0 0 255 0 0 255 0 0 255 0 0 255 0 0 255 0 0 255 193 176 76 193 176 76 193 176 76 193 176 76 193 176 76 193 176 76 193 176 76 193 176 76 193 176 76 193 176 76 193 176 76 193 176 76 193 176 76 193 176 76 193 176 76 193 176 76 193 176 76 193 176 76 193 176 76 193 176 76 193 176 76 193 176 76 193 176 76 193 176 76 0 0 255 0 0 255 70 38 44 70 38 44 70 38 44 70 38 44 70 38 44 70 38 44 0 0 255 0 0 255 0 0 255 193 176 76 193 176 76 193 176 76 193 176 76 193 176 76 193 176 76 193 176 76 193 176 76 193 176 76 193 176 76 193 176 76 0 0 255 0 0 255 0 0 255 0 0 255 185 64 42 185 64 42 185 64 42 185 64 42 185 64 42 185 64 42 185 64 42 185 64 42 185 64 42 0 0 255 0 0 255 185 64 42 185 64 42 185 64 42 185 64 42 185 64 42 185 64 42 185 64 42 0 0 255 0 0 255 193 176 76 193 176 76 193 176 76 193 176 76 193 176 76 193 176 76 193 176 76 193 176 76 193 176 76 193 176 76 193 176 76 193 176 76 0 0 255 0 0 255 193 197 164 193 197 164 193 197 164 193 197 164 193 197 164 193 197 164 193 197 164 193 197 164 0 0 255 0 0 255 185 64 42 185 64 42 185 64 42 185 64 42 185 64 42 185 64 42 185 64 42 185 64 42 185 64 42 0 0 255 0 0 255 193 197 164 193 197 164 193 197 164 193 197 164 193 197 164 193 197 164 193 197 164 193 197 164 193 197 164 193 197 164 193 197 164 193 197 164 193 197 164 193 197 164 193 197 164 193 197 164 193 197 164 193 197 164 193 197 164 193 197 164 193 197 164 193 197 164 193 197 164 193 197 164 193 197 164 193 197 164 193 197 164 193 197 164 193 197 164 193 197 164 193 197 164 193 197 164 192 190 139 192 190 139 192 190 139 192 190 139 192 190 139 192 190 139 192 190 139 192 190 139 192 190 139 192 190 139 192 190 139 192 190 139 192 190 139 192 190 139 192 190 139 192 190 139 192 190 139 192 190 139 192 190 139 192 190 139 192 190 139 192 190 139 192 190 139 192 190 139 192 190 139 192 190 139 192 190 139 192 190 139 192 190 139 192 190 139 192 190 139 192 190 139 192 190 139 192 190 139 192 190 139 192 190 139 192 190 139 192 190 139 192 190 139 192 190 139 0 0 255 0 0 255 107 129 71 107 129 71 107 129 71 107 129 71 107 129 71 107 129 71 107 129 71 107 129 71 107 129 71 107 129 71 107 129 71 0 0 255 0 0 255 70 38 44 70 38 44 0 0 255 0 0 255 0 0 255 179 67 44 179 67 44 179 67 44 179 67 44 179 67 44 179 67 44 179 67 44 179 67 44 179 67 44 179 67 44 179 67 44 179 67 44 179 67 44 179 67 44 179 67 44 179 67 44 179 67 44 179 67 44 179 67 44 179 67 44 179 67 44 179 67 44 179 67 44 179 67 44 0 0 255 0 0 255 0 0 255 193 176 76 193 176 76 193 176 76 193 176 76 193 176 76 193 176 76 193 176 76 193 176 76 193 176 76 193 176 76 193 176 76 0 0 255 0 0 255 0 0 255 70 38 44 70 38 44 70 38 44 70 38 44 70 38 44 70 38 44 70 38 44 70 38 44 70 38 44 70 38 44 0 0 255 0 0 255 0 0 255 0 0 255 0 0 255 0 0 255 0 0 255 0 0 255 0 0 255 193 176 76 193 176 76 193 176 76 193 176 76 193 176 76 193 176 76 193 176 76 193 176 76 193 176 76 193 176 76 193 176 76 0 0 255 0 0 255 0 0 255 0 0 255 0 0 255 0 0 255 0 0 255 193 176 76 193 176 76 193 176 76 193 176 76 0 0 255 0 0 255 70 38 44 70 38 44 70 38 44 70 38 44 70 38 44 70 38 44 70 38 44 70 38 44 0 0 255 0 0 255 0 0 255 0 0 255 193 176 76 193 176 76 193 176 76 193 176 76 193 176 76 193 176 76 193 176 76 193 176 76 193 176 76 193 176 76 0 0 255 0 0 255 0 0 255 185 64 42 185 64 42 185 64 42 185 64 42 185 64 42 185 64 42 185 64 42 185 64 42 0 0 255 0 0 255 0 0 255 0 0 255 185 64 42 185 64 42 185 64 42 185 64 42 185 64 42 185 64 42 185 64 42 0 0 255 0 0 255 193 176 76 193 176 76 193 176 76 193 176 76 193 176 76 193 176 76 193 176 76 193 176 76 193 176 76 193 176 76 193 176 76 0 0 255 0 0 255 193 197 164 193 197 164 193 197 164 193 197 164 193 197 164 193 197 164 193 197 164 0 0 255 0 0 255 0 0 255 185 64 42 185 64 42 185 64 42 185 64 42 185 64 42 185 64 42 185 64 42 185 64 42 185 64 42 185 64 42 0 0 255 0 0 255 193 197 164 193 197 164 193 197 164 193 197 164 193 197 164 193 197 164 193 197 164 193 197 164 193 197 164 193 197 164 193 197 164 193 197 164 193 197 164 193 197 164 193 197 164 193 197 164 193 197 164 193 197 164 193 197 164 193 197 164 193 197 164 193 197 164 193 197 164 193 197 164 193 197 164 193 197 164 193 197 164 193 197 164 193 197 164 193 197 164 193 197 164 192 190 139 192 190 139 192 190 139 192 190 139 192 190 139 192 190 139 192 190 139 192 190 139 192 190 139 192 190 139 192 190 139 192 190 139 192 190 139 192 190 139 192 190 139 192 190 139 192 190 139 192 190 139 192 190 139 192 190 139 192 190 139 192 190 139 192 190 139 192 190 139 192 190 139 192 190 139 192 190 139 192 190 139 192 190 139 192 190 139 192 190 139 192 190 139 192 190 139 192 190 139 192 190 139 192 190 139 192 190 139 192 190 139 192 190 139 0 0 255 0 0 255 107 129 71 107 129 71 107 129 71 107 129 71 107 129 71 107 129 71 107 129 71 107 129 71 0 0 255 107 129 71 107 129 71 107 129 71 0 0 255 0 0 255 0 0 255 0 0 255 0 0 255 179 67 44 179 67 44 179 67 44 179 67 44 179 67 44 179 67 44 179 67 44 179 67 44 179 67 44 179 67 44 179 67 44 179 67 44 179 67 44 179 67 44 179 67 44 179 67 44 179 67 44 179 67 44 0 0 255 179 67 44 179 67 44 179 67 44 179 67 44 179 67 44 179 67 44 179 67 44 179 67 44 0 0 255 0 0 255 193 176 76 193 176 76 193 176 76 193 176 76 193 176 76 193 176 76 193 176 76 193 176 76 193 176 76 193 176 76 193 176 76 193 176 76 0 0 255 0 0 255 0 0 255 70 38 44 70 38 44 70 38 44 70 38 44 70 38 44 70 38 44 70 38 44 70 38 44 70 38 44 70 38 44 0 0 255 0 0 255 0 0 255 0 0 255 0 0 255 0 0 255 0 0 255 0 0 255 193 176 76 193 176 76 193 176 76 193 176 76 193 176 76 193 176 76 193 176 76 193 176 76 193 176 76 193 176 76 0 0 255 0 0 255 0 0 255 0 0 255 0 0 255 0 0 255 0 0 255 0 0 255 0 0 255 193 176 76 193 176 76 0 0 255 0 0 255 0 0 255 70 38 44 70 38 44 70 38 44 70 38 44 70 38 44 70 38 44 70 38 44 70 38 44 70 38 44 0 0 255 0 0 255 0 0 255 0 0 255 193 176 76 193 176 76 193 176 76 193 176 76 193 176 76 193 176 76 193 176 76 193 176 76 193 176 76 193 176 76 0 0 255 0 0 255 185 64 42 185 64 42 185 64 42 185 64 42 185 64 42 185 64 42 185 64 42 185 64 42 0 0 255 0 0 255 0 0 255 0 0 255 185 64 42 185 64 42 185 64 42 185 64 42 185 64 42 185 64 42 185 64 42 0 0 255 0 0 255 193 176 76 193 176 76 193 176 76 193 176 76 193 176 76 193 176 76 193 176 76 193 176 76 193 176 76 193 176 76 193 176 76 0 0 255 0 0 255 193 197 164 193 197 164 193 197 164 193 197 164 193 197 164 193 197 164 0 0 255 0 0 255 0 0 255 185 64 42 185 64 42 185 64 42 185 64 42 185 64 42 185 64 42 185 64 42 185 64 42 185 64 42 185 64 42 185 64 42 0 0 255 0 0 255 193 197 164 193 197 164 193 197 164 193 197 164 193 197 164 193 197 164 193 197 164 193 197 164 193 197 164 193 197 164 193 197 164 193 197 164 193 197 164 193 197 164 193 197 164 193 197 164 193 197 164 193 197 164 193 197 164 193 197 164 193 197 164 193 197 164 193 197 164 193 197 164 193 197 164 193 197 164 193 197 164 193 197 164 193 197 164 193 197 164 193 197 164 192 190 139 192 190 139 192 190 139 192 190 139 192 190 139 192 190 139 192 190 139 192 190 139 192 190 139 192 190 139 192 190 139 192 190 139 192 190 139 192 190 139 192 190 139 192 190 139 192 190 139 192 190 139 192 190 139 192 190 139 192 190 139 192 190 139 192 190 139 192 190 139 192 190 139 192 190 139 192 190 139 192 190 139 192 190 139 192 190 139 192 190 139 192 190 139 192 190 139 192 190 139 192 190 139 192 190 139 192 190 139 192 190 139 192 190 139 0 0 255 0 0 255 107 129 71 107 129 71 107 129 71 107 129 71 107 129 71 107 129 71 107 129 71 0 0 255 0 0 255 0 0 255 107 129 71 107 129 71 107 129 71 0 0 255 0 0 255 0 0 255 179 67 44 179 67 44 179 67 44 179 67 44 179 67 44 179 67 44 179 67 44 179 67 44 179 67 44 179 67 44 179 67 44 179 67 44 179 67 44 179 67 44 179 67 44 179 67 44 179 67 44 179 67 44 0 0 255 0 0 255 0 0 255 179 67 44 179 67 44 179 67 44 179 67 44 179 67 44 179 67 44 179 67 44 179 67 44 0 0 255 0 0 255 193 176 76 193 176 76 193 176 76 193 176 76 193 176 76 193 176 76 193 176 76 193 176 76 193 176 76 193 176 76 193 176 76 193 176 76 0 0 255 0 0 255 0 0 255 70 38 44 70 38 44 70 38 44 70 38 44 70 38 44 70 38 44 70 38 44 70 38 44 70 38 44 70 38 44 70 38 44 70 38 44 0 0 255 70 38 44 0 0 255 0 0 255 0 0 255 193 176 76 193 176 76 193 176 76 193 176 76 193 176 76 193 176 76 193 176 76 193 176 76 193 176 76 193 176 76 0 0 255 0 0 255 185 64 42 185 64 42 185 64 42 185 64 42 185 64 42 185 64 42 0 0 255 0 0 255 193 176 76 0 0 255 0 0 255 70 38 44 70 38 44 70 38 44 70 38 44 70 38 44 70 38 44 70 38 44 70 38 44 70 38 44 70 38 44 70 38 44 0 0 255 0 0 255 0 0 255 193 176 76 193 176 76 193 176 76 193 176 76 193 176 76 193 176 76 193 176 76 193 176 76 193 176 76 193 176 76 0 0 255 0 0 255 185 64 42 185 64 42 185 64 42 185 64 42 185 64 42 185 64 42 185 64 42 185 64 42 185 64 42 0 0 255 0 0 255 0 0 255 185 64 42 185 64 42 185 64 42 185 64 42 185 64 42 185 64 42 185 64 42 0 0 255 0 0 255 193 176 76 193 176 76 193 176 76 193 176 76 193 176 76 193 176 76 193 176 76 193 176 76 193 176 76 193 176 76 193 176 76 0 0 255 0 0 255 193 197 164 193 197 164 193 197 164 193 197 164 193 197 164 0 0 255 0 0 255 0 0 255 0 0 255 185 64 42 185 64 42 185 64 42 185 64 42 185 64 42 185 64 42 185 64 42 185 64 42 185 64 42 185 64 42 185 64 42 0 0 255 0 0 255 193 197 164 193 197 164 193 197 164 193 197 164 193 197 164 193 197 164 193 197 164 193 197 164 193 197 164 193 197 164 193 197 164 193 197 164 193 197 164 193 197 164 193 197 164 193 197 164 193 197 164 193 197 164 193 197 164 193 197 164 193 197 164 193 197 164 193 197 164 193 197 164 193 197 164 193 197 164 193 197 164 193 197 164 193 197 164 193 197 164 193 197 164 192 190 139 192 190 139 192 190 139 192 190 139 192 190 139 192 190 139 192 190 139 192 190 139 192 190 139 192 190 139 192 190 139 192 190 139 192 190 139 192 190 139 192 190 139 192 190 139 192 190 139 192 190 139 192 190 139 192 190 139 192 190 139 192 190 139 192 190 139 192 190 139 192 190 139 192 190 139 192 190 139 192 190 139 192 190 139 192 190 139 192 190 139 192 190 139 192 190 139 192 190 139 192 190 139 192 190 139 192 190 139 192 190 139 0 0 255 0 0 255 107 129 71 107 129 71 107 129 71 107 129 71 107 129 71 107 129 71 107 129 71 107 129 71 107 129 71 0 0 255 107 129 71 107 129 71 107 129 71 0 0 255 0 0 255 0 0 255 0 0 255 179 67 44 179 67 44 179 67 44 179 67 44 179 67 44 179 67 44 179 67 44 179 67 44 179 67 44 179 67 44 179 67 44 179 67 44 179 67 44 179 67 44 179 67 44 179 67 44 179 67 44 179 67 44 0 0 255 0 0 255 0 0 255 0 0 255 179 67 44 179 67 44 179 67 44 179 67 44 179 67 44 179 67 44 179 67 44 0 0 255 0 0 255 193 176 76 193 176 76 193 176 76 193 176 76 193 176 76 193 176 76 193 176 76 193 176 76 193 176 76 193 176 76 193 176 76 193 176 76 193 176 76 0 0 255 0 0 255 70 38 44 70 38 44 70 38 44 70 38 44 70 38 44 70 38 44 70 38 44 70 38 44 70 38 44 70 38 44 70 38 44 70 38 44 70 38 44 70 38 44 70 38 44 0 0 255 0 0 255 0 0 255 193 176 76 193 176 76 193 176 76 193 176 76 193 176 76 193 176 76 193 176 76 193 176 76 0 0 255 0 0 255 185 64 42 185 64 42 185 64 42 185 64 42 185 64 42 185 64 42 185 64 42 185 64 42 0 0 255 0 0 255 0 0 255 0 0 255 70 38 44 70 38 44 70 38 44 70 38 44 70 38 44 70 38 44 0 0 255 0 0 255 70 38 44 70 38 44 70 38 44 70 38 44 0 0 255 0 0 255 0 0 255 193 176 76 193 176 76 193 176 76 193 176 76 193 176 76 193 176 76 193 176 76 193 176 76 193 176 76 0 0 255 0 0 255 185 64 42 185 64 42 185 64 42 185 64 42 185 64 42 185 64 42 185 64 42 185 64 42 185 64 42 185 64 42 0 0 255 185 64 42 185 64 42 185 64 42 185 64 42 185 64 42 185 64 42 185 64 42 185 64 42 185 64 42 0 0 255 0 0 255 193 176 76 193 176 76 193 176 76 193 176 76 193 176 76 193 176 76 193 176 76 193 176 76 193 176 76 193 176 76 0 0 255 0 0 255 193 197 164 0 0 255 0 0 255 0 0 255 0 0 255 0 0 255 0 0 255 0 0 255 185 64 42 185 64 42 185 64 42 185 64 42 185 64 42 185 64 42 185 64 42 185 64 42 185 64 42 185 64 42 185 64 42 185 64 42 0 0 255 0 0 255 0 0 255 193 197 164 193 197 164 193 197 164 193 197 164 193 197 164 193 197 164 193 197 164 193 197 164 193 197 164 193 197 164 193 197 164 193 197 164 193 197 164 193 197 164 193 197 164 193 197 164 193 197 164 193 197 164 193 197 164 193 197 164 193 197 164 193 197 164 193 197 164 193 197 164 193 197 164 193 197 164 193 197 164 193 197 164 193 197 164 193 197 164 192 190 139 192 190 139 192 190 139 192 190 139 192 190 139 192 190 139 192 190 139 192 190 139 192 190 139 192 190 139 192 190 139 192 190 139 192 190 139 192 190 139 192 190 139 192 190 139 192 190 139 192 190 139 192 190 139 192 190 139 192 190 139 192 190 139 192 190 139 192 190 139 192 190 139 192 190 139 192 190 139 192 190 139 192 190 139 192 190 139 192 190 139 192 190 139 192 190 139 192 190 139 192 190 139 192 190 139 192 190 139 0 0 255 0 0 255 107 129 71 107 129 71 107 129 71 107 129 71 107 129 71 107 129 71 107 129 71 107 129 71 107 129 71 107 129 71 107 129 71 107 129 71 107 129 71 107 129 71 0 0 255 0 0 255 0 0 255 179 67 44 179 67 44 179 67 44 179 67 44 179 67 44 0 0 255 179 67 44 179 67 44 179 67 44 179 67 44 179 67 44 179 67 44 179 67 44 179 67 44 179 67 44 179 67 44 179 67 44 179 67 44 179 67 44 179 67 44 0 0 255 0 0 255 179 67 44 179 67 44 179 67 44 179 67 44 179 67 44 179 67 44 179 67 44 179 67 44 0 0 255 0 0 255 193 176 76 193 176 76 193 176 76 193 176 76 193 176 76 193 176 76 193 176 76 193 176 76 193 176 76 193 176 76 193 176 76 193 176 76 193 176 76 0 0 255 0 0 255 0 0 255 70 38 44 70 38 44 70 38 44 70 38 44 70 38 44 70 38 44 70 38 44 70 38 44 70 38 44 70 38 44 70 38 44 70 38 44 70 38 44 70 38 44 0 0 255 0 0 255 0 0 255 193 176 76 193 176 76 193 176 76 193 176 76 193 176 76 193 176 76 193 176 76 0 0 255 0 0 255 185 64 42 185 64 42 185 64 42 185 64 42 185 64 42 185 64 42 185 64 42 185 64 42 185 64 42 185 64 42 0 0 255 0 0 255 0 0 255 70 38 44 70 38 44 70 38 44 70 38 44 70 38 44 0 0 255 0 0 255 0 0 255 0 0 255 70 38 44 70 38 44 70 38 44 0 0 255 0 0 255 0 0 255 193 176 76 193 176 76 193 176 76 193 176 76 193 176 76 193 176 76 193 176 76 193 176 76 193 176 76 0 0 255 0 0 255 185 64 42 185 64 42 185 64 42 185 64 42 185 64 42 185 64 42 185 64 42 185 64 42 185 64 42 185 64 42 185 64 42 185 64 42 185 64 42 185 64 42 185 64 42 185 64 42 185 64 42 185 64 42 185 64 42 185 64 42 185 64 42 0 0 255 0 0 255 193 176 76 193 176 76 193 176 76 193 176 76 193 176 76 193 176 76 193 176 76 193 176 76 193 176 76 193 176 76 0 0 255 0 0 255 0 0 255 0 0 255 0 0 255 0 0 255 193 176 76 0 0 255 0 0 255 185 64 42 185 64 42 185 64 42 185 64 42 185 64 42 185 64 42 185 64 42 185 64 42 185 64 42 0 0 255 0 0 255 0 0 255 0 0 255 0 0 255 0 0 255 0 0 255 193 197 164 193 197 164 193 197 164 193 197 164 193 197 164 193 197 164 193 197 164 193 197 164 193 197 164 193 197 164 193 197 164 193 197 164 193 197 164 193 197 164 193 197 164 193 197 164 193 197 164 193 197 164 193 197 164 193 197 164 193 197 164 193 197 164 193 197 164 193 197 164 193 197 164 193 197 164 193 197 164 193 197 164 193 197 164 192 190 139 192 190 139 192 190 139 192 190 139 192 190 139 192 190 139 192 190 139 192 190 139 192 190 139 192 190 139 192 190 139 192 190 139 192 190 139 192 190 139 192 190 139 192 190 139 192 190 139 192 190 139 192 190 139 192 190 139 192 190 139 192 190 139 192 190 139 192 190 139 192 190 139 192 190 139 192 190 139 192 190 139 192 190 139 192 190 139 192 190 139 192 190 139 192 190 139 192 190 139 192 190 139 192 190 139 192 190 139 0 0 255 0 0 255 107 129 71 107 129 71 107 129 71 107 129 71 107 129 71 107 129 71 107 129 71 107 129 71 107 129 71 107 129 71 107 129 71 107 129 71 107 129 71 107 129 71 0 0 255 0 0 255 0 0 255 179 67 44 179 67 44 179 67 44 179 67 44 0 0 255 0 0 255 0 0 255 179 67 44 179 67 44 179 67 44 179 67 44 179 67 44 179 67 44 179 67 44 179 67 44 179 67 44 179 67 44 179 67 44 179 67 44 179 67 44 179 67 44 179 67 44 179 67 44 179 67 44 179 67 44 179 67 44 179 67 44 179 67 44 179 67 44 179 67 44 0 0 255 0 0 255 193 176 76 193 176 76 193 176 76 193 176 76 193 176 76 193 176 76 193 176 76 193 176 76 193 176 76 193 176 76 193 176 76 193 176 76 193 176 76 193 176 76 0 0 255 0 0 255 70 38 44 70 38 44 70 38 44 70 38 44 70 38 44 70 38 44 70 38 44 70 38 44 70 38 44 70 38 44 70 38 44 70 38 44 70 38 44 70 38 44 70 38 44 0 0 255 0 0 255 0 0 255 193 176 76 193 176 76 193 176 76 193 176 76 193 176 76 0 0 255 0 0 255 185 64 42 185 64 42 185 64 42 185 64 42 185 64 42 185 64 42 0 0 255 185 64 42 185 64 42 185 64 42 185 64 42 0 0 255 0 0 255 70 38 44 70 38 44 70 38 44 70 38 44 70 38 44 70 38 44 0 0 255 0 0 255 0 0 255 0 0 255 70 38 44 70 38 44 70 38 44 0 0 255 0 0 255 0 0 255 193 176 76 193 176 76 193 176 76 193 176 76 193 176 76 193 176 76 193 176 76 193 176 76 193 176 76 193 176 76 0 0 255 0 0 255 185 64 42 185 64 42 185 64 42 185 64 42 185 64 42 185 64 42 185 64 42 185 64 42 185 64 42 185 64 42 185 64 42 185 64 42 185 64 42 185 64 42 185 64 42 185 64 42 185 64 42 185 64 42 185 64 42 185 64 42 185 64 42 0 0 255 0 0 255 193 176 76 193 176 76 193 176 76 193 176 76 193 176 76 193 176 76 193 176 76 193 176 76 193 176 76 193 176 76 0 0 255 193 176 76 193 176 76 193 176 76 193 176 76 193 176 76 193 176 76 0 0 255 0 0 255 185 64 42 185 64 42 185 64 42 185 64 42 185 64 42 185 64 42 185 64 42 0 0 255 0 0 255 0 0 255 0 0 255 0 0 255 0 0 255 0 0 255 0 0 255 0 0 255 193 197 164 193 197 164 193 197 164 193 197 164 193 197 164 193 197 164 193 197 164 193 197 164 193 197 164 193 197 164 193 197 164 193 197 164 193 197 164 193 197 164 193 197 164 193 197 164 193 197 164 193 197 164 193 197 164 193 197 164 193 197 164 193 197 164 193 197 164 193 197 164 193 197 164 193 197 164 193 197 164 193 197 164 192 190 139 192 190 139 192 190 139 192 190 139 192 190 139 192 190 139 192 190 139 192 190 139 192 190 139 192 190 139 192 190 139 192 190 139 192 190 139 192 190 139 192 190 139 192 190 139 192 190 139 192 190 139 192 190 139 192 190 139 192 190 139 192 190 139 192 190 139 192 190 139 192 190 139 192 190 139 192 190 139 192 190 139 192 190 139 192 190 139 192 190 139 192 190 139 192 190 139 192 190 139 192 190 139 192 190 139 0 0 255 0 0 255 0 0 255 0 0 255 107 129 71 107 129 71 107 129 71 107 129 71 107 129 71 107 129 71 107 129 71 107 129 71 107 129 71 107 129 71 107 129 71 107 129 71 107 129 71 0 0 255 0 0 255 179 67 44 179 67 44 179 67 44 179 67 44 179 67 44 179 67 44 0 0 255 179 67 44 179 67 44 179 67 44 179 67 44 179 67 44 179 67 44 179 67 44 179 67 44 179 67 44 179 67 44 179 67 44 179 67 44 179 67 44 179 67 44 179 67 44 179 67 44 179 67 44 179 67 44 179 67 44 179 67 44 179 67 44 179 67 44 179 67 44 179 67 44 179 67 44 0 0 255 0 0 255 193 176 76 193 176 76 193 176 76 193 176 76 193 176 76 193 176 76 193 176 76 193 176 76 193 176 76 193 176 76 193 176 76 193 176 76 193 176 76 0 0 255 0 0 255 0 0 255 70 38 44 70 38 44 70 38 44 70 38 44 70 38 44 70 38 44 70 38 44 70 38 44 70 38 44 0 0 255 0 0 255 70 38 44 70 38 44 70 38 44 70 38 44 0 0 255 0 0 255 0 0 255 193 176 76 193 176 76 193 176 76 193 176 76 0 0 255 0 0 255 185 64 42 185 64 42 185 64 42 185 64 42 185 64 42 0 0 255 0 0 255 0 0 255 185 64 42 185 64 42 185 64 42 185 64 42 0 0 255 0 0 255 70 38 44 70 38 44 70 38 44 70 38 44 70 38 44 0 0 255 0 0 255 0 0 255 0 0 255 70 38 44 70 38 44 70 38 44 0 0 255 0 0 255 0 0 255 0 0 255 193 176 76 193 176 76 193 176 76 193 176 76 193 176 76 193 176 76 193 176 76 193 176 76 193 176 76 0 0 255 0 0 255 0 0 255 0 0 255 0 0 255 185 64 42 185 64 42 185 64 42 185 64 42 185 64 42 185 64 42 185 64 42 185 64 42 185 64 42 185 64 42 185 64 42 185 64 42 185 64 42 0 0 255 0 0 255 0 0 255 185 64 42 185 64 42 185 64 42 0 0 255 0 0 255 193 176 76 0 0 255 0 0 255 0 0 255 193 176 76 193 176 76 193 176 76 193 176 76 193 176 76 193 176 76 193 176 76 193 176 76 193 176 76 193 176 76 193 176 76 193 176 76 0 0 255 0 0 255 185 64 42 185 64 42 185 64 42 185 64 42 185 64 42 0 0 255 0 0 255 0 0 255 70 38 44 70 38 44 70 38 44 0 0 255 0 0 255 0 0 255 0 0 255 0 0 255 0 0 255 193 197 164 193 197 164 193 197 164 193 197 164 193 197 164 193 197 164 193 197 164 193 197 164 193 197 164 193 197 164 193 197 164 193 197 164 193 197 164 193 197 164 193 197 164 193 197 164 193 197 164 193 197 164 193 197 164 193 197 164 193 197 164 193 197 164 193 197 164 193 197 164 193 197 164 193 197 164 193 197 164 192 190 139 192 190 139 192 190 139 192 190 139 192 190 139 192 190 139 192 190 139 192 190 139 192 190 139 192 190 139 192 190 139 192 190 139 192 190 139 192 190 139 192 190 139 192 190 139 192 190 139 192 190 139 192 190 139 192 190 139 192 190 139 192 190 139 192 190 139 192 190 139 192 190 139 192 190 139 192 190 139 192 190 139 192 190 139 192 190 139 192 190 139 192 190 139 192 190 139 0 0 255 0 0 255 0 0 255 0 0 255 0 0 255 179 67 44 0 0 255 0 0 255 0 0 255 107 129 71 107 129 71 107 129 71 107 129 71 107 129 71 107 129 71 107 129 71 107 129 71 107 129 71 0 0 255 107 129 71 0 0 255 0 0 255 179 67 44 179 67 44 179 67 44 179 67 44 179 67 44 179 67 44 179 67 44 179 67 44 179 67 44 179 67 44 179 67 44 179 67 44 179 67 44 179 67 44 179 67 44 179 67 44 179 67 44 179 67 44 179 67 44 179 67 44 179 67 44 179 67 44 179 67 44 179 67 44 179 67 44 179 67 44 179 67 44 179 67 44 0 0 255 0 0 255 0 0 255 0 0 255 0 0 255 0 0 255 193 176 76 193 176 76 193 176 76 193 176 76 193 176 76 193 176 76 193 176 76 193 176 76 193 176 76 193 176 76 193 176 76 193 176 76 193 176 76 0 0 255 0 0 255 0 0 255 0 0 255 70 38 44 70 38 44 70 38 44 70 38 44 70 38 44 70 38 44 70 38 44 0 0 255 0 0 255 0 0 255 0 0 255 70 38 44 70 38 44 0 0 255 0 0 255 0 0 255 0 0 255 193 176 76 193 176 76 193 176 76 0 0 255 0 0 255 185 64 42 185 64 42 185 64 42 185 64 42 185 64 42 185 64 42 0 0 255 0 0 255 0 0 255 0 0 255 185 64 42 185 64 42 0 0 255 0 0 255 70 38 44 70 38 44 70 38 44 70 38 44 70 38 44 70 38 44 70 38 44 0 0 255 0 0 255 70 38 44 70 38 44 70 38 44 0 0 255 0 0 255 185 64 42 0 0 255 0 0 255 193 176 76 193 176 76 193 176 76 193 176 76 193 176 76 193 176 76 193 176 76 193 176 76 193 176 76 0 0 255 0 0 255 0 0 255 0 0 255 0 0 255 0 0 255 0 0 255 0 0 255 185 64 42 185 64 42 185 64 42 185 64 42 185 64 42 185 64 42 185 64 42 185 64 42 0 0 255 0 0 255 0 0 255 0 0 255 0 0 255 0 0 255 0 0 255 0 0 255 0 0 255 0 0 255 0 0 255 0 0 255 0 0 255 0 0 255 0 0 255 193 176 76 193 176 76 193 176 76 193 176 76 193 176 76 193 176 76 193 176 76 193 176 76 193 176 76 193 176 76 193 176 76 0 0 255 0 0 255 185 64 42 185 64 42 185 64 42 185 64 42 0 0 255 0 0 255 0 0 255 70 38 44 70 38 44 70 38 44 0 0 255 0 0 255 0 0 255 0 0 255 0 0 255 0 0 255 0 0 255 0 0 255 193 197 164 193 197 164 193 197 164 193 197 164 193 197 164 193 197 164 193 197 164 193 197 164 193 197 164 193 197 164 193 197 164 193 197 164 193 197 164 193 197 164 193 197 164 193 197 164 193 197 164 193 197 164 193 197 164 193 197 164 193 197 164 193 197 164 193 197 164 193 197 164 193 197 164 193 197 164 192 190 139 192 190 139 192 190 139 192 190 139 192 190 139 192 190 139 192 190 139 192 190 139 192 190 139 192 190 139 192 190 139 192 190 139 192 190 139 192 190 139 192 190 139 192 190 139 192 190 139 192 190 139 192 190 139 192 190 139 192 190 139 192 190 139 192 190 139 192 190 139 192 190 139 192 190 139 192 190 139 192 190 139 192 190 139 192 190 139 192 190 139 192 190 139 0 0 255 0 0 255 0 0 255 0 0 255 179 67 44 179 67 44 179 67 44 179 67 44 0 0 255 0 0 255 0 0 255 107 129 71 107 129 71 107 129 71 107 129 71 107 129 71 107 129 71 0 0 255 0 0 255 0 0 255 0 0 255 0 0 255 0 0 255 179 67 44 179 67 44 179 67 44 179 67 44 179 67 44 0 0 255 179 67 44 179 67 44 179 67 44 179 67 44 179 67 44 179 67 44 179 67 44 179 67 44 179 67 44 179 67 44 179 67 44 179 67 44 179 67 44 179 67 44 179 67 44 179 67 44 179 67 44 179 67 44 179 67 44 0 0 255 0 0 255 0 0 255 0 0 255 0 0 255 0 0 255 0 0 255 0 0 255 193 176 76 193 176 76 193 176 76 193 176 76 193 176 76 193 176 76 193 176 76 193 176 76 193 176 76 193 176 76 193 176 76 193 176 76 193 176 76 193 176 76 193 176 76 0 0 255 0 0 255 0 0 255 70 38 44 70 38 44 70 38 44 70 38 44 70 38 44 70 38 44 70 38 44 0 0 255 0 0 255 0 0 255 0 0 255 70 38 44 70 38 44 0 0 255 0 0 255 0 0 255 0 0 255 193 176 76 193 176 76 0 0 255 0 0 255 185 64 42 185 64 42 185 64 42 185 64 42 185 64 42 185 64 42 185 64 42 185 64 42 0 0 255 0 0 255 185 64 42 185 64 42 185 64 42 0 0 255 0 0 255 70 38 44 70 38 44 70 38 44 70 38 44 70 38 44 70 38 44 70 38 44 70 38 44 70 38 44 70 38 44 70 38 44 70 38 44 0 0 255 0 0 255 0 0 255 0 0 255 0 0 255 0 0 255 193 176 76 193 176 76 193 176 76 193 176 76 193 176 76 193 176 76 193 176 76 193 176 76 0 0 255 0 0 255 95 139 71 95 139 71 95 139 71 0 0 255 0 0 255 0 0 255 0 0 255 185 64 42 185 64 42 185 64 42 185 64 42 185 64 42 185 64 42 0 0 255 0 0 255 0 0 255 70 38 44 70 38 44 70 38 44 0 0 255 0 0 255 0 0 255 0 0 255 0 0 255 0 0 255 185 64 42 185 64 42 0 0 255 0 0 255 193 176 76 193 176 76 193 176 76 193 176 76 193 176 76 193 176 76 193 176 76 193 176 76 193 176 76 193 176 76 193 176 76 193 176 76 0 0 255 0 0 255 0 0 255 185 64 42 185 64 42 0 0 255 0 0 255 70 38 44 70 38 44 70 38 44 0 0 255 0 0 255 0 0 255 0 0 255 0 0 255 0 0 255 0 0 255 0 0 255 0 0 255 193 197 164 193 197 164 193 197 164 193 197 164 193 197 164 193 197 164 193 197 164 193 197 164 193 197 164 193 197 164 193 197 164 193 197 164 193 197 164 193 197 164 193 197 164 193 197 164 193 197 164 193 197 164 193 197 164 193 197 164 193 197 164 193 197 164 193 197 164 193 197 164 193 197 164 193 197 164 192 190 139 192 190 139 192 190 139 192 190 139 192 190 139 192 190 139 192 190 139 192 190 139 192 190 139 192 190 139 192 190 139 192 190 139 192 190 139 192 190 139 192 190 139 192 190 139 192 190 139 192 190 139 192 190 139 192 190 139 192 190 139 192 190 139 192 190 139 192 190 139 192 190 139 192 190 139 192 190 139 192 190 139 192 190 139 192 190 139 192 190 139 0 0 255 0 0 255 179 67 44 179 67 44 179 67 44 179 67 44 179 67 44 179 67 44 179 67 44 179 67 44 179 67 44 0 0 255 0 0 255 107 129 71 107 129 71 107 129 71 0 0 255 0 0 255 0 0 255 0 0 255 192 190 139 0 0 255 0 0 255 0 0 255 0 0 255 0 0 255 0 0 255 0 0 255 0 0 255 0 0 255 0 0 255 0 0 255 0 0 255 0 0 255 0 0 255 179 67 44 179 67 44 179 67 44 179 67 44 179 67 44 179 67 44 179 67 44 179 67 44 179 67 44 179 67 44 179 67 44 179 67 44 179 67 44 0 0 255 0 0 255 0 0 255 0 0 255 193 176 76 193 176 76 193 176 76 193 176 76 193 176 76 193 176 76 193 176 76 193 176 76 193 176 76 193 176 76 193 176 76 193 176 76 193 176 76 193 176 76 193 176 76 193 176 76 193 176 76 193 176 76 193 176 76 193 176 76 0 0 255 0 0 255 0 0 255 70 38 44 70 38 44 70 38 44 70 38 44 70 38 44 70 38 44 70 38 44 0 0 255 0 0 255 0 0 255 0 0 255 70 38 44 70 38 44 0 0 255 0 0 255 0 0 255 0 0 255 193 176 76 193 176 76 0 0 255 0 0 255 0 0 255 185 64 42 185 64 42 185 64 42 185 64 42 185 64 42 185 64 42 185 64 42 185 64 42 185 64 42 185 64 42 185 64 42 185 64 42 185 64 42 0 0 255 0 0 255 70 38 44 70 38 44 70 38 44 70 38 44 70 38 44 70 38 44 70 38 44 70 38 44 70 38 44 70 38 44 70 38 44 0 0 255 0 0 255 0 0 255 0 0 255 0 0 255 193 176 76 193 176 76 193 176 76 193 176 76 193 176 76 193 176 76 193 176 76 0 0 255 0 0 255 0 0 255 95 139 71 95 139 71 95 139 71 95 139 71 95 139 71 0 0 255 0 0 255 0 0 255 0 0 255 185 64 42 185 64 42 185 64 42 185 64 42 0 0 255 0 0 255 70 38 44 70 38 44 70 38 44 70 38 44 70 38 44 70 38 44 0 0 255 0 0 255 0 0 255 0 0 255 185 64 42 0 0 255 0 0 255 0 0 255 0 0 255 193 176 76 193 176 76 193 176 76 193 176 76 193 176 76 193 176 76 193 176 76 193 176 76 193 176 76 193 176 76 193 176 76 193 176 76 193 176 76 0 0 255 0 0 255 0 0 255 0 0 255 0 0 255 70 38 44 70 38 44 70 38 44 70 38 44 0 0 255 0 0 255 0 0 255 0 0 255 0 0 255 0 0 255 0 0 255 0 0 255 0 0 255 0 0 255 193 197 164 193 197 164 193 197 164 193 197 164 193 197 164 193 197 164 193 197 164 193 197 164 193 197 164 193 197 164 193 197 164 193 197 164 193 197 164 193 197 164 193 197 164 193 197 164 193 197 164 193 197 164 193 197 164 193 197 164 193 197 164 193 197 164 193 197 164 193 197 164 193 197 164 192 190 139 192 190 139 192 190 139 192 190 139 192 190 139 192 190 139 192 190 139 192 190 139 192 190 139 192 190 139 192 190 139 192 190 139 192 190 139 192 190 139 192 190 139 192 190 139 192 190 139 192 190 139 192 190 139 192 190 139 192 190 139 192 190 139 192 190 139 192 190 139 192 190 139 192 190 139 192 190 139 192 190 139 192 190 139 192 190 139 0 0 255 0 0 255 179 67 44 179 67 44 179 67 44 179 67 44 179 67 44 179 67 44 179 67 44 179 67 44 179 67 44 179 67 44 0 0 255 0 0 255 0 0 255 0 0 255 0 0 255 0 0 255 0 0 255 192 190 139 192 190 139 192 190 139 0 0 255 0 0 255 107 129 71 0 0 255 0 0 255 0 0 255 0 0 255 0 0 255 107 129 71 0 0 255 0 0 255 0 0 255 0 0 255 0 0 255 0 0 255 0 0 255 179 67 44 179 67 44 179 67 44 179 67 44 179 67 44 179 67 44 179 67 44 179 67 44 179 67 44 179 67 44 179 67 44 0 0 255 0 0 255 193 176 76 193 176 76 193 176 76 193 176 76 193 176 76 193 176 76 193 176 76 193 176 76 193 176 76 193 176 76 193 176 76 193 176 76 193 176 76 193 176 76 193 176 76 193 176 76 193 176 76 193 176 76 193 176 76 193 176 76 193 176 76 0 0 255 0 0 255 0 0 255 0 0 255 70 38 44 70 38 44 70 38 44 70 38 44 70 38 44 70 38 44 70 38 44 70 38 44 0 0 255 0 0 255 70 38 44 0 0 255 0 0 255 0 0 255 0 0 255 0 0 255 193 176 76 193 176 76 193 176 76 193 176 76 0 0 255 0 0 255 0 0 255 185 64 42 185 64 42 185 64 42 185 64 42 185 64 42 185 64 42 185 64 42 185 64 42 185 64 42 185 64 42 185 64 42 185 64 42 0 0 255 0 0 255 70 38 44 70 38 44 70 38 44 70 38 44 70 38 44 70 38 44 70 38 44 70 38 44 70 38 44 0 0 255 0 0 255 0 0 255 0 0 255 193 176 76 193 176 76 193 176 76 193 176 76 193 176 76 193 176 76 193 176 76 193 176 76 193 176 76 0 0 255 0 0 255 0 0 255 95 139 71 95 139 71 95 139 71 95 139 71 95 139 71 95 139 71 95 139 71 0 0 255 0 0 255 0 0 255 0 0 255 0 0 255 0 0 255 0 0 255 0 0 255 70 38 44 70 38 44 70 38 44 70 38 44 70 38 44 70 38 44 70 38 44 70 38 44 0 0 255 0 0 255 0 0 255 0 0 255 0 0 255 0 0 255 0 0 255 0 0 255 0 0 255 193 176 76 193 176 76 193 176 76 193 176 76 193 176 76 193 176 76 193 176 76 193 176 76 193 176 76 193 176 76 193 176 76 0 0 255 0 0 255 0 0 255 0 0 255 0 0 255 0 0 255 70 38 44 70 38 44 70 38 44 70 38 44 70 38 44 0 0 255 0 0 255 0 0 255 0 0 255 70 38 44 0 0 255 0 0 255 0 0 255 0 0 255 193 197 164 193 197 164 193 197 164 193 197 164 193 197 164 193 197 164 193 197 164 193 197 164 193 197 164 193 197 164 193 197 164 193 197 164 193 197 164 193 197 164 193 197 164 193 197 164 193 197 164 193 197 164 193 197 164 193 197 164 193 197 164 193 197 164 193 197 164 193 197 164 193 197 164 192 190 139 192 190 139 192 190 139 192 190 139 192 190 139 192 190 139 192 190 139 192 190 139 192 190 139 192 190 139 192 190 139 192 190 139 192 190 139 192 190 139 192 190 139 192 190 139 192 190 139 192 190 139 192 190 139 192 190 139 192 190 139 192 190 139 192 190 139 192 190 139 192 190 139 192 190 139 192 190 139 192 190 139 192 190 139 0 0 255 0 0 255 179 67 44 179 67 44 179 67 44 179 67 44 179 67 44 179 67 44 179 67 44 179 67 44 179 67 44 179 67 44 179 67 44 0 0 255 0 0 255 0 0 255 0 0 255 0 0 255 192 190 139 192 190 139 192 190 139 192 190 139 192 190 139 0 0 255 0 0 255 107 129 71 107 129 71 107 129 71 107 129 71 107 129 71 107 129 71 107 129 71 107 129 71 107 129 71 107 129 71 107 129 71 107 129 71 0 0 255 0 0 255 0 0 255 179 67 44 179 67 44 179 67 44 179 67 44 179 67 44 179 67 44 179 67 44 179 67 44 179 67 44 0 0 255 0 0 255 193 176 76 193 176 76 193 176 76 193 176 76 193 176 76 193 176 76 193 176 76 193 176 76 193 176 76 193 176 76 193 176 76 193 176 76 193 176 76 193 176 76 193 176 76 193 176 76 193 176 76 193 176 76 193 176 76 193 176 76 193 176 76 193 176 76 0 0 255 0 0 255 107 129 71 0 0 255 0 0 255 70 38 44 70 38 44 70 38 44 70 38 44 70 38 44 70 38 44 70 38 44 70 38 44 70 38 44 0 0 255 0 0 255 0 0 255 0 0 255 193 176 76 193 176 76 193 176 76 193 176 76 193 176 76 193 176 76 193 176 76 193 176 76 0 0 255 0 0 255 185 64 42 185 64 42 185 64 42 185 64 42 185 64 42 185 64 42 0 0 255 0 0 255 0 0 255 0 0 255 0 0 255 0 0 255 0 0 255 0 0 255 70 38 44 70 38 44 70 38 44 70 38 44 70 38 44 70 38 44 70 38 44 0 0 255 0 0 255 0 0 255 0 0 255 193 176 76 193 176 76 193 176 76 193 176 76 193 176 76 193 176 76 193 176 76 193 176 76 193 176 76 0 0 255 0 0 255 95 139 71 95 139 71 95 139 71 95 139 71 95 139 71 95 139 71 95 139 71 95 139 71 95 139 71 95 139 71 95 139 71 0 0 255 0 0 255 0 0 255 0 0 255 0 0 255 0 0 255 70 38 44 70 38 44 70 38 44 70 38 44 70 38 44 70 38 44 70 38 44 70 38 44 0 0 255 0 0 255 70 38 44 0 0 255 0 0 255 0 0 255 0 0 255 0 0 255 0 0 255 193 176 76 193 176 76 193 176 76 193 176 76 193 176 76 0 0 255 193 176 76 193 176 76 193 176 76 193 176 76 193 176 76 193 176 76 0 0 255 0 0 255 95 139 71 0 0 255 0 0 255 70 38 44 70 38 44 70 38 44 70 38 44 70 38 44 70 38 44 0 0 255 0 0 255 70 38 44 70 38 44 0 0 255 0 0 255 0 0 255 0 0 255 193 197 164 193 197 164 193 197 164 193 197 164 193 197 164 193 197 164 193 197 164 193 197 164 193 197 164 193 197 164 193 197 164 193 197 164 193 197 164 193 197 164 193 197 164 193 197 164 193 197 164 193 197 164 193 197 164 193 197 164 193 197 164 193 197 164 193 197 164 193 197 164 193 197 164 192 190 139 192 190 139 192 190 139 192 190 139 192 190 139 192 190 139 192 190 139 192 190 139 192 190 139 192 190 139 192 190 139 192 190 139 192 190 139 192 190 139 192 190 139 192 190 139 192 190 139 192 190 139 192 190 139 192 190 139 192 190 139 192 190 139 192 190 139 192 190 139 192 190 139 192 190 139 192 190 139 192 190 139 192 190 139 0 0 255 0 0 255 179 67 44 179 67 44 179 67 44 179 67 44 179 67 44 179 67 44 179 67 44 179 67 44 179 67 44 179 67 44 179 67 44 0 0 255 0 0 255 192 190 139 192 190 139 192 190 139 192 190 139 192 190 139 192 190 139 192 190 139 192 190 139 192 190 139 0 0 255 0 0 255 107 129 71 107 129 71 107 129 71 107 129 71 107 129 71 107 129 71 107 129 71 107 129 71 107 129 71 107 129 71 107 129 71 107 129 71 107 129 71 0 0 255 0 0 255 0 0 255 0 0 255 0 0 255 0 0 255 0 0 255 0 0 255 0 0 255 179 67 44 0 0 255 0 0 255 193 176 76 193 176 76 193 176 76 193 176 76 193 176 76 193 176 76 193 176 76 193 176 76 193 176 76 193 176 76 193 176 76 193 176 76 193 176 76 193 176 76 193 176 76 193 176 76 193 176 76 193 176 76 193 176 76 0 0 255 0 0 255 0 0 255 0 0 255 0 0 255 107 129 71 0 0 255 0 0 255 70 38 44 70 38 44 70 38 44 70 38 44 70 38 44 70 38 44 70 38 44 70 38 44 0 0 255 0 0 255 0 0 255 193 176 76 193 176 76 193 176 76 193 176 76 193 176 76 193 176 76 193 176 76 193 176 76 193 176 76 193 176 76 0 0 255 0 0 255 185 64 42 185 64 42 185 64 42 185 64 42 0 0 255 0 0 255 0 0 255 0 0 255 0 0 255 0 0 255 0 0 255 0 0 255 0 0 255 0 0 255 0 0 255 70 38 44 70 38 44 70 38 44 70 38 44 70 38 44 0 0 255 0 0 255 0 0 255 193 176 76 193 176 76 193 176 76 193 176 76 193 176 76 193 176 76 193 176 76 193 176 76 193 176 76 193 176 76 193 176 76 0 0 255 0 0 255 95 139 71 95 139 71 95 139 71 95 139 71 95 139 71 95 139 71 95 139 71 95 139 71 95 139 71 95 139 71 95 139 71 0 0 255 0 0 255 193 176 76 0 0 255 0 0 255 0 0 255 70 38 44 70 38 44 70 38 44 70 38 44 70 38 44 70 38 44 70 38 44 0 0 255 0 0 255 0 0 255 0 0 255 0 0 255 0 0 255 0 0 255 185 64 42 0 0 255 0 0 255 193 176 76 193 176 76 193 176 76 193 176 76 0 0 255 0 0 255 0 0 255 193 176 76 193 176 76 193 176 76 193 176 76 0 0 255 0 0 255 0 0 255 95 139 71 95 139 71 0 0 255 0 0 255 70 38 44 70 38 44 70 38 44 70 38 44 70 38 44 70 38 44 70 38 44 70 38 44 0 0 255 0 0 255 95 139 71 0 0 255 0 0 255 193 197 164 193 197 164 193 197 164 193 197 164 193 197 164 193 197 164 193 197 164 193 197 164 193 197 164 193 197 164 193 197 164 193 197 164 193 197 164 193 197 164 193 197 164 193 197 164 193 197 164 193 197 164 193 197 164 193 197 164 193 197 164 193 197 164 193 197 164 193 197 164 193 197 164 192 190 139 192 190 139 192 190 139 192 190 139 192 190 139 192 190 139 192 190 139 192 190 139 192 190 139 192 190 139 192 190 139 192 190 139 192 190 139 192 190 139 192 190 139 192 190 139 192 190 139 192 190 139 192 190 139 192 190 139 192 190 139 192 190 139 192 190 139 192 190 139 192 190 139 192 190 139 192 190 139 192 190 139 192 190 139 0 0 255 0 0 255 179 67 44 179 67 44 179 67 44 179 67 44 179 67 44 179 67 44 179 67 44 179 67 44 179 67 44 179 67 44 179 67 44 0 0 255 0 0 255 192 190 139 192 190 139 192 190 139 192 190 139 192 190 139 192 190 139 192 190 139 192 190 139 192 190 139 0 0 255 0 0 255 107 129 71 107 129 71 107 129 71 107 129 71 107 129 71 107 129 71 107 129 71 107 129 71 107 129 71 107 129 71 107 129 71 107 129 71 0 0 255 0 0 255 0 0 255 0 0 255 0 0 255 0 0 255 0 0 255 0 0 255 0 0 255 0 0 255 0 0 255 0 0 255 0 0 255 193 176 76 193 176 76 193 176 76 193 176 76 193 176 76 193 176 76 193 176 76 193 176 76 193 176 76 193 176 76 193 176 76 193 176 76 193 176 76 193 176 76 193 176 76 193 176 76 193 176 76 0 0 255 0 0 255 0 0 255 0 0 255 0 0 255 0 0 255 0 0 255 0 0 255 107 129 71 0 0 255 0 0 255 70 38 44 70 38 44 70 38 44 70 38 44 70 38 44 70 38 44 70 38 44 0 0 255 0 0 255 0 0 255 193 176 76 193 176 76 193 176 76 193 176 76 193 176 76 193 176 76 193 176 76 193 176 76 193 176 76 193 176 76 193 176 76 0 0 255 0 0 255 185 64 42 185 64 42 0 0 255 0 0 255 0 0 255 193 176 76 193 176 76 193 176 76 193 176 76 193 176 76 193 176 76 193 176 76 0 0 255 0 0 255 0 0 255 70 38 44 70 38 44 70 38 44 70 38 44 0 0 255 0 0 255 193 176 76 193 176 76 193 176 76 193 176 76 193 176 76 193 176 76 193 176 76 193 176 76 193 176 76 193 176 76 193 176 76 0 0 255 0 0 255 95 139 71 95 139 71 95 139 71 95 139 71 95 139 71 95 139 71 95 139 71 95 139 71 95 139 71 95 139 71 95 139 71 95 139 71 0 0 255 0 0 255 0 0 255 0 0 255 0 0 255 0 0 255 70 38 44 70 38 44 70 38 44 70 38 44 70 38 44 70 38 44 0 0 255 0 0 255 0 0 255 0 0 255 0 0 255 70 38 44 0 0 255 0 0 255 185 64 42 0 0 255 0 0 255 193 176 76 193 176 76 193 176 76 193 176 76 193 176 76 0 0 255 193 176 76 193 176 76 193 176 76 193 176 76 0 0 255 0 0 255 0 0 255 0 0 255 95 139 71 95 139 71 95 139 71 0 0 255 0 0 255 70 38 44 70 38 44 70 38 44 70 38 44 70 38 44 70 38 44 0 0 255 0 0 255 0 0 255 0 0 255 0 0 255 193 197 164 193 197 164 193 197 164 193 197 164 193 197 164 193 197 164 193 197 164 193 197 164 193 197 164 193 197 164 193 197 164 193 197 164 193 197 164 193 197 164 193 197 164 193 197 164 193 197 164 193 197 164 193 197 164 193 197 164 193 197 164 193 197 164 193 197 164 193 197 164 193 197 164 193 197 164 192 190 139 192 190 139 192 190 139 192 190 139 192 190 139 192 190 139 192 190 139 192 190 139 192 190 139 192 190 139 192 190 139 192 190 139 192 190 139 192 190 139 192 190 139 192 190 139 192 190 139 192 190 139 192 190 139 192 190 139 192 190 139 192 190 139 192 190 139 192 190 139 192 190 139 192 190 139 192 190 139 192 190 139 0 0 255 0 0 255 179 67 44 179 67 44 179 67 44 179 67 44 179 67 44 179 67 44 179 67 44 179 67 44 179 67 44 179 67 44 179 67 44 179 67 44 0 0 255 0 0 255 192 190 139 192 190 139 192 190 139 192 190 139 192 190 139 192 190 139 192 190 139 192 190 139 0 0 255 0 0 255 107 129 71 107 129 71 107 129 71 107 129 71 107 129 71 107 129 71 107 129 71 107 129 71 0 0 255 107 129 71 107 129 71 107 129 71 107 129 71 0 0 255 0 0 255 192 190 139 0 0 255 0 0 255 0 0 255 0 0 255 0 0 255 0 0 255 0 0 255 0 0 255 0 0 255 0 0 255 193 176 76 193 176 76 193 176 76 193 176 76 193 176 76 193 176 76 193 176 76 193 176 76 193 176 76 193 176 76 193 176 76 193 176 76 193 176 76 193 176 76 193 176 76 193 176 76 0 0 255 0 0 255 0 0 255 193 198 157 193 198 157 0 0 255 0 0 255 0 0 255 0 0 255 107 129 71 107 129 71 0 0 255 0 0 255 70 38 44 70 38 44 70 38 44 70 38 44 70 38 44 0 0 255 0 0 255 0 0 255 193 176 76 193 176 76 193 176 76 193 176 76 193 176 76 193 176 76 193 176 76 193 176 76 193 176 76 193 176 76 193 176 76 193 176 76 0 0 255 0 0 255 185 64 42 0 0 255 0 0 255 193 176 76 193 176 76 193 176 76 193 176 76 193 176 76 193 176 76 193 176 76 193 176 76 193 176 76 193 176 76 0 0 255 0 0 255 0 0 255 70 38 44 70 38 44 0 0 255 0 0 255 0 0 255 193 176 76 193 176 76 193 176 76 193 176 76 193 176 76 193 176 76 193 176 76 193 176 76 193 176 76 193 176 76 193 176 76 0 0 255 0 0 255 95 139 71 95 139 71 95 139 71 95 139 71 95 139 71 95 139 71 95 139 71 95 139 71 0 0 255 95 139 71 95 139 71 95 139 71 0 0 255 0 0 255 0 0 255 0 0 255 95 139 71 0 0 255 0 0 255 70 38 44 70 38 44 70 38 44 70 38 44 70 38 44 70 38 44 0 0 255 0 0 255 0 0 255 0 0 255 70 38 44 70 38 44 0 0 255 0 0 255 185 64 42 0 0 255 0 0 255 193 176 76 193 176 76 193 176 76 193 176 76 193 176 76 193 176 76 193 176 76 193 176 76 0 0 255 0 0 255 193 197 164 0 0 255 0 0 255 95 139 71 95 139 71 95 139 71 95 139 71 0 0 255 0 0 255 70 38 44 70 38 44 70 38 44 70 38 44 0 0 255 0 0 255 0 0 255 95 139 71 0 0 255 0 0 255 193 197 164 193 197 164 193 197 164 193 197 164 193 197 164 193 197 164 193 197 164 193 197 164 193 197 164 193 197 164 193 197 164 193 197 164 193 197 164 193 197 164 193 197 164 193 197 164 193 197 164 193 197 164 193 197 164 193 197 164 193 197 164 193 197 164 193 197 164 193 197 164 193 197 164 193 197 164 192 190 139 192 190 139 192 190 139 192 190 139 192 190 139 192 190 139 192 190 139 192 190 139 192 190 139 192 190 139 192 190 139 192 190 139 192 190 139 192 190 139 192 190 139 192 190 139 192 190 139 192 190 139 192 190 139 192 190 139 192 190 139 192 190 139 192 190 139 192 190 139 192 190 139 192 190 139 192 190 139 0 0 255 0 0 255 0 0 255 179 67 44 179 67 44 179 67 44 179 67 44 179 67 44 179 67 44 179 67 44 179 67 44 179 67 44 179 67 44 179 67 44 179 67 44 179 67 44 0 0 255 0 0 255 192 190 139 192 190 139 192 190 139 192 190 139 192 190 139 192 190 139 192 190 139 0 0 255 0 0 255 0 0 255 107 129 71 107 129 71 107 129 71 107 129 71 107 129 71 107 129 71 0 0 255 0 0 255 0 0 255 107 129 71 107 129 71 107 129 71 0 0 255 0 0 255 192 190 139 192 190 139 192 190 139 192 190 139 192 190 139 192 190 139 0 0 255 0 0 255 0 0 255 0 0 255 0 0 255 193 176 76 193 176 76 193 176 76 193 176 76 193 176 76 193 176 76 193 176 76 193 176 76 193 176 76 193 176 76 193 176 76 193 176 76 193 176 76 193 176 76 193 176 76 193 176 76 0 0 255 0 0 255 193 198 157 193 198 157 193 198 157 193 198 157 0 0 255 0 0 255 0 0 255 0 0 255 0 0 255 0 0 255 70 38 44 70 38 44 70 38 44 70 38 44 70 38 44 70 38 44 0 0 255 0 0 255 0 0 255 193 176 76 193 176 76 193 176 76 193 176 76 193 176 76 193 176 76 193 176 76 193 176 76 193 176 76 193 176 76 193 176 76 193 176 76 0 0 255 0 0 255 0 0 255 0 0 255 193 176 76 193 176 76 193 176 76 193 176 76 193 176 76 193 176 76 193 176 76 193 176 76 193 176 76 193 176 76 193 176 76 193 176 76 0 0 255 0 0 255 0 0 255 0 0 255 0 0 255 0 0 255 193 176 76 193 176 76 193 176 76 193 176 76 193 176 76 193 176 76 193 176 76 193 176 76 193 176 76 193 176 76 193 176 76 193 176 76 0 0 255 0 0 255 95 139 71 95 139 71 95 139 71 95 139 71 95 139 71 95 139 71 95 139 71 0 0 255 0 0 255 0 0 255 95 139 71 95 139 71 0 0 255 0 0 255 0 0 255 0 0 255 95 139 71 0 0 255 0 0 255 70 38 44 70 38 44 70 38 44 70 38 44 70 38 44 70 38 44 0 0 255 0 0 255 0 0 255 0 0 255 70 38 44 70 38 44 0 0 255 0 0 255 0 0 255 0 0 255 0 0 255 193 176 76 193 176 76 193 176 76 193 176 76 193 176 76 193 176 76 193 176 76 0 0 255 0 0 255 193 197 164 193 197 164 0 0 255 0 0 255 0 0 255 95 139 71 95 139 71 95 139 71 0 0 255 0 0 255 0 0 255 70 38 44 70 38 44 0 0 255 0 0 255 0 0 255 95 139 71 0 0 255 0 0 255 193 197 164 193 197 164 193 197 164 193 197 164 193 197 164 193 197 164 193 197 164 193 197 164 193 197 164 193 197 164 193 197 164 193 197 164 193 197 164 193 197 164 193 197 164 193 197 164 193 197 164 193 197 164 193 197 164 193 197 164 193 197 164 193 197 164 193 197 164 193 197 164 193 197 164 193 197 164 193 197 164 192 190 139 192 190 139 192 190 139 192 190 139 192 190 139 192 190 139 192 190 139 192 190 139 192 190 139 192 190 139 192 190 139 192 190 139 192 190 139 192 190 139 192 190 139 192 190 139 192 190 139 192 190 139 192 190 139 192 190 139 192 190 139 192 190 139 192 190 139 192 190 139 192 190 139 192 190 139 0 0 255 0 0 255 0 0 255 0 0 255 179 67 44 179 67 44 179 67 44 179 67 44 179 67 44 179 67 44 179 67 44 179 67 44 179 67 44 179 67 44 179 67 44 179 67 44 179 67 44 0 0 255 0 0 255 192 190 139 192 190 139 192 190 139 192 190 139 192 190 139 192 190 139 0 0 255 0 0 255 0 0 255 0 0 255 0 0 255 107 129 71 107 129 71 107 129 71 107 129 71 107 129 71 0 0 255 0 0 255 0 0 255 0 0 255 107 129 71 107 129 71 0 0 255 0 0 255 192 190 139 192 190 139 192 190 139 192 190 139 0 0 255 0 0 255 0 0 255 0 0 255 0 0 255 179 67 44 0 0 255 0 0 255 193 176 76 193 176 76 193 176 76 193 176 76 193 176 76 193 176 76 193 176 76 193 176 76 193 176 76 193 176 76 193 176 76 193 176 76 193 176 76 193 176 76 0 0 255 0 0 255 193 198 157 193 198 157 193 198 157 193 198 157 193 198 157 193 198 157 0 0 255 0 0 255 0 0 255 0 0 255 0 0 255 0 0 255 0 0 255 0 0 255 70 38 44 70 38 44 70 38 44 0 0 255 0 0 255 0 0 255 193 176 76 193 176 76 193 176 76 193 176 76 193 176 76 193 176 76 193 176 76 193 176 76 193 176 76 193 176 76 193 176 76 193 176 76 0 0 255 0 0 255 0 0 255 193 176 76 193 176 76 193 176 76 193 176 76 193 176 76 193 176 76 193 176 76 193 176 76 193 176 76 193 176 76 193 176 76 193 176 76 193 176 76 193 176 76 0 0 255 0 0 255 0 0 255 0 0 255 193 176 76 193 176 76 193 176 76 193 176 76 193 176 76 193 176 76 193 176 76 193 176 76 193 176 76 193 176 76 193 176 76 193 176 76 193 176 76 0 0 255 0 0 255 95 139 71 95 139 71 95 139 71 95 139 71 95 139 71 95 139 71 95 139 71 0 0 255 0 0 255 0 0 255 95 139 71 95 139 71 0 0 255 0 0 255 0 0 255 0 0 255 0 0 255 95 139 71 0 0 255 0 0 255 70 38 44 70 38 44 70 38 44 70 38 44 70 38 44 70 38 44 0 0 255 0 0 255 70 38 44 70 38 44 70 38 44 0 0 255 0 0 255 0 0 255 0 0 255 0 0 255 193 176 76 193 176 76 193 176 76 193 176 76 193 176 76 193 176 76 193 176 76 0 0 255 0 0 255 193 197 164 193 197 164 193 197 164 0 0 255 0 0 255 95 139 71 95 139 71 95 139 71 95 139 71 0 0 255 0 0 255 0 0 255 0 0 255 0 0 255 0 0 255 95 139 71 0 0 255 0 0 255 193 197 164 193 197 164 193 197 164 193 197 164 193 197 164 193 197 164 193 197 164 193 197 164 193 197 164 193 197 164 193 197 164 193 197 164 193 197 164 193 197 164 193 197 164 193 197 164 193 197 164 193 197 164 193 197 164 193 197 164 193 197 164 193 197 164 193 197 164 193 197 164 193 197 164 193 197 164 193 197 164 193 197 164 192 190 139 192 190 139 192 190 139 192 190 139 192 190 139 192 190 139 192 190 139 192 190 139 192 190 139 192 190 139 192 190 139 192 190 139 192 190 139 192 190 139 192 190 139 192 190 139 192 190 139 192 190 139 192 190 139 192 190 139 192 190 139 192 190 139 192 190 139 192 190 139 192 190 139 192 190 139 0 0 255 0 0 255 0 0 255 0 0 255 179 67 44 179 67 44 179 67 44 179 67 44 179 67 44 179 67 44 179 67 44 179 67 44 179 67 44 179 67 44 179 67 44 179 67 44 0 0 255 0 0 255 192 190 139 192 190 139 192 190 139 192 190 139 192 190 139 192 190 139 0 0 255 0 0 255 107 129 71 0 0 255 0 0 255 0 0 255 0 0 255 107 129 71 107 129 71 107 129 71 107 129 71 0 0 255 0 0 255 0 0 255 0 0 255 107 129 71 107 129 71 107 129 71 0 0 255 0 0 255 0 0 255 0 0 255 0 0 255 0 0 255 0 0 255 0 0 255 0 0 255 0 0 255 179 67 44 0 0 255 0 0 255 193 176 76 193 176 76 193 176 76 193 176 76 193 176 76 193 176 76 193 176 76 193 176 76 193 176 76 193 176 76 193 176 76 193 176 76 193 176 76 193 176 76 0 0 255 0 0 255 193 198 157 193 198 157 193 198 157 193 198 157 193 198 157 193 198 157 0 0 255 0 0 255 193 176 76 0 0 255 0 0 255 0 0 255 0 0 255 0 0 255 0 0 255 0 0 255 0 0 255 0 0 255 0 0 255 0 0 255 193 176 76 193 176 76 193 176 76 193 176 76 193 176 76 193 176 76 193 176 76 193 176 76 193 176 76 193 176 76 193 176 76 193 176 76 193 176 76 0 0 255 193 176 76 193 176 76 193 176 76 193 176 76 193 176 76 193 176 76 193 176 76 193 176 76 193 176 76 193 176 76 193 176 76 193 176 76 193 176 76 193 176 76 193 176 76 193 176 76 193 176 76 0 0 255 193 176 76 193 176 76 193 176 76 193 176 76 193 176 76 193 176 76 193 176 76 193 176 76 193 176 76 193 176 76 193 176 76 193 176 76 193 176 76 193 176 76 0 0 255 0 0 255 95 139 71 95 139 71 95 139 71 95 139 71 95 139 71 95 139 71 95 139 71 95 139 71 0 0 255 95 139 71 95 139 71 95 139 71 0 0 255 0 0 255 0 0 255 0 0 255 0 0 255 95 139 71 95 139 71 0 0 255 0 0 255 70 38 44 70 38 44 70 38 44 70 38 44 70 38 44 70 38 44 70 38 44 70 38 44 70 38 44 0 0 255 0 0 255 95 139 71 0 0 255 0 0 255 0 0 255 193 176 76 193 176 76 193 176 76 193 176 76 193 176 76 193 176 76 0 0 255 0 0 255 193 197 164 193 197 164 193 197 164 193 197 164 193 197 164 0 0 255 0 0 255 0 0 255 95 139 71 95 139 71 95 139 71 95 139 71 0 0 255 0 0 255 95 139 71 95 139 71 0 0 255 0 0 255 193 197 164 193 197 164 193 197 164 193 197 164 193 197 164 193 197 164 193 197 164 193 197 164 193 197 164 193 197 164 193 197 164 193 197 164 193 197 164 193 197 164 193 197 164 193 197 164 193 197 164 193 197 164 193 197 164 193 197 164 193 197 164 193 197 164 193 197 164 193 197 164 193 197 164 193 197 164 193 197 164 193 197 164 193 197 164 192 190 139 192 190 139 192 190 139 192 190 139 192 190 139 192 190 139 192 190 139 192 190 139 192 190 139 192 190 139 192 190 139 192 190 139 192 190 139 192 190 139 192 190 139 192 190 139 192 190 139 192 190 139 192 190 139 192 190 139 192 190 139 192 190 139 192 190 139 192 190 139 192 190 139 192 190 139 0 0 255 0 0 255 0 0 255 0 0 255 179 67 44 179 67 44 179 67 44 179 67 44 179 67 44 179 67 44 179 67 44 179 67 44 179 67 44 179 67 44 179 67 44 179 67 44 0 0 255 0 0 255 192 190 139 192 190 139 192 190 139 192 190 139 192 190 139 192 190 139 0 0 255 0 0 255 107 129 71 107 129 71 0 0 255 0 0 255 0 0 255 107 129 71 107 129 71 107 129 71 107 129 71 107 129 71 0 0 255 0 0 255 107 129 71 107 129 71 107 129 71 107 129 71 0 0 255 0 0 255 0 0 255 0 0 255 0 0 255 0 0 255 0 0 255 0 0 255 0 0 255 0 0 255 0 0 255 179 67 44 0 0 255 0 0 255 193 176 76 193 176 76 193 176 76 193 176 76 193 176 76 193 176 76 193 176 76 193 176 76 193 176 76 193 176 76 193 176 76 193 176 76 193 176 76 0 0 255 0 0 255 193 198 157 193 198 157 193 198 157 193 198 157 193 198 157 193 198 157 0 0 255 0 0 255 0 0 255 0 0 255 179 67 44 179 67 44 179 67 44 179 67 44 0 0 255 0 0 255 0 0 255 0 0 255 0 0 255 0 0 255 193 176 76 193 176 76 193 176 76 193 176 76 193 176 76 193 176 76 193 176 76 193 176 76 193 176 76 193 176 76 193 176 76 193 176 76 193 176 76 193 176 76 193 176 76 193 176 76 193 176 76 193 176 76 193 176 76 193 176 76 193 176 76 193 176 76 193 176 76 193 176 76 193 176 76 193 176 76 193 176 76 193 176 76 193 176 76 193 176 76 193 176 76 193 176 76 193 176 76 193 176 76 193 176 76 193 176 76 193 176 76 193 176 76 193 176 76 193 176 76 193 176 76 193 176 76 193 176 76 193 176 76 193 176 76 193 176 76 0 0 255 0 0 255 95 139 71 95 139 71 95 139 71 95 139 71 95 139 71 95 139 71 95 139 71 95 139 71 95 139 71 95 139 71 95 139 71 95 139 71 0 0 255 0 0 255 0 0 255 0 0 255 95 139 71 95 139 71 95 139 71 95 139 71 0 0 255 0 0 255 0 0 255 0 0 255 0 0 255 70 38 44 70 38 44 70 38 44 70 38 44 0 0 255 0 0 255 0 0 255 0 0 255 0 0 255 0 0 255 193 176 76 193 176 76 193 176 76 193 176 76 193 176 76 193 176 76 0 0 255 0 0 255 193 197 164 193 197 164 193 197 164 193 197 164 193 197 164 193 197 164 193 197 164 0 0 255 0 0 255 0 0 255 95 139 71 95 139 71 95 139 71 95 139 71 95 139 71 95 139 71 0 0 255 0 0 255 193 197 164 193 197 164 193 197 164 193 197 164 193 197 164 193 197 164 193 197 164 193 197 164 193 197 164 193 197 164 193 197 164 193 197 164 193 197 164 193 197 164 193 197 164 193 197 164 193 197 164 193 197 164 193 197 164 193 197 164 193 197 164 193 197 164 193 197 164 193 197 164 193 197 164 193 197 164 193 197 164 193 197 164 193 197 164 193 197 164 192 190 139 192 190 139 192 190 139 192 190 139 192 190 139 192 190 139 192 190 139 192 190 139 192 190 139 192 190 139 192 190 139 192 190 139 192 190 139 192 190 139 192 190 139 192 190 139 192 190 139 192 190 139 192 190 139 192 190 139 192 190 139 192 190 139 192 190 139 192 190 139 192 190 139 192 190 139 0 0 255 0 0 255 0 0 255 0 0 255 179 67 44 179 67 44 179 67 44 179 67 44 179 67 44 179 67 44 179 67 44 179 67 44 179 67 44 179 67 44 179 67 44 179 67 44 0 0 255 0 0 255 192 190 139 192 190 139 192 190 139 192 190 139 192 190 139 192 190 139 0 0 255 0 0 255 107 129 71 107 129 71 0 0 255 0 0 255 0 0 255 0 0 255 107 129 71 107 129 71 107 129 71 107 129 71 107 129 71 107 129 71 107 129 71 107 129 71 107 129 71 0 0 255 0 0 255 0 0 255 0 0 255 70 38 44 70 38 44 70 38 44 70 38 44 70 38 44 0 0 255 0 0 255 0 0 255 0 0 255 179 67 44 0 0 255 0 0 255 193 176 76 193 176 76 193 176 76 193 176 76 193 176 76 193 176 76 193 176 76 193 176 76 193 176 76 193 176 76 193 176 76 193 176 76 0 0 255 0 0 255 193 198 157 193 198 157 193 198 157 193 198 157 193 198 157 0 0 255 0 0 255 0 0 255 0 0 255 179 67 44 179 67 44 179 67 44 179 67 44 179 67 44 179 67 44 179 67 44 179 67 44 179 67 44 179 67 44 0 0 255 0 0 255 193 176 76 193 176 76 193 176 76 193 176 76 193 176 76 193 176 76 193 176 76 193 176 76 193 176 76 193 176 76 193 176 76 193 176 76 193 176 76 193 176 76 193 176 76 193 176 76 193 176 76 193 176 76 193 176 76 193 176 76 193 176 76 193 176 76 193 176 76 193 176 76 193 176 76 193 176 76 193 176 76 193 176 76 193 176 76 193 176 76 193 176 76 193 176 76 193 176 76 193 176 76 193 176 76 193 176 76 193 176 76 193 176 76 193 176 76 193 176 76 193 176 76 193 176 76 193 176 76 193 176 76 193 176 76 0 0 255 0 0 255 0 0 255 95 139 71 95 139 71 95 139 71 95 139 71 95 139 71 95 139 71 95 139 71 95 139 71 95 139 71 95 139 71 95 139 71 95 139 71 0 0 255 0 0 255 95 139 71 95 139 71 95 139 71 95 139 71 95 139 71 95 139 71 0 0 255 0 0 255 0 0 255 0 0 255 0 0 255 0 0 255 0 0 255 0 0 255 0 0 255 0 0 255 0 0 255 0 0 255 193 176 76 193 176 76 193 176 76 193 176 76 193 176 76 193 176 76 193 176 76 0 0 255 0 0 255 193 197 164 193 197 164 193 197 164 193 197 164 193 197 164 193 197 164 193 197 164 193 197 164 193 197 164 193 197 164 0 0 255 0 0 255 95 139 71 95 139 71 95 139 71 95 139 71 95 139 71 0 0 255 0 0 255 193 197 164 193 197 164 193 197 164 193 197 164 193 197 164 193 197 164 193 197 164 193 197 164 193 197 164 193 197 164 193 197 164 193 197 164 193 197 164 193 197 164 193 197 164 193 197 164 193 197 164 193 197 164 193 197 164 193 197 164 193 197 164 193 197 164 193 197 164 193 197 164 193 197 164 193 197 164 193 197 164 193 197 164 193 197 164 193 197 164 192 190 139 192 190 139 192 190 139 192 190 139 192 190 139 192 190 139 192 190 139 192 190 139 192 190 139 192 190 139 192 190 139 192 190 139 192 190 139 192 190 139 192 190 139 192 190 139 192 190 139 192 190 139 192 190 139 192 190 139 192 190 139 192 190 139 192 190 139 192 190 139 192 190 139 192 190 139 0 0 255 0 0 255 0 0 255 0 0 255 179 67 44 179 67 44 179 67 44 179 67 44 179 67 44 179 67 44 179 67 44 179 67 44 179 67 44 179 67 44 179 67 44 0 0 255 0 0 255 192 190 139 192 190 139 192 190 139 192 190 139 0 0 255 0 0 255 0 0 255 0 0 255 0 0 255 0 0 255 0 0 255 0 0 255 0 0 255 0 0 255 0 0 255 0 0 255 107 129 71 107 129 71 107 129 71 107 129 71 107 129 71 107 129 71 107 129 71 0 0 255 0 0 255 70 38 44 70 38 44 70 38 44 70 38 44 70 38 44 70 38 44 70 38 44 70 38 44 70 38 44 0 0 255 0 0 255 0 0 255 179 67 44 0 0 255 0 0 255 193 176 76 193 176 76 193 176 76 193 176 76 193 176 76 193 176 76 193 176 76 193 176 76 193 176 76 193 176 76 193 176 76 193 176 76 0 0 255 0 0 255 193 198 157 193 198 157 193 198 157 193 198 157 193 198 157 0 0 255 0 0 255 0 0 255 179 67 44 179 67 44 179 67 44 179 67 44 179 67 44 179 67 44 179 67 44 179 67 44 179 67 44 179 67 44 179 67 44 0 0 255 0 0 255 193 176 76 193 176 76 193 176 76 193 176 76 193 176 76 193 176 76 193 176 76 193 176 76 193 176 76 193 176 76 193 176 76 193 176 76 193 176 76 193 176 76 193 176 76 193 176 76 193 176 76 193 176 76 193 176 76 193 176 76 193 176 76 193 176 76 193 176 76 193 176 76 193 176 76 193 176 76 193 176 76 193 176 76 193 176 76 193 176 76 193 176 76 193 176 76 193 176 76 193 176 76 193 176 76 193 176 76 193 176 76 193 176 76 193 176 76 193 176 76 193 176 76 193 176 76 193 176 76 193 176 76 193 176 76 0 0 255 0 0 255 0 0 255 0 0 255 0 0 255 95 139 71 95 139 71 95 139 71 95 139 71 95 139 71 95 139 71 95 139 71 95 139 71 95 139 71 95 139 71 95 139 71 95 139 71 95 139 71 95 139 71 95 139 71 95 139 71 95 139 71 95 139 71 95 139 71 95 139 71 95 139 71 95 139 71 0 0 255 0 0 255 0 0 255 0 0 255 0 0 255 0 0 255 0 0 255 0 0 255 193 176 76 193 176 76 193 176 76 193 176 76 193 176 76 193 176 76 193 176 76 0 0 255 0 0 255 193 197 164 193 197 164 193 197 164 193 197 164 193 197 164 193 197 164 193 197 164 193 197 164 193 197 164 0 0 255 0 0 255 95 139 71 95 139 71 95 139 71 95 139 71 95 139 71 95 139 71 95 139 71 0 0 255 0 0 255 193 197 164 193 197 164 193 197 164 193 197 164 193 197 164 193 197 164 193 197 164 193 197 164 193 197 164 193 197 164 193 197 164 193 197 164 193 197 164 193 197 164 193 197 164 193 197 164 193 197 164 193 197 164 193 197 164 193 197 164 193 197 164 193 197 164 193 197 164 193 197 164 193 197 164 193 197 164 193 197 164 193 197 164 193 197 164 192 190 139 192 190 139 192 190 139 192 190 139 192 190 139 192 190 139 192 190 139 192 190 139 192 190 139 192 190 139 192 190 139 192 190 139 192 190 139 192 190 139 192 190 139 192 190 139 192 190 139 192 190 139 192 190 139 192 190 139 192 190 139 192 190 139 192 190 139 192 190 139 192 190 139 192 190 139 192 190 139 0 0 255 0 0 255 0 0 255 0 0 255 179 67 44 179 67 44 179 67 44 179 67 44 179 67 44 179 67 44 179 67 44 179 67 44 179 67 44 179 67 44 0 0 255 0 0 255 192 190 139 0 0 255 0 0 255 0 0 255 0 0 255 0 0 255 0 0 255 0 0 255 0 0 255 0 0 255 0 0 255 0 0 255 0 0 255 70 38 44 70 38 44 0 0 255 0 0 255 107 129 71 107 129 71 107 129 71 107 129 71 0 0 255 0 0 255 0 0 255 70 38 44 70 38 44 70 38 44 70 38 44 70 38 44 70 38 44 70 38 44 70 38 44 70 38 44 70 38 44 0 0 255 0 0 255 179 67 44 179 67 44 179 67 44 0 0 255 0 0 255 193 176 76 193 176 76 193 176 76 193 176 76 193 176 76 193 176 76 193 176 76 193 176 76 193 176 76 193 176 76 0 0 255 0 0 255 193 198 157 193 198 157 193 198 157 193 198 157 193 198 157 0 0 255 0 0 255 0 0 255 179 67 44 179 67 44 179 67 44 179 67 44 179 67 44 179 67 44 179 67 44 179 67 44 179 67 44 179 67 44 179 67 44 179 67 44 179 67 44 0 0 255 0 0 255 193 176 76 193 176 76 193 176 76 193 176 76 193 176 76 193 176 76 193 176 76 193 176 76 193 176 76 193 176 76 193 176 76 193 176 76 193 176 76 193 176 76 193 176 76 193 176 76 193 176 76 193 176 76 193 176 76 193 176 76 193 176 76 193 176 76 193 176 76 193 176 76 193 176 76 193 176 76 193 176 76 193 176 76 0 0 255 193 176 76 193 176 76 193 176 76 193 176 76 193 176 76 193 176 76 193 176 76 193 176 76 193 176 76 193 176 76 193 176 76 193 176 76 0 0 255 0 0 255 0 0 255 0 0 255 185 64 42 185 64 42 0 0 255 0 0 255 0 0 255 95 139 71 95 139 71 95 139 71 95 139 71 95 139 71 95 139 71 95 139 71 95 139 71 95 139 71 95 139 71 95 139 71 95 139 71 95 139 71 0 0 255 95 139 71 95 139 71 95 139 71 95 139 71 0 0 255 0 0 255 0 0 255 95 139 71 95 139 71 0 0 255 0 0 255 0 0 255 0 0 255 0 0 255 193 176 76 193 176 76 193 176 76 193 176 76 193 176 76 193 176 76 193 176 76 193 176 76 0 0 255 0 0 255 193 197 164 193 197 164 193 197 164 193 197 164 193 197 164 193 197 164 193 197 164 0 0 255 0 0 255 0 0 255 95 139 71 95 139 71 95 139 71 95 139 71 95 139 71 95 139 71 95 139 71 95 139 71 95 139 71 0 0 255 0 0 255 193 197 164 193 197 164 193 197 164 193 197 164 193 197 164 193 197 164 193 197 164 193 197 164 193 197 164 193 197 164 193 197 164 193 197 164 193 197 164 193 197 164 193 197 164 193 197 164 193 197 164 193 197 164 193 197 164 193 197 164 193 197 164 193 197 164 193 197 164 193 197 164 193 197 164 193 197 164 193 197 164 193 197 164 192 190 139 192 190 139 192 190 139 192 190 139 192 190 139 192 190 139 192 190 139 192 190 139 192 190 139 192 190 139 192 190 139 192 190 139 192 190 139 192 190 139 192 190 139 192 190 139 192 190 139 192 190 139 192 190 139 192 190 139 192 190 139 192 190 139 192 190 139 192 190 139 192 190 139 192 190 139 192 190 139 0 0 255 0 0 255 107 129 71 0 0 255 0 0 255 179 67 44 179 67 44 179 67 44 179 67 44 179 67 44 179 67 44 179 67 44 179 67 44 0 0 255 0 0 255 192 190 139 0 0 255 0 0 255 0 0 255 0 0 255 0 0 255 0 0 255 0 0 255 0 0 255 70 38 44 70 38 44 70 38 44 70 38 44 70 38 44 70 38 44 70 38 44 70 38 44 0 0 255 0 0 255 0 0 255 0 0 255 0 0 255 0 0 255 0 0 255 70 38 44 70 38 44 70 38 44 70 38 44 70 38 44 70 38 44 70 38 44 70 38 44 70 38 44 70 38 44 70 38 44 70 38 44 0 0 255 0 0 255 0 0 255 179 67 44 179 67 44 0 0 255 0 0 255 0 0 255 193 176 76 193 176 76 193 176 76 193 176 76 193 176 76 193 176 76 193 176 76 193 176 76 0 0 255 0 0 255 193 198 157 193 198 157 193 198 157 193 198 157 0 0 255 0 0 255 0 0 255 179 67 44 179 67 44 179 67 44 179 67 44 179 67 44 179 67 44 179 67 44 179 67 44 179 67 44 179 67 44 179 67 44 179 67 44 179 67 44 179 67 44 0 0 255 0 0 255 193 176 76 193 176 76 193 176 76 193 176 76 193 176 76 193 176 76 193 176 76 193 176 76 193 176 76 193 176 76 0 0 255 193 176 76 193 176 76 193 176 76 193 176 76 193 176 76 193 176 76 193 176 76 193 176 76 193 176 76 193 176 76 193 176 76 193 176 76 193 176 76 193 176 76 193 176 76 193 176 76 0 0 255 0 0 255 0 0 255 193 176 76 193 176 76 193 176 76 193 176 76 193 176 76 193 176 76 193 176 76 193 176 76 193 176 76 193 176 76 0 0 255 0 0 255 0 0 255 0 0 255 185 64 42 185 64 42 185 64 42 185 64 42 185 64 42 0 0 255 0 0 255 95 139 71 95 139 71 95 139 71 95 139 71 95 139 71 95 139 71 95 139 71 95 139 71 95 139 71 95 139 71 95 139 71 0 0 255 0 0 255 0 0 255 95 139 71 95 139 71 0 0 255 0 0 255 0 0 255 0 0 255 0 0 255 0 0 255 0 0 255 0 0 255 0 0 255 0 0 255 0 0 255 193 176 76 193 176 76 193 176 76 193 176 76 193 176 76 193 176 76 193 176 76 193 176 76 193 176 76 0 0 255 0 0 255 193 197 164 193 197 164 193 197 164 193 197 164 193 197 164 0 0 255 0 0 255 0 0 255 95 139 71 95 139 71 95 139 71 95 139 71 95 139 71 95 139 71 95 139 71 95 139 71 95 139 71 95 139 71 95 139 71 0 0 255 0 0 255 193 197 164 193 197 164 193 197 164 193 197 164 193 197 164 193 197 164 193 197 164 193 197 164 193 197 164 193 197 164 193 197 164 193 197 164 193 197 164 193 197 164 193 197 164 193 197 164 193 197 164 193 197 164 193 197 164 193 197 164 193 197 164 193 197 164 193 197 164 193 197 164 193 197 164 193 197 164 193 197 164 192 190 139 192 190 139 192 190 139 192 190 139 192 190 139 192 190 139 192 190 139 192 190 139 192 190 139 192 190 139 192 190 139 192 190 139 192 190 139 192 190 139 192 190 139 192 190 139 192 190 139 192 190 139 192 190 139 192 190 139 192 190 139 192 190 139 192 190 139 192 190 139 192 190 139 192 190 139 192 190 139 192 190 139 0 0 255 0 0 255 0 0 255 0 0 255 0 0 255 179 67 44 179 67 44 179 67 44 179 67 44 179 67 44 179 67 44 0 0 255 0 0 255 0 0 255 0 0 255 0 0 255 0 0 255 0 0 255 0 0 255 0 0 255 70 38 44 70 38 44 70 38 44 70 38 44 70 38 44 70 38 44 70 38 44 70 38 44 70 38 44 70 38 44 70 38 44 70 38 44 0 0 255 0 0 255 0 0 255 0 0 255 70 38 44 70 38 44 70 38 44 70 38 44 70 38 44 70 38 44 70 38 44 70 38 44 70 38 44 70 38 44 70 38 44 70 38 44 70 38 44 70 38 44 0 0 255 0 0 255 0 0 255 0 0 255 0 0 255 0 0 255 0 0 255 0 0 255 0 0 255 193 176 76 193 176 76 193 176 76 193 176 76 193 176 76 193 176 76 193 176 76 0 0 255 0 0 255 0 0 255 193 198 157 193 198 157 0 0 255 0 0 255 0 0 255 0 0 255 179 67 44 179 67 44 179 67 44 179 67 44 179 67 44 179 67 44 179 67 44 179 67 44 179 67 44 179 67 44 179 67 44 179 67 44 179 67 44 179 67 44 0 0 255 0 0 255 193 176 76 193 176 76 193 176 76 193 176 76 193 176 76 193 176 76 193 176 76 193 176 76 193 176 76 0 0 255 0 0 255 0 0 255 193 176 76 193 176 76 193 176 76 193 176 76 193 176 76 193 176 76 193 176 76 193 176 76 193 176 76 193 176 76 193 176 76 193 176 76 193 176 76 193 176 76 193 176 76 193 176 76 0 0 255 0 0 255 0 0 255 193 176 76 193 176 76 193 176 76 193 176 76 193 176 76 193 176 76 193 176 76 0 0 255 0 0 255 0 0 255 185 64 42 185 64 42 185 64 42 185 64 42 185 64 42 185 64 42 185 64 42 185 64 42 185 64 42 0 0 255 0 0 255 0 0 255 0 0 255 95 139 71 95 139 71 95 139 71 95 139 71 95 139 71 95 139 71 95 139 71 95 139 71 95 139 71 0 0 255 95 139 71 95 139 71 95 139 71 0 0 255 0 0 255 0 0 255 0 0 255 0 0 255 0 0 255 0 0 255 0 0 255 0 0 255 0 0 255 0 0 255 193 176 76 193 176 76 193 176 76 193 176 76 193 176 76 193 176 76 193 176 76 193 176 76 193 176 76 193 176 76 0 0 255 0 0 255 193 197 164 193 197 164 193 197 164 193 197 164 0 0 255 0 0 255 95 139 71 95 139 71 95 139 71 95 139 71 95 139 71 95 139 71 95 139 71 95 139 71 95 139 71 95 139 71 95 139 71 95 139 71 0 0 255 0 0 255 193 197 164 193 197 164 193 197 164 193 197 164 193 197 164 193 197 164 193 197 164 193 197 164 193 197 164 193 197 164 193 197 164 193 197 164 193 197 164 193 197 164 193 197 164 193 197 164 193 197 164 193 197 164 193 197 164 193 197 164 193 197 164 193 197 164 193 197 164 193 197 164 193 197 164 193 197 164 193 197 164 192 190 139 192 190 139 192 190 139 192 190 139 192 190 139 192 190 139 192 190 139 192 190 139 192 190 139 192 190 139 192 190 139 192 190 139 192 190 139 192 190 139 192 190 139 192 190 139 192 190 139 192 190 139 192 190 139 192 190 139 192 190 139 192 190 139 192 190 139 192 190 139 192 190 139 192 190 139 192 190 139 192 190 139 192 190 139 0 0 255 0 0 255 0 0 255 0 0 255 0 0 255 0 0 255 0 0 255 0 0 255 0 0 255 0 0 255 0 0 255 0 0 255 0 0 255 0 0 255 0 0 255 70 38 44 70 38 44 70 38 44 70 38 44 70 38 44 70 38 44 70 38 44 70 38 44 70 38 44 70 38 44 70 38 44 70 38 44 70 38 44 70 38 44 70 38 44 70 38 44 70 38 44 70 38 44 70 38 44 70 38 44 70 38 44 70 38 44 70 38 44 70 38 44 70 38 44 70 38 44 70 38 44 70 38 44 0 0 255 70 38 44 70 38 44 70 38 44 70 38 44 70 38 44 0 0 255 0 0 255 107 129 71 0 0 255 0 0 255 0 0 255 0 0 255 0 0 255 0 0 255 193 176 76 193 176 76 193 176 76 193 176 76 193 176 76 193 176 76 193 176 76 193 176 76 0 0 255 0 0 255 0 0 255 0 0 255 0 0 255 0 0 255 0 0 255 179 67 44 179 67 44 179 67 44 179 67 44 179 67 44 179 67 44 179 67 44 179 67 44 179 67 44 179 67 44 179 67 44 179 67 44 179 67 44 179 67 44 179 67 44 179 67 44 0 0 255 0 0 255 193 176 76 193 176 76 193 176 76 193 176 76 193 176 76 193 176 76 193 176 76 193 176 76 193 176 76 0 0 255 193 176 76 193 176 76 193 176 76 193 176 76 193 176 76 193 176 76 193 176 76 193 176 76 193 176 76 193 176 76 193 176 76 193 176 76 193 176 76 193 176 76 0 0 255 0 0 255 0 0 255 0 0 255 0 0 255 193 176 76 193 176 76 193 176 76 193 176 76 193 176 76 193 176 76 0 0 255 0 0 255 0 0 255 0 0 255 185 64 42 185 64 42 185 64 42 185 64 42 185 64 42 185 64 42 185 64 42 185 64 42 185 64 42 185 64 42 0 0 255 0 0 255 0 0 255 0 0 255 0 0 255 95 139 71 95 139 71 95 139 71 95 139 71 95 139 71 95 139 71 95 139 71 95 139 71 95 139 71 95 139 71 95 139 71 95 139 71 0 0 255 0 0 255 0 0 255 0 0 255 0 0 255 0 0 255 0 0 255 0 0 255 0 0 255 0 0 255 0 0 255 193 176 76 193 176 76 193 176 76 193 176 76 193 176 76 193 176 76 193 176 76 193 176 76 193 176 76 193 176 76 193 176 76 0 0 255 0 0 255 193 197 164 193 197 164 0 0 255 0 0 255 95 139 71 95 139 71 95 139 71 95 139 71 95 139 71 95 139 71 95 139 71 95 139 71 95 139 71 95 139 71 95 139 71 95 139 71 95 139 71 95 139 71 0 0 255 0 0 255 193 197 164 193 197 164 193 197 164 193 197 164 193 197 164 193 197 164 193 197 164 193 197 164 193 197 164 193 197 164 193 197 164 193 197 164 193 197 164 193 197 164 193 197 164 193 197 164 193 197 164 193 197 164 193 197 164 193 197 164 193 197 164 193 197 164 193 197 164 193 197 164 193 197 164 193 197 164 192 190 139 192 190 139 192 190 139 192 190 139 192 190 139 192 190 139 192 190 139 192 190 139 192 190 139 192 190 139 192 190 139 192 190 139 192 190 139 192 190 139 192 190 139 192 190 139 192 190 139 192 190 139 192 190 139 192 190 139 192 190 139 192 190 139 192 190 139 192 190 139 192 190 139 192 190 139 192 190 139 192 190 139 192 190 139 192 190 139 192 190 139 0 0 255 0 0 255 0 0 255 0 0 255 0 0 255 0 0 255 0 0 255 0 0 255 0 0 255 0 0 255 0 0 255 70 38 44 70 38 44 70 38 44 70 38 44 70 38 44 70 38 44 70 38 44 70 38 44 70 38 44 70 38 44 70 38 44 70 38 44 70 38 44 70 38 44 70 38 44 70 38 44 70 38 44 70 38 44 70 38 44 70 38 44 70 38 44 70 38 44 70 38 44 70 38 44 70 38 44 70 38 44 70 38 44 70 38 44 70 38 44 0 0 255 0 0 255 0 0 255 70 38 44 70 38 44 70 38 44 70 38 44 0 0 255 0 0 255 0 0 255 0 0 255 107 129 71 107 129 71 0 0 255 0 0 255 193 176 76 193 176 76 193 176 76 193 176 76 193 176 76 193 176 76 193 176 76 193 176 76 193 176 76 193 176 76 193 176 76 0 0 255 0 0 255 193 176 76 0 0 255 0 0 255 179 67 44 179 67 44 179 67 44 179 67 44 179 67 44 179 67 44 0 0 255 0 0 255 179 67 44 179 67 44 179 67 44 179 67 44 179 67 44 179 67 44 0 0 255 0 0 255 0 0 255 0 0 255 193 176 76 193 176 76 193 176 76 193 176 76 193 176 76 193 176 76 193 176 76 193 176 76 193 176 76 193 176 76 193 176 76 193 176 76 193 176 76 193 176 76 193 176 76 193 176 76 193 176 76 193 176 76 193 176 76 193 176 76 0 0 255 0 0 255 0 0 255 0 0 255 0 0 255 0 0 255 0 0 255 0 0 255 0 0 255 0 0 255 193 176 76 193 176 76 193 176 76 0 0 255 0 0 255 0 0 255 0 0 255 185 64 42 185 64 42 185 64 42 185 64 42 185 64 42 185 64 42 185 64 42 185 64 42 185 64 42 185 64 42 185 64 42 185 64 42 185 64 42 0 0 255 0 0 255 0 0 255 0 0 255 95 139 71 95 139 71 95 139 71 95 139 71 95 139 71 95 139 71 95 139 71 95 139 71 95 139 71 95 139 71 95 139 71 95 139 71 0 0 255 0 0 255 0 0 255 0 0 255 0 0 255 0 0 255 0 0 255 0 0 255 0 0 255 0 0 255 0 0 255 193 176 76 193 176 76 193 176 76 193 176 76 193 176 76 193 176 76 193 176 76 193 176 76 193 176 76 193 176 76 193 176 76 0 0 255 0 0 255 193 197 164 193 197 164 0 0 255 0 0 255 95 139 71 95 139 71 95 139 71 95 139 71 95 139 71 95 139 71 95 139 71 95 139 71 0 0 255 95 139 71 95 139 71 95 139 71 95 139 71 95 139 71 0 0 255 0 0 255 193 197 164 193 197 164 193 197 164 193 197 164 193 197 164 193 197 164 193 197 164 193 197 164 193 197 164 193 197 164 193 197 164 193 197 164 193 197 164 193 197 164 193 197 164 193 197 164 193 197 164 193 197 164 193 197 164 193 197 164 193 197 164 193 197 164 193 197 164 193 197 164 193 197 164 193 197 164 192 190 139 192 190 139 192 190 139 192 190 139 192 190 139 192 190 139 192 190 139 192 190 139 192 190 139 192 190 139 192 190 139 192 190 139 192 190 139 192 190 139 192 190 139 192 190 139 192 190 139 192 190 139 192 190 139 192 190 139 192 190 139 192 190 139 192 190 139 192 190 139 192 190 139 192 190 139 192 190 139 192 190 139 192 190 139 192 190 139 192 190 139 192 190 139 192 190 139 192 190 139 0 0 255 0 0 255 0 0 255 192 190 139 192 190 139 0 0 255 0 0 255 0 0 255 70 38 44 70 38 44 70 38 44 70 38 44 70 38 44 70 38 44 70 38 44 70 38 44 70 38 44 0 0 255 0 0 255 0 0 255 0 0 255 70 38 44 70 38 44 70 38 44 70 38 44 70 38 44 70 38 44 70 38 44 70 38 44 70 38 44 70 38 44 70 38 44 70 38 44 70 38 44 70 38 44 70 38 44 0 0 255 0 0 255 107 129 71 0 0 255 0 0 255 70 38 44 70 38 44 0 0 255 0 0 255 0 0 255 0 0 255 0 0 255 0 0 255 0 0 255 0 0 255 193 176 76 193 176 76 193 176 76 193 176 76 193 176 76 193 176 76 193 176 76 193 176 76 193 176 76 193 176 76 193 176 76 193 176 76 193 176 76 193 176 76 193 176 76 0 0 255 0 0 255 179 67 44 179 67 44 179 67 44 179 67 44 179 67 44 0 0 255 0 0 255 0 0 255 0 0 255 179 67 44 179 67 44 179 67 44 179 67 44 0 0 255 0 0 255 0 0 255 0 0 255 193 176 76 193 176 76 193 176 76 193 176 76 193 176 76 193 176 76 193 176 76 193 176 76 193 176 76 193 176 76 193 176 76 193 176 76 193 176 76 193 176 76 193 176 76 193 176 76 193 176 76 193 176 76 193 176 76 0 0 255 0 0 255 0 0 255 0 0 255 0 0 255 0 0 255 95 139 71 95 139 71 95 139 71 95 139 71 95 139 71 0 0 255 0 0 255 0 0 255 0 0 255 0 0 255 0 0 255 185 64 42 185 64 42 185 64 42 185 64 42 185 64 42 185 64 42 185 64 42 185 64 42 185 64 42 185 64 42 185 64 42 185 64 42 185 64 42 185 64 42 185 64 42 0 0 255 0 0 255 0 0 255 0 0 255 95 139 71 95 139 71 95 139 71 95 139 71 95 139 71 95 139 71 95 139 71 95 139 71 95 139 71 95 139 71 95 139 71 0 0 255 0 0 255 0 0 255 0 0 255 0 0 255 0 0 255 0 0 255 185 64 42 185 64 42 185 64 42 0 0 255 0 0 255 193 176 76 193 176 76 193 176 76 193 176 76 193 176 76 193 176 76 193 176 76 193 176 76 193 176 76 193 176 76 193 176 76 193 176 76 0 0 255 0 0 255 0 0 255 0 0 255 95 139 71 95 139 71 95 139 71 95 139 71 95 139 71 95 139 71 95 139 71 95 139 71 0 0 255 0 0 255 0 0 255 95 139 71 95 139 71 95 139 71 95 139 71 0 0 255 0 0 255 193 197 164 193 197 164 193 197 164 193 197 164 193 197 164 193 197 164 193 197 164 193 197 164 193 197 164 193 197 164 193 197 164 193 197 164 193 197 164 193 197 164 193 197 164 193 197 164 193 197 164 193 197 164 193 197 164 193 197 164 193 197 164 193 197 164 193 197 164 193 197 164 193 197 164 193 197 164 192 190 139 192 190 139 192 190 139 192 190 139 192 190 139 192 190 139 192 190 139 192 190 139 192 190 139 192 190 139 192 190 139 192 190 139 192 190 139 192 190 139 192 190 139 192 190 139 192 190 139 192 190 139 192 190 139 192 190 139 192 190 139 192 190 139 192 190 139 192 190 139 192 190 139 192 190 139 192 190 139 192 190 139 192 190 139 192 190 139 192 190 139 192 190 139 192 190 139 192 190 139 192 190 139 192 190 139 192 190 139 192 190 139 0 0 255 0 0 255 0 0 255 70 38 44 70 38 44 70 38 44 70 38 44 70 38 44 70 38 44 70 38 44 70 38 44 70 38 44 0 0 255 0 0 255 0 0 255 0 0 255 0 0 255 0 0 255 70 38 44 70 38 44 70 38 44 70 38 44 70 38 44 70 38 44 70 38 44 70 38 44 70 38 44 70 38 44 70 38 44 70 38 44 70 38 44 0 0 255 0 0 255 0 0 255 0 0 255 0 0 255 0 0 255 70 38 44 70 38 44 0 0 255 0 0 255 0 0 255 192 190 139 0 0 255 0 0 255 0 0 255 193 176 76 193 176 76 193 176 76 193 176 76 193 176 76 193 176 76 193 176 76 193 176 76 193 176 76 193 176 76 193 176 76 193 176 76 193 176 76 193 176 76 193 176 76 0 0 255 0 0 255 179 67 44 179 67 44 179 67 44 179 67 44 179 67 44 179 67 44 0 0 255 0 0 255 193 176 76 0 0 255 0 0 255 179 67 44 179 67 44 0 0 255 0 0 255 193 176 76 193 176 76 193 176 76 193 176 76 193 176 76 193 176 76 193 176 76 193 176 76 193 176 76 193 176 76 193 176 76 193 176 76 193 176 76 193 176 76 193 176 76 193 176 76 193 176 76 193 176 76 193 176 76 193 176 76 193 176 76 0 0 255 0 0 255 0 0 255 95 139 71 95 139 71 95 139 71 95 139 71 95 139 71 95 139 71 95 139 71 95 139 71 95 139 71 95 139 71 0 0 255 0 0 255 0 0 255 0 0 255 185 64 42 185 64 42 185 64 42 185 64 42 185 64 42 185 64 42 185 64 42 185 64 42 185 64 42 185 64 42 185 64 42 185 64 42 185 64 42 185 64 42 185 64 42 185 64 42 0 0 255 0 0 255 0 0 255 0 0 255 0 0 255 0 0 255 0 0 255 0 0 255 0 0 255 0 0 255 95 139 71 95 139 71 95 139 71 95 139 71 0 0 255 0 0 255 185 64 42 185 64 42 185 64 42 185 64 42 185 64 42 185 64 42 185 64 42 185 64 42 185 64 42 185 64 42 0 0 255 0 0 255 193 176 76 193 176 76 193 176 76 193 176 76 193 176 76 193 176 76 193 176 76 193 176 76 193 176 76 193 176 76 193 176 76 193 176 76 0 0 255 0 0 255 95 139 71 95 139 71 95 139 71 95 139 71 95 139 71 95 139 71 95 139 71 95 139 71 95 139 71 0 0 255 0 0 255 0 0 255 95 139 71 95 139 71 95 139 71 95 139 71 0 0 255 0 0 255 193 197 164 193 197 164 193 197 164 193 197 164 193 197 164 193 197 164 193 197 164 193 197 164 193 197 164 193 197 164 193 197 164 193 197 164 193 197 164 193 197 164 193 197 164 193 197 164 193 197 164 193 197 164 193 197 164 193 197 164 193 197 164 193 197 164 193 197 164 193 197 164 193 197 164 193 197 164 192 190 139 192 190 139 192 190 139 192 190 139 192 190 139 192 190 139 192 190 139 192 190 139 192 190 139 192 190 139 192 190 139 192 190 139 192 190 139 192 190 139 192 190 139 192 190 139 192 190 139 192 190 139 192 190 139 192 190 139 192 190 139 192 190 139 192 190 139 192 190 139 192 190 139 192 190 139 192 190 139 192 190 139 192 190 139 192 190 139 192 190 139 192 190 139 192 190 139 192 190 139 192 190 139 192 190 139 192 190 139 192 190 139 0 0 255 0 0 255 0 0 255 70 38 44 70 38 44 70 38 44 70 38 44 70 38 44 70 38 44 70 38 44 70 38 44 0 0 255 0 0 255 0 0 255 0 0 255 0 0 255 0 0 255 0 0 255 70 38 44 70 38 44 70 38 44 70 38 44 70 38 44 70 38 44 70 38 44 70 38 44 70 38 44 70 38 44 70 38 44 70 38 44 70 38 44 0 0 255 0 0 255 0 0 255 0 0 255 0 0 255 70 38 44 70 38 44 70 38 44 0 0 255 0 0 255 0 0 255 0 0 255 0 0 255 0 0 255 0 0 255 193 176 76 193 176 76 193 176 76 193 176 76 193 176 76 193 176 76 193 176 76 193 176 76 193 176 76 193 176 76 193 176 76 193 176 76 193 176 76 193 176 76 193 176 76 0 0 255 0 0 255 179 67 44 179 67 44 179 67 44 179 67 44 179 67 44 179 67 44 0 0 255 0 0 255 0 0 255 0 0 255 179 67 44 179 67 44 179 67 44 0 0 255 0 0 255 193 176 76 193 176 76 193 176 76 193 176 76 193 176 76 193 176 76 193 176 76 193 176 76 193 176 76 193 176 76 193 176 76 193 176 76 193 176 76 193 176 76 193 176 76 193 176 76 193 176 76 193 176 76 193 176 76 193 176 76 0 0 255 0 0 255 95 139 71 95 139 71 95 139 71 95 139 71 95 139 71 95 139 71 95 139 71 0 0 255 0 0 255 95 139 71 95 139 71 0 0 255 0 0 255 0 0 255 0 0 255 0 0 255 185 64 42 185 64 42 185 64 42 185 64 42 185 64 42 185 64 42 185 64 42 185 64 42 0 0 255 0 0 255 185 64 42 185 64 42 185 64 42 185 64 42 185 64 42 185 64 42 0 0 255 0 0 255 0 0 255 0 0 255 0 0 255 0 0 255 0 0 255 0 0 255 0 0 255 0 0 255 0 0 255 0 0 255 0 0 255 0 0 255 0 0 255 185 64 42 185 64 42 185 64 42 185 64 42 185 64 42 185 64 42 185 64 42 185 64 42 185 64 42 185 64 42 185 64 42 0 0 255 0 0 255 193 176 76 193 176 76 193 176 76 193 176 76 193 176 76 193 176 76 193 176 76 193 176 76 193 176 76 193 176 76 193 176 76 0 0 255 0 0 255 95 139 71 95 139 71 95 139 71 95 139 71 95 139 71 95 139 71 95 139 71 95 139 71 95 139 71 95 139 71 95 139 71 0 0 255 95 139 71 95 139 71 95 139 71 95 139 71 95 139 71 0 0 255 0 0 255 193 197 164 193 197 164 193 197 164 193 197 164 193 197 164 193 197 164 193 197 164 193 197 164 193 197 164 193 197 164 193 197 164 193 197 164 193 197 164 193 197 164 193 197 164 193 197 164 193 197 164 193 197 164 193 197 164 193 197 164 193 197 164 193 197 164 193 197 164 193 197 164 193 197 164 193 197 164 192 190 139 192 190 139 192 190 139 192 190 139 192 190 139 192 190 139 192 190 139 192 190 139 192 190 139 192 190 139 192 190 139 192 190 139 192 190 139 192 190 139 192 190 139 192 190 139 192 190 139 192 190 139 192 190 139 192 190 139 192 190 139 192 190 139 192 190 139 192 190 139 192 190 139 192 190 139 192 190 139 192 190 139 192 190 139 192 190 139 192 190 139 192 190 139 192 190 139 192 190 139 192 190 139 192 190 139 192 190 139 0 0 255 0 0 255 0 0 255 70 38 44 70 38 44 70 38 44 70 38 44 70 38 44 70 38 44 70 38 44 70 38 44 70 38 44 0 0 255 0 0 255 0 0 255 0 0 255 0 0 255 0 0 255 70 38 44 70 38 44 70 38 44 70 38 44 70 38 44 70 38 44 70 38 44 70 38 44 70 38 44 70 38 44 70 38 44 70 38 44 70 38 44 70 38 44 70 38 44 0 0 255 0 0 255 0 0 255 70 38 44 70 38 44 70 38 44 70 38 44 0 0 255 0 0 255 192 190 139 0 0 255 0 0 255 0 0 255 0 0 255 193 176 76 193 176 76 193 176 76 193 176 76 193 176 76 193 176 76 193 176 76 193 176 76 193 176 76 193 176 76 193 176 76 193 176 76 193 176 76 193 176 76 193 176 76 0 0 255 0 0 255 179 67 44 179 67 44 179 67 44 179 67 44 179 67 44 179 67 44 179 67 44 0 0 255 0 0 255 179 67 44 179 67 44 179 67 44 179 67 44 0 0 255 0 0 255 193 176 76 193 176 76 193 176 76 193 176 76 193 176 76 193 176 76 193 176 76 193 176 76 193 176 76 193 176 76 193 176 76 193 176 76 193 176 76 193 176 76 193 176 76 193 176 76 193 176 76 193 176 76 193 176 76 0 0 255 0 0 255 95 139 71 95 139 71 95 139 71 95 139 71 95 139 71 95 139 71 95 139 71 0 0 255 0 0 255 0 0 255 0 0 255 95 139 71 0 0 255 0 0 255 193 176 76 193 176 76 0 0 255 0 0 255 185 64 42 185 64 42 185 64 42 185 64 42 185 64 42 185 64 42 0 0 255 0 0 255 0 0 255 0 0 255 185 64 42 185 64 42 185 64 42 185 64 42 185 64 42 0 0 255 0 0 255 0 0 255 0 0 255 185 64 42 185 64 42 185 64 42 185 64 42 185 64 42 185 64 42 0 0 255 0 0 255 0 0 255 0 0 255 185 64 42 185 64 42 185 64 42 185 64 42 185 64 42 185 64 42 185 64 42 185 64 42 185 64 42 185 64 42 185 64 42 185 64 42 0 0 255 0 0 255 193 176 76 193 176 76 193 176 76 193 176 76 193 176 76 193 176 76 193 176 76 193 176 76 193 176 76 193 176 76 193 176 76 0 0 255 0 0 255 95 139 71 95 139 71 95 139 71 95 139 71 95 139 71 95 139 71 95 139 71 95 139 71 95 139 71 95 139 71 95 139 71 95 139 71 95 139 71 95 139 71 95 139 71 95 139 71 95 139 71 0 0 255 0 0 255 0 0 255 0 0 255 0 0 255 0 0 255 0 0 255 0 0 255 0 0 255 193 197 164 193 197 164 193 197 164 193 197 164 193 197 164 193 197 164 193 197 164 193 197 164 193 197 164 193 197 164 193 197 164 193 197 164 193 197 164 193 197 164 193 197 164 193 197 164 193 197 164 193 197 164 193 197 164 192 190 139 192 190 139 192 190 139 192 190 139 192 190 139 192 190 139 192 190 139 192 190 139 192 190 139 192 190 139 192 190 139 192 190 139 192 190 139 192 190 139 192 190 139 192 190 139 192 190 139 192 190 139 192 190 139 192 190 139 192 190 139 192 190 139 192 190 139 192 190 139 192 190 139 192 190 139 192 190 139 192 190 139 192 190 139 192 190 139 192 190 139 192 190 139 192 190 139 192 190 139 192 190 139 192 190 139 0 0 255 0 0 255 0 0 255 0 0 255 70 38 44 70 38 44 70 38 44 70 38 44 70 38 44 70 38 44 70 38 44 70 38 44 70 38 44 70 38 44 0 0 255 0 0 255 0 0 255 0 0 255 70 38 44 70 38 44 70 38 44 70 38 44 70 38 44 70 38 44 70 38 44 70 38 44 70 38 44 70 38 44 70 38 44 70 38 44 70 38 44 70 38 44 70 38 44 70 38 44 70 38 44 70 38 44 70 38 44 70 38 44 70 38 44 70 38 44 0 0 255 0 0 255 0 0 255 0 0 255 0 0 255 0 0 255 0 0 255 0 0 255 193 176 76 193 176 76 193 176 76 193 176 76 193 176 76 193 176 76 193 176 76 193 176 76 193 176 76 193 176 76 193 176 76 193 176 76 193 176 76 193 176 76 193 176 76 0 0 255 0 0 255 179 67 44 179 67 44 179 67 44 179 67 44 179 67 44 179 67 44 179 67 44 179 67 44 179 67 44 179 67 44 179 67 44 179 67 44 179 67 44 0 0 255 0 0 255 193 176 76 193 176 76 193 176 76 193 176 76 193 176 76 193 176 76 193 176 76 193 176 76 193 176 76 193 176 76 193 176 76 193 176 76 193 176 76 193 176 76 193 176 76 193 176 76 193 176 76 0 0 255 193 176 76 193 176 76 0 0 255 0 0 255 95 139 71 95 139 71 95 139 71 95 139 71 95 139 71 95 139 71 95 139 71 0 0 255 0 0 255 95 139 71 95 139 71 95 139 71 0 0 255 0 0 255 193 176 76 0 0 255 0 0 255 185 64 42 185 64 42 185 64 42 185 64 42 185 64 42 185 64 42 0 0 255 0 0 255 0 0 255 0 0 255 185 64 42 185 64 42 185 64 42 185 64 42 185 64 42 185 64 42 0 0 255 0 0 255 185 64 42 185 64 42 185 64 42 185 64 42 185 64 42 185 64 42 185 64 42 185 64 42 185 64 42 0 0 255 185 64 42 185 64 42 185 64 42 185 64 42 185 64 42 185 64 42 185 64 42 0 0 255 185 64 42 185 64 42 185 64 42 185 64 42 185 64 42 185 64 42 0 0 255 0 0 255 193 176 76 193 176 76 193 176 76 193 176 76 193 176 76 193 176 76 193 176 76 193 176 76 193 176 76 193 176 76 193 176 76 0 0 255 0 0 255 95 139 71 95 139 71 95 139 71 95 139 71 95 139 71 95 139 71 95 139 71 95 139 71 95 139 71 95 139 71 95 139 71 95 139 71 95 139 71 95 139 71 95 139 71 0 0 255 0 0 255 0 0 255 0 0 255 0 0 255 0 0 255 0 0 255 0 0 255 0 0 255 0 0 255 0 0 255 0 0 255 0 0 255 0 0 255 0 0 255 0 0 255 193 197 164 193 197 164 193 197 164 193 197 164 193 197 164 193 197 164 193 197 164 193 197 164 193 197 164 193 197 164 193 197 164 193 197 164 193 197 164 192 190 139 192 190 139 192 190 139 192 190 139 192 190 139 192 190 139 192 190 139 192 190 139 192 190 139 192 190 139 192 190 139 192 190 139 192 190 139 192 190 139 192 190 139 192 190 139 192 190 139 192 190 139 192 190 139 192 190 139 192 190 139 192 190 139 192 190 139 192 190 139 192 190 139 192 190 139 192 190 139 192 190 139 192 190 139 192 190 139 192 190 139 192 190 139 192 190 139 192 190 139 192 190 139 0 0 255 0 0 255 107 129 71 0 0 255 0 0 255 70 38 44 70 38 44 70 38 44 70 38 44 70 38 44 70 38 44 70 38 44 70 38 44 70 38 44 70 38 44 70 38 44 70 38 44 70 38 44 70 38 44 70 38 44 70 38 44 70 38 44 70 38 44 70 38 44 70 38 44 70 38 44 70 38 44 70 38 44 70 38 44 70 38 44 70 38 44 70 38 44 70 38 44 70 38 44 70 38 44 70 38 44 70 38 44 70 38 44 70 38 44 70 38 44 0 0 255 0 0 255 0 0 255 0 0 255 0 0 255 0 0 255 0 0 255 0 0 255 0 0 255 193 176 76 193 176 76 193 176 76 193 176 76 193 176 76 193 176 76 193 176 76 193 176 76 193 176 76 193 176 76 193 176 76 193 176 76 193 176 76 193 176 76 193 176 76 0 0 255 0 0 255 179 67 44 179 67 44 179 67 44 179 67 44 179 67 44 179 67 44 179 67 44 179 67 44 179 67 44 179 67 44 179 67 44 179 67 44 0 0 255 0 0 255 193 176 76 0 0 255 0 0 255 193 176 76 193 176 76 193 176 76 193 176 76 193 176 76 193 176 76 193 176 76 193 176 76 193 176 76 193 176 76 193 176 76 193 176 76 193 176 76 193 176 76 0 0 255 0 0 255 0 0 255 193 176 76 0 0 255 0 0 255 0 0 255 0 0 255 95 139 71 95 139 71 95 139 71 95 139 71 95 139 71 95 139 71 95 139 71 95 139 71 95 139 71 95 139 71 0 0 255 0 0 255 0 0 255 0 0 255 185 64 42 185 64 42 185 64 42 185 64 42 185 64 42 185 64 42 185 64 42 185 64 42 0 0 255 0 0 255 185 64 42 185 64 42 185 64 42 185 64 42 185 64 42 185 64 42 185 64 42 185 64 42 185 64 42 185 64 42 185 64 42 185 64 42 185 64 42 185 64 42 185 64 42 185 64 42 185 64 42 185 64 42 185 64 42 185 64 42 185 64 42 185 64 42 185 64 42 185 64 42 185 64 42 0 0 255 0 0 255 0 0 255 185 64 42 185 64 42 185 64 42 185 64 42 185 64 42 0 0 255 0 0 255 193 176 76 193 176 76 193 176 76 193 176 76 193 176 76 193 176 76 193 176 76 193 176 76 193 176 76 193 176 76 193 176 76 193 176 76 0 0 255 0 0 255 0 0 255 95 139 71 95 139 71 95 139 71 95 139 71 95 139 71 95 139 71 95 139 71 95 139 71 95 139 71 95 139 71 95 139 71 95 139 71 95 139 71 0 0 255 0 0 255 0 0 255 196 201 168 196 201 168 196 201 168 196 201 168 196 201 168 196 201 168 196 201 168 0 0 255 0 0 255 0 0 255 0 0 255 0 0 255 0 0 255 0 0 255 0 0 255 0 0 255 0 0 255 0 0 255 0 0 255 0 0 255 193 197 164 193 197 164 193 197 164 193 197 164 193 197 164 193 197 164 192 190 139 192 190 139 192 190 139 192 190 139 192 190 139 192 190 139 192 190 139 192 190 139 192 190 139 192 190 139 192 190 139 192 190 139 192 190 139 192 190 139 192 190 139 192 190 139 192 190 139 192 190 139 192 190 139 192 190 139 192 190 139 192 190 139 192 190 139 192 190 139 192 190 139 192 190 139 192 190 139 192 190 139 192 190 139 192 190 139 192 190 139 192 190 139 192 190 139 192 190 139 192 190 139 0 0 255 0 0 255 107 129 71 0 0 255 0 0 255 70 38 44 70 38 44 70 38 44 70 38 44 70 38 44 70 38 44 70 38 44 70 38 44 70 38 44 70 38 44 70 38 44 70 38 44 70 38 44 70 38 44 70 38 44 70 38 44 70 38 44 70 38 44 70 38 44 70 38 44 70 38 44 70 38 44 70 38 44 70 38 44 70 38 44 70 38 44 70 38 44 70 38 44 70 38 44 70 38 44 70 38 44 70 38 44 70 38 44 70 38 44 0 0 255 0 0 255 0 0 255 0 0 255 0 0 255 0 0 255 107 129 71 0 0 255 107 129 71 0 0 255 0 0 255 193 176 76 193 176 76 193 176 76 193 176 76 193 176 76 193 176 76 193 176 76 193 176 76 193 176 76 193 176 76 193 176 76 193 176 76 193 176 76 0 0 255 0 0 255 0 0 255 179 67 44 179 67 44 179 67 44 179 67 44 179 67 44 179 67 44 179 67 44 179 67 44 179 67 44 179 67 44 179 67 44 179 67 44 0 0 255 0 0 255 0 0 255 0 0 255 0 0 255 0 0 255 193 176 76 193 176 76 193 176 76 193 176 76 193 176 76 193 176 76 193 176 76 193 176 76 193 176 76 193 176 76 193 176 76 193 176 76 193 176 76 0 0 255 0 0 255 0 0 255 0 0 255 0 0 255 0 0 255 0 0 255 0 0 255 0 0 255 0 0 255 95 139 71 95 139 71 95 139 71 95 139 71 95 139 71 95 139 71 95 139 71 0 0 255 0 0 255 193 176 76 0 0 255 0 0 255 185 64 42 185 64 42 185 64 42 185 64 42 185 64 42 185 64 42 185 64 42 185 64 42 185 64 42 185 64 42 185 64 42 185 64 42 185 64 42 185 64 42 185 64 42 185 64 42 185 64 42 185 64 42 185 64 42 185 64 42 185 64 42 185 64 42 185 64 42 0 0 255 185 64 42 185 64 42 185 64 42 185 64 42 185 64 42 185 64 42 185 64 42 185 64 42 185 64 42 185 64 42 185 64 42 185 64 42 0 0 255 185 64 42 185 64 42 185 64 42 185 64 42 185 64 42 185 64 42 0 0 255 0 0 255 0 0 255 0 0 255 193 176 76 193 176 76 193 176 76 193 176 76 193 176 76 193 176 76 193 176 76 193 176 76 193 176 76 193 176 76 193 176 76 0 0 255 0 0 255 0 0 255 95 139 71 95 139 71 95 139 71 95 139 71 95 139 71 95 139 71 95 139 71 95 139 71 95 139 71 95 139 71 95 139 71 0 0 255 0 0 255 0 0 255 196 201 168 196 201 168 196 201 168 196 201 168 196 201 168 196 201 168 196 201 168 196 201 168 196 201 168 196 201 168 196 201 168 196 201 168 196 201 168 196 201 168 0 0 255 0 0 255 0 0 255 0 0 255 0 0 255 0 0 255 0 0 255 0 0 255 0 0 255 0 0 255 0 0 255 0 0 255 193 197 164 192 190 139 192 190 139 192 190 139 192 190 139 192 190 139 192 190 139 192 190 139 192 190 139 192 190 139 192 190 139 192 190 139 192 190 139 192 190 139 192 190 139 192 190 139 192 190 139 192 190 139 192 190 139 192 190 139 192 190 139 192 190 139 192 190 139 192 190 139 192 190 139 192 190 139 192 190 139 192 190 139 192 190 139 192 190 139 192 190 139 192 190 139 192 190 139 192 190 139 192 190 139 192 190 139 0 0 255 0 0 255 107 129 71 0 0 255 0 0 255 70 38 44 70 38 44 70 38 44 70 38 44 70 38 44 70 38 44 70 38 44 70 38 44 70 38 44 70 38 44 70 38 44 70 38 44 70 38 44 70 38 44 70 38 44 70 38 44 0 0 255 0 0 255 0 0 255 0 0 255 70 38 44 70 38 44 70 38 44 70 38 44 70 38 44 70 38 44 70 38 44 70 38 44 70 38 44 70 38 44 70 38 44 70 38 44 70 38 44 0 0 255 0 0 255 0 0 255 0 0 255 192 192 143 0 0 255 0 0 255 107 129 71 107 129 71 107 129 71 0 0 255 0 0 255 0 0 255 193 176 76 193 176 76 193 176 76 193 176 76 193 176 76 193 176 76 193 176 76 193 176 76 193 176 76 193 176 76 193 176 76 193 176 76 193 176 76 0 0 255 0 0 255 179 67 44 179 67 44 179 67 44 179 67 44 0 0 255 0 0 255 0 0 255 0 0 255 0 0 255 0 0 255 0 0 255 0 0 255 0 0 255 0 0 255 0 0 255 179 67 44 0 0 255 0 0 255 193 176 76 193 176 76 193 176 76 193 176 76 193 176 76 193 176 76 193 176 76 193 176 76 193 176 76 193 176 76 193 176 76 193 176 76 193 176 76 193 176 76 0 0 255 0 0 255 0 0 255 0 0 255 185 64 42 185 64 42 185 64 42 0 0 255 0 0 255 0 0 255 0 0 255 95 139 71 95 139 71 95 139 71 95 139 71 95 139 71 0 0 255 0 0 255 0 0 255 0 0 255 0 0 255 185 64 42 185 64 42 185 64 42 185 64 42 185 64 42 185 64 42 185 64 42 185 64 42 185 64 42 185 64 42 185 64 42 185 64 42 185 64 42 185 64 42 185 64 42 185 64 42 185 64 42 185 64 42 185 64 42 185 64 42 185 64 42 185 64 42 0 0 255 0 0 255 0 0 255 185 64 42 185 64 42 185 64 42 185 64 42 185 64 42 185 64 42 185 64 42 185 64 42 185 64 42 185 64 42 185 64 42 185 64 42 185 64 42 185 64 42 185 64 42 185 64 42 185 64 42 185 64 42 0 0 255 0 0 255 0 0 255 0 0 255 0 0 255 193 176 76 193 176 76 193 176 76 193 176 76 193 176 76 193 176 76 193 176 76 193 176 76 193 176 76 193 176 76 193 176 76 193 176 76 0 0 255 0 0 255 95 139 71 95 139 71 95 139 71 95 139 71 95 139 71 95 139 71 95 139 71 95 139 71 95 139 71 0 0 255 0 0 255 0 0 255 196 201 168 196 201 168 196 201 168 196 201 168 196 201 168 196 201 168 196 201 168 196 201 168 196 201 168 196 201 168 196 201 168 196 201 168 196 201 168 196 201 168 196 201 168 196 201 168 196 201 168 196 201 168 196 201 168 196 201 168 196 201 168 196 201 168 0 0 255 0 0 255 0 0 255 0 0 255 0 0 255 196 201 168 192 190 139 192 190 139 192 190 139 192 190 139 192 190 139 192 190 139 192 190 139 192 190 139 192 190 139 192 190 139 192 190 139 192 190 139 192 190 139 192 190 139 192 190 139 192 190 139 192 190 139 192 190 139 192 190 139 192 190 139 192 190 139 192 190 139 192 190 139 192 190 139 192 190 139 192 190 139 192 190 139 192 190 139 192 190 139 192 190 139 192 190 139 192 190 139 192 190 139 192 190 139 192 190 139 0 0 255 0 0 255 107 129 71 0 0 255 0 0 255 70 38 44 70 38 44 70 38 44 70 38 44 70 38 44 70 38 44 70 38 44 70 38 44 70 38 44 70 38 44 70 38 44 70 38 44 70 38 44 70 38 44 70 38 44 0 0 255 0 0 255 0 0 255 0 0 255 0 0 255 0 0 255 70 38 44 70 38 44 70 38 44 70 38 44 70 38 44 70 38 44 70 38 44 70 38 44 70 38 44 70 38 44 0 0 255 0 0 255 0 0 255 0 0 255 0 0 255 192 192 143 192 192 143 0 0 255 0 0 255 107 129 71 107 129 71 0 0 255 0 0 255 0 0 255 0 0 255 0 0 255 193 176 76 193 176 76 193 176 76 193 176 76 193 176 76 193 176 76 193 176 76 193 176 76 193 176 76 193 176 76 193 176 76 193 176 76 193 176 76 0 0 255 0 0 255 179 67 44 179 67 44 0 0 255 0 0 255 0 0 255 0 0 255 0 0 255 0 0 255 0 0 255 0 0 255 0 0 255 0 0 255 0 0 255 0 0 255 179 67 44 0 0 255 0 0 255 193 176 76 193 176 76 193 176 76 193 176 76 193 176 76 193 176 76 193 176 76 193 176 76 193 176 76 193 176 76 193 176 76 193 176 76 193 176 76 193 176 76 193 176 76 0 0 255 0 0 255 185 64 42 185 64 42 185 64 42 185 64 42 185 64 42 185 64 42 0 0 255 0 0 255 0 0 255 95 139 71 95 139 71 0 0 255 0 0 255 0 0 255 193 176 76 0 0 255 0 0 255 0 0 255 185 64 42 185 64 42 185 64 42 185 64 42 185 64 42 185 64 42 185 64 42 185 64 42 185 64 42 185 64 42 185 64 42 185 64 42 185 64 42 185 64 42 185 64 42 185 64 42 185 64 42 185 64 42 185 64 42 185 64 42 185 64 42 185 64 42 0 0 255 0 0 255 0 0 255 185 64 42 185 64 42 185 64 42 185 64 42 185 64 42 185 64 42 185 64 42 185 64 42 185 64 42 185 64 42 185 64 42 185 64 42 185 64 42 185 64 42 185 64 42 0 0 255 0 0 255 0 0 255 0 0 255 0 0 255 185 64 42 185 64 42 0 0 255 0 0 255 193 176 76 193 176 76 193 176 76 193 176 76 193 176 76 193 176 76 193 176 76 193 176 76 193 176 76 193 176 76 193 176 76 193 176 76 0 0 255 0 0 255 95 139 71 95 139 71 95 139 71 95 139 71 95 139 71 95 139 71 95 139 71 0 0 255 0 0 255 0 0 255 196 201 168 196 201 168 196 201 168 196 201 168 196 201 168 196 201 168 196 201 168 196 201 168 196 201 168 196 201 168 196 201 168 196 201 168 196 201 168 196 201 168 196 201 168 196 201 168 196 201 168 196 201 168 196 201 168 196 201 168 196 201 168 196 201 168 196 201 168 196 201 168 196 201 168 196 201 168 196 201 168 196 201 168 196 201 168 192 190 139 192 190 139 192 190 139 192 190 139 192 190 139 192 190 139 192 190 139 192 190 139 192 190 139 192 190 139 192 190 139 192 190 139 192 190 139 192 190 139 192 190 139 192 190 139 192 190 139 192 190 139 192 190 139 192 190 139 192 190 139 192 190 139 192 190 139 192 190 139 192 190 139 192 190 139 192 190 139 192 190 139 192 190 139 192 190 139 0 0 255 0 0 255 0 0 255 192 190 139 192 190 139 0 0 255 0 0 255 107 129 71 107 129 71 0 0 255 0 0 255 70 38 44 70 38 44 70 38 44 70 38 44 70 38 44 70 38 44 70 38 44 70 38 44 70 38 44 70 38 44 70 38 44 70 38 44 0 0 255 0 0 255 0 0 255 0 0 255 0 0 255 0 0 255 0 0 255 0 0 255 70 38 44 70 38 44 70 38 44 70 38 44 70 38 44 70 38 44 70 38 44 70 38 44 0 0 255 0 0 255 0 0 255 0 0 255 0 0 255 0 0 255 192 192 143 192 192 143 192 192 143 0 0 255 0 0 255 107 129 71 107 129 71 0 0 255 0 0 255 179 67 44 179 67 44 0 0 255 0 0 255 193 176 76 193 176 76 193 176 76 193 176 76 193 176 76 193 176 76 193 176 76 193 176 76 193 176 76 193 176 76 193 176 76 193 176 76 193 176 76 0 0 255 0 0 255 0 0 255 0 0 255 70 38 44 70 38 44 70 38 44 70 38 44 70 38 44 70 38 44 70 38 44 70 38 44 0 0 255 0 0 255 0 0 255 179 67 44 0 0 255 0 0 255 0 0 255 193 176 76 193 176 76 193 176 76 193 176 76 193 176 76 193 176 76 193 176 76 193 176 76 193 176 76 193 176 76 193 176 76 193 176 76 193 176 76 0 0 255 0 0 255 185 64 42 185 64 42 185 64 42 185 64 42 185 64 42 185 64 42 185 64 42 185 64 42 185 64 42 0 0 255 0 0 255 0 0 255 0 0 255 0 0 255 0 0 255 193 176 76 0 0 255 0 0 255 0 0 255 185 64 42 185 64 42 185 64 42 185 64 42 185 64 42 185 64 42 185 64 42 185 64 42 185 64 42 185 64 42 185 64 42 185 64 42 185 64 42 185 64 42 185 64 42 185 64 42 185 64 42 185 64 42 185 64 42 185 64 42 185 64 42 185 64 42 185 64 42 0 0 255 185 64 42 185 64 42 185 64 42 185 64 42 185 64 42 185 64 42 185 64 42 185 64 42 185 64 42 185 64 42 185 64 42 185 64 42 185 64 42 185 64 42 0 0 255 0 0 255 0 0 255 0 0 255 0 0 255 0 0 255 0 0 255 0 0 255 0 0 255 0 0 255 193 176 76 193 176 76 193 176 76 193 176 76 193 176 76 193 176 76 193 176 76 193 176 76 0 0 255 193 176 76 193 176 76 193 176 76 193 176 76 0 0 255 0 0 255 95 139 71 95 139 71 95 139 71 95 139 71 95 139 71 95 139 71 0 0 255 0 0 255 0 0 255 196 201 168 196 201 168 196 201 168 196 201 168 196 201 168 196 201 168 196 201 168 196 201 168 196 201 168 196 201 168 196 201 168 196 201 168 196 201 168 196 201 168 196 201 168 196 201 168 196 201 168 196 201 168 196 201 168 196 201 168 196 201 168 196 201 168 196 201 168 196 201 168 196 201 168 196 201 168 196 201 168 196 201 168 196 201 168 196 201 168 192 190 139 192 190 139 192 190 139 192 190 139 192 190 139 192 190 139 192 190 139 192 190 139 192 190 139 192 190 139 192 190 139 192 190 139 192 190 139 192 190 139 192 190 139 192 190 139 192 190 139 192 190 139 192 190 139 192 190 139 192 190 139 192 190 139 192 190 139 192 190 139 192 190 139 192 190 139 192 190 139 0 0 255 0 0 255 0 0 255 0 0 255 0 0 255 0 0 255 0 0 255 0 0 255 192 190 139 0 0 255 0 0 255 107 129 71 0 0 255 0 0 255 70 38 44 70 38 44 70 38 44 70 38 44 70 38 44 70 38 44 70 38 44 70 38 44 70 38 44 70 38 44 70 38 44 0 0 255 0 0 255 0 0 255 0 0 255 0 0 255 0 0 255 0 0 255 0 0 255 70 38 44 70 38 44 70 38 44 70 38 44 70 38 44 70 38 44 70 38 44 70 38 44 0 0 255 0 0 255 0 0 255 0 0 255 0 0 255 192 192 143 192 192 143 192 192 143 192 192 143 192 192 143 192 192 143 0 0 255 0 0 255 107 129 71 107 129 71 0 0 255 0 0 255 179 67 44 0 0 255 0 0 255 0 0 255 193 176 76 193 176 76 193 176 76 193 176 76 193 176 76 193 176 76 193 176 76 193 176 76 193 176 76 193 176 76 193 176 76 193 176 76 0 0 255 0 0 255 0 0 255 0 0 255 70 38 44 70 38 44 70 38 44 70 38 44 70 38 44 70 38 44 70 38 44 70 38 44 70 38 44 70 38 44 0 0 255 0 0 255 0 0 255 0 0 255 0 0 255 193 176 76 193 176 76 193 176 76 193 176 76 193 176 76 193 176 76 193 176 76 193 176 76 193 176 76 193 176 76 193 176 76 193 176 76 0 0 255 0 0 255 185 64 42 185 64 42 185 64 42 185 64 42 185 64 42 185 64 42 185 64 42 185 64 42 185 64 42 185 64 42 185 64 42 0 0 255 0 0 255 0 0 255 0 0 255 0 0 255 0 0 255 0 0 255 0 0 255 0 0 255 185 64 42 185 64 42 185 64 42 185 64 42 185 64 42 185 64 42 185 64 42 185 64 42 185 64 42 185 64 42 185 64 42 185 64 42 185 64 42 185 64 42 185 64 42 185 64 42 185 64 42 185 64 42 185 64 42 185 64 42 185 64 42 185 64 42 185 64 42 185 64 42 185 64 42 185 64 42 185 64 42 185 64 42 185 64 42 185 64 42 185 64 42 185 64 42 185 64 42 185 64 42 185 64 42 185 64 42 0 0 255 0 0 255 0 0 255 0 0 255 0 0 255 196 201 168 0 0 255 0 0 255 0 0 255 0 0 255 0 0 255 0 0 255 193 176 76 193 176 76 193 176 76 193 176 76 193 176 76 193 176 76 193 176 76 0 0 255 0 0 255 0 0 255 193 176 76 193 176 76 193 176 76 193 176 76 0 0 255 0 0 255 95 139 71 95 139 71 0 0 255 0 0 255 0 0 255 0 0 255 196 201 168 196 201 168 196 201 168 196 201 168 196 201 168 196 201 168 196 201 168 196 201 168 196 201 168 196 201 168 196 201 168 196 201 168 196 201 168 196 201 168 196 201 168 196 201 168 196 201 168 196 201 168 196 201 168 196 201 168 196 201 168 196 201 168 196 201 168 196 201 168 196 201 168 196 201 168 196 201 168 196 201 168 196 201 168 196 201 168 196 201 168 196 201 168 192 190 139 192 190 139 192 190 139 192 190 139 192 190 139 192 190 139 192 190 139 192 190 139 192 190 139 192 190 139 192 190 139 192 190 139 192 190 139 192 190 139 192 190 139 192 190 139 192 190 139 192 190 139 192 190 139 192 190 139 192 190 139 192 190 139 0 0 255 0 0 255 192 190 139 0 0 255 0 0 255 0 0 255 0 0 255 0 0 255 192 192 143 192 192 143 192 192 143 0 0 255 0 0 255 0 0 255 0 0 255 0 0 255 0 0 255 107 129 71 0 0 255 0 0 255 0 0 255 70 38 44 70 38 44 70 38 44 70 38 44 70 38 44 70 38 44 70 38 44 70 38 44 70 38 44 70 38 44 0 0 255 70 38 44 70 38 44 70 38 44 70 38 44 70 38 44 70 38 44 70 38 44 70 38 44 70 38 44 70 38 44 70 38 44 0 0 255 0 0 255 0 0 255 0 0 255 0 0 255 0 0 255 0 0 255 192 192 143 192 192 143 192 192 143 192 192 143 192 192 143 192 192 143 192 192 143 0 0 255 0 0 255 0 0 255 107 129 71 0 0 255 0 0 255 0 0 255 0 0 255 0 0 255 0 0 255 193 176 76 193 176 76 193 176 76 193 176 76 193 176 76 193 176 76 193 176 76 193 176 76 193 176 76 193 176 76 193 176 76 193 176 76 193 176 76 0 0 255 0 0 255 0 0 255 70 38 44 70 38 44 70 38 44 70 38 44 70 38 44 70 38 44 70 38 44 70 38 44 70 38 44 70 38 44 70 38 44 0 0 255 0 0 255 0 0 255 0 0 255 0 0 255 193 176 76 193 176 76 193 176 76 193 176 76 193 176 76 193 176 76 193 176 76 193 176 76 193 176 76 193 176 76 0 0 255 0 0 255 185 64 42 185 64 42 185 64 42 185 64 42 185 64 42 185 64 42 185 64 42 0 0 255 0 0 255 185 64 42 185 64 42 185 64 42 0 0 255 0 0 255 0 0 255 194 201 169 0 0 255 0 0 255 193 176 76 0 0 255 0 0 255 185 64 42 185 64 42 185 64 42 185 64 42 185 64 42 185 64 42 185 64 42 185 64 42 185 64 42 185 64 42 185 64 42 185 64 42 185 64 42 185 64 42 185 64 42 185 64 42 185 64 42 185 64 42 185 64 42 185 64 42 185 64 42 185 64 42 185 64 42 185 64 42 185 64 42 185 64 42 185 64 42 185 64 42 185 64 42 185 64 42 185 64 42 185 64 42 185 64 42 185 64 42 185 64 42 0 0 255 0 0 255 0 0 255 0 0 255 0 0 255 196 201 168 196 201 168 196 201 168 0 0 255 0 0 255 0 0 255 0 0 255 0 0 255 0 0 255 193 176 76 193 176 76 193 176 76 193 176 76 193 176 76 193 176 76 193 176 76 0 0 255 193 176 76 193 176 76 193 176 76 193 176 76 193 176 76 0 0 255 0 0 255 0 0 255 0 0 255 0 0 255 0 0 255 0 0 255 196 201 168 196 201 168 196 201 168 196 201 168 196 201 168 196 201 168 196 201 168 196 201 168 196 201 168 196 201 168 196 201 168 196 201 168 196 201 168 196 201 168 196 201 168 196 201 168 196 201 168 196 201 168 196 201 168 196 201 168 196 201 168 196 201 168 196 201 168 196 201 168 196 201 168 196 201 168 196 201 168 196 201 168 196 201 168 196 201 168 196 201 168 196 201 168 196 201 168 192 190 139 192 190 139 192 190 139 192 190 139 192 190 139 192 190 139 192 190 139 192 190 139 192 190 139 192 190 139 192 190 139 192 190 139 192 190 139 192 190 139 192 190 139 192 190 139 192 190 139 0 0 255 0 0 255 0 0 255 0 0 255 0 0 255 0 0 255 0 0 255 0 0 255 0 0 255 0 0 255 192 192 143 192 192 143 192 192 143 192 192 143 192 192 143 192 192 143 192 192 143 192 192 143 0 0 255 0 0 255 0 0 255 0 0 255 0 0 255 0 0 255 0 0 255 0 0 255 0 0 255 0 0 255 0 0 255 0 0 255 0 0 255 0 0 255 0 0 255 70 38 44 70 38 44 70 38 44 70 38 44 70 38 44 70 38 44 70 38 44 70 38 44 70 38 44 70 38 44 70 38 44 70 38 44 70 38 44 70 38 44 0 0 255 0 0 255 0 0 255 0 0 255 0 0 255 0 0 255 0 0 255 192 192 143 192 192 143 192 192 143 192 192 143 192 192 143 0 0 255 0 0 255 0 0 255 0 0 255 0 0 255 0 0 255 0 0 255 0 0 255 0 0 255 0 0 255 0 0 255 0 0 255 193 176 76 193 176 76 193 176 76 193 176 76 193 176 76 193 176 76 193 176 76 193 176 76 193 176 76 193 176 76 193 176 76 193 176 76 193 176 76 193 176 76 0 0 255 0 0 255 0 0 255 70 38 44 70 38 44 70 38 44 70 38 44 70 38 44 70 38 44 70 38 44 70 38 44 70 38 44 70 38 44 70 38 44 70 38 44 0 0 255 0 0 255 0 0 255 0 0 255 0 0 255 193 176 76 193 176 76 193 176 76 193 176 76 193 176 76 193 176 76 193 176 76 193 176 76 193 176 76 0 0 255 0 0 255 185 64 42 185 64 42 185 64 42 185 64 42 185 64 42 185 64 42 0 0 255 0 0 255 0 0 255 0 0 255 185 64 42 185 64 42 0 0 255 0 0 255 0 0 255 194 201 169 194 201 169 0 0 255 0 0 255 0 0 255 0 0 255 0 0 255 185 64 42 185 64 42 185 64 42 185 64 42 185 64 42 185 64 42 185 64 42 185 64 42 185 64 42 185 64 42 185 64 42 185 64 42 185 64 42 185 64 42 185 64 42 185 64 42 185 64 42 185 64 42 185 64 42 185 64 42 185 64 42 185 64 42 185 64 42 185 64 42 185 64 42 185 64 42 185 64 42 185 64 42 185 64 42 185 64 42 185 64 42 185 64 42 0 0 255 0 0 255 0 0 255 0 0 255 0 0 255 196 201 168 196 201 168 196 201 168 196 201 168 0 0 255 0 0 255 0 0 255 0 0 255 185 64 42 0 0 255 0 0 255 193 176 76 193 176 76 193 176 76 193 176 76 193 176 76 193 176 76 193 176 76 193 176 76 193 176 76 193 176 76 193 176 76 193 176 76 0 0 255 0 0 255 0 0 255 0 0 255 0 0 255 196 201 168 196 201 168 196 201 168 196 201 168 196 201 168 196 201 168 196 201 168 196 201 168 196 201 168 196 201 168 196 201 168 196 201 168 196 201 168 196 201 168 196 201 168 196 201 168 196 201 168 196 201 168 196 201 168 196 201 168 196 201 168 196 201 168 196 201 168 196 201 168 196 201 168 196 201 168 196 201 168 196 201 168 196 201 168 196 201 168 196 201 168 196 201 168 196 201 168 196 201 168 196 201 168 196 201 168 192 190 139 192 190 139 192 190 139 192 190 139 192 190 139 192 190 139 192 190 139 192 190 139 192 190 139 192 190 139 192 190 139 192 190 139 192 190 139 0 0 255 0 0 255 0 0 255 0 0 255 0 0 255 0 0 255 0 0 255 0 0 255 0 0 255 192 192 143 192 192 143 0 0 255 192 192 143 0 0 255 0 0 255 0 0 255 0 0 255 0 0 255 0 0 255 192 192 143 192 192 143 192 192 143 192 192 143 192 192 143 192 192 143 0 0 255 0 0 255 0 0 255 0 0 255 0 0 255 0 0 255 0 0 255 0 0 255 0 0 255 0 0 255 0 0 255 0 0 255 0 0 255 70 38 44 70 38 44 70 38 44 70 38 44 70 38 44 70 38 44 70 38 44 70 38 44 70 38 44 70 38 44 70 38 44 70 38 44 70 38 44 0 0 255 0 0 255 0 0 255 0 0 255 0 0 255 192 192 143 192 192 143 192 192 143 192 192 143 192 192 143 192 192 143 0 0 255 0 0 255 0 0 255 0 0 255 0 0 255 0 0 255 0 0 255 0 0 255 0 0 255 0 0 255 0 0 255 0 0 255 0 0 255 193 176 76 193 176 76 193 176 76 193 176 76 193 176 76 193 176 76 193 176 76 193 176 76 193 176 76 193 176 76 193 176 76 193 176 76 193 176 76 0 0 255 0 0 255 0 0 255 70 38 44 70 38 44 70 38 44 70 38 44 70 38 44 70 38 44 70 38 44 70 38 44 70 38 44 70 38 44 70 38 44 70 38 44 70 38 44 0 0 255 0 0 255 179 67 44 0 0 255 0 0 255 193 176 76 193 176 76 193 176 76 193 176 76 193 176 76 193 176 76 193 176 76 193 176 76 0 0 255 0 0 255 185 64 42 185 64 42 185 64 42 185 64 42 185 64 42 185 64 42 0 0 255 0 0 255 193 176 76 0 0 255 0 0 255 185 64 42 185 64 42 0 0 255 0 0 255 0 0 255 194 201 169 194 201 169 194 201 169 0 0 255 0 0 255 0 0 255 0 0 255 0 0 255 185 64 42 185 64 42 185 64 42 185 64 42 185 64 42 185 64 42 185 64 42 185 64 42 185 64 42 185 64 42 185 64 42 185 64 42 185 64 42 185 64 42 185 64 42 185 64 42 185 64 42 185 64 42 185 64 42 185 64 42 185 64 42 185 64 42 185 64 42 185 64 42 185 64 42 185 64 42 185 64 42 185 64 42 185 64 42 185 64 42 0 0 255 0 0 255 0 0 255 0 0 255 0 0 255 196 201 168 196 201 168 196 201 168 196 201 168 196 201 168 0 0 255 0 0 255 0 0 255 0 0 255 0 0 255 0 0 255 193 176 76 193 176 76 193 176 76 193 176 76 193 176 76 193 176 76 193 176 76 193 176 76 193 176 76 193 176 76 193 176 76 193 176 76 193 176 76 0 0 255 0 0 255 196 201 168 196 201 168 196 201 168 196 201 168 196 201 168 196 201 168 196 201 168 196 201 168 196 201 168 196 201 168 196 201 168 196 201 168 196 201 168 196 201 168 196 201 168 196 201 168 196 201 168 196 201 168 196 201 168 196 201 168 196 201 168 196 201 168 196 201 168 196 201 168 196 201 168 196 201 168 196 201 168 196 201 168 196 201 168 196 201 168 196 201 168 196 201 168 196 201 168 196 201 168 196 201 168 196 201 168 196 201 168 196 201 168 196 201 168 192 190 139 192 190 139 192 190 139 192 190 139 192 190 139 192 190 139 192 190 139 192 190 139 0 0 255 0 0 255 0 0 255 0 0 255 0 0 255 0 0 255 0 0 255 0 0 255 0 0 255 192 192 143 192 192 143 192 192 143 192 192 143 192 192 143 192 192 143 192 192 143 0 0 255 0 0 255 0 0 255 0 0 255 0 0 255 0 0 255 0 0 255 0 0 255 0 0 255 0 0 255 192 192 143 192 192 143 192 192 143 192 192 143 192 192 143 192 192 143 192 192 143 192 192 143 0 0 255 0 0 255 0 0 255 0 0 255 0 0 255 0 0 255 0 0 255 0 0 255 70 38 44 70 38 44 70 38 44 70 38 44 70 38 44 70 38 44 70 38 44 0 0 255 0 0 255 70 38 44 70 38 44 70 38 44 70 38 44 70 38 44 0 0 255 0 0 255 0 0 255 192 192 143 192 192 143 192 192 143 192 192 143 192 192 143 192 192 143 192 192 143 0 0 255 0 0 255 179 67 44 179 67 44 179 67 44 179 67 44 179 67 44 179 67 44 179 67 44 0 0 255 0 0 255 0 0 255 0 0 255 0 0 255 193 176 76 193 176 76 193 176 76 193 176 76 193 176 76 193 176 76 193 176 76 193 176 76 193 176 76 193 176 76 193 176 76 193 176 76 193 176 76 0 0 255 0 0 255 0 0 255 70 38 44 70 38 44 70 38 44 70 38 44 70 38 44 70 38 44 70 38 44 0 0 255 0 0 255 0 0 255 70 38 44 70 38 44 70 38 44 0 0 255 0 0 255 0 0 255 0 0 255 0 0 255 193 176 76 193 176 76 193 176 76 193 176 76 193 176 76 193 176 76 193 176 76 193 176 76 0 0 255 0 0 255 185 64 42 185 64 42 185 64 42 185 64 42 185 64 42 185 64 42 0 0 255 0 0 255 193 176 76 0 0 255 0 0 255 185 64 42 185 64 42 0 0 255 0 0 255 0 0 255 194 201 169 194 201 169 194 201 169 194 201 169 0 0 255 0 0 255 0 0 255 0 0 255 0 0 255 185 64 42 185 64 42 185 64 42 185 64 42 185 64 42 185 64 42 185 64 42 185 64 42 185 64 42 185 64 42 185 64 42 185 64 42 185 64 42 185 64 42 185 64 42 185 64 42 185 64 42 185 64 42 185 64 42 185 64 42 185 64 42 185 64 42 185 64 42 185 64 42 185 64 42 185 64 42 185 64 42 185 64 42 0 0 255 0 0 255 0 0 255 0 0 255 196 201 168 196 201 168 196 201 168 196 201 168 196 201 168 196 201 168 196 201 168 0 0 255 0 0 255 0 0 255 0 0 255 0 0 255 0 0 255 193 176 76 193 176 76 193 176 76 193 176 76 193 176 76 193 176 76 193 176 76 193 176 76 193 176 76 193 176 76 193 176 76 193 176 76 0 0 255 0 0 255 196 201 168 196 201 168 196 201 168 196 201 168 196 201 168 196 201 168 196 201 168 196 201 168 196 201 168 196 201 168 196 201 168 196 201 168 196 201 168 196 201 168 196 201 168 196 201 168 196 201 168 196 201 168 196 201 168 196 201 168 196 201 168 196 201 168 196 201 168 196 201 168 196 201 168 196 201 168 196 201 168 196 201 168 196 201 168 196 201 168 196 201 168 196 201 168 196 201 168 196 201 168 196 201 168 196 201 168 196 201 168 196 201 168 196 201 168 196 201 168 192 190 139 192 190 139 0 0 255 0 0 255 0 0 255 0 0 255 0 0 255 0 0 255 0 0 255 0 0 255 0 0 255 0 0 255 0 0 255 192 192 143 192 192 143 192 192 143 192 192 143 192 192 143 192 192 143 192 192 143 192 192 143 192 192 143 192 192 143 0 0 255 0 0 255 0 0 255 0 0 255 0 0 255 0 0 255 0 0 255 0 0 255 0 0 255 0 0 255 0 0 255 0 0 255 192 192 143 192 192 143 192 192 143 192 192 143 192 192 143 192 192 143 192 192 143 192 192 143 192 192 143 192 192 143 192 192 143 192 192 143 0 0 255 0 0 255 70 38 44 70 38 44 70 38 44 70 38 44 70 38 44 70 38 44 70 38 44 0 0 255 0 0 255 0 0 255 0 0 255 70 38 44 70 38 44 70 38 44 70 38 44 70 38 44 0 0 255 0 0 255 192 192 143 192 192 143 192 192 143 192 192 143 192 192 143 192 192 143 0 0 255 0 0 255 179 67 44 179 67 44 179 67 44 179 67 44 179 67 44 179 67 44 179 67 44 179 67 44 179 67 44 179 67 44 179 67 44 0 0 255 0 0 255 193 176 76 193 176 76 193 176 76 193 176 76 193 176 76 193 176 76 193 176 76 193 176 76 193 176 76 193 176 76 193 176 76 193 176 76 193 176 76 0 0 255 0 0 255 70 38 44 70 38 44 70 38 44 70 38 44 70 38 44 70 38 44 70 38 44 0 0 255 0 0 255 0 0 255 0 0 255 0 0 255 70 38 44 70 38 44 70 38 44 0 0 255 0 0 255 0 0 255 193 176 76 193 176 76 193 176 76 193 176 76 193 176 76 193 176 76 193 176 76 193 176 76 193 176 76 0 0 255 0 0 255 185 64 42 185 64 42 185 64 42 185 64 42 185 64 42 185 64 42 0 0 255 0 0 255 0 0 255 0 0 255 0 0 255 185 64 42 185 64 42 0 0 255 0 0 255 0 0 255 194 201 169 194 201 169 194 201 169 194 201 169 194 201 169 0 0 255 0 0 255 0 0 255 0 0 255 185 64 42 185 64 42 185 64 42 185 64 42 185 64 42 185 64 42 0 0 255 0 0 255 185 64 42 185 64 42 185 64 42 185 64 42 185 64 42 185 64 42 185 64 42 185 64 42 185 64 42 185 64 42 185 64 42 185 64 42 185 64 42 185 64 42 185 64 42 185 64 42 185 64 42 185 64 42 185 64 42 185 64 42 185 64 42 0 0 255 0 0 255 0 0 255 196 201 168 196 201 168 196 201 168 196 201 168 196 201 168 196 201 168 196 201 168 196 201 168 0 0 255 0 0 255 0 0 255 185 64 42 0 0 255 0 0 255 193 176 76 193 176 76 193 176 76 193 176 76 193 176 76 193 176 76 193 176 76 193 176 76 193 176 76 193 176 76 0 0 255 0 0 255 196 201 168 196 201 168 196 201 168 196 201 168 196 201 168 196 201 168 196 201 168 196 201 168 196 201 168 196 201 168 196 201 168 196 201 168 196 201 168 196 201 168 196 201 168 196 201 168 196 201 168 196 201 168 196 201 168 196 201 168 196 201 168 196 201 168 196 201 168 196 201 168 196 201 168 196 201 168 196 201 168 196 201 168 196 201 168 196 201 168 196 201 168 196 201 168 196 201 168 196 201 168 196 201 168 196 201 168 196 201 168 196 201 168 196 201 168 196 201 168 196 201 168 192 190 139 0 0 255 0 0 255 0 0 255 0 0 255 0 0 255 0 0 255 0 0 255 192 192 143 192 192 143 192 192 143 192 192 143 192 192 143 192 192 143 192 192 143 192 192 143 192 192 143 192 192 143 192 192 143 192 192 143 192 192 143 192 192 143 0 0 255 0 0 255 0 0 255 179 67 44 179 67 44 179 67 44 179 67 44 179 67 44 179 67 44 179 67 44 179 67 44 179 67 44 0 0 255 0 0 255 192 192 143 192 192 143 192 192 143 192 192 143 192 192 143 192 192 143 192 192 143 192 192 143 192 192 143 192 192 143 0 0 255 0 0 255 0 0 255 70 38 44 70 38 44 70 38 44 70 38 44 70 38 44 70 38 44 0 0 255 0 0 255 0 0 255 0 0 255 0 0 255 0 0 255 70 38 44 70 38 44 70 38 44 70 38 44 0 0 255 0 0 255 192 192 143 192 192 143 192 192 143 192 192 143 192 192 143 0 0 255 0 0 255 0 0 255 179 67 44 179 67 44 179 67 44 179 67 44 179 67 44 179 67 44 179 67 44 179 67 44 179 67 44 179 67 44 179 67 44 0 0 255 0 0 255 193 176 76 193 176 76 193 176 76 193 176 76 193 176 76 193 176 76 193 176 76 193 176 76 193 176 76 193 176 76 193 176 76 193 176 76 193 176 76 0 0 255 0 0 255 70 38 44 70 38 44 70 38 44 70 38 44 70 38 44 70 38 44 70 38 44 0 0 255 0 0 255 0 0 255 0 0 255 0 0 255 70 38 44 70 38 44 0 0 255 0 0 255 0 0 255 0 0 255 193 176 76 193 176 76 193 176 76 193 176 76 193 176 76 193 176 76 193 176 76 193 176 76 193 176 76 193 176 76 0 0 255 0 0 255 185 64 42 185 64 42 185 64 42 185 64 42 185 64 42 185 64 42 0 0 255 0 0 255 0 0 255 185 64 42 185 64 42 185 64 42 0 0 255 0 0 255 0 0 255 194 201 169 194 201 169 194 201 169 194 201 169 194 201 169 0 0 255 0 0 255 0 0 255 185 64 42 185 64 42 185 64 42 185 64 42 185 64 42 185 64 42 0 0 255 0 0 255 0 0 255 0 0 255 185 64 42 185 64 42 185 64 42 185 64 42 185 64 42 0 0 255 185 64 42 185 64 42 185 64 42 185 64 42 185 64 42 185 64 42 185 64 42 185 64 42 185 64 42 185 64 42 185 64 42 185 64 42 185 64 42 185 64 42 0 0 255 0 0 255 0 0 255 196 201 168 196 201 168 196 201 168 196 201 168 196 201 168 196 201 168 196 201 168 196 201 168 0 0 255 0 0 255 0 0 255 0 0 255 0 0 255 0 0 255 193 176 76 193 176 76 193 176 76 193 176 76 193 176 76 193 176 76 193 176 76 193 176 76 193 176 76 193 176 76 0 0 255 0 0 255 196 201 168 196 201 168 196 201 168 196 201 168 196 201 168 196 201 168 196 201 168 196 201 168 196 201 168 196 201 168 196 201 168 196 201 168 196 201 168 196 201 168 196 201 168 196 201 168 196 201 168 196 201 168 196 201 168 196 201 168 196 201 168 196 201 168 196 201 168 196 201 168 196 201 168 196 201 168 196 201 168 196 201 168 196 201 168 196 201 168 196 201 168 196 201 168 196 201 168 196 201 168 196 201 168 196 201 168 196 201 168 196 201 168 196 201 168 196 201 168 196 201 168 192 192 143 0 0 255 192 192 143 192 192 143 192 192 143 192 192 143 192 192 143 192 192 143 192 192 143 192 192 143 192 192 143 192 192 143 192 192 143 192 192 143 192 192 143 192 192 143 192 192 143 192 192 143 192 192 143 192 192 143 192 192 143 0 0 255 0 0 255 0 0 255 179 67 44 179 67 44 179 67 44 179 67 44 179 67 44 179 67 44 179 67 44 179 67 44 179 67 44 179 67 44 179 67 44 0 0 255 0 0 255 192 192 143 192 192 143 192 192 143 192 192 143 192 192 143 192 192 143 192 192 143 192 192 143 192 192 143 0 0 255 0 0 255 70 38 44 70 38 44 70 38 44 70 38 44 70 38 44 70 38 44 70 38 44 70 38 44 0 0 255 0 0 255 0 0 255 0 0 255 0 0 255 70 38 44 70 38 44 70 38 44 70 38 44 0 0 255 0 0 255 0 0 255 192 192 143 192 192 143 192 192 143 192 192 143 0 0 255 0 0 255 179 67 44 179 67 44 179 67 44 179 67 44 179 67 44 0 0 255 179 67 44 179 67 44 179 67 44 179 67 44 179 67 44 179 67 44 179 67 44 0 0 255 0 0 255 193 176 76 193 176 76 193 176 76 193 176 76 193 176 76 193 176 76 193 176 76 193 176 76 193 176 76 193 176 76 193 176 76 193 176 76 0 0 255 0 0 255 0 0 255 70 38 44 70 38 44 70 38 44 70 38 44 70 38 44 70 38 44 70 38 44 0 0 255 0 0 255 0 0 255 0 0 255 70 38 44 70 38 44 0 0 255 0 0 255 0 0 255 0 0 255 193 176 76 193 176 76 193 176 76 193 176 76 193 176 76 193 176 76 193 176 76 193 176 76 193 176 76 193 176 76 0 0 255 0 0 255 185 64 42 185 64 42 185 64 42 185 64 42 185 64 42 185 64 42 185 64 42 185 64 42 185 64 42 185 64 42 185 64 42 185 64 42 0 0 255 0 0 255 0 0 255 194 201 169 194 201 169 194 201 169 194 201 169 194 201 169 0 0 255 0 0 255 0 0 255 185 64 42 185 64 42 185 64 42 185 64 42 185 64 42 185 64 42 0 0 255 0 0 255 193 176 76 0 0 255 0 0 255 185 64 42 185 64 42 185 64 42 0 0 255 0 0 255 0 0 255 185 64 42 185 64 42 185 64 42 185 64 42 185 64 42 185 64 42 185 64 42 185 64 42 185 64 42 185 64 42 185 64 42 185 64 42 185 64 42 185 64 42 0 0 255 0 0 255 196 201 168 196 201 168 196 201 168 196 201 168 196 201 168 196 201 168 196 201 168 196 201 168 196 201 168 0 0 255 0 0 255 0 0 255 0 0 255 0 0 255 193 176 76 193 176 76 193 176 76 193 176 76 193 176 76 193 176 76 193 176 76 193 176 76 0 0 255 0 0 255 0 0 255 196 201 168 196 201 168 196 201 168 196 201 168 196 201 168 196 201 168 196 201 168 196 201 168 196 201 168 196 201 168 196 201 168 196 201 168 196 201 168 196 201 168 196 201 168 196 201 168 196 201 168 196 201 168 196 201 168 196 201 168 196 201 168 196 201 168 196 201 168 196 201 168 196 201 168 196 201 168 196 201 168 196 201 168 196 201 168 196 201 168 196 201 168 196 201 168 196 201 168 196 201 168 196 201 168 196 201 168 196 201 168 196 201 168 196 201 168 196 201 168 196 201 168 196 201 168 192 192 143 192 192 143 192 192 143 192 192 143 192 192 143 192 192 143 192 192 143 192 192 143 192 192 143 192 192 143 192 192 143 192 192 143 192 192 143 192 192 143 192 192 143 192 192 143 192 192 143 192 192 143 192 192 143 192 192 143 192 192 143 0 0 255 0 0 255 179 67 44 179 67 44 179 67 44 179 67 44 179 67 44 179 67 44 179 67 44 179 67 44 179 67 44 179 67 44 179 67 44 179 67 44 179 67 44 0 0 255 0 0 255 192 192 143 192 192 143 192 192 143 192 192 143 192 192 143 192 192 143 192 192 143 0 0 255 0 0 255 0 0 255 70 38 44 70 38 44 70 38 44 70 38 44 70 38 44 70 38 44 70 38 44 70 38 44 70 38 44 0 0 255 0 0 255 0 0 255 70 38 44 70 38 44 70 38 44 70 38 44 70 38 44 0 0 255 0 0 255 192 192 143 192 192 143 192 192 143 192 192 143 0 0 255 0 0 255 0 0 255 179 67 44 179 67 44 179 67 44 179 67 44 0 0 255 0 0 255 0 0 255 179 67 44 179 67 44 179 67 44 179 67 44 179 67 44 179 67 44 0 0 255 0 0 255 193 176 76 193 176 76 193 176 76 193 176 76 193 176 76 193 176 76 193 176 76 193 176 76 193 176 76 193 176 76 193 176 76 0 0 255 0 0 255 0 0 255 0 0 255 70 38 44 70 38 44 70 38 44 70 38 44 70 38 44 70 38 44 70 38 44 70 38 44 0 0 255 0 0 255 70 38 44 70 38 44 70 38 44 70 38 44 0 0 255 0 0 255 0 0 255 193 176 76 193 176 76 193 176 76 193 176 76 193 176 76 193 176 76 193 176 76 193 176 76 193 176 76 193 176 76 193 176 76 0 0 255 0 0 255 185 64 42 185 64 42 185 64 42 185 64 42 185 64 42 185 64 42 185 64 42 185 64 42 185 64 42 185 64 42 185 64 42 0 0 255 0 0 255 0 0 255 194 201 169 194 201 169 194 201 169 194 201 169 0 0 255 0 0 255 0 0 255 0 0 255 185 64 42 185 64 42 185 64 42 185 64 42 185 64 42 185 64 42 0 0 255 0 0 255 0 0 255 0 0 255 0 0 255 185 64 42 185 64 42 0 0 255 0 0 255 193 176 76 0 0 255 0 0 255 185 64 42 185 64 42 185 64 42 185 64 42 185 64 42 185 64 42 185 64 42 185 64 42 185 64 42 185 64 42 185 64 42 185 64 42 185 64 42 0 0 255 0 0 255 0 0 255 196 201 168 196 201 168 196 201 168 196 201 168 196 201 168 196 201 168 196 201 168 196 201 168 196 201 168 0 0 255 0 0 255 0 0 255 193 176 76 193 176 76 193 176 76 193 176 76 193 176 76 193 176 76 193 176 76 193 176 76 0 0 255 0 0 255 0 0 255 196 201 168 196 201 168 196 201 168 196 201 168 196 201 168 196 201 168 196 201 168 196 201 168 196 201 168 196 201 168 196 201 168 196 201 168 196 201 168 196 201 168 196 201 168 196 201 168 196 201 168 196 201 168 196 201 168 196 201 168 196 201 168 196 201 168 196 201 168 196 201 168 196 201 168 196 201 168 196 201 168 196 201 168 196 201 168 196 201 168 196 201 168 196 201 168 196 201 168 196 201 168 196 201 168 196 201 168 196 201 168 196 201 168 196 201 168 196 201 168 196 201 168 196 201 168 196 201 168 192 192 143 192 192 143 192 192 143 192 192 143 192 192 143 192 192 143 192 192 143 192 192 143 192 192 143 192 192 143 192 192 143 192 192 143 192 192 143 192 192 143 192 192 143 192 192 143 192 192 143 192 192 143 192 192 143 192 192 143 0 0 255 0 0 255 179 67 44 179 67 44 179 67 44 179 67 44 179 67 44 179 67 44 179 67 44 179 67 44 0 0 255 0 0 255 179 67 44 179 67 44 179 67 44 179 67 44 0 0 255 0 0 255 192 192 143 192 192 143 192 192 143 192 192 143 192 192 143 192 192 143 0 0 255 0 0 255 0 0 255 0 0 255 70 38 44 70 38 44 70 38 44 70 38 44 70 38 44 70 38 44 70 38 44 70 38 44 70 38 44 70 38 44 70 38 44 70 38 44 70 38 44 70 38 44 70 38 44 70 38 44 0 0 255 0 0 255 0 0 255 192 192 143 192 192 143 192 192 143 0 0 255 0 0 255 0 0 255 179 67 44 179 67 44 179 67 44 179 67 44 179 67 44 179 67 44 0 0 255 179 67 44 179 67 44 179 67 44 179 67 44 179 67 44 179 67 44 179 67 44 179 67 44 0 0 255 0 0 255 193 176 76 193 176 76 193 176 76 193 176 76 193 176 76 193 176 76 193 176 76 193 176 76 0 0 255 0 0 255 0 0 255 0 0 255 0 0 255 70 38 44 70 38 44 70 38 44 70 38 44 70 38 44 70 38 44 70 38 44 70 38 44 70 38 44 70 38 44 70 38 44 70 38 44 70 38 44 70 38 44 70 38 44 0 0 255 0 0 255 0 0 255 193 176 76 193 176 76 193 176 76 193 176 76 193 176 76 193 176 76 193 176 76 193 176 76 193 176 76 193 176 76 193 176 76 0 0 255 0 0 255 185 64 42 185 64 42 185 64 42 185 64 42 185 64 42 185 64 42 185 64 42 185 64 42 185 64 42 185 64 42 185 64 42 0 0 255 0 0 255 194 201 169 194 201 169 194 201 169 194 201 169 0 0 255 0 0 255 0 0 255 0 0 255 185 64 42 185 64 42 185 64 42 185 64 42 185 64 42 185 64 42 185 64 42 185 64 42 0 0 255 0 0 255 0 0 255 185 64 42 185 64 42 185 64 42 0 0 255 0 0 255 193 176 76 0 0 255 0 0 255 185 64 42 185 64 42 185 64 42 185 64 42 185 64 42 185 64 42 185 64 42 185 64 42 185 64 42 185 64 42 185 64 42 185 64 42 185 64 42 185 64 42 0 0 255 0 0 255 196 201 168 196 201 168 196 201 168 196 201 168 196 201 168 196 201 168 196 201 168 196 201 168 196 201 168 0 0 255 0 0 255 193 176 76 193 176 76 193 176 76 193 176 76 193 176 76 193 176 76 193 176 76 0 0 255 0 0 255 0 0 255 196 201 168 196 201 168 196 201 168 196 201 168 196 201 168 196 201 168 196 201 168 196 201 168 196 201 168 196 201 168 196 201 168 196 201 168 196 201 168 196 201 168 196 201 168 196 201 168 196 201 168 196 201 168 196 201 168 196 201 168 196 201 168 196 201 168 196 201 168 196 201 168 196 201 168 196 201 168 196 201 168 196 201 168 196 201 168 196 201 168 196 201 168 196 201 168 196 201 168 196 201 168 196 201 168 196 201 168 196 201 168 196 201 168 196 201 168 196 201 168 196 201 168 196 201 168 196 201 168 196 201 168 196 201 168 192 192 143 192 192 143 192 192 143 192 192 143 192 192 143 192 192 143 192 192 143 192 192 143 192 192 143 192 192 143 192 192 143 192 192 143 192 192 143 192 192 143 192 192 143 192 192 143 192 192 143 192 192 143 192 192 143 192 192 143 0 0 255 0 0 255 179 67 44 179 67 44 179 67 44 179 67 44 179 67 44 179 67 44 179 67 44 0 0 255 0 0 255 0 0 255 0 0 255 179 67 44 179 67 44 179 67 44 0 0 255 0 0 255 192 192 143 192 192 143 0 0 255 0 0 255 0 0 255 0 0 255 0 0 255 0 0 255 0 0 255 70 38 44 70 38 44 70 38 44 70 38 44 70 38 44 70 38 44 70 38 44 70 38 44 70 38 44 70 38 44 70 38 44 70 38 44 70 38 44 70 38 44 0 0 255 0 0 255 0 0 255 0 0 255 0 0 255 0 0 255 192 192 143 192 192 143 0 0 255 0 0 255 0 0 255 0 0 255 179 67 44 179 67 44 179 67 44 179 67 44 179 67 44 179 67 44 179 67 44 179 67 44 179 67 44 179 67 44 179 67 44 179 67 44 179 67 44 179 67 44 179 67 44 0 0 255 0 0 255 193 176 76 193 176 76 193 176 76 193 176 76 193 176 76 193 176 76 0 0 255 0 0 255 0 0 255 0 0 255 0 0 255 0 0 255 70 38 44 70 38 44 70 38 44 70 38 44 70 38 44 70 38 44 70 38 44 70 38 44 70 38 44 70 38 44 70 38 44 70 38 44 70 38 44 70 38 44 70 38 44 70 38 44 0 0 255 0 0 255 0 0 255 193 176 76 193 176 76 193 176 76 193 176 76 193 176 76 193 176 76 193 176 76 193 176 76 193 176 76 193 176 76 193 176 76 0 0 255 0 0 255 185 64 42 185 64 42 185 64 42 185 64 42 185 64 42 185 64 42 185 64 42 185 64 42 185 64 42 185 64 42 0 0 255 0 0 255 0 0 255 194 201 169 194 201 169 194 201 169 0 0 255 0 0 255 0 0 255 0 0 255 185 64 42 185 64 42 185 64 42 185 64 42 185 64 42 185 64 42 185 64 42 185 64 42 185 64 42 185 64 42 185 64 42 185 64 42 185 64 42 185 64 42 185 64 42 0 0 255 0 0 255 0 0 255 0 0 255 185 64 42 185 64 42 185 64 42 185 64 42 185 64 42 185 64 42 185 64 42 185 64 42 185 64 42 185 64 42 185 64 42 0 0 255 185 64 42 185 64 42 185 64 42 0 0 255 0 0 255 196 201 168 196 201 168 196 201 168 196 201 168 196 201 168 196 201 168 196 201 168 196 201 168 0 0 255 0 0 255 193 176 76 193 176 76 193 176 76 193 176 76 193 176 76 193 176 76 193 176 76 0 0 255 0 0 255 0 0 255 196 201 168 196 201 168 196 201 168 196 201 168 196 201 168 196 201 168 196 201 168 196 201 168 196 201 168 196 201 168 196 201 168 196 201 168 196 201 168 196 201 168 196 201 168 196 201 168 196 201 168 196 201 168 196 201 168 196 201 168 196 201 168 196 201 168 196 201 168 196 201 168 196 201 168 196 201 168 196 201 168 196 201 168 196 201 168 196 201 168 196 201 168 196 201 168 196 201 168 196 201 168 196 201 168 196 201 168 196 201 168 196 201 168 196 201 168 196 201 168 196 201 168 196 201 168 196 201 168 196 201 168 196 201 168 196 201 168 192 192 143 192 192 143 192 192 143 192 192 143 192 192 143 192 192 143 192 192 143 192 192 143 192 192 143 192 192 143 192 192 143 192 192 143 192 192 143 192 192 143 192 192 143 192 192 143 192 192 143 192 192 143 192 192 143 0 0 255 0 0 255 0 0 255 179 67 44 179 67 44 179 67 44 179 67 44 179 67 44 179 67 44 179 67 44 179 67 44 0 0 255 0 0 255 179 67 44 179 67 44 179 67 44 179 67 44 179 67 44 0 0 255 0 0 255 0 0 255 0 0 255 0 0 255 0 0 255 0 0 255 0 0 255 0 0 255 0 0 255 70 38 44 70 38 44 70 38 44 70 38 44 70 38 44 70 38 44 70 38 44 70 38 44 70 38 44 70 38 44 70 38 44 70 38 44 0 0 255 0 0 255 0 0 255 0 0 255 0 0 255 0 0 255 0 0 255 0 0 255 192 192 143 192 192 143 0 0 255 0 0 255 0 0 255 0 0 255 179 67 44 179 67 44 179 67 44 179 67 44 179 67 44 179 67 44 179 67 44 179 67 44 179 67 44 179 67 44 179 67 44 179 67 44 179 67 44 179 67 44 179 67 44 179 67 44 0 0 255 0 0 255 193 176 76 193 176 76 193 176 76 0 0 255 0 0 255 0 0 255 0 0 255 0 0 255 0 0 255 0 0 255 70 38 44 70 38 44 70 38 44 70 38 44 70 38 44 70 38 44 70 38 44 70 38 44 70 38 44 70 38 44 70 38 44 70 38 44 70 38 44 70 38 44 70 38 44 70 38 44 70 38 44 0 0 255 0 0 255 0 0 255 193 176 76 193 176 76 193 176 76 193 176 76 193 176 76 193 176 76 193 176 76 193 176 76 193 176 76 193 176 76 193 176 76 0 0 255 0 0 255 185 64 42 185 64 42 185 64 42 185 64 42 185 64 42 185 64 42 185 64 42 185 64 42 185 64 42 0 0 255 0 0 255 0 0 255 0 0 255 194 201 169 194 201 169 194 201 169 0 0 255 0 0 255 0 0 255 0 0 255 185 64 42 185 64 42 185 64 42 185 64 42 185 64 42 185 64 42 185 64 42 185 64 42 185 64 42 185 64 42 185 64 42 185 64 42 185 64 42 185 64 42 185 64 42 0 0 255 0 0 255 0 0 255 0 0 255 185 64 42 185 64 42 185 64 42 185 64 42 185 64 42 185 64 42 185 64 42 185 64 42 185 64 42 185 64 42 0 0 255 0 0 255 0 0 255 185 64 42 185 64 42 0 0 255 0 0 255 196 201 168 196 201 168 196 201 168 196 201 168 196 201 168 196 201 168 196 201 168 0 0 255 0 0 255 193 176 76 193 176 76 193 176 76 193 176 76 193 176 76 193 176 76 193 176 76 193 176 76 0 0 255 0 0 255 196 201 168 196 201 168 196 201 168 196 201 168 196 201 168 196 201 168 196 201 168 196 201 168 196 201 168 196 201 168 196 201 168 196 201 168 196 201 168 196 201 168 196 201 168 196 201 168 196 201 168 196 201 168 196 201 168 196 201 168 196 201 168 196 201 168 196 201 168 196 201 168 196 201 168 196 201 168 196 201 168 196 201 168 196 201 168 196 201 168 196 201 168 196 201 168 196 201 168 196 201 168 196 201 168 196 201 168 196 201 168 196 201 168 196 201 168 196 201 168 196 201 168 196 201 168 196 201 168 196 201 168 196 201 168 196 201 168 196 201 168 192 192 143 192 192 143 192 192 143 192 192 143 192 192 143 192 192 143 192 192 143 192 192 143 192 192 143 192 192 143 192 192 143 192 192 143 192 192 143 192 192 143 192 192 143 192 192 143 192 192 143 192 192 143 0 0 255 0 0 255 0 0 255 179 67 44 179 67 44 179 67 44 179 67 44 179 67 44 179 67 44 179 67 44 179 67 44 179 67 44 179 67 44 179 67 44 179 67 44 179 67 44 179 67 44 179 67 44 0 0 255 0 0 255 0 0 255 0 0 255 0 0 255 0 0 255 0 0 255 0 0 255 0 0 255 0 0 255 70 38 44 70 38 44 70 38 44 70 38 44 70 38 44 70 38 44 70 38 44 70 38 44 70 38 44 70 38 44 70 38 44 70 38 44 0 0 255 0 0 255 0 0 255 107 129 71 107 129 71 107 129 71 107 129 71 107 129 71 0 0 255 0 0 255 0 0 255 0 0 255 0 0 255 107 129 71 0 0 255 0 0 255 179 67 44 179 67 44 179 67 44 179 67 44 179 67 44 179 67 44 179 67 44 179 67 44 179 67 44 179 67 44 179 67 44 179 67 44 179 67 44 0 0 255 0 0 255 0 0 255 0 0 255 0 0 255 0 0 255 0 0 255 0 0 255 0 0 255 0 0 255 0 0 255 0 0 255 70 38 44 70 38 44 70 38 44 70 38 44 70 38 44 70 38 44 70 38 44 70 38 44 70 38 44 70 38 44 70 38 44 70 38 44 70 38 44 70 38 44 70 38 44 70 38 44 70 38 44 70 38 44 70 38 44 70 38 44 0 0 255 0 0 255 0 0 255 193 176 76 193 176 76 193 176 76 193 176 76 193 176 76 193 176 76 193 176 76 193 176 76 193 176 76 193 176 76 193 176 76 0 0 255 0 0 255 185 64 42 185 64 42 185 64 42 185 64 42 185 64 42 185 64 42 185 64 42 0 0 255 0 0 255 0 0 255 0 0 255 194 201 169 194 201 169 194 201 169 194 201 169 0 0 255 0 0 255 0 0 255 185 64 42 185 64 42 185 64 42 185 64 42 185 64 42 185 64 42 185 64 42 185 64 42 185 64 42 185 64 42 185 64 42 185 64 42 185 64 42 185 64 42 185 64 42 0 0 255 0 0 255 193 176 76 0 0 255 0 0 255 185 64 42 185 64 42 185 64 42 185 64 42 185 64 42 185 64 42 185 64 42 185 64 42 185 64 42 0 0 255 0 0 255 0 0 255 0 0 255 185 64 42 185 64 42 0 0 255 0 0 255 196 201 168 196 201 168 196 201 168 196 201 168 196 201 168 196 201 168 0 0 255 0 0 255 193 176 76 193 176 76 193 176 76 193 176 76 193 176 76 193 176 76 193 176 76 193 176 76 193 176 76 0 0 255 0 0 255 196 201 168 196 201 168 196 201 168 196 201 168 196 201 168 196 201 168 196 201 168 196 201 168 196 201 168 196 201 168 196 201 168 196 201 168 196 201 168 196 201 168 196 201 168 196 201 168 196 201 168 196 201 168 196 201 168 196 201 168 196 201 168 196 201 168 196 201 168 196 201 168 196 201 168 196 201 168 196 201 168 196 201 168 196 201 168 196 201 168 196 201 168 196 201 168 196 201 168 196 201 168 196 201 168 196 201 168 196 201 168 196 201 168 196 201 168 196 201 168 196 201 168 196 201 168 196 201 168 196 201 168 196 201 168 196 201 168 196 201 168 192 192 143 192 192 143 192 192 143 192 192 143 192 192 143 192 192 143 192 192 143 192 192 143 192 192 143 192 192 143 192 192 143 192 192 143 192 192 143 192 192 143 192 192 143 192 192 143 192 192 143 0 0 255 0 0 255 0 0 255 0 0 255 179 67 44 179 67 44 179 67 44 179 67 44 179 67 44 179 67 44 179 67 44 179 67 44 179 67 44 179 67 44 179 67 44 179 67 44 179 67 44 0 0 255 0 0 255 0 0 255 0 0 255 0 0 255 70 38 44 70 38 44 70 38 44 70 38 44 70 38 44 70 38 44 70 38 44 70 38 44 70 38 44 70 38 44 70 38 44 70 38 44 70 38 44 70 38 44 70 38 44 70 38 44 70 38 44 70 38 44 0 0 255 0 0 255 107 129 71 107 129 71 107 129 71 107 129 71 107 129 71 107 129 71 107 129 71 107 129 71 0 0 255 0 0 255 0 0 255 0 0 255 107 129 71 0 0 255 0 0 255 0 0 255 179 67 44 179 67 44 179 67 44 179 67 44 179 67 44 179 67 44 179 67 44 179 67 44 179 67 44 179 67 44 179 67 44 0 0 255 0 0 255 0 0 255 0 0 255 0 0 255 0 0 255 0 0 255 0 0 255 0 0 255 0 0 255 0 0 255 70 38 44 70 38 44 70 38 44 0 0 255 0 0 255 0 0 255 70 38 44 70 38 44 70 38 44 70 38 44 70 38 44 70 38 44 70 38 44 70 38 44 70 38 44 70 38 44 70 38 44 70 38 44 70 38 44 70 38 44 70 38 44 70 38 44 0 0 255 0 0 255 0 0 255 193 176 76 193 176 76 193 176 76 193 176 76 193 176 76 193 176 76 193 176 76 193 176 76 193 176 76 193 176 76 193 176 76 0 0 255 0 0 255 185 64 42 185 64 42 185 64 42 185 64 42 185 64 42 0 0 255 0 0 255 0 0 255 0 0 255 0 0 255 194 201 169 194 201 169 194 201 169 194 201 169 194 201 169 0 0 255 0 0 255 0 0 255 0 0 255 185 64 42 185 64 42 185 64 42 185 64 42 185 64 42 185 64 42 185 64 42 185 64 42 185 64 42 185 64 42 185 64 42 185 64 42 185 64 42 0 0 255 0 0 255 0 0 255 0 0 255 0 0 255 0 0 255 185 64 42 185 64 42 185 64 42 185 64 42 185 64 42 185 64 42 185 64 42 185 64 42 185 64 42 185 64 42 0 0 255 0 0 255 185 64 42 185 64 42 185 64 42 0 0 255 0 0 255 196 201 168 196 201 168 196 201 168 196 201 168 196 201 168 0 0 255 0 0 255 0 0 255 0 0 255 193 176 76 193 176 76 193 176 76 193 176 76 193 176 76 193 176 76 193 176 76 193 176 76 0 0 255 0 0 255 196 201 168 196 201 168 196 201 168 196 201 168 196 201 168 196 201 168 196 201 168 196 201 168 196 201 168 196 201 168 196 201 168 196 201 168 196 201 168 196 201 168 196 201 168 196 201 168 196 201 168 196 201 168 196 201 168 196 201 168 196 201 168 196 201 168 196 201 168 196 201 168 196 201 168 196 201 168 196 201 168 196 201 168 196 201 168 196 201 168 196 201 168 196 201 168 196 201 168 196 201 168 196 201 168 196 201 168 196 201 168 196 201 168 196 201 168 196 201 168 196 201 168 196 201 168 196 201 168 196 201 168 196 201 168 196 201 168 196 201 168 192 192 143 192 192 143 192 192 143 192 192 143 192 192 143 192 192 143 192 192 143 192 192 143 192 192 143 192 192 143 192 192 143 192 192 143 192 192 143 192 192 143 192 192 143 192 192 143 192 192 143 0 0 255 0 0 255 0 0 255 0 0 255 179 67 44 179 67 44 179 67 44 179 67 44 179 67 44 179 67 44 179 67 44 179 67 44 179 67 44 179 67 44 179 67 44 0 0 255 0 0 255 0 0 255 0 0 255 70 38 44 70 38 44 70 38 44 70 38 44 70 38 44 70 38 44 70 38 44 70 38 44 70 38 44 70 38 44 70 38 44 70 38 44 70 38 44 70 38 44 70 38 44 70 38 44 70 38 44 70 38 44 70 38 44 70 38 44 70 38 44 0 0 255 0 0 255 107 129 71 107 129 71 107 129 71 107 129 71 107 129 71 107 129 71 107 129 71 107 129 71 107 129 71 107 129 71 0 0 255 107 129 71 107 129 71 107 129 71 0 0 255 0 0 255 0 0 255 179 67 44 179 67 44 179 67 44 179 67 44 179 67 44 179 67 44 179 67 44 179 67 44 179 67 44 0 0 255 0 0 255 107 129 71 107 129 71 0 0 255 0 0 255 0 0 255 107 129 71 0 0 255 0 0 255 70 38 44 70 38 44 70 38 44 70 38 44 0 0 255 0 0 255 0 0 255 0 0 255 0 0 255 70 38 44 70 38 44 70 38 44 70 38 44 70 38 44 70 38 44 70 38 44 70 38 44 70 38 44 70 38 44 70 38 44 70 38 44 70 38 44 70 38 44 0 0 255 0 0 255 0 0 255 0 0 255 0 0 255 193 176 76 193 176 76 193 176 76 193 176 76 193 176 76 193 176 76 193 176 76 193 176 76 193 176 76 193 176 76 193 176 76 0 0 255 0 0 255 0 0 255 0 0 255 0 0 255 0 0 255 0 0 255 0 0 255 0 0 255 0 0 255 194 201 169 194 201 169 194 201 169 194 201 169 194 201 169 194 201 169 0 0 255 0 0 255 0 0 255 0 0 255 185 64 42 0 0 255 0 0 255 0 0 255 0 0 255 0 0 255 0 0 255 0 0 255 0 0 255 0 0 255 0 0 255 0 0 255 0 0 255 0 0 255 0 0 255 0 0 255 0 0 255 0 0 255 0 0 255 185 64 42 185 64 42 185 64 42 185 64 42 185 64 42 185 64 42 185 64 42 185 64 42 185 64 42 185 64 42 185 64 42 185 64 42 185 64 42 185 64 42 185 64 42 0 0 255 0 0 255 196 201 168 196 201 168 196 201 168 196 201 168 0 0 255 0 0 255 0 0 255 0 0 255 0 0 255 193 176 76 193 176 76 193 176 76 193 176 76 193 176 76 193 176 76 193 176 76 193 176 76 193 176 76 0 0 255 0 0 255 196 201 168 196 201 168 196 201 168 196 201 168 196 201 168 196 201 168 196 201 168 196 201 168 196 201 168 196 201 168 196 201 168 196 201 168 196 201 168 196 201 168 196 201 168 196 201 168 196 201 168 196 201 168 196 201 168 196 201 168 196 201 168 196 201 168 196 201 168 196 201 168 196 201 168 196 201 168 196 201 168 196 201 168 196 201 168 196 201 168 196 201 168 196 201 168 196 201 168 196 201 168 196 201 168 196 201 168 196 201 168 196 201 168 196 201 168 196 201 168 196 201 168 196 201 168 196 201 168 196 201 168 196 201 168 196 201 168 192 192 143 192 192 143 192 192 143 192 192 143 192 192 143 192 192 143 192 192 143 192 192 143 192 192 143 192 192 143 192 192 143 192 192 143 192 192 143 192 192 143 192 192 143 192 192 143 192 192 143 0 0 255 0 0 255 0 0 255 0 0 255 179 67 44 179 67 44 179 67 44 179 67 44 179 67 44 179 67 44 179 67 44 179 67 44 179 67 44 179 67 44 0 0 255 0 0 255 0 0 255 70 38 44 70 38 44 70 38 44 70 38 44 70 38 44 0 0 255 0 0 255 0 0 255 70 38 44 70 38 44 70 38 44 70 38 44 70 38 44 70 38 44 70 38 44 70 38 44 70 38 44 70 38 44 70 38 44 70 38 44 70 38 44 70 38 44 0 0 255 0 0 255 107 129 71 107 129 71 107 129 71 107 129 71 107 129 71 107 129 71 107 129 71 107 129 71 107 129 71 107 129 71 107 129 71 107 129 71 0 0 255 0 0 255 0 0 255 107 129 71 0 0 255 0 0 255 179 67 44 179 67 44 179 67 44 179 67 44 179 67 44 179 67 44 179 67 44 179 67 44 179 67 44 0 0 255 0 0 255 0 0 255 0 0 255 0 0 255 0 0 255 107 129 71 0 0 255 0 0 255 70 38 44 0 0 255 70 38 44 70 38 44 70 38 44 0 0 255 0 0 255 0 0 255 0 0 255 0 0 255 70 38 44 70 38 44 70 38 44 70 38 44 0 0 255 70 38 44 70 38 44 70 38 44 70 38 44 70 38 44 70 38 44 70 38 44 70 38 44 70 38 44 0 0 255 0 0 255 0 0 255 0 0 255 0 0 255 193 176 76 193 176 76 193 176 76 193 176 76 193 176 76 193 176 76 193 176 76 193 176 76 193 176 76 0 0 255 0 0 255 0 0 255 0 0 255 0 0 255 0 0 255 0 0 255 0 0 255 0 0 255 0 0 255 0 0 255 194 201 169 194 201 169 194 201 169 194 201 169 194 201 169 194 201 169 194 201 169 0 0 255 0 0 255 0 0 255 0 0 255 0 0 255 0 0 255 0 0 255 0 0 255 0 0 255 0 0 255 0 0 255 0 0 255 0 0 255 0 0 255 0 0 255 0 0 255 0 0 255 0 0 255 0 0 255 196 201 168 0 0 255 0 0 255 0 0 255 0 0 255 185 64 42 185 64 42 185 64 42 185 64 42 185 64 42 185 64 42 185 64 42 185 64 42 185 64 42 185 64 42 185 64 42 185 64 42 185 64 42 185 64 42 0 0 255 0 0 255 196 201 168 196 201 168 196 201 168 0 0 255 0 0 255 0 0 255 0 0 255 0 0 255 0 0 255 193 176 76 193 176 76 193 176 76 193 176 76 193 176 76 193 176 76 193 176 76 193 176 76 193 176 76 0 0 255 0 0 255 196 201 168 196 201 168 196 201 168 196 201 168 196 201 168 196 201 168 196 201 168 196 201 168 196 201 168 196 201 168 196 201 168 196 201 168 196 201 168 196 201 168 196 201 168 196 201 168 196 201 168 196 201 168 196 201 168 196 201 168 196 201 168 196 201 168 196 201 168 196 201 168 196 201 168 196 201 168 196 201 168 196 201 168 196 201 168 196 201 168 196 201 168 196 201 168 196 201 168 196 201 168 196 201 168 196 201 168 196 201 168 196 201 168 196 201 168 196 201 168 196 201 168 196 201 168 196 201 168 196 201 168 196 201 168 196 201 168 192 192 143 192 192 143 192 192 143 192 192 143 192 192 143 192 192 143 192 192 143 192 192 143 192 192 143 192 192 143 192 192 143 192 192 143 192 192 143 192 192 143 192 192 143 192 192 143 192 192 143 0 0 255 0 0 255 107 129 71 0 0 255 0 0 255 179 67 44 179 67 44 179 67 44 179 67 44 179 67 44 179 67 44 179 67 44 179 67 44 0 0 255 0 0 255 70 38 44 70 38 44 70 38 44 70 38 44 70 38 44 70 38 44 0 0 255 0 0 255 0 0 255 0 0 255 0 0 255 70 38 44 70 38 44 70 38 44 70 38 44 70 38 44 70 38 44 70 38 44 70 38 44 70 38 44 70 38 44 70 38 44 70 38 44 70 38 44 0 0 255 0 0 255 107 129 71 107 129 71 107 129 71 107 129 71 107 129 71 107 129 71 107 129 71 107 129 71 107 129 71 107 129 71 107 129 71 0 0 255 0 0 255 0 0 255 0 0 255 0 0 255 0 0 255 0 0 255 179 67 44 179 67 44 179 67 44 179 67 44 179 67 44 179 67 44 179 67 44 179 67 44 179 67 44 0 0 255 0 0 255 0 0 255 0 0 255 0 0 255 0 0 255 0 0 255 107 129 71 0 0 255 0 0 255 0 0 255 0 0 255 70 38 44 70 38 44 0 0 255 0 0 255 0 0 255 0 0 255 0 0 255 0 0 255 70 38 44 70 38 44 0 0 255 0 0 255 0 0 255 70 38 44 70 38 44 70 38 44 70 38 44 70 38 44 70 38 44 70 38 44 70 38 44 70 38 44 0 0 255 70 38 44 0 0 255 0 0 255 0 0 255 193 176 76 193 176 76 193 176 76 193 176 76 193 176 76 193 176 76 193 176 76 0 0 255 0 0 255 0 0 255 0 0 255 0 0 255 0 0 255 0 0 255 0 0 255 0 0 255 0 0 255 194 201 169 194 201 169 194 201 169 194 201 169 194 201 169 194 201 169 194 201 169 194 201 169 194 201 169 194 201 169 0 0 255 0 0 255 0 0 255 0 0 255 95 139 71 95 139 71 95 139 71 95 139 71 95 139 71 95 139 71 95 139 71 95 139 71 95 139 71 95 139 71 95 139 71 0 0 255 0 0 255 0 0 255 0 0 255 0 0 255 0 0 255 0 0 255 0 0 255 185 64 42 185 64 42 185 64 42 185 64 42 185 64 42 185 64 42 185 64 42 185 64 42 185 64 42 185 64 42 185 64 42 185 64 42 185 64 42 0 0 255 0 0 255 0 0 255 196 201 168 196 201 168 196 201 168 0 0 255 0 0 255 0 0 255 0 0 255 0 0 255 0 0 255 193 176 76 193 176 76 193 176 76 193 176 76 193 176 76 193 176 76 193 176 76 193 176 76 193 176 76 0 0 255 0 0 255 196 201 168 196 201 168 196 201 168 196 201 168 196 201 168 196 201 168 196 201 168 196 201 168 196 201 168 196 201 168 196 201 168 196 201 168 196 201 168 196 201 168 196 201 168 196 201 168 196 201 168 196 201 168 0 0 255 0 0 255 0 0 255 0 0 255 0 0 255 0 0 255 196 201 168 196 201 168 196 201 168 196 201 168 196 201 168 196 201 168 196 201 168 196 201 168 196 201 168 196 201 168 196 201 168 196 201 168 196 201 168 196 201 168 196 201 168 196 201 168 196 201 168 196 201 168 196 201 168 196 201 168 196 201 168 196 201 168 192 192 143 192 192 143 192 192 143 192 192 143 192 192 143 192 192 143 192 192 143 192 192 143 192 192 143 192 192 143 192 192 143 192 192 143 192 192 143 192 192 143 192 192 143 192 192 143 192 192 143 0 0 255 0 0 255 107 129 71 107 129 71 0 0 255 0 0 255 0 0 255 179 67 44 179 67 44 179 67 44 179 67 44 179 67 44 0 0 255 0 0 255 70 38 44 70 38 44 70 38 44 70 38 44 70 38 44 70 38 44 0 0 255 0 0 255 0 0 255 0 0 255 0 0 255 0 0 255 70 38 44 70 38 44 70 38 44 70 38 44 70 38 44 0 0 255 0 0 255 0 0 255 0 0 255 70 38 44 70 38 44 70 38 44 0 0 255 0 0 255 107 129 71 107 129 71 107 129 71 107 129 71 107 129 71 107 129 71 107 129 71 107 129 71 107 129 71 107 129 71 107 129 71 107 129 71 107 129 71 0 0 255 0 0 255 192 192 143 0 0 255 0 0 255 0 0 255 179 67 44 179 67 44 179 67 44 179 67 44 179 67 44 179 67 44 179 67 44 179 67 44 179 67 44 179 67 44 0 0 255 0 0 255 0 0 255 0 0 255 0 0 255 0 0 255 0 0 255 0 0 255 0 0 255 0 0 255 0 0 255 70 38 44 70 38 44 0 0 255 0 0 255 0 0 255 0 0 255 0 0 255 0 0 255 70 38 44 0 0 255 0 0 255 0 0 255 0 0 255 70 38 44 70 38 44 70 38 44 70 38 44 70 38 44 70 38 44 70 38 44 70 38 44 70 38 44 70 38 44 70 38 44 0 0 255 0 0 255 0 0 255 0 0 255 193 176 76 193 176 76 193 176 76 193 176 76 193 176 76 0 0 255 0 0 255 194 201 169 0 0 255 0 0 255 0 0 255 0 0 255 194 201 169 194 201 169 194 201 169 194 201 169 194 201 169 194 201 169 194 201 169 194 201 169 194 201 169 194 201 169 194 201 169 194 201 169 194 201 169 194 201 169 0 0 255 0 0 255 0 0 255 0 0 255 95 139 71 95 139 71 95 139 71 95 139 71 95 139 71 95 139 71 95 139 71 95 139 71 95 139 71 95 139 71 95 139 71 95 139 71 0 0 255 0 0 255 0 0 255 0 0 255 0 0 255 0 0 255 0 0 255 0 0 255 185 64 42 185 64 42 185 64 42 185 64 42 185 64 42 185 64 42 185 64 42 185 64 42 185 64 42 185 64 42 185 64 42 0 0 255 0 0 255 0 0 255 196 201 168 196 201 168 196 201 168 0 0 255 0 0 255 0 0 255 0 0 255 0 0 255 185 64 42 0 0 255 0 0 255 193 176 76 193 176 76 193 176 76 193 176 76 193 176 76 193 176 76 193 176 76 193 176 76 193 176 76 0 0 255 0 0 255 196 201 168 196 201 168 196 201 168 196 201 168 196 201 168 196 201 168 196 201 168 196 201 168 196 201 168 196 201 168 196 201 168 196 201 168 196 201 168 196 201 168 196 201 168 0 0 255 0 0 255 0 0 255 0 0 255 0 0 255 0 0 255 0 0 255 0 0 255 0 0 255 196 201 168 196 201 168 196 201 168 196 201 168 196 201 168 196 201 168 196 201 168 196 201 168 196 201 168 196 201 168 196 201 168 196 201 168 196 201 168 196 201 168 196 201 168 196 201 168 196 201 168 196 201 168 196 201 168 196 201 168 196 201 168 192 192 143 192 192 143 192 192 143 192 192 143 192 192 143 192 192 143 192 192 143 192 192 143 192 192 143 192 192 143 192 192 143 192 192 143 192 192 143 192 192 143 192 192 143 192 192 143 192 192 143 192 192 143 0 0 255 0 0 255 0 0 255 107 129 71 0 0 255 0 0 255 0 0 255 0 0 255 0 0 255 179 67 44 0 0 255 0 0 255 70 38 44 70 38 44 70 38 44 70 38 44 70 38 44 70 38 44 70 38 44 0 0 255 0 0 255 0 0 255 0 0 255 0 0 255 0 0 255 70 38 44 70 38 44 70 38 44 70 38 44 0 0 255 0 0 255 0 0 255 0 0 255 0 0 255 0 0 255 0 0 255 70 38 44 0 0 255 0 0 255 107 129 71 107 129 71 107 129 71 107 129 71 107 129 71 107 129 71 107 129 71 107 129 71 107 129 71 107 129 71 107 129 71 107 129 71 107 129 71 0 0 255 0 0 255 192 192 143 192 192 143 0 0 255 0 0 255 179 67 44 179 67 44 179 67 44 179 67 44 179 67 44 179 67 44 179 67 44 179 67 44 179 67 44 179 67 44 0 0 255 0 0 255 192 199 159 0 0 255 0 0 255 0 0 255 0 0 255 0 0 255 0 0 255 0 0 255 70 38 44 70 38 44 70 38 44 70 38 44 0 0 255 0 0 255 0 0 255 0 0 255 0 0 255 70 38 44 0 0 255 0 0 255 0 0 255 70 38 44 70 38 44 70 38 44 70 38 44 70 38 44 70 38 44 70 38 44 70 38 44 70 38 44 70 38 44 70 38 44 70 38 44 0 0 255 0 0 255 107 129 71 0 0 255 0 0 255 193 176 76 193 176 76 193 176 76 193 176 76 0 0 255 0 0 255 0 0 255 0 0 255 0 0 255 0 0 255 0 0 255 0 0 255 0 0 255 194 201 169 194 201 169 194 201 169 194 201 169 194 201 169 194 201 169 194 201 169 194 201 169 194 201 169 194 201 169 194 201 169 194 201 169 194 201 169 0 0 255 0 0 255 0 0 255 95 139 71 95 139 71 95 139 71 95 139 71 95 139 71 95 139 71 95 139 71 95 139 71 95 139 71 95 139 71 95 139 71 95 139 71 95 139 71 0 0 255 0 0 255 0 0 255 0 0 255 0 0 255 0 0 255 0 0 255 185 64 42 185 64 42 185 64 42 185 64 42 185 64 42 185 64 42 185 64 42 185 64 42 185 64 42 185 64 42 0 0 255 0 0 255 0 0 255 0 0 255 196 201 168 196 201 168 196 201 168 0 0 255 0 0 255 0 0 255 0 0 255 0 0 255 0 0 255 0 0 255 0 0 255 193 176 76 193 176 76 193 176 76 193 176 76 193 176 76 193 176 76 193 176 76 193 176 76 193 176 76 0 0 255 0 0 255 196 201 168 196 201 168 196 201 168 196 201 168 196 201 168 196 201 168 196 201 168 196 201 168 196 201 168 196 201 168 196 201 168 196 201 168 196 201 168 196 201 168 0 0 255 0 0 255 0 0 255 0 0 255 0 0 255 95 139 71 0 0 255 95 139 71 95 139 71 0 0 255 0 0 255 196 201 168 196 201 168 196 201 168 196 201 168 196 201 168 196 201 168 196 201 168 196 201 168 196 201 168 196 201 168 196 201 168 196 201 168 196 201 168 196 201 168 196 201 168 196 201 168 196 201 168 196 201 168 196 201 168 196 201 168 192 192 143 192 192 143 192 192 143 192 192 143 192 192 143 192 192 143 192 192 143 192 192 143 192 192 143 192 192 143 192 192 143 192 192 143 192 192 143 192 192 143 192 192 143 192 192 143 192 192 143 192 192 143 192 192 143 0 0 255 0 0 255 0 0 255 0 0 255 0 0 255 0 0 255 0 0 255 0 0 255 0 0 255 0 0 255 70 38 44 70 38 44 70 38 44 70 38 44 70 38 44 70 38 44 70 38 44 70 38 44 70 38 44 0 0 255 0 0 255 0 0 255 0 0 255 70 38 44 70 38 44 70 38 44 70 38 44 0 0 255 0 0 255 0 0 255 0 0 255 0 0 255 0 0 255 0 0 255 0 0 255 0 0 255 0 0 255 0 0 255 107 129 71 107 129 71 107 129 71 107 129 71 107 129 71 107 129 71 0 0 255 107 129 71 107 129 71 107 129 71 107 129 71 107 129 71 107 129 71 0 0 255 0 0 255 192 192 143 0 0 255 0 0 255 0 0 255 179 67 44 179 67 44 179 67 44 179 67 44 179 67 44 179 67 44 0 0 255 179 67 44 179 67 44 179 67 44 0 0 255 0 0 255 0 0 255 0 0 255 0 0 255 0 0 255 0 0 255 0 0 255 0 0 255 70 38 44 70 38 44 70 38 44 70 38 44 70 38 44 70 38 44 0 0 255 0 0 255 0 0 255 70 38 44 70 38 44 70 38 44 0 0 255 70 38 44 70 38 44 70 38 44 70 38 44 70 38 44 70 38 44 70 38 44 70 38 44 70 38 44 70 38 44 70 38 44 70 38 44 70 38 44 0 0 255 0 0 255 107 129 71 107 129 71 0 0 255 0 0 255 193 176 76 193 176 76 0 0 255 0 0 255 0 0 255 0 0 255 0 0 255 0 0 255 0 0 255 0 0 255 0 0 255 0 0 255 0 0 255 0 0 255 194 201 169 194 201 169 194 201 169 194 201 169 194 201 169 194 201 169 194 201 169 194 201 169 194 201 169 194 201 169 194 201 169 0 0 255 0 0 255 95 139 71 95 139 71 95 139 71 95 139 71 95 139 71 95 139 71 95 139 71 95 139 71 95 139 71 95 139 71 95 139 71 0 0 255 95 139 71 95 139 71 95 139 71 95 139 71 0 0 255 0 0 255 0 0 255 0 0 255 0 0 255 0 0 255 185 64 42 185 64 42 185 64 42 185 64 42 185 64 42 0 0 255 0 0 255 0 0 255 0 0 255 0 0 255 0 0 255 0 0 255 0 0 255 0 0 255 196 201 168 196 201 168 0 0 255 0 0 255 0 0 255 0 0 255 0 0 255 0 0 255 0 0 255 0 0 255 0 0 255 193 176 76 193 176 76 193 176 76 193 176 76 193 176 76 193 176 76 193 176 76 193 176 76 0 0 255 0 0 255 196 201 168 196 201 168 196 201 168 196 201 168 196 201 168 196 201 168 196 201 168 196 201 168 196 201 168 196 201 168 196 201 168 196 201 168 196 201 168 196 201 168 0 0 255 0 0 255 0 0 255 0 0 255 0 0 255 0 0 255 0 0 255 0 0 255 95 139 71 95 139 71 0 0 255 0 0 255 196 201 168 196 201 168 196 201 168 196 201 168 196 201 168 196 201 168 196 201 168 196 201 168 196 201 168 196 201 168 196 201 168 196 201 168 196 201 168 196 201 168 196 201 168 196 201 168 196 201 168 196 201 168 196 201 168 192 192 143 192 192 143 192 192 143 192 192 143 192 192 143 192 192 143 192 192 143 192 192 143 192 192 143 192 192 143 192 192 143 192 192 143 192 192 143 192 192 143 192 192 143 192 192 143 192 192 143 192 192 143 192 192 143 192 192 143 192 192 143 0 0 255 0 0 255 0 0 255 0 0 255 0 0 255 0 0 255 0 0 255 0 0 255 0 0 255 70 38 44 70 38 44 70 38 44 70 38 44 70 38 44 70 38 44 70 38 44 70 38 44 70 38 44 0 0 255 0 0 255 70 38 44 70 38 44 70 38 44 70 38 44 0 0 255 0 0 255 0 0 255 192 192 143 192 192 143 192 192 143 0 0 255 0 0 255 107 129 71 0 0 255 0 0 255 0 0 255 107 129 71 107 129 71 107 129 71 107 129 71 107 129 71 0 0 255 0 0 255 0 0 255 107 129 71 107 129 71 107 129 71 107 129 71 107 129 71 0 0 255 0 0 255 192 192 143 0 0 255 0 0 255 179 67 44 179 67 44 179 67 44 179 67 44 179 67 44 179 67 44 0 0 255 0 0 255 0 0 255 179 67 44 179 67 44 0 0 255 0 0 255 0 0 255 0 0 255 0 0 255 0 0 255 107 129 71 107 129 71 0 0 255 0 0 255 0 0 255 0 0 255 0 0 255 0 0 255 70 38 44 70 38 44 70 38 44 70 38 44 70 38 44 70 38 44 70 38 44 70 38 44 70 38 44 70 38 44 70 38 44 70 38 44 70 38 44 70 38 44 70 38 44 70 38 44 70 38 44 70 38 44 70 38 44 70 38 44 70 38 44 70 38 44 0 0 255 0 0 255 0 0 255 0 0 255 0 0 255 193 176 76 0 0 255 0 0 255 0 0 255 0 0 255 0 0 255 70 38 44 70 38 44 70 38 44 70 38 44 0 0 255 0 0 255 0 0 255 0 0 255 0 0 255 194 201 169 194 201 169 194 201 169 194 201 169 194 201 169 194 201 169 194 201 169 194 201 169 194 201 169 0 0 255 0 0 255 0 0 255 95 139 71 95 139 71 95 139 71 95 139 71 95 139 71 95 139 71 95 139 71 95 139 71 95 139 71 95 139 71 0 0 255 0 0 255 0 0 255 0 0 255 95 139 71 95 139 71 0 0 255 0 0 255 0 0 255 0 0 255 0 0 255 0 0 255 0 0 255 0 0 255 185 64 42 0 0 255 0 0 255 0 0 255 0 0 255 0 0 255 0 0 255 95 139 71 95 139 71 0 0 255 0 0 255 0 0 255 0 0 255 0 0 255 0 0 255 0 0 255 0 0 255 95 139 71 0 0 255 0 0 255 95 139 71 0 0 255 0 0 255 193 176 76 193 176 76 193 176 76 193 176 76 193 176 76 193 176 76 193 176 76 0 0 255 0 0 255 196 201 168 196 201 168 196 201 168 196 201 168 196 201 168 196 201 168 196 201 168 196 201 168 196 201 168 196 201 168 196 201 168 196 201 168 196 201 168 196 201 168 0 0 255 0 0 255 0 0 255 0 0 255 0 0 255 0 0 255 0 0 255 0 0 255 95 139 71 0 0 255 0 0 255 95 139 71 0 0 255 0 0 255 196 201 168 196 201 168 196 201 168 196 201 168 196 201 168 196 201 168 196 201 168 196 201 168 196 201 168 196 201 168 196 201 168 196 201 168 196 201 168 196 201 168 196 201 168 196 201 168 196 201 168 196 201 168 192 192 143 192 192 143 192 192 143 192 192 143 192 192 143 192 192 143 192 192 143 192 192 143 192 192 143 192 192 143 192 192 143 192 192 143 192 192 143 192 192 143 192 192 143 192 192 143 192 192 143 192 192 143 192 192 143 192 192 143 192 192 143 192 192 143 192 192 143 192 192 143 0 0 255 0 0 255 0 0 255 0 0 255 107 129 71 0 0 255 0 0 255 70 38 44 70 38 44 70 38 44 70 38 44 70 38 44 70 38 44 70 38 44 70 38 44 70 38 44 70 38 44 70 38 44 70 38 44 70 38 44 70 38 44 0 0 255 0 0 255 0 0 255 192 192 143 192 192 143 192 192 143 0 0 255 0 0 255 107 129 71 0 0 255 0 0 255 0 0 255 107 129 71 107 129 71 107 129 71 107 129 71 107 129 71 0 0 255 0 0 255 0 0 255 107 129 71 107 129 71 107 129 71 107 129 71 107 129 71 0 0 255 0 0 255 0 0 255 0 0 255 0 0 255 179 67 44 179 67 44 179 67 44 179 67 44 179 67 44 179 67 44 179 67 44 0 0 255 179 67 44 179 67 44 179 67 44 0 0 255 0 0 255 192 199 159 192 199 159 0 0 255 0 0 255 107 129 71 107 129 71 107 129 71 0 0 255 0 0 255 0 0 255 0 0 255 0 0 255 0 0 255 70 38 44 70 38 44 70 38 44 70 38 44 70 38 44 70 38 44 70 38 44 70 38 44 70 38 44 70 38 44 70 38 44 70 38 44 70 38 44 70 38 44 70 38 44 70 38 44 70 38 44 0 0 255 70 38 44 70 38 44 70 38 44 0 0 255 0 0 255 0 0 255 0 0 255 193 176 76 0 0 255 0 0 255 0 0 255 0 0 255 70 38 44 70 38 44 70 38 44 70 38 44 70 38 44 70 38 44 70 38 44 70 38 44 0 0 255 0 0 255 0 0 255 194 201 169 194 201 169 194 201 169 194 201 169 194 201 169 194 201 169 194 201 169 194 201 169 0 0 255 0 0 255 0 0 255 95 139 71 95 139 71 95 139 71 95 139 71 95 139 71 95 139 71 95 139 71 95 139 71 95 139 71 95 139 71 0 0 255 0 0 255 0 0 255 0 0 255 0 0 255 0 0 255 95 139 71 95 139 71 0 0 255 0 0 255 0 0 255 0 0 255 0 0 255 0 0 255 0 0 255 0 0 255 0 0 255 0 0 255 0 0 255 95 139 71 95 139 71 95 139 71 95 139 71 95 139 71 95 139 71 95 139 71 0 0 255 0 0 255 0 0 255 0 0 255 0 0 255 0 0 255 95 139 71 95 139 71 95 139 71 95 139 71 95 139 71 0 0 255 0 0 255 193 176 76 193 176 76 193 176 76 193 176 76 193 176 76 0 0 255 0 0 255 0 0 255 196 201 168 196 201 168 196 201 168 196 201 168 196 201 168 196 201 168 196 201 168 196 201 168 196 201 168 196 201 168 196 201 168 196 201 168 196 201 168 0 0 255 0 0 255 0 0 255 0 0 255 0 0 255 0 0 255 0 0 255 95 139 71 95 139 71 0 0 255 0 0 255 0 0 255 0 0 255 95 139 71 0 0 255 0 0 255 196 201 168 196 201 168 196 201 168 196 201 168 196 201 168 196 201 168 196 201 168 196 201 168 196 201 168 196 201 168 196 201 168 196 201 168 196 201 168 196 201 168 196 201 168 196 201 168 196 201 168 192 192 143 192 192 143 192 192 143 192 192 143 192 192 143 192 192 143 192 192 143 192 192 143 192 192 143 192 192 143 192 192 143 192 192 143 192 192 143 192 192 143 192 192 143 192 192 143 192 192 143 192 192 143 192 192 143 192 192 143 192 192 143 192 192 143 192 192 143 192 192 143 192 192 143 192 192 143 0 0 255 0 0 255 107 129 71 0 0 255 0 0 255 70 38 44 70 38 44 70 38 44 70 38 44 70 38 44 70 38 44 70 38 44 70 38 44 70 38 44 70 38 44 70 38 44 70 38 44 0 0 255 0 0 255 0 0 255 0 0 255 192 192 143 192 192 143 192 192 143 192 192 143 0 0 255 0 0 255 107 129 71 0 0 255 0 0 255 0 0 255 107 129 71 107 129 71 107 129 71 107 129 71 107 129 71 107 129 71 0 0 255 107 129 71 107 129 71 107 129 71 107 129 71 107 129 71 0 0 255 0 0 255 192 192 143 0 0 255 0 0 255 0 0 255 179 67 44 179 67 44 179 67 44 179 67 44 179 67 44 179 67 44 179 67 44 179 67 44 179 67 44 179 67 44 179 67 44 0 0 255 0 0 255 192 199 159 192 199 159 0 0 255 0 0 255 107 129 71 107 129 71 107 129 71 107 129 71 107 129 71 107 129 71 107 129 71 107 129 71 0 0 255 0 0 255 70 38 44 70 38 44 70 38 44 70 38 44 70 38 44 70 38 44 70 38 44 70 38 44 70 38 44 70 38 44 70 38 44 70 38 44 70 38 44 70 38 44 70 38 44 0 0 255 0 0 255 0 0 255 70 38 44 70 38 44 0 0 255 0 0 255 0 0 255 0 0 255 0 0 255 0 0 255 0 0 255 70 38 44 70 38 44 70 38 44 70 38 44 70 38 44 70 38 44 70 38 44 70 38 44 70 38 44 70 38 44 70 38 44 0 0 255 0 0 255 0 0 255 194 201 169 194 201 169 194 201 169 194 201 169 194 201 169 194 201 169 0 0 255 0 0 255 0 0 255 95 139 71 95 139 71 95 139 71 95 139 71 95 139 71 95 139 71 95 139 71 95 139 71 95 139 71 95 139 71 0 0 255 0 0 255 0 0 255 0 0 255 0 0 255 0 0 255 0 0 255 95 139 71 95 139 71 95 139 71 0 0 255 0 0 255 196 201 168 0 0 255 0 0 255 0 0 255 0 0 255 95 139 71 95 139 71 95 139 71 95 139 71 95 139 71 95 139 71 95 139 71 95 139 71 95 139 71 95 139 71 95 139 71 95 139 71 0 0 255 0 0 255 0 0 255 0 0 255 0 0 255 95 139 71 95 139 71 95 139 71 95 139 71 0 0 255 0 0 255 193 176 76 193 176 76 193 176 76 193 176 76 0 0 255 0 0 255 0 0 255 196 201 168 196 201 168 196 201 168 196 201 168 196 201 168 196 201 168 196 201 168 196 201 168 196 201 168 196 201 168 196 201 168 196 201 168 196 201 168 0 0 255 0 0 255 95 139 71 0 0 255 0 0 255 0 0 255 0 0 255 95 139 71 95 139 71 0 0 255 95 139 71 0 0 255 0 0 255 0 0 255 95 139 71 0 0 255 0 0 255 196 201 168 196 201 168 196 201 168 196 201 168 196 201 168 196 201 168 196 201 168 196 201 168 196 201 168 196 201 168 196 201 168 196 201 168 196 201 168 196 201 168 196 201 168 196 201 168 196 201 168 192 192 143 192 192 143 192 192 143 192 192 143 192 192 143 192 192 143 192 192 143 192 192 143 192 192 143 192 192 143 192 192 143 192 192 143 192 192 143 192 192 143 192 192 143 192 192 143 192 192 143 192 192 143 192 192 143 192 192 143 192 192 143 192 192 143 192 192 143 192 192 143 192 192 143 0 0 255 0 0 255 107 129 71 107 129 71 0 0 255 0 0 255 70 38 44 70 38 44 70 38 44 70 38 44 70 38 44 70 38 44 70 38 44 70 38 44 70 38 44 70 38 44 70 38 44 0 0 255 0 0 255 0 0 255 0 0 255 192 192 143 192 192 143 192 192 143 192 192 143 192 192 143 0 0 255 0 0 255 107 129 71 107 129 71 0 0 255 107 129 71 107 129 71 107 129 71 107 129 71 107 129 71 107 129 71 107 129 71 107 129 71 107 129 71 107 129 71 107 129 71 107 129 71 107 129 71 0 0 255 0 0 255 0 0 255 0 0 255 0 0 255 0 0 255 179 67 44 179 67 44 179 67 44 179 67 44 179 67 44 179 67 44 179 67 44 179 67 44 179 67 44 179 67 44 0 0 255 0 0 255 0 0 255 192 199 159 0 0 255 0 0 255 0 0 255 107 129 71 107 129 71 107 129 71 107 129 71 107 129 71 107 129 71 107 129 71 107 129 71 107 129 71 0 0 255 0 0 255 70 38 44 70 38 44 70 38 44 70 38 44 70 38 44 70 38 44 70 38 44 70 38 44 70 38 44 70 38 44 70 38 44 70 38 44 70 38 44 0 0 255 0 0 255 0 0 255 0 0 255 0 0 255 70 38 44 70 38 44 0 0 255 0 0 255 0 0 255 0 0 255 0 0 255 70 38 44 70 38 44 70 38 44 70 38 44 70 38 44 70 38 44 70 38 44 70 38 44 70 38 44 70 38 44 70 38 44 70 38 44 70 38 44 0 0 255 0 0 255 194 201 169 194 201 169 194 201 169 194 201 169 194 201 169 194 201 169 0 0 255 0 0 255 0 0 255 95 139 71 95 139 71 95 139 71 95 139 71 95 139 71 95 139 71 95 139 71 95 139 71 95 139 71 95 139 71 95 139 71 0 0 255 0 0 255 0 0 255 0 0 255 0 0 255 0 0 255 95 139 71 95 139 71 95 139 71 0 0 255 0 0 255 196 201 168 196 201 168 0 0 255 0 0 255 0 0 255 0 0 255 95 139 71 95 139 71 95 139 71 95 139 71 95 139 71 95 139 71 95 139 71 95 139 71 95 139 71 95 139 71 95 139 71 95 139 71 95 139 71 0 0 255 0 0 255 0 0 255 95 139 71 95 139 71 95 139 71 0 0 255 0 0 255 193 176 76 193 176 76 193 176 76 193 176 76 193 176 76 0 0 255 0 0 255 196 201 168 196 201 168 196 201 168 196 201 168 196 201 168 196 201 168 196 201 168 196 201 168 196 201 168 196 201 168 196 201 168 196 201 168 196 201 168 0 0 255 0 0 255 95 139 71 0 0 255 0 0 255 70 38 44 0 0 255 0 0 255 95 139 71 0 0 255 0 0 255 0 0 255 95 139 71 0 0 255 95 139 71 95 139 71 95 139 71 0 0 255 0 0 255 196 201 168 196 201 168 196 201 168 196 201 168 196 201 168 196 201 168 196 201 168 196 201 168 196 201 168 196 201 168 196 201 168 196 201 168 196 201 168 196 201 168 196 201 168 196 201 168 192 192 143 192 192 143 192 192 143 192 192 143 192 192 143 192 192 143 192 192 143 192 192 143 192 192 143 192 192 143 192 192 143 192 192 143 192 192 143 192 192 143 192 192 143 192 192 143 192 192 143 192 192 143 192 192 143 192 192 143 192 192 143 192 192 143 192 192 143 192 192 143 192 192 143 0 0 255 0 0 255 107 129 71 107 129 71 0 0 255 0 0 255 70 38 44 70 38 44 70 38 44 70 38 44 70 38 44 70 38 44 70 38 44 70 38 44 70 38 44 0 0 255 0 0 255 0 0 255 0 0 255 0 0 255 192 192 143 192 192 143 192 192 143 192 192 143 192 192 143 0 0 255 0 0 255 107 129 71 107 129 71 107 129 71 107 129 71 107 129 71 107 129 71 107 129 71 107 129 71 107 129 71 107 129 71 107 129 71 107 129 71 107 129 71 107 129 71 107 129 71 107 129 71 107 129 71 0 0 255 0 0 255 0 0 255 0 0 255 0 0 255 0 0 255 179 67 44 179 67 44 179 67 44 179 67 44 179 67 44 179 67 44 179 67 44 179 67 44 179 67 44 179 67 44 0 0 255 0 0 255 192 199 159 192 199 159 0 0 255 0 0 255 107 129 71 107 129 71 107 129 71 107 129 71 107 129 71 107 129 71 107 129 71 107 129 71 107 129 71 107 129 71 107 129 71 0 0 255 0 0 255 70 38 44 70 38 44 70 38 44 70 38 44 70 38 44 70 38 44 70 38 44 70 38 44 70 38 44 70 38 44 70 38 44 70 38 44 0 0 255 0 0 255 0 0 255 0 0 255 0 0 255 70 38 44 70 38 44 0 0 255 0 0 255 0 0 255 0 0 255 70 38 44 70 38 44 70 38 44 70 38 44 70 38 44 70 38 44 70 38 44 70 38 44 70 38 44 70 38 44 70 38 44 70 38 44 70 38 44 70 38 44 0 0 255 0 0 255 0 0 255 194 201 169 194 201 169 194 201 169 194 201 169 0 0 255 0 0 255 0 0 255 95 139 71 95 139 71 95 139 71 95 139 71 95 139 71 95 139 71 95 139 71 95 139 71 95 139 71 95 139 71 95 139 71 95 139 71 95 139 71 0 0 255 0 0 255 0 0 255 0 0 255 95 139 71 95 139 71 95 139 71 95 139 71 0 0 255 0 0 255 0 0 255 196 201 168 196 201 168 0 0 255 0 0 255 0 0 255 95 139 71 95 139 71 95 139 71 95 139 71 95 139 71 95 139 71 95 139 71 95 139 71 95 139 71 95 139 71 95 139 71 95 139 71 95 139 71 0 0 255 0 0 255 0 0 255 0 0 255 0 0 255 95 139 71 0 0 255 0 0 255 0 0 255 193 176 76 193 176 76 193 176 76 0 0 255 0 0 255 196 201 168 196 201 168 196 201 168 196 201 168 196 201 168 196 201 168 196 201 168 196 201 168 196 201 168 196 201 168 196 201 168 196 201 168 196 201 168 196 201 168 0 0 255 0 0 255 95 139 71 0 0 255 0 0 255 70 38 44 70 38 44 0 0 255 0 0 255 0 0 255 70 38 44 0 0 255 0 0 255 0 0 255 0 0 255 0 0 255 95 139 71 0 0 255 0 0 255 196 201 168 196 201 168 196 201 168 196 201 168 196 201 168 196 201 168 196 201 168 196 201 168 196 201 168 196 201 168 196 201 168 196 201 168 196 201 168 196 201 168 196 201 168 196 201 168 192 192 143 192 192 143 192 192 143 192 192 143 192 192 143 192 192 143 192 192 143 192 192 143 192 192 143 192 192 143 192 192 143 192 192 143 192 192 143 192 192 143 192 192 143 192 192 143 192 192 143 192 192 143 192 192 143 192 192 143 192 192 143 192 192 143 192 192 143 192 192 143 192 192 143 192 192 143 0 0 255 0 0 255 107 129 71 107 129 71 0 0 255 0 0 255 0 0 255 70 38 44 70 38 44 70 38 44 70 38 44 70 38 44 0 0 255 0 0 255 0 0 255 0 0 255 0 0 255 0 0 255 0 0 255 192 192 143 192 192 143 192 192 143 192 192 143 192 192 143 0 0 255 0 0 255 107 129 71 107 129 71 107 129 71 107 129 71 107 129 71 107 129 71 107 129 71 107 129 71 107 129 71 107 129 71 107 129 71 107 129 71 107 129 71 107 129 71 107 129 71 107 129 71 0 0 255 0 0 255 192 192 143 0 0 255 0 0 255 0 0 255 0 0 255 179 67 44 179 67 44 179 67 44 179 67 44 179 67 44 179 67 44 179 67 44 179 67 44 179 67 44 179 67 44 0 0 255 0 0 255 192 199 159 0 0 255 0 0 255 107 129 71 107 129 71 107 129 71 107 129 71 107 129 71 107 129 71 107 129 71 107 129 71 107 129 71 107 129 71 107 129 71 107 129 71 107 129 71 0 0 255 0 0 255 70 38 44 70 38 44 70 38 44 70 38 44 70 38 44 70 38 44 70 38 44 70 38 44 70 38 44 70 38 44 70 38 44 0 0 255 0 0 255 0 0 255 0 0 255 0 0 255 70 38 44 70 38 44 0 0 255 0 0 255 0 0 255 0 0 255 70 38 44 70 38 44 70 38 44 70 38 44 70 38 44 70 38 44 70 38 44 0 0 255 0 0 255 0 0 255 70 38 44 70 38 44 70 38 44 70 38 44 0 0 255 0 0 255 0 0 255 194 201 169 194 201 169 194 201 169 194 201 169 0 0 255 0 0 255 0 0 255 95 139 71 95 139 71 95 139 71 95 139 71 95 139 71 95 139 71 95 139 71 95 139 71 95 139 71 95 139 71 95 139 71 95 139 71 95 139 71 95 139 71 0 0 255 95 139 71 95 139 71 95 139 71 95 139 71 95 139 71 95 139 71 0 0 255 0 0 255 0 0 255 196 201 168 196 201 168 0 0 255 0 0 255 95 139 71 95 139 71 95 139 71 95 139 71 95 139 71 95 139 71 95 139 71 95 139 71 95 139 71 95 139 71 95 139 71 95 139 71 95 139 71 95 139 71 0 0 255 0 0 255 196 201 168 0 0 255 0 0 255 0 0 255 0 0 255 0 0 255 0 0 255 0 0 255 193 176 76 0 0 255 0 0 255 196 201 168 196 201 168 196 201 168 196 201 168 196 201 168 196 201 168 196 201 168 196 201 168 196 201 168 196 201 168 196 201 168 196 201 168 196 201 168 196 201 168 0 0 255 0 0 255 95 139 71 95 139 71 95 139 71 0 0 255 0 0 255 70 38 44 0 0 255 0 0 255 0 0 255 70 38 44 70 38 44 0 0 255 0 0 255 0 0 255 0 0 255 0 0 255 0 0 255 0 0 255 196 201 168 196 201 168 196 201 168 196 201 168 196 201 168 196 201 168 196 201 168 196 201 168 196 201 168 196 201 168 196 201 168 196 201 168 196 201 168 196 201 168 196 201 168 196 201 168 192 192 143 192 192 143 192 192 143 192 192 143 192 192 143 192 192 143 192 192 143 192 192 143 192 192 143 192 192 143 192 192 143 192 192 143 192 192 143 192 192 143 192 192 143 192 192 143 192 192 143 192 192 143 192 192 143 192 192 143 192 192 143 192 192 143 192 192 143 192 192 143 192 192 143 192 192 143 0 0 255 0 0 255 107 129 71 107 129 71 0 0 255 0 0 255 0 0 255 0 0 255 0 0 255 0 0 255 0 0 255 0 0 255 0 0 255 0 0 255 107 129 71 0 0 255 0 0 255 0 0 255 192 192 143 192 192 143 192 192 143 192 192 143 192 192 143 192 192 143 192 192 143 0 0 255 0 0 255 107 129 71 107 129 71 107 129 71 107 129 71 107 129 71 107 129 71 107 129 71 107 129 71 107 129 71 107 129 71 107 129 71 107 129 71 107 129 71 107 129 71 0 0 255 0 0 255 192 192 143 192 192 143 0 0 255 0 0 255 107 129 71 0 0 255 0 0 255 179 67 44 179 67 44 179 67 44 179 67 44 179 67 44 179 67 44 179 67 44 0 0 255 0 0 255 0 0 255 0 0 255 0 0 255 0 0 255 107 129 71 107 129 71 107 129 71 107 129 71 107 129 71 107 129 71 107 129 71 107 129 71 107 129 71 107 129 71 107 129 71 107 129 71 107 129 71 107 129 71 107 129 71 0 0 255 0 0 255 70 38 44 70 38 44 70 38 44 70 38 44 70 38 44 70 38 44 70 38 44 70 38 44 70 38 44 70 38 44 0 0 255 0 0 255 0 0 255 0 0 255 0 0 255 0 0 255 70 38 44 70 38 44 0 0 255 0 0 255 70 38 44 70 38 44 70 38 44 70 38 44 70 38 44 70 38 44 70 38 44 0 0 255 0 0 255 0 0 255 0 0 255 0 0 255 70 38 44 70 38 44 70 38 44 0 0 255 0 0 255 0 0 255 194 201 169 194 201 169 194 201 169 194 201 169 0 0 255 0 0 255 0 0 255 95 139 71 95 139 71 95 139 71 95 139 71 95 139 71 95 139 71 95 139 71 95 139 71 95 139 71 95 139 71 95 139 71 95 139 71 95 139 71 95 139 71 95 139 71 95 139 71 95 139 71 95 139 71 95 139 71 95 139 71 95 139 71 0 0 255 0 0 255 0 0 255 0 0 255 0 0 255 0 0 255 0 0 255 95 139 71 95 139 71 95 139 71 95 139 71 95 139 71 95 139 71 95 139 71 95 139 71 95 139 71 95 139 71 95 139 71 95 139 71 95 139 71 95 139 71 0 0 255 0 0 255 196 201 168 196 201 168 0 0 255 0 0 255 0 0 255 0 0 255 0 0 255 0 0 255 0 0 255 0 0 255 196 201 168 196 201 168 196 201 168 196 201 168 196 201 168 196 201 168 196 201 168 196 201 168 196 201 168 196 201 168 196 201 168 196 201 168 196 201 168 196 201 168 196 201 168 0 0 255 0 0 255 95 139 71 95 139 71 95 139 71 0 0 255 0 0 255 70 38 44 70 38 44 0 0 255 70 38 44 70 38 44 70 38 44 70 38 44 70 38 44 70 38 44 0 0 255 0 0 255 0 0 255 0 0 255 196 201 168 196 201 168 196 201 168 196 201 168 196 201 168 196 201 168 196 201 168 196 201 168 196 201 168 196 201 168 196 201 168 196 201 168 196 201 168 196 201 168 196 201 168 196 201 168 192 192 143 192 192 143 192 192 143 192 192 143 192 192 143 192 192 143 192 192 143 192 192 143 192 192 143 192 192 143 192 192 143 192 192 143 192 192 143 192 192 143 192 192 143 192 192 143 192 192 143 192 192 143 192 192 143 192 192 143 192 192 143 192 192 143 192 192 143 192 192 143 192 192 143 192 192 143 192 192 143 0 0 255 0 0 255 107 129 71 0 0 255 0 0 255 0 0 255 0 0 255 0 0 255 0 0 255 0 0 255 0 0 255 107 129 71 107 129 71 0 0 255 0 0 255 192 192 143 192 192 143 192 192 143 192 192 143 192 192 143 192 192 143 192 192 143 192 192 143 192 192 143 0 0 255 0 0 255 107 129 71 107 129 71 107 129 71 107 129 71 107 129 71 107 129 71 107 129 71 107 129 71 107 129 71 107 129 71 107 129 71 107 129 71 107 129 71 0 0 255 0 0 255 192 192 143 192 192 143 192 192 143 0 0 255 0 0 255 107 129 71 107 129 71 0 0 255 0 0 255 0 0 255 179 67 44 179 67 44 0 0 255 0 0 255 0 0 255 0 0 255 0 0 255 0 0 255 192 199 159 0 0 255 0 0 255 107 129 71 107 129 71 107 129 71 107 129 71 107 129 71 107 129 71 107 129 71 107 129 71 107 129 71 107 129 71 107 129 71 107 129 71 107 129 71 107 129 71 107 129 71 107 129 71 0 0 255 0 0 255 70 38 44 70 38 44 70 38 44 70 38 44 70 38 44 70 38 44 70 38 44 70 38 44 70 38 44 0 0 255 0 0 255 0 0 255 0 0 255 0 0 255 0 0 255 70 38 44 70 38 44 70 38 44 70 38 44 70 38 44 70 38 44 70 38 44 70 38 44 70 38 44 70 38 44 70 38 44 0 0 255 0 0 255 0 0 255 0 0 255 0 0 255 70 38 44 70 38 44 70 38 44 0 0 255 0 0 255 0 0 255 194 201 169 194 201 169 194 201 169 194 201 169 0 0 255 0 0 255 0 0 255 95 139 71 95 139 71 95 139 71 95 139 71 95 139 71 95 139 71 95 139 71 95 139 71 95 139 71 95 139 71 95 139 71 95 139 71 95 139 71 95 139 71 95 139 71 95 139 71 95 139 71 95 139 71 95 139 71 95 139 71 95 139 71 0 0 255 0 0 255 192 201 168 0 0 255 0 0 255 0 0 255 95 139 71 95 139 71 95 139 71 95 139 71 95 139 71 95 139 71 95 139 71 95 139 71 0 0 255 95 139 71 95 139 71 95 139 71 95 139 71 95 139 71 95 139 71 0 0 255 0 0 255 196 201 168 196 201 168 196 201 168 196 201 168 0 0 255 0 0 255 0 0 255 0 0 255 0 0 255 196 201 168 196 201 168 196 201 168 196 201 168 196 201 168 196 201 168 196 201 168 196 201 168 196 201 168 196 201 168 196 201 168 196 201 168 196 201 168 196 201 168 196 201 168 196 201 168 0 0 255 0 0 255 95 139 71 95 139 71 95 139 71 0 0 255 0 0 255 70 38 44 70 38 44 70 38 44 70 38 44 70 38 44 70 38 44 70 38 44 70 38 44 0 0 255 0 0 255 95 139 71 0 0 255 0 0 255 196 201 168 196 201 168 196 201 168 196 201 168 196 201 168 196 201 168 196 201 168 196 201 168 196 201 168 196 201 168 196 201 168 196 201 168 196 201 168 196 201 168 196 201 168 196 201 168 192 192 143 192 192 143 192 192 143 192 192 143 192 192 143 192 192 143 192 192 143 192 192 143 192 192 143 192 192 143 192 192 143 192 192 143 192 192 143 192 192 143 192 192 143 192 192 143 192 192 143 192 192 143 192 192 143 192 192 143 192 192 143 192 192 143 192 192 143 192 192 143 192 192 143 192 192 143 192 192 143 192 192 143 0 0 255 0 0 255 0 0 255 0 0 255 0 0 255 0 0 255 107 129 71 107 129 71 0 0 255 0 0 255 0 0 255 0 0 255 0 0 255 192 192 143 192 192 143 192 192 143 192 192 143 192 192 143 192 192 143 192 192 143 192 192 143 192 192 143 192 192 143 192 192 143 0 0 255 0 0 255 107 129 71 107 129 71 107 129 71 107 129 71 107 129 71 107 129 71 107 129 71 107 129 71 107 129 71 107 129 71 107 129 71 0 0 255 0 0 255 192 192 143 0 0 255 0 0 255 0 0 255 192 192 143 0 0 255 0 0 255 0 0 255 107 129 71 0 0 255 0 0 255 0 0 255 0 0 255 0 0 255 0 0 255 0 0 255 0 0 255 0 0 255 0 0 255 0 0 255 0 0 255 107 129 71 107 129 71 107 129 71 107 129 71 107 129 71 107 129 71 107 129 71 107 129 71 0 0 255 107 129 71 107 129 71 107 129 71 107 129 71 107 129 71 107 129 71 107 129 71 107 129 71 0 0 255 0 0 255 70 38 44 70 38 44 70 38 44 70 38 44 70 38 44 70 38 44 70 38 44 70 38 44 70 38 44 70 38 44 0 0 255 0 0 255 0 0 255 0 0 255 70 38 44 70 38 44 70 38 44 70 38 44 70 38 44 70 38 44 70 38 44 70 38 44 70 38 44 70 38 44 70 38 44 70 38 44 0 0 255 0 0 255 0 0 255 0 0 255 70 38 44 70 38 44 70 38 44 70 38 44 0 0 255 0 0 255 0 0 255 194 201 169 194 201 169 194 201 169 194 201 169 194 201 169 0 0 255 0 0 255 0 0 255 95 139 71 95 139 71 95 139 71 95 139 71 95 139 71 95 139 71 95 139 71 95 139 71 95 139 71 95 139 71 95 139 71 95 139 71 95 139 71 95 139 71 95 139 71 95 139 71 95 139 71 95 139 71 95 139 71 0 0 255 0 0 255 192 201 168 0 0 255 0 0 255 0 0 255 95 139 71 95 139 71 95 139 71 95 139 71 95 139 71 95 139 71 95 139 71 95 139 71 0 0 255 0 0 255 0 0 255 95 139 71 95 139 71 95 139 71 95 139 71 95 139 71 0 0 255 0 0 255 196 201 168 196 201 168 196 201 168 196 201 168 196 201 168 196 201 168 196 201 168 196 201 168 196 201 168 196 201 168 196 201 168 196 201 168 196 201 168 196 201 168 196 201 168 196 201 168 196 201 168 196 201 168 196 201 168 196 201 168 196 201 168 196 201 168 196 201 168 196 201 168 196 201 168 196 201 168 0 0 255 0 0 255 95 139 71 95 139 71 95 139 71 0 0 255 0 0 255 70 38 44 70 38 44 70 38 44 70 38 44 70 38 44 70 38 44 0 0 255 0 0 255 95 139 71 0 0 255 0 0 255 196 201 168 196 201 168 196 201 168 196 201 168 196 201 168 196 201 168 196 201 168 196 201 168 196 201 168 196 201 168 196 201 168 196 201 168 196 201 168 196 201 168 196 201 168 196 201 168 196 201 168 192 192 143 192 192 143 192 192 143 192 192 143 192 192 143 192 192 143 192 192 143 192 192 143 192 192 143 192 192 143 192 192 143 192 192 143 192 192 143 192 192 143 192 192 143 192 192 143 192 192 143 192 192 143 192 192 143 192 192 143 192 192 143 192 192 143 192 192 143 192 192 143 192 192 143 192 192 143 192 192 143 192 192 143 192 192 143 0 0 255 0 0 255 0 0 255 0 0 255 0 0 255 0 0 255 0 0 255 0 0 255 0 0 255 0 0 255 0 0 255 192 192 143 192 192 143 192 192 143 192 192 143 192 192 143 192 192 143 192 192 143 192 192 143 192 192 143 192 192 143 192 192 143 192 192 143 192 192 143 0 0 255 0 0 255 107 129 71 107 129 71 107 129 71 107 129 71 107 129 71 107 129 71 107 129 71 107 129 71 107 129 71 0 0 255 0 0 255 0 0 255 0 0 255 0 0 255 0 0 255 0 0 255 0 0 255 0 0 255 0 0 255 0 0 255 0 0 255 0 0 255 0 0 255 0 0 255 0 0 255 0 0 255 0 0 255 0 0 255 0 0 255 0 0 255 0 0 255 0 0 255 107 129 71 107 129 71 107 129 71 107 129 71 107 129 71 107 129 71 107 129 71 107 129 71 0 0 255 0 0 255 0 0 255 107 129 71 107 129 71 107 129 71 107 129 71 107 129 71 107 129 71 107 129 71 107 129 71 0 0 255 0 0 255 70 38 44 70 38 44 70 38 44 70 38 44 70 38 44 70 38 44 70 38 44 70 38 44 70 38 44 70 38 44 0 0 255 0 0 255 70 38 44 70 38 44 70 38 44 70 38 44 70 38 44 70 38 44 70 38 44 70 38 44 70 38 44 70 38 44 70 38 44 70 38 44 70 38 44 70 38 44 0 0 255 0 0 255 70 38 44 70 38 44 70 38 44 70 38 44 0 0 255 0 0 255 0 0 255 194 201 169 194 201 169 194 201 169 194 201 169 194 201 169 194 201 169 194 201 169 0 0 255 0 0 255 95 139 71 95 139 71 95 139 71 95 139 71 95 139 71 95 139 71 95 139 71 95 139 71 95 139 71 95 139 71 95 139 71 95 139 71 95 139 71 95 139 71 95 139 71 95 139 71 95 139 71 95 139 71 0 0 255 0 0 255 192 201 168 192 201 168 0 0 255 0 0 255 95 139 71 95 139 71 95 139 71 95 139 71 95 139 71 95 139 71 95 139 71 95 139 71 95 139 71 95 139 71 0 0 255 95 139 71 95 139 71 95 139 71 95 139 71 95 139 71 95 139 71 0 0 255 0 0 255 196 201 168 196 201 168 196 201 168 196 201 168 196 201 168 196 201 168 196 201 168 196 201 168 196 201 168 196 201 168 196 201 168 196 201 168 196 201 168 196 201 168 196 201 168 196 201 168 196 201 168 196 201 168 196 201 168 196 201 168 196 201 168 196 201 168 196 201 168 196 201 168 196 201 168 196 201 168 0 0 255 0 0 255 95 139 71 95 139 71 95 139 71 95 139 71 0 0 255 0 0 255 70 38 44 70 38 44 70 38 44 70 38 44 0 0 255 0 0 255 95 139 71 95 139 71 0 0 255 0 0 255 196 201 168 196 201 168 196 201 168 196 201 168 196 201 168 196 201 168 196 201 168 196 201 168 196 201 168 196 201 168 196 201 168 196 201 168 196 201 168 196 201 168 196 201 168 196 201 168 196 201 168 192 192 143 192 192 143 192 192 143 192 192 143 192 192 143 192 192 143 192 192 143 192 192 143 192 192 143 192 192 143 192 192 143 192 192 143 192 192 143 192 192 143 192 192 143 192 192 143 192 192 143 192 192 143 192 192 143 192 192 143 192 192 143 192 192 143 192 192 143 192 192 143 192 192 143 192 192 143 192 192 143 192 192 143 192 192 143 192 192 143 192 192 143 192 192 143 0 0 255 0 0 255 0 0 255 0 0 255 192 192 143 192 192 143 192 192 143 192 192 143 192 192 143 192 192 143 192 192 143 192 192 143 192 192 143 192 192 143 192 192 143 192 192 143 192 192 143 192 192 143 192 192 143 192 192 143 192 192 143 192 192 143 0 0 255 0 0 255 0 0 255 0 0 255 0 0 255 107 129 71 0 0 255 0 0 255 0 0 255 0 0 255 0 0 255 0 0 255 0 0 255 0 0 255 192 199 159 192 199 159 192 199 159 0 0 255 0 0 255 0 0 255 0 0 255 0 0 255 0 0 255 0 0 255 0 0 255 0 0 255 0 0 255 0 0 255 192 199 159 192 199 159 0 0 255 0 0 255 107 129 71 107 129 71 107 129 71 107 129 71 107 129 71 107 129 71 107 129 71 107 129 71 0 0 255 0 0 255 0 0 255 0 0 255 107 129 71 107 129 71 107 129 71 107 129 71 107 129 71 107 129 71 0 0 255 107 129 71 107 129 71 0 0 255 0 0 255 70 38 44 70 38 44 70 38 44 70 38 44 70 38 44 70 38 44 70 38 44 70 38 44 70 38 44 70 38 44 70 38 44 70 38 44 70 38 44 70 38 44 70 38 44 70 38 44 70 38 44 70 38 44 70 38 44 70 38 44 70 38 44 70 38 44 70 38 44 70 38 44 70 38 44 70 38 44 70 38 44 70 38 44 70 38 44 70 38 44 0 0 255 0 0 255 0 0 255 194 201 169 194 201 169 194 201 169 194 201 169 194 201 169 194 201 169 194 201 169 194 201 169 194 201 169 0 0 255 0 0 255 0 0 255 95 139 71 95 139 71 95 139 71 95 139 71 95 139 71 95 139 71 95 139 71 95 139 71 95 139 71 95 139 71 95 139 71 95 139 71 95 139 71 95 139 71 95 139 71 95 139 71 0 0 255 0 0 255 0 0 255 0 0 255 0 0 255 0 0 255 95 139 71 95 139 71 95 139 71 95 139 71 95 139 71 95 139 71 95 139 71 95 139 71 95 139 71 95 139 71 95 139 71 95 139 71 95 139 71 95 139 71 95 139 71 95 139 71 95 139 71 0 0 255 0 0 255 196 201 168 196 201 168 196 201 168 196 201 168 196 201 168 196 201 168 196 201 168 196 201 168 196 201 168 196 201 168 196 201 168 196 201 168 196 201 168 196 201 168 196 201 168 196 201 168 196 201 168 196 201 168 196 201 168 196 201 168 196 201 168 196 201 168 196 201 168 196 201 168 196 201 168 196 201 168 196 201 168 0 0 255 0 0 255 95 139 71 95 139 71 95 139 71 95 139 71 0 0 255 0 0 255 0 0 255 0 0 255 0 0 255 0 0 255 95 139 71 95 139 71 0 0 255 0 0 255 196 201 168 196 201 168 196 201 168 196 201 168 196 201 168 196 201 168 196 201 168 196 201 168 196 201 168 196 201 168 196 201 168 196 201 168 196 201 168 196 201 168 196 201 168 196 201 168 196 201 168 196 201 168 192 192 143 192 192 143 192 192 143 192 192 143 192 192 143 192 192 143 192 192 143 192 192 143 192 192 143 192 192 143 192 192 143 192 192 143 192 192 143 192 192 143 192 192 143 192 192 143 192 192 143 192 192 143 192 192 143 192 192 143 192 192 143 192 192 143 192 192 143 192 192 143 192 192 143 192 192 143 192 192 143 192 192 143 192 192 143 192 192 143 192 192 143 192 192 143 192 192 143 192 192 143 192 192 143 192 192 143 192 192 143 192 192 143 192 192 143 192 192 143 192 192 143 192 192 143 192 192 143 192 192 143 192 192 143 192 192 143 192 192 143 192 192 143 192 192 143 192 192 143 192 192 143 192 192 143 192 192 143 192 192 143 192 192 143 0 0 255 0 0 255 0 0 255 0 0 255 0 0 255 0 0 255 0 0 255 0 0 255 0 0 255 0 0 255 0 0 255 192 199 159 192 199 159 192 199 159 192 199 159 192 199 159 192 199 159 192 199 159 0 0 255 192 199 159 0 0 255 0 0 255 0 0 255 192 199 159 192 199 159 192 199 159 192 199 159 192 199 159 0 0 255 0 0 255 0 0 255 107 129 71 107 129 71 107 129 71 107 129 71 107 129 71 107 129 71 107 129 71 107 129 71 107 129 71 0 0 255 0 0 255 107 129 71 107 129 71 107 129 71 107 129 71 107 129 71 107 129 71 0 0 255 0 0 255 0 0 255 107 129 71 0 0 255 0 0 255 70 38 44 70 38 44 70 38 44 70 38 44 70 38 44 70 38 44 70 38 44 70 38 44 70 38 44 70 38 44 70 38 44 70 38 44 70 38 44 70 38 44 70 38 44 70 38 44 70 38 44 70 38 44 70 38 44 70 38 44 70 38 44 70 38 44 70 38 44 70 38 44 70 38 44 70 38 44 70 38 44 70 38 44 70 38 44 70 38 44 0 0 255 0 0 255 0 0 255 194 201 169 194 201 169 194 201 169 194 201 169 194 201 169 194 201 169 194 201 169 194 201 169 194 201 169 194 201 169 0 0 255 0 0 255 0 0 255 0 0 255 95 139 71 95 139 71 95 139 71 95 139 71 95 139 71 95 139 71 95 139 71 95 139 71 95 139 71 95 139 71 95 139 71 95 139 71 95 139 71 95 139 71 95 139 71 0 0 255 0 0 255 0 0 255 0 0 255 0 0 255 95 139 71 95 139 71 95 139 71 95 139 71 95 139 71 95 139 71 95 139 71 95 139 71 95 139 71 95 139 71 95 139 71 95 139 71 95 139 71 95 139 71 95 139 71 95 139 71 0 0 255 0 0 255 196 201 168 196 201 168 196 201 168 196 201 168 196 201 168 196 201 168 196 201 168 196 201 168 196 201 168 196 201 168 196 201 168 196 201 168 196 201 168 196 201 168 196 201 168 196 201 168 196 201 168 196 201 168 196 201 168 196 201 168 196 201 168 196 201 168 196 201 168 196 201 168 196 201 168 196 201 168 196 201 168 196 201 168 196 201 168 0 0 255 0 0 255 95 139 71 95 139 71 95 139 71 95 139 71 0 0 255 0 0 255 0 0 255 0 0 255 95 139 71 95 139 71 0 0 255 0 0 255 196 201 168 196 201 168 196 201 168 196 201 168 196 201 168 196 201 168 196 201 168 196 201 168 196 201 168 196 201 168 196 201 168 196 201 168 196 201 168 196 201 168 196 201 168 196 201 168 196 201 168 196 201 168 196 201 168 192 192 143 192 192 143 192 192 143 192 192 143 192 192 143 192 192 143 192 192 143 192 192 143 192 192 143 192 192 143 192 192 143 192 192 143 192 192 143 192 192 143 192 192 143 192 192 143 192 192 143 192 192 143 192 192 143 192 192 143 192 192 143 192 192 143 192 192 143 192 192 143 192 192 143 192 192 143 192 192 143 192 192 143 192 192 143 192 192 143 192 192 143 192 192 143 192 192 143 192 192 143 192 192 143 192 192 143 192 192 143 192 192 143 192 192 143 192 192 143 192 192 143 192 192 143 192 192 143 192 192 143 192 192 143 192 192 143 192 192 143 192 192 143 192 192 143 192 192 143 192 192 143 192 192 143 192 192 143 192 192 143 192 192 143 192 192 143 192 192 143 192 192 143 192 192 143 0 0 255 192 192 143 192 192 143 192 192 143 0 0 255 0 0 255 192 199 159 192 199 159 192 199 159 192 199 159 192 199 159 192 199 159 192 199 159 192 199 159 192 199 159 192 199 159 192 199 159 192 199 159 192 199 159 192 199 159 192 199 159 192 199 159 192 199 159 192 199 159 0 0 255 0 0 255 107 129 71 107 129 71 107 129 71 107 129 71 107 129 71 107 129 71 107 129 71 107 129 71 107 129 71 107 129 71 107 129 71 107 129 71 107 129 71 107 129 71 107 129 71 107 129 71 107 129 71 107 129 71 0 0 255 0 0 255 0 0 255 0 0 255 107 129 71 0 0 255 0 0 255 70 38 44 70 38 44 70 38 44 70 38 44 70 38 44 70 38 44 70 38 44 70 38 44 70 38 44 70 38 44 70 38 44 70 38 44 70 38 44 70 38 44 70 38 44 70 38 44 70 38 44 70 38 44 70 38 44 70 38 44 70 38 44 70 38 44 70 38 44 70 38 44 70 38 44 70 38 44 70 38 44 70 38 44 0 0 255 0 0 255 0 0 255 194 201 169 194 201 169 194 201 169 194 201 169 194 201 169 194 201 169 194 201 169 194 201 169 194 201 169 194 201 169 194 201 169 194 201 169 0 0 255 0 0 255 0 0 255 0 0 255 0 0 255 95 139 71 95 139 71 95 139 71 95 139 71 95 139 71 95 139 71 95 139 71 95 139 71 95 139 71 95 139 71 95 139 71 95 139 71 95 139 71 95 139 71 0 0 255 0 0 255 0 0 255 95 139 71 95 139 71 95 139 71 95 139 71 95 139 71 95 139 71 95 139 71 95 139 71 95 139 71 95 139 71 95 139 71 95 139 71 95 139 71 95 139 71 95 139 71 95 139 71 95 139 71 0 0 255 0 0 255 196 201 168 196 201 168 196 201 168 196 201 168 196 201 168 196 201 168 196 201 168 196 201 168 196 201 168 196 201 168 196 201 168 196 201 168 196 201 168 196 201 168 196 201 168 196 201 168 196 201 168 196 201 168 196 201 168 196 201 168 196 201 168 196 201 168 196 201 168 196 201 168 196 201 168 196 201 168 196 201 168 196 201 168 196 201 168 196 201 168 0 0 255 0 0 255 95 139 71 95 139 71 95 139 71 95 139 71 95 139 71 95 139 71 95 139 71 95 139 71 0 0 255 0 0 255 196 201 168 196 201 168 196 201 168 196 201 168 196 201 168 196 201 168 196 201 168 196 201 168 196 201 168 196 201 168 196 201 168 196 201 168 196 201 168 196 201 168 196 201 168 196 201 168 196 201 168 196 201 168 196 201 168 196 201 168 192 192 143 192 192 143 192 192 143 192 192 143 192 192 143 192 192 143 192 192 143 192 192 143 192 192 143 192 192 143 192 192 143 192 192 143 192 192 143 192 192 143 192 192 143 192 192 143 192 192 143 192 192 143 192 192 143 192 192 143 192 192 143 192 192 143 192 192 143 192 192 143 192 192 143 192 192 143 192 192 143 192 192 143 192 192 143 192 192 143 192 192 143 192 192 143 192 192 143 192 192 143 192 192 143 192 192 143 192 192 143 192 192 143 192 192 143 192 192 143 192 192 143 192 192 143 192 192 143 192 192 143 192 192 143 192 192 143 192 192 143 192 192 143 192 192 143 192 192 143 192 192 143 192 192 143 192 192 143 192 192 143 192 192 143 192 192 143 192 192 143 192 192 143 192 192 143 192 192 143 192 192 143 192 192 143 0 0 255 0 0 255 192 199 159 192 199 159 192 199 159 192 199 159 192 199 159 192 199 159 192 199 159 192 199 159 192 199 159 192 199 159 192 199 159 192 199 159 192 199 159 192 199 159 192 199 159 192 199 159 192 199 159 192 199 159 0 0 255 0 0 255 0 0 255 107 129 71 107 129 71 107 129 71 107 129 71 107 129 71 107 129 71 107 129 71 107 129 71 107 129 71 107 129 71 107 129 71 107 129 71 107 129 71 107 129 71 107 129 71 107 129 71 107 129 71 0 0 255 0 0 255 0 0 255 0 0 255 0 0 255 0 0 255 0 0 255 0 0 255 70 38 44 70 38 44 70 38 44 70 38 44 70 38 44 70 38 44 70 38 44 70 38 44 70 38 44 70 38 44 0 0 255 0 0 255 70 38 44 70 38 44 70 38 44 70 38 44 70 38 44 70 38 44 70 38 44 70 38 44 70 38 44 70 38 44 70 38 44 70 38 44 70 38 44 70 38 44 0 0 255 0 0 255 0 0 255 0 0 255 0 0 255 194 201 169 194 201 169 194 201 169 194 201 169 194 201 169 194 201 169 194 201 169 194 201 169 194 201 169 194 201 169 194 201 169 194 201 169 194 201 169 194 201 169 0 0 255 0 0 255 0 0 255 0 0 255 0 0 255 95 139 71 95 139 71 95 139 71 95 139 71 95 139 71 95 139 71 95 139 71 95 139 71 95 139 71 95 139 71 95 139 71 95 139 71 95 139 71 95 139 71 95 139 71 95 139 71 95 139 71 95 139 71 95 139 71 95 139 71 95 139 71 95 139 71 95 139 71 95 139 71 95 139 71 95 139 71 95 139 71 95 139 71 95 139 71 95 139 71 95 139 71 95 139 71 0 0 255 0 0 255 0 0 255 0 0 255 0 0 255 196 201 168 196 201 168 196 201 168 196 201 168 196 201 168 196 201 168 196 201 168 196 201 168 196 201 168 196 201 168 196 201 168 196 201 168 196 201 168 196 201 168 196 201 168 196 201 168 196 201 168 196 201 168 196 201 168 196 201 168 196 201 168 196 201 168 196 201 168 196 201 168 196 201 168 196 201 168 196 201 168 196 201 168 0 0 255 0 0 255 0 0 255 0 0 255 95 139 71 0 0 255 0 0 255 0 0 255 0 0 255 0 0 255 196 201 168 196 201 168 196 201 168 196 201 168 196 201 168 196 201 168 196 201 168 196 201 168 196 201 168 196 201 168 196 201 168 196 201 168 196 201 168 196 201 168 196 201 168 196 201 168 196 201 168 196 201 168 196 201 168 196 201 168 196 201 168 192 192 143 192 192 143 192 192 143 192 192 143 192 192 143 192 192 143 192 192 143 192 192 143 192 192 143 192 192 143 192 192 143 192 192 143 192 192 143 192 192 143 192 192 143 192 192 143 192 192 143 192 192 143 192 192 143 192 192 143 192 192 143 192 192 143 192 192 143 192 192 143 192 192 143 192 192 143 192 192 143 192 192 143 192 192 143 192 192 143 192 192 143 192 192 143 192 192 143 192 192 143 192 192 143 192 192 143 192 192 143 192 192 143 192 192 143 192 192 143 192 192 143 192 192 143 192 192 143 192 192 143 192 192 143 192 192 143 192 192 143 192 192 143 192 192 143 192 192 143 192 192 143 192 192 143 192 192 143 192 192 143 192 192 143 192 192 143 192 192 143 192 192 143 192 192 143 192 192 143 192 192 143 0 0 255 0 0 255 192 199 159 192 199 159 192 199 159 192 199 159 192 199 159 192 199 159 192 199 159 192 199 159 192 199 159 192 199 159 192 199 159 192 199 159 192 199 159 192 199 159 192 199 159 192 199 159 192 199 159 192 199 159 192 199 159 0 0 255 0 0 255 0 0 255 107 129 71 107 129 71 107 129 71 107 129 71 107 129 71 107 129 71 107 129 71 107 129 71 107 129 71 107 129 71 107 129 71 107 129 71 107 129 71 107 129 71 107 129 71 107 129 71 0 0 255 0 0 255 0 0 255 194 201 169 194 201 169 0 0 255 0 0 255 0 0 255 0 0 255 0 0 255 70 38 44 70 38 44 70 38 44 70 38 44 70 38 44 70 38 44 70 38 44 70 38 44 0 0 255 0 0 255 0 0 255 0 0 255 0 0 255 70 38 44 70 38 44 70 38 44 70 38 44 70 38 44 70 38 44 70 38 44 70 38 44 70 38 44 70 38 44 0 0 255 0 0 255 0 0 255 0 0 255 0 0 255 0 0 255 194 201 169 194 201 169 194 201 169 194 201 169 194 201 169 194 201 169 194 201 169 194 201 169 194 201 169 194 201 169 194 201 169 194 201 169 194 201 169 194 201 169 194 201 169 194 201 169 194 201 169 194 201 169 0 0 255 0 0 255 0 0 255 95 139 71 95 139 71 95 139 71 95 139 71 95 139 71 95 139 71 95 139 71 95 139 71 95 139 71 95 139 71 95 139 71 95 139 71 95 139 71 95 139 71 95 139 71 95 139 71 95 139 71 95 139 71 95 139 71 95 139 71 95 139 71 95 139 71 95 139 71 95 139 71 95 139 71 95 139 71 95 139 71 95 139 71 95 139 71 95 139 71 95 139 71 95 139 71 0 0 255 0 0 255 0 0 255 0 0 255 0 0 255 0 0 255 0 0 255 196 201 168 196 201 168 196 201 168 196 201 168 196 201 168 196 201 168 196 201 168 196 201 168 196 201 168 196 201 168 196 201 168 196 201 168 196 201 168 196 201 168 196 201 168 196 201 168 196 201 168 196 201 168 196 201 168 196 201 168 196 201 168 196 201 168 196 201 168 196 201 168 196 201 168 196 201 168 0 0 255 0 0 255 0 0 255 0 0 255 0 0 255 0 0 255 0 0 255 0 0 255 196 201 168 196 201 168 196 201 168 196 201 168 196 201 168 196 201 168 196 201 168 196 201 168 196 201 168 196 201 168 196 201 168 196 201 168 196 201 168 196 201 168 196 201 168 196 201 168 196 201 168 196 201 168 196 201 168 196 201 168 196 201 168 196 201 168 192 192 143 192 192 143 192 192 143 192 192 143 192 192 143 192 192 143 192 192 143 192 192 143 192 192 143 192 192 143 192 192 143 192 192 143 192 192 143 192 192 143 192 192 143 192 192 143 192 192 143 192 192 143 192 192 143 192 192 143 192 192 143 192 192 143 192 192 143 192 192 143 192 192 143 192 192 143 192 192 143 192 192 143 192 192 143 192 192 143 192 192 143 192 192 143 192 192 143 192 192 143 192 192 143 192 192 143 192 192 143 192 192 143 192 192 143 192 192 143 192 192 143 192 192 143 192 192 143 192 192 143 192 192 143 192 192 143 192 192 143 192 192 143 192 192 143 192 192 143 192 192 143 192 192 143 192 192 143 192 192 143 192 192 143 192 192 143 192 192 143 192 192 143 192 192 143 192 192 143 0 0 255 0 0 255 192 199 159 192 199 159 192 199 159 192 199 159 192 199 159 192 199 159 192 199 159 192 199 159 192 199 159 192 199 159 192 199 159 192 199 159 192 199 159 192 199 159 192 199 159 192 199 159 192 199 159 192 199 159 192 199 159 192 199 159 0 0 255 0 0 255 0 0 255 107 129 71 107 129 71 107 129 71 107 129 71 107 129 71 107 129 71 107 129 71 107 129 71 107 129 71 107 129 71 107 129 71 107 129 71 107 129 71 107 129 71 107 129 71 0 0 255 0 0 255 0 0 255 0 0 255 194 201 169 194 201 169 194 201 169 0 0 255 0 0 255 0 0 255 0 0 255 0 0 255 70 38 44 70 38 44 70 38 44 0 0 255 0 0 255 0 0 255 0 0 255 0 0 255 0 0 255 0 0 255 0 0 255 0 0 255 0 0 255 70 38 44 70 38 44 70 38 44 70 38 44 70 38 44 70 38 44 0 0 255 0 0 255 0 0 255 0 0 255 0 0 255 0 0 255 0 0 255 0 0 255 194 201 169 194 201 169 194 201 169 194 201 169 194 201 169 194 201 169 194 201 169 194 201 169 194 201 169 194 201 169 194 201 169 194 201 169 194 201 169 194 201 169 194 201 169 194 201 169 194 201 169 194 201 169 194 201 169 0 0 255 0 0 255 95 139 71 95 139 71 95 139 71 95 139 71 95 139 71 95 139 71 95 139 71 95 139 71 95 139 71 95 139 71 95 139 71 95 139 71 95 139 71 95 139 71 95 139 71 95 139 71 95 139 71 95 139 71 95 139 71 95 139 71 95 139 71 95 139 71 95 139 71 95 139 71 95 139 71 95 139 71 95 139 71 95 139 71 95 139 71 95 139 71 95 139 71 95 139 71 95 139 71 95 139 71 95 139 71 95 139 71 95 139 71 0 0 255 0 0 255 0 0 255 0 0 255 196 201 168 196 201 168 196 201 168 196 201 168 196 201 168 196 201 168 196 201 168 196 201 168 196 201 168 196 201 168 196 201 168 196 201 168 196 201 168 196 201 168 196 201 168 196 201 168 196 201 168 196 201 168 196 201 168 196 201 168 196 201 168 196 201 168 196 201 168 196 201 168 196 201 168 196 201 168 196 201 168 196 201 168 0 0 255 196 201 168 196 201 168 196 201 168 196 201 168 196 201 168 196 201 168 196 201 168 196 201 168 196 201 168 196 201 168 196 201 168 196 201 168 196 201 168 196 201 168 196 201 168 196 201 168 196 201 168 196 201 168 196 201 168 196 201 168 196 201 168 196 201 168 196 201 168 196 201 168 196 201 168 196 201 168 192 192 143 192 192 143 192 192 143 192 192 143 192 192 143 192 192 143 192 192 143 192 192 143 192 192 143 192 192 143 192 192 143 192 192 143 192 192 143 192 192 143 192 192 143 192 192 143 192 192 143 192 192 143 192 192 143 192 192 143 192 192 143 192 192 143 192 192 143 192 192 143 192 192 143 192 192 143 192 192 143 192 192 143 192 192 143 192 192 143 192 192 143 192 192 143 192 192 143 192 192 143 192 192 143 192 192 143 192 192 143 192 192 143 192 192 143 192 192 143 192 192 143 192 192 143 192 192 143 192 192 143 192 192 143 192 192 143 192 192 143 192 192 143 192 192 143 192 192 143 192 192 143 192 192 143 192 192 143 192 192 143 192 192 143 192 192 143 192 192 143 192 192 143 192 192 143 0 0 255 0 0 255 192 199 159 192 199 159 192 199 159 192 199 159 192 199 159 192 199 159 192 199 159 192 199 159 192 199 159 192 199 159 192 199 159 192 199 159 192 199 159 192 199 159 192 199 159 192 199 159 192 199 159 192 199 159 192 199 159 192 199 159 192 199 159 192 199 159 0 0 255 0 0 255 107 129 71 107 129 71 107 129 71 107 129 71 107 129 71 107 129 71 107 129 71 107 129 71 107 129 71 107 129 71 107 129 71 107 129 71 107 129 71 107 129 71 107 129 71 0 0 255 0 0 255 0 0 255 194 201 169 194 201 169 194 201 169 194 201 169 194 201 169 0 0 255 0 0 255 0 0 255 0 0 255 0 0 255 0 0 255 0 0 255 0 0 255 0 0 255 0 0 255 0 0 255 0 0 255 0 0 255 0 0 255 0 0 255 0 0 255 0 0 255 0 0 255 0 0 255 70 38 44 70 38 44 70 38 44 0 0 255 0 0 255 0 0 255 0 0 255 95 139 71 0 0 255 0 0 255 0 0 255 194 201 169 194 201 169 194 201 169 194 201 169 194 201 169 194 201 169 194 201 169 194 201 169 194 201 169 194 201 169 194 201 169 194 201 169 194 201 169 194 201 169 194 201 169 194 201 169 194 201 169 194 201 169 194 201 169 0 0 255 0 0 255 0 0 255 95 139 71 95 139 71 95 139 71 95 139 71 95 139 71 95 139 71 95 139 71 95 139 71 95 139 71 0 0 255 95 139 71 95 139 71 95 139 71 95 139 71 95 139 71 95 139 71 95 139 71 95 139 71 95 139 71 95 139 71 95 139 71 95 139 71 95 139 71 95 139 71 95 139 71 95 139 71 95 139 71 95 139 71 95 139 71 95 139 71 95 139 71 95 139 71 95 139 71 95 139 71 95 139 71 95 139 71 95 139 71 95 139 71 95 139 71 95 139 71 0 0 255 0 0 255 196 201 168 196 201 168 196 201 168 196 201 168 196 201 168 196 201 168 196 201 168 196 201 168 196 201 168 196 201 168 196 201 168 196 201 168 196 201 168 196 201 168 196 201 168 196 201 168 196 201 168 196 201 168 196 201 168 196 201 168 196 201 168 196 201 168 196 201 168 196 201 168 196 201 168 196 201 168 196 201 168 196 201 168 196 201 168 196 201 168 196 201 168 196 201 168 196 201 168 196 201 168 196 201 168 196 201 168 196 201 168 196 201 168 196 201 168 196 201 168 196 201 168 196 201 168 196 201 168 196 201 168 196 201 168 196 201 168 196 201 168 196 201 168 196 201 168 196 201 168 196 201 168 196 201 168 196 201 168 196 201 168 192 192 143 192 192 143 192 192 143 192 192 143 192 192 143 192 192 143 192 192 143 192 192 143 192 192 143 192 192 143 192 192 143 192 192 143 192 192 143 192 192 143 192 192 143 192 192 143 192 192 143 192 192 143 192 192 143 192 192 143 192 192 143 192 192 143 192 192 143 192 192 143 192 192 143 192 192 143 192 192 143 192 192 143 192 192 143 192 192 143 192 192 143 192 192 143 192 192 143 192 192 143 192 192 143 192 192 143 192 192 143 192 192 143 192 192 143 192 192 143 192 192 143 192 192 143 192 192 143 192 192 143 192 192 143 192 192 143 192 192 143 192 192 143 192 192 143 192 192 143 192 192 143 192 192 143 192 192 143 192 192 143 192 192 143 192 192 143 192 192 143 192 192 143 0 0 255 0 0 255 192 199 159 192 199 159 192 199 159 192 199 159 192 199 159 192 199 159 192 199 159 192 199 159 192 199 159 192 199 159 192 199 159 192 199 159 192 199 159 192 199 159 192 199 159 192 199 159 192 199 159 192 199 159 192 199 159 192 199 159 192 199 159 192 199 159 192 199 159 0 0 255 0 0 255 107 129 71 107 129 71 107 129 71 107 129 71 107 129 71 107 129 71 107 129 71 107 129 71 107 129 71 107 129 71 107 129 71 107 129 71 107 129 71 107 129 71 0 0 255 0 0 255 0 0 255 194 201 169 194 201 169 194 201 169 194 201 169 194 201 169 194 201 169 194 201 169 194 201 169 0 0 255 0 0 255 0 0 255 0 0 255 0 0 255 107 129 71 107 129 71 107 129 71 0 0 255 0 0 255 0 0 255 194 201 169 194 201 169 0 0 255 0 0 255 0 0 255 0 0 255 0 0 255 0 0 255 0 0 255 0 0 255 0 0 255 0 0 255 0 0 255 0 0 255 0 0 255 0 0 255 194 201 169 194 201 169 194 201 169 194 201 169 194 201 169 194 201 169 194 201 169 194 201 169 194 201 169 194 201 169 194 201 169 194 201 169 194 201 169 194 201 169 194 201 169 194 201 169 194 201 169 194 201 169 194 201 169 0 0 255 0 0 255 0 0 255 95 139 71 95 139 71 95 139 71 95 139 71 95 139 71 95 139 71 95 139 71 95 139 71 95 139 71 0 0 255 0 0 255 0 0 255 95 139 71 95 139 71 95 139 71 95 139 71 95 139 71 95 139 71 0 0 255 95 139 71 95 139 71 95 139 71 95 139 71 95 139 71 95 139 71 95 139 71 95 139 71 95 139 71 95 139 71 95 139 71 95 139 71 95 139 71 95 139 71 95 139 71 95 139 71 95 139 71 95 139 71 95 139 71 95 139 71 95 139 71 95 139 71 95 139 71 0 0 255 0 0 255 196 201 168 196 201 168 196 201 168 196 201 168 196 201 168 196 201 168 196 201 168 196 201 168 196 201 168 196 201 168 196 201 168 196 201 168 196 201 168 196 201 168 196 201 168 196 201 168 196 201 168 196 201 168 196 201 168 196 201 168 196 201 168 196 201 168 196 201 168 196 201 168 196 201 168 196 201 168 196 201 168 196 201 168 196 201 168 196 201 168 196 201 168 196 201 168 196 201 168 196 201 168 196 201 168 196 201 168 196 201 168 196 201 168 196 201 168 196 201 168 196 201 168 196 201 168 196 201 168 196 201 168 196 201 168 196 201 168 196 201 168 196 201 168 196 201 168 196 201 168 196 201 168 196 201 168 196 201 168 192 192 143 192 192 143 192 192 143 192 192 143 192 192 143 192 192 143 192 192 143 192 192 143 192 192 143 192 192 143 192 192 143 192 192 143 192 192 143 192 192 143 192 192 143 192 192 143 192 192 143 192 192 143 192 192 143 192 192 143 192 192 143 192 192 143 192 192 143 192 192 143 192 192 143 192 192 143 192 192 143 192 192 143 192 192 143 192 192 143 192 192 143 192 192 143 192 192 143 192 192 143 192 192 143 192 192 143 192 192 143 192 192 143 192 192 143 192 192 143 192 192 143 192 192 143 192 192 143 192 192 143 192 192 143 192 192 143 192 192 143 192 192 143 192 192 143 192 192 143 192 192 143 192 192 143 192 192 143 192 192 143 192 192 143 192 192 143 192 192 143 192 192 143 0 0 255 0 0 255 192 199 159 192 199 159 192 199 159 192 199 159 192 199 159 192 199 159 192 199 159 192 199 159 192 199 159 192 199 159 192 199 159 192 199 159 192 199 159 192 199 159 192 199 159 192 199 159 192 199 159 192 199 159 192 199 159 192 199 159 192 199 159 192 199 159 192 199 159 192 199 159 0 0 255 0 0 255 107 129 71 107 129 71 107 129 71 107 129 71 107 129 71 107 129 71 107 129 71 107 129 71 107 129 71 107 129 71 107 129 71 107 129 71 0 0 255 0 0 255 0 0 255 0 0 255 194 201 169 194 201 169 194 201 169 194 201 169 194 201 169 194 201 169 194 201 169 194 201 169 194 201 169 0 0 255 0 0 255 0 0 255 0 0 255 0 0 255 0 0 255 0 0 255 0 0 255 0 0 255 194 201 169 194 201 169 194 201 169 194 201 169 0 0 255 0 0 255 0 0 255 0 0 255 0 0 255 0 0 255 0 0 255 0 0 255 0 0 255 0 0 255 0 0 255 194 201 169 194 201 169 194 201 169 194 201 169 194 201 169 194 201 169 194 201 169 194 201 169 194 201 169 194 201 169 194 201 169 194 201 169 194 201 169 194 201 169 194 201 169 194 201 169 194 201 169 194 201 169 194 201 169 194 201 169 194 201 169 0 0 255 0 0 255 95 139 71 95 139 71 95 139 71 95 139 71 95 139 71 95 139 71 95 139 71 95 139 71 95 139 71 95 139 71 0 0 255 0 0 255 0 0 255 95 139 71 95 139 71 95 139 71 95 139 71 95 139 71 0 0 255 0 0 255 0 0 255 0 0 255 0 0 255 95 139 71 95 139 71 95 139 71 95 139 71 95 139 71 95 139 71 95 139 71 95 139 71 95 139 71 95 139 71 95 139 71 95 139 71 95 139 71 95 139 71 95 139 71 95 139 71 95 139 71 95 139 71 95 139 71 95 139 71 95 139 71 0 0 255 0 0 255 196 201 168 196 201 168 196 201 168 196 201 168 196 201 168 196 201 168 196 201 168 196 201 168 196 201 168 196 201 168 196 201 168 196 201 168 196 201 168 196 201 168 196 201 168 196 201 168 196 201 168 196 201 168 196 201 168 196 201 168 196 201 168 196 201 168 196 201 168 196 201 168 196 201 168 196 201 168 196 201 168 196 201 168 196 201 168 196 201 168 196 201 168 196 201 168 196 201 168 196 201 168 196 201 168 196 201 168 196 201 168 196 201 168 196 201 168 196 201 168 196 201 168 196 201 168 196 201 168 196 201 168 196 201 168 196 201 168 196 201 168 196 201 168 196 201 168 196 201 168 196 201 168 196 201 168 192 192 143 192 192 143 192 192 143 192 192 143 192 192 143 192 192 143 192 192 143 192 192 143 192 192 143 192 192 143 192 192 143 192 192 143 192 192 143 192 192 143 192 192 143 192 192 143 192 192 143 192 192 143 192 192 143 192 192 143 192 192 143 192 192 143 192 192 143 192 192 143 192 192 143 192 192 143 192 192 143 192 192 143 192 192 143 192 192 143 192 192 143 192 192 143 192 192 143 192 192 143 192 192 143 192 192 143 192 192 143 192 192 143 192 192 143 192 192 143 192 192 143 192 192 143 192 192 143 192 192 143 192 192 143 192 192 143 192 192 143 192 192 143 192 192 143 192 192 143 192 192 143 192 192 143 192 192 143 192 192 143 192 192 143 192 192 143 192 192 143 192 192 143 0 0 255 0 0 255 192 199 159 192 199 159 192 199 159 192 199 159 192 199 159 192 199 159 192 199 159 192 199 159 192 199 159 192 199 159 192 199 159 192 199 159 192 199 159 192 199 159 192 199 159 192 199 159 192 199 159 192 199 159 192 199 159 192 199 159 192 199 159 192 199 159 192 199 159 192 199 159 192 199 159 0 0 255 0 0 255 107 129 71 107 129 71 107 129 71 107 129 71 107 129 71 107 129 71 107 129 71 107 129 71 107 129 71 107 129 71 0 0 255 0 0 255 0 0 255 0 0 255 194 201 169 194 201 169 194 201 169 194 201 169 194 201 169 194 201 169 194 201 169 194 201 169 194 201 169 194 201 169 194 201 169 194 201 169 0 0 255 0 0 255 0 0 255 0 0 255 0 0 255 194 201 169 194 201 169 194 201 169 194 201 169 194 201 169 194 201 169 194 201 169 194 201 169 0 0 255 0 0 255 0 0 255 0 0 255 0 0 255 0 0 255 194 201 169 194 201 169 194 201 169 194 201 169 194 201 169 194 201 169 194 201 169 194 201 169 194 201 169 194 201 169 194 201 169 194 201 169 194 201 169 194 201 169 194 201 169 194 201 169 194 201 169 194 201 169 194 201 169 194 201 169 194 201 169 194 201 169 194 201 169 0 0 255 0 0 255 95 139 71 95 139 71 95 139 71 95 139 71 95 139 71 95 139 71 95 139 71 95 139 71 95 139 71 95 139 71 95 139 71 95 139 71 0 0 255 95 139 71 95 139 71 95 139 71 95 139 71 95 139 71 0 0 255 0 0 255 192 201 168 0 0 255 0 0 255 0 0 255 0 0 255 0 0 255 0 0 255 0 0 255 0 0 255 0 0 255 95 139 71 95 139 71 95 139 71 95 139 71 95 139 71 95 139 71 95 139 71 95 139 71 95 139 71 95 139 71 0 0 255 0 0 255 0 0 255 95 139 71 95 139 71 0 0 255 0 0 255 196 201 168 196 201 168 196 201 168 196 201 168 196 201 168 196 201 168 196 201 168 196 201 168 196 201 168 196 201 168 196 201 168 196 201 168 196 201 168 196 201 168 196 201 168 196 201 168 196 201 168 196 201 168 196 201 168 196 201 168 196 201 168 196 201 168 196 201 168 196 201 168 196 201 168 196 201 168 196 201 168 196 201 168 196 201 168 196 201 168 196 201 168 196 201 168 196 201 168 196 201 168 196 201 168 196 201 168 196 201 168 196 201 168 196 201 168 196 201 168 196 201 168 196 201 168 196 201 168 196 201 168 196 201 168 196 201 168 196 201 168 196 201 168 196 201 168 196 201 168 196 201 168 196 201 168 192 192 143 192 192 143 192 192 143 192 192 143 192 192 143 192 192 143 192 192 143 192 192 143 192 192 143 192 192 143 192 192 143 192 192 143 192 192 143 192 192 143 192 192 143 192 192 143 192 192 143 192 192 143 192 192 143 192 192 143 192 192 143 192 192 143 192 192 143 192 192 143 192 192 143 192 192 143 192 192 143 192 192 143 192 192 143 192 192 143 192 192 143 192 192 143 192 192 143 192 192 143 192 192 143 192 192 143 192 192 143 192 192 143 192 192 143 192 192 143 192 192 143 192 192 143 192 192 143 192 192 143 192 192 143 192 192 143 192 192 143 192 192 143 192 192 143 192 192 143 192 192 143 192 192 143 192 192 143 192 192 143 192 192 143 192 192 143 192 192 143 192 192 143 0 0 255 0 0 255 192 199 159 192 199 159 192 199 159 192 199 159 192 199 159 192 199 159 192 199 159 192 199 159 192 199 159 192 199 159 192 199 159 192 199 159 192 199 159 192 199 159 192 199 159 192 199 159 192 199 159 192 199 159 192 199 159 192 199 159 192 199 159 192 199 159 192 199 159 192 199 159 192 199 159 192 199 159 0 0 255 0 0 255 0 0 255 107 129 71 107 129 71 107 129 71 107 129 71 107 129 71 107 129 71 107 129 71 0 0 255 0 0 255 0 0 255 0 0 255 194 201 169 194 201 169 194 201 169 194 201 169 194 201 169 194 201 169 194 201 169 194 201 169 194 201 169 194 201 169 194 201 169 194 201 169 194 201 169 194 201 169 194 201 169 194 201 169 194 201 169 194 201 169 194 201 169 194 201 169 194 201 169 194 201 169 194 201 169 194 201 169 194 201 169 194 201 169 194 201 169 194 201 169 194 201 169 194 201 169 194 201 169 194 201 169 194 201 169 194 201 169 194 201 169 194 201 169 194 201 169 194 201 169 194 201 169 194 201 169 194 201 169 194 201 169 194 201 169 194 201 169 194 201 169 194 201 169 194 201 169 194 201 169 194 201 169 194 201 169 194 201 169 194 201 169 194 201 169 194 201 169 194 201 169 0 0 255 0 0 255 95 139 71 95 139 71 95 139 71 95 139 71 95 139 71 95 139 71 95 139 71 95 139 71 95 139 71 95 139 71 95 139 71 95 139 71 95 139 71 95 139 71 95 139 71 95 139 71 95 139 71 95 139 71 0 0 255 0 0 255 192 201 168 192 201 168 192 201 168 192 201 168 0 0 255 0 0 255 0 0 255 0 0 255 0 0 255 0 0 255 0 0 255 95 139 71 95 139 71 95 139 71 95 139 71 95 139 71 95 139 71 95 139 71 95 139 71 0 0 255 0 0 255 0 0 255 0 0 255 0 0 255 95 139 71 0 0 255 0 0 255 196 201 168 196 201 168 196 201 168 196 201 168 196 201 168 196 201 168 196 201 168 196 201 168 196 201 168 196 201 168 196 201 168 196 201 168 196 201 168 196 201 168 196 201 168 196 201 168 196 201 168 196 201 168 196 201 168 196 201 168 196 201 168 196 201 168 196 201 168 196 201 168 196 201 168 196 201 168 196 201 168 196 201 168 196 201 168 196 201 168 196 201 168 196 201 168 196 201 168 196 201 168 196 201 168 196 201 168 196 201 168 196 201 168 196 201 168 196 201 168 196 201 168 196 201 168 196 201 168 196 201 168 196 201 168 196 201 168 196 201 168 196 201 168 196 201 168 196 201 168 196 201 168 196 201 168 192 192 143 192 192 143 192 192 143 192 192 143 192 192 143 192 192 143 192 192 143 192 192 143 192 192 143 192 192 143 192 192 143 192 192 143 192 192 143 192 192 143 192 192 143 192 192 143 192 192 143 192 192 143 192 192 143 192 192 143 192 192 143 192 192 143 192 192 143 192 192 143 192 192 143 192 192 143 192 192 143 192 192 143 192 192 143 192 192 143 192 192 143 192 192 143 192 192 143 192 192 143 192 192 143 192 192 143 192 192 143 192 192 143 192 192 143 192 192 143 192 192 143 192 192 143 192 192 143 192 192 143 192 192 143 192 192 143 192 192 143 192 192 143 192 192 143 192 192 143 192 192 143 192 192 143 192 192 143 192 192 143 192 192 143 192 192 143 0 0 255 0 0 255 0 0 255 192 199 159 192 199 159 192 199 159 192 199 159 192 199 159 192 199 159 192 199 159 192 199 159 192 199 159 192 199 159 0 0 255 0 0 255 0 0 255 0 0 255 0 0 255 0 0 255 192 199 159 192 199 159 192 199 159 192 199 159 192 199 159 192 199 159 192 199 159 192 199 159 192 199 159 192 199 159 192 199 159 192 199 159 0 0 255 0 0 255 0 0 255 0 0 255 0 0 255 0 0 255 0 0 255 0 0 255 0 0 255 0 0 255 192 199 159 0 0 255 0 0 255 194 201 169 194 201 169 194 201 169 194 201 169 194 201 169 194 201 169 194 201 169 194 201 169 194 201 169 194 201 169 194 201 169 194 201 169 194 201 169 194 201 169 194 201 169 194 201 169 194 201 169 194 201 169 194 201 169 194 201 169 194 201 169 194 201 169 194 201 169 194 201 169 194 201 169 194 201 169 194 201 169 194 201 169 194 201 169 194 201 169 194 201 169 194 201 169 194 201 169 194 201 169 194 201 169 194 201 169 194 201 169 194 201 169 194 201 169 194 201 169 194 201 169 194 201 169 194 201 169 194 201 169 194 201 169 194 201 169 194 201 169 194 201 169 194 201 169 194 201 169 194 201 169 194 201 169 194 201 169 194 201 169 194 201 169 0 0 255 0 0 255 95 139 71 95 139 71 95 139 71 95 139 71 95 139 71 95 139 71 95 139 71 95 139 71 95 139 71 95 139 71 95 139 71 95 139 71 95 139 71 95 139 71 95 139 71 95 139 71 95 139 71 0 0 255 0 0 255 192 201 168 192 201 168 192 201 168 192 201 168 192 201 168 192 201 168 192 201 168 192 201 168 192 201 168 0 0 255 0 0 255 95 139 71 95 139 71 95 139 71 95 139 71 95 139 71 95 139 71 95 139 71 95 139 71 95 139 71 0 0 255 0 0 255 196 201 168 0 0 255 0 0 255 95 139 71 0 0 255 0 0 255 196 201 168 196 201 168 196 201 168 196 201 168 196 201 168 196 201 168 196 201 168 196 201 168 196 201 168 196 201 168 196 201 168 196 201 168 196 201 168 196 201 168 196 201 168 196 201 168 196 201 168 196 201 168 196 201 168 196 201 168 196 201 168 196 201 168 196 201 168 196 201 168 196 201 168 196 201 168 196 201 168 196 201 168 196 201 168 196 201 168 196 201 168 196 201 168 196 201 168 196 201 168 196 201 168 196 201 168 196 201 168 196 201 168 196 201 168 196 201 168 196 201 168 196 201 168 196 201 168 196 201 168 196 201 168 196 201 168 196 201 168 196 201 168 196 201 168 196 201 168 196 201 168 196 201 168 192 192 143 192 192 143 192 192 143 192 192 143 192 192 143 192 192 143 192 192 143 192 192 143 192 192 143 192 192 143 192 192 143 192 192 143 192 192 143 192 192 143 192 192 143 192 192 143 192 192 143 192 192 143 192 192 143 192 192 143 192 192 143 192 192 143 192 192 143 192 192 143 192 192 143 192 192 143 192 192 143 192 192 143 192 192 143 192 192 143 192 192 143 192 192 143 192 192 143 192 192 143 192 192 143 192 192 143 192 192 143 192 192 143 192 192 143 192 192 143 192 192 143 192 192 143 192 192 143 192 192 143 192 192 143 192 192 143 192 192 143 192 192 143 192 192 143 192 192 143 192 192 143 192 192 143 192 192 143 192 192 143 192 192 143 0 0 255 0 0 255 0 0 255 192 199 159 192 199 159 192 199 159 192 199 159 192 199 159 192 199 159 192 199 159 192 199 159 192 199 159 192 199 159 0 0 255 0 0 255 0 0 255 0 0 255 0 0 255 0 0 255 0 0 255 0 0 255 0 0 255 192 199 159 192 199 159 192 199 159 192 199 159 192 199 159 192 199 159 192 199 159 192 199 159 192 199 159 192 199 159 192 199 159 192 199 159 0 0 255 0 0 255 0 0 255 0 0 255 0 0 255 0 0 255 0 0 255 192 199 159 0 0 255 0 0 255 194 201 169 194 201 169 194 201 169 194 201 169 194 201 169 194 201 169 194 201 169 194 201 169 194 201 169 194 201 169 194 201 169 194 201 169 194 201 169 194 201 169 194 201 169 194 201 169 194 201 169 194 201 169 194 201 169 194 201 169 194 201 169 194 201 169 194 201 169 194 201 169 194 201 169 194 201 169 194 201 169 194 201 169 194 201 169 194 201 169 194 201 169 194 201 169 194 201 169 194 201 169 194 201 169 194 201 169 194 201 169 194 201 169 194 201 169 194 201 169 194 201 169 194 201 169 194 201 169 194 201 169 194 201 169 194 201 169 194 201 169 194 201 169 194 201 169 194 201 169 194 201 169 194 201 169 194 201 169 194 201 169 194 201 169 194 201 169 0 0 255 0 0 255 95 139 71 95 139 71 95 139 71 95 139 71 95 139 71 95 139 71 95 139 71 95 139 71 95 139 71 95 139 71 95 139 71 95 139 71 95 139 71 95 139 71 95 139 71 95 139 71 95 139 71 0 0 255 0 0 255 192 201 168 192 201 168 192 201 168 192 201 168 192 201 168 192 201 168 192 201 168 192 201 168 192 201 168 0 0 255 0 0 255 95 139 71 95 139 71 95 139 71 95 139 71 95 139 71 95 139 71 95 139 71 95 139 71 95 139 71 95 139 71 0 0 255 0 0 255 0 0 255 95 139 71 95 139 71 0 0 255 0 0 255 196 201 168 196 201 168 196 201 168 196 201 168 196 201 168 196 201 168 196 201 168 196 201 168 196 201 168 196 201 168 196 201 168 196 201 168 196 201 168 196 201 168 196 201 168 196 201 168 196 201 168 196 201 168 196 201 168 196 201 168 196 201 168 196 201 168 196 201 168 196 201 168 196 201 168 196 201 168 196 201 168 196 201 168 196 201 168 196 201 168 196 201 168 196 201 168 196 201 168 196 201 168 196 201 168 196 201 168 196 201 168 196 201 168 196 201 168 196 201 168 196 201 168 196 201 168 196 201 168 196 201 168 196 201 168 196 201 168 196 201 168 196 201 168 196 201 168 196 201 168 196 201 168 196 201 168 192 192 143 192 192 143 192 192 143 192 192 143 192 192 143 192 192 143 192 192 143 192 192 143 192 192 143 192 192 143 192 192 143 192 192 143 192 192 143 192 192 143 192 192 143 192 192 143 192 192 143 192 192 143 192 192 143 192 192 143 192 192 143 192 192 143 192 192 143 192 192 143 192 192 143 192 192 143 192 192 143 192 192 143 192 192 143 192 192 143 192 192 143 192 192 143 192 192 143 192 192 143 192 192 143 192 192 143 192 192 143 192 192 143 192 192 143 192 192 143 192 192 143 192 192 143 192 192 143 192 192 143 192 192 143 192 192 143 192 192 143 192 192 143 192 192 143 192 192 143 192 192 143 192 192 143 192 192 143 192 192 143 192 192 143 0 0 255 0 0 255 192 199 159 192 199 159 192 199 159 192 199 159 192 199 159 192 199 159 192 199 159 192 199 159 192 199 159 0 0 255 0 0 255 0 0 255 0 0 255 107 129 71 107 129 71 107 129 71 107 129 71 107 129 71 0 0 255 0 0 255 0 0 255 192 199 159 192 199 159 192 199 159 192 199 159 192 199 159 192 199 159 192 199 159 192 199 159 192 199 159 192 199 159 192 199 159 192 199 159 192 199 159 192 199 159 192 199 159 192 199 159 192 199 159 192 199 159 0 0 255 0 0 255 194 201 169 194 201 169 194 201 169 194 201 169 194 201 169 194 201 169 194 201 169 194 201 169 194 201 169 194 201 169 194 201 169 194 201 169 194 201 169 194 201 169 194 201 169 194 201 169 194 201 169 194 201 169 194 201 169 194 201 169 194 201 169 194 201 169 194 201 169 194 201 169 194 201 169 194 201 169 194 201 169 194 201 169 194 201 169 194 201 169 194 201 169 194 201 169 194 201 169 194 201 169 194 201 169 194 201 169 194 201 169 194 201 169 194 201 169 194 201 169 194 201 169 194 201 169 194 201 169 194 201 169 194 201 169 194 201 169 194 201 169 194 201 169 194 201 169 194 201 169 194 201 169 194 201 169 194 201 169 194 201 169 194 201 169 194 201 169 194 201 169 0 0 255 0 0 255 95 139 71 95 139 71 95 139 71 95 139 71 95 139 71 95 139 71 95 139 71 95 139 71 95 139 71 95 139 71 95 139 71 95 139 71 95 139 71 95 139 71 95 139 71 95 139 71 0 0 255 0 0 255 192 201 168 192 201 168 192 201 168 192 201 168 192 201 168 192 201 168 192 201 168 192 201 168 192 201 168 192 201 168 0 0 255 0 0 255 95 139 71 95 139 71 95 139 71 95 139 71 95 139 71 95 139 71 95 139 71 95 139 71 95 139 71 95 139 71 95 139 71 0 0 255 95 139 71 95 139 71 95 139 71 0 0 255 0 0 255 196 201 168 196 201 168 196 201 168 196 201 168 196 201 168 196 201 168 196 201 168 196 201 168 196 201 168 196 201 168 196 201 168 196 201 168 196 201 168 196 201 168 196 201 168 196 201 168 196 201 168 196 201 168 196 201 168 196 201 168 196 201 168 196 201 168 196 201 168 196 201 168 196 201 168 196 201 168 196 201 168 196 201 168 196 201 168 196 201 168 196 201 168 196 201 168 196 201 168 196 201 168 196 201 168 196 201 168 196 201 168 196 201 168 196 201 168 196 201 168 196 201 168 196 201 168 196 201 168 196 201 168 196 201 168 196 201 168 196 201 168 196 201 168 196 201 168 196 201 168 196 201 168 196 201 168 192 192 143 192 192 143 192 192 143 192 192 143 192 192 143 192 192 143 192 192 143 192 192 143 192 192 143 192 192 143 192 192 143 192 192 143 192 192 143 192 192 143 192 192 143 192 192 143 192 192 143 192 192 143 192 192 143 192 192 143 192 192 143 192 192 143 192 192 143 192 192 143 192 192 143 192 192 143 192 192 143 192 192 143 192 192 143 192 192 143 192 192 143 192 192 143 192 192 143 192 192 143 192 192 143 192 192 143 192 192 143 192 192 143 192 192 143 192 192 143 192 192 143 192 192 143 192 192 143 192 192 143 192 192 143 192 192 143 192 192 143 192 192 143 192 192 143 192 192 143 192 192 143 192 192 143 192 192 143 192 192 143 0 0 255 0 0 255 192 199 159 192 199 159 192 199 159 192 199 159 192 199 159 192 199 159 192 199 159 192 199 159 192 199 159 0 0 255 0 0 255 0 0 255 0 0 255 107 129 71 107 129 71 107 129 71 107 129 71 107 129 71 107 129 71 107 129 71 107 129 71 0 0 255 0 0 255 192 199 159 192 199 159 192 199 159 192 199 159 192 199 159 192 199 159 192 199 159 192 199 159 192 199 159 192 199 159 192 199 159 192 199 159 192 199 159 192 199 159 192 199 159 192 199 159 192 199 159 0 0 255 0 0 255 194 201 169 194 201 169 194 201 169 194 201 169 194 201 169 194 201 169 194 201 169 194 201 169 194 201 169 194 201 169 194 201 169 194 201 169 194 201 169 194 201 169 194 201 169 194 201 169 194 201 169 194 201 169 194 201 169 194 201 169 194 201 169 194 201 169 194 201 169 194 201 169 194 201 169 194 201 169 194 201 169 194 201 169 194 201 169 194 201 169 194 201 169 194 201 169 194 201 169 194 201 169 194 201 169 194 201 169 194 201 169 194 201 169 194 201 169 194 201 169 194 201 169 194 201 169 194 201 169 194 201 169 194 201 169 194 201 169 194 201 169 194 201 169 194 201 169 194 201 169 194 201 169 194 201 169 194 201 169 194 201 169 194 201 169 194 201 169 194 201 169 0 0 255 0 0 255 95 139 71 95 139 71 95 139 71 95 139 71 95 139 71 95 139 71 95 139 71 95 139 71 95 139 71 95 139 71 95 139 71 95 139 71 95 139 71 95 139 71 95 139 71 0 0 255 0 0 255 192 201 168 192 201 168 192 201 168 192 201 168 192 201 168 192 201 168 192 201 168 192 201 168 192 201 168 192 201 168 192 201 168 0 0 255 0 0 255 95 139 71 95 139 71 95 139 71 95 139 71 95 139 71 95 139 71 95 139 71 95 139 71 95 139 71 95 139 71 95 139 71 95 139 71 95 139 71 95 139 71 95 139 71 0 0 255 0 0 255 196 201 168 196 201 168 196 201 168 196 201 168 196 201 168 196 201 168 196 201 168 196 201 168 196 201 168 196 201 168 196 201 168 196 201 168 196 201 168 196 201 168 196 201 168 196 201 168 196 201 168 196 201 168 196 201 168 196 201 168 196 201 168 196 201 168 196 201 168 196 201 168 196 201 168 196 201 168 196 201 168 196 201 168 196 201 168 196 201 168 196 201 168 196 201 168 196 201 168 196 201 168 196 201 168 196 201 168 196 201 168 196 201 168 196 201 168 196 201 168 196 201 168 196 201 168 196 201 168 196 201 168 196 201 168 196 201 168 196 201 168 196 201 168 196 201 168 196 201 168 196 201 168 196 201 168 192 192 143 192 192 143 192 192 143 192 192 143 192 192 143 192 192 143 192 192 143 192 192 143 192 192 143 192 192 143 192 192 143 192 192 143 192 192 143 192 192 143 192 192 143 192 192 143 192 192 143 192 192 143 192 192 143 192 192 143 192 192 143 192 192 143 192 192 143 192 192 143 192 192 143 192 192 143 192 192 143 192 192 143 192 192 143 192 192 143 192 192 143 192 192 143 192 192 143 192 192 143 192 192 143 192 192 143 192 192 143 192 192 143 192 192 143 192 192 143 192 192 143 192 192 143 192 192 143 192 192 143 192 192 143 192 192 143 192 192 143 192 192 143 192 192 143 192 192 143 192 192 143 192 192 143 192 192 143 0 0 255 0 0 255 192 199 159 192 199 159 192 199 159 192 199 159 192 199 159 192 199 159 192 199 159 192 199 159 192 199 159 0 0 255 0 0 255 0 0 255 107 129 71 107 129 71 107 129 71 107 129 71 107 129 71 107 129 71 107 129 71 107 129 71 107 129 71 107 129 71 107 129 71 0 0 255 0 0 255 192 199 159 192 199 159 192 199 159 192 199 159 192 199 159 192 199 159 192 199 159 192 199 159 192 199 159 192 199 159 192 199 159 192 199 159 192 199 159 192 199 159 192 199 159 0 0 255 0 0 255 194 201 169 194 201 169 194 201 169 194 201 169 194 201 169 194 201 169 194 201 169 194 201 169 194 201 169 194 201 169 194 201 169 194 201 169 194 201 169 194 201 169 194 201 169 194 201 169 194 201 169 194 201 169 194 201 169 194 201 169 194 201 169 194 201 169 194 201 169 194 201 169 194 201 169 194 201 169 194 201 169 194 201 169 194 201 169 194 201 169 194 201 169 194 201 169 194 201 169 194 201 169 194 201 169 194 201 169 194 201 169 194 201 169 194 201 169 194 201 169 194 201 169 194 201 169 194 201 169 194 201 169 194 201 169 194 201 169 194 201 169 194 201 169 194 201 169 194 201 169 194 201 169 194 201 169 194 201 169 194 201 169 194 201 169 194 201 169 194 201 169 194 201 169 194 201 169 0 0 255 0 0 255 95 139 71 95 139 71 95 139 71 95 139 71 95 139 71 95 139 71 95 139 71 95 139 71 95 139 71 95 139 71 95 139 71 95 139 71 95 139 71 0 0 255 0 0 255 192 201 168 192 201 168 192 201 168 192 201 168 192 201 168 192 201 168 192 201 168 192 201 168 192 201 168 192 201 168 192 201 168 0 0 255 0 0 255 95 139 71 95 139 71 95 139 71 95 139 71 95 139 71 95 139 71 95 139 71 95 139 71 95 139 71 95 139 71 95 139 71 95 139 71 95 139 71 95 139 71 95 139 71 95 139 71 0 0 255 0 0 255 196 201 168 196 201 168 196 201 168 196 201 168 196 201 168 196 201 168 196 201 168 196 201 168 196 201 168 196 201 168 196 201 168 196 201 168 196 201 168 196 201 168 196 201 168 196 201 168 196 201 168 196 201 168 196 201 168 196 201 168 196 201 168 196 201 168 196 201 168 196 201 168 196 201 168 196 201 168 196 201 168 196 201 168 196 201 168 196 201 168 196 201 168 196 201 168 196 201 168 196 201 168 196 201 168 196 201 168 196 201 168 196 201 168 196 201 168 196 201 168 196 201 168 196 201 168 196 201 168 196 201 168 196 201 168 196 201 168 196 201 168 196 201 168 196 201 168 196 201 168 196 201 168 196 201 168 192 192 143 192 192 143 192 192 143 192 192 143 192 192 143 192 192 143 192 192 143 192 192 143 192 192 143 192 192 143 192 192 143 192 192 143 192 192 143 192 192 143 192 192 143 192 192 143 192 192 143 192 192 143 192 192 143 192 192 143 192 192 143 192 192 143 192 192 143 192 192 143 192 192 143 192 192 143 192 192 143 192 192 143 192 192 143 192 192 143 192 192 143 192 192 143 192 192 143 192 192 143 192 192 143 192 192 143 192 192 143 192 192 143 192 192 143 192 192 143 192 192 143 192 192 143 192 192 143 192 192 143 192 192 143 192 192 143 192 192 143 192 192 143 192 192 143 192 192 143 192 192 143 192 192 143 0 0 255 0 0 255 192 199 159 192 199 159 192 199 159 192 199 159 192 199 159 192 199 159 192 199 159 192 199 159 192 199 159 192 199 159 0 0 255 0 0 255 107 129 71 107 129 71 107 129 71 107 129 71 107 129 71 107 129 71 107 129 71 107 129 71 107 129 71 107 129 71 107 129 71 107 129 71 0 0 255 0 0 255 192 199 159 192 199 159 192 199 159 192 199 159 192 199 159 192 199 159 192 199 159 192 199 159 192 199 159 192 199 159 192 199 159 192 199 159 192 199 159 192 199 159 192 199 159 192 199 159 0 0 255 0 0 255 194 201 169 194 201 169 194 201 169 194 201 169 194 201 169 194 201 169 194 201 169 194 201 169 194 201 169 194 201 169 194 201 169 194 201 169 194 201 169 194 201 169 194 201 169 194 201 169 194 201 169 194 201 169 194 201 169 194 201 169 194 201 169 194 201 169 194 201 169 194 201 169 194 201 169 194 201 169 194 201 169 194 201 169 194 201 169 194 201 169 194 201 169 194 201 169 194 201 169 194 201 169 194 201 169 194 201 169 194 201 169 194 201 169 194 201 169 194 201 169 194 201 169 194 201 169 194 201 169 194 201 169 194 201 169 194 201 169 194 201 169 194 201 169 194 201 169 194 201 169 194 201 169 194 201 169 194 201 169 194 201 169 194 201 169 194 201 169 194 201 169 194 201 169 0 0 255 0 0 255 0 0 255 95 139 71 95 139 71 95 139 71 95 139 71 95 139 71 95 139 71 95 139 71 95 139 71 95 139 71 95 139 71 95 139 71 0 0 255 0 0 255 192 201 168 192 201 168 192 201 168 192 201 168 192 201 168 192 201 168 192 201 168 192 201 168 192 201 168 192 201 168 192 201 168 0 0 255 0 0 255 95 139 71 95 139 71 95 139 71 95 139 71 95 139 71 95 139 71 95 139 71 95 139 71 95 139 71 95 139 71 95 139 71 95 139 71 95 139 71 95 139 71 95 139 71 95 139 71 0 0 255 0 0 255 196 201 168 196 201 168 196 201 168 196 201 168 196 201 168 196 201 168 196 201 168 196 201 168 196 201 168 196 201 168 196 201 168 196 201 168 196 201 168 196 201 168 196 201 168 196 201 168 196 201 168 196 201 168 196 201 168 196 201 168 196 201 168 196 201 168 196 201 168 196 201 168 196 201 168 196 201 168 196 201 168 196 201 168 196 201 168 196 201 168 196 201 168 196 201 168 196 201 168 196 201 168 196 201 168 196 201 168 196 201 168 196 201 168 196 201 168 196 201 168 196 201 168 196 201 168 196 201 168 196 201 168 196 201 168 196 201 168 196 201 168 196 201 168 196 201 168 196 201 168 196 201 168 196 201 168 196 201 168 192 192 143 192 192 143 192 192 143 192 192 143 192 192 143 192 192 143 192 192 143 192 192 143 192 192 143 192 192 143 192 192 143 192 192 143 192 192 143 192 192 143 192 192 143 192 192 143 192 192 143 192 192 143 192 192 143 192 192 143 192 192 143 192 192 143 192 192 143 192 192 143 192 192 143 192 192 143 192 192 143 192 192 143 192 192 143 192 192 143 192 192 143 192 192 143 192 192 143 192 192 143 192 192 143 192 192 143 192 192 143 192 192 143 192 192 143 192 192 143 192 192 143 192 192 143 192 192 143 192 192 143 192 192 143 192 192 143 192 192 143 192 192 143 192 192 143 192 192 143 192 192 143 0 0 255 0 0 255 0 0 255 192 199 159 192 199 159 192 199 159 192 199 159 192 199 159 192 199 159 192 199 159 192 199 159 192 199 159 0 0 255 0 0 255 0 0 255 107 129 71 107 129 71 107 129 71 107 129 71 107 129 71 107 129 71 107 129 71 107 129 71 107 129 71 107 129 71 107 129 71 107 129 71 107 129 71 0 0 255 0 0 255 192 199 159 192 199 159 192 199 159 192 199 159 192 199 159 192 199 159 192 199 159 192 199 159 192 199 159 192 199 159 192 199 159 192 199 159 192 199 159 192 199 159 192 199 159 0 0 255 0 0 255 194 201 169 194 201 169 194 201 169 194 201 169 194 201 169 194 201 169 194 201 169 194 201 169 194 201 169 194 201 169 194 201 169 194 201 169 194 201 169 194 201 169 194 201 169 194 201 169 194 201 169 194 201 169 194 201 169 194 201 169 194 201 169 194 201 169 194 201 169 194 201 169 194 201 169 194 201 169 194 201 169 194 201 169 194 201 169 194 201 169 194 201 169 194 201 169 194 201 169 194 201 169 194 201 169 194 201 169 194 201 169 194 201 169 194 201 169 194 201 169 194 201 169 194 201 169 194 201 169 194 201 169 194 201 169 194 201 169 194 201 169 194 201 169 194 201 169 194 201 169 194 201 169 194 201 169 194 201 169 194 201 169 194 201 169 194 201 169 194 201 169 194 201 169 194 201 169 0 0 255 0 0 255 0 0 255 95 139 71 95 139 71 95 139 71 95 139 71 95 139 71 95 139 71 95 139 71 95 139 71 95 139 71 0 0 255 0 0 255 192 201 168 192 201 168 192 201 168 192 201 168 192 201 168 192 201 168 192 201 168 192 201 168 192 201 168 192 201 168 192 201 168 0 0 255 0 0 255 95 139 71 95 139 71 95 139 71 95 139 71 95 139 71 95 139 71 95 139 71 95 139 71 95 139 71 95 139 71 95 139 71 95 139 71 95 139 71 95 139 71 95 139 71 95 139 71 95 139 71 0 0 255 0 0 255 196 201 168 196 201 168 196 201 168 196 201 168 196 201 168 196 201 168 196 201 168 196 201 168 196 201 168 196 201 168 196 201 168 196 201 168 196 201 168 196 201 168 196 201 168 196 201 168 196 201 168 196 201 168 196 201 168 196 201 168 196 201 168 196 201 168 196 201 168 196 201 168 196 201 168 196 201 168 196 201 168 196 201 168 196 201 168 196 201 168 196 201 168 196 201 168 196 201 168 196 201 168 196 201 168 196 201 168 196 201 168 196 201 168 196 201 168 196 201 168 196 201 168 196 201 168 196 201 168 196 201 168 196 201 168 196 201 168 196 201 168 196 201 168 196 201 168 196 201 168 196 201 168 196 201 168 196 201 168 192 192 143 192 192 143 192 192 143 192 192 143 192 192 143 192 192 143 192 192 143 192 192 143 192 192 143 192 192 143 192 192 143 192 192 143 192 192 143 192 192 143 192 192 143 192 192 143 192 192 143 192 192 143 192 192 143 192 192 143 192 192 143 192 192 143 192 192 143 192 192 143 192 192 143 192 192 143 192 192 143 192 192 143 192 192 143 192 192 143 192 192 143 192 192 143 192 192 143 192 192 143 192 192 143 192 192 143 192 192 143 192 192 143 192 192 143 192 192 143 192 192 143 192 192 143 192 192 143 192 192 143 192 192 143 192 192 143 192 192 143 192 192 143 192 192 143 192 192 143 0 0 255 0 0 255 0 0 255 192 199 159 192 199 159 192 199 159 192 199 159 192 199 159 192 199 159 192 199 159 192 199 159 192 199 159 0 0 255 0 0 255 0 0 255 107 129 71 107 129 71 107 129 71 107 129 71 107 129 71 107 129 71 107 129 71 107 129 71 0 0 255 107 129 71 107 129 71 107 129 71 107 129 71 107 129 71 0 0 255 0 0 255 192 199 159 192 199 159 192 199 159 192 199 159 192 199 159 192 199 159 192 199 159 192 199 159 192 199 159 192 199 159 192 199 159 192 199 159 192 199 159 192 199 159 192 199 159 192 199 159 0 0 255 0 0 255 194 201 169 194 201 169 194 201 169 194 201 169 194 201 169 194 201 169 194 201 169 194 201 169 194 201 169 194 201 169 194 201 169 194 201 169 194 201 169 194 201 169 194 201 169 194 201 169 194 201 169 194 201 169 194 201 169 194 201 169 194 201 169 194 201 169 194 201 169 194 201 169 194 201 169 194 201 169 194 201 169 194 201 169 194 201 169 194 201 169 194 201 169 194 201 169 194 201 169 194 201 169 194 201 169 194 201 169 194 201 169 194 201 169 194 201 169 194 201 169 194 201 169 194 201 169 194 201 169 194 201 169 194 201 169 194 201 169 194 201 169 194 201 169 194 201 169 194 201 169 194 201 169 194 201 169 194 201 169 194 201 169 194 201 169 194 201 169 194 201 169 194 201 169 0 0 255 0 0 255 0 0 255 0 0 255 0 0 255 0 0 255 95 139 71 95 139 71 95 139 71 95 139 71 0 0 255 0 0 255 0 0 255 192 201 168 192 201 168 192 201 168 192 201 168 192 201 168 192 201 168 192 201 168 192 201 168 192 201 168 192 201 168 192 201 168 0 0 255 0 0 255 95 139 71 95 139 71 95 139 71 95 139 71 95 139 71 95 139 71 95 139 71 95 139 71 95 139 71 95 139 71 95 139 71 95 139 71 95 139 71 95 139 71 95 139 71 95 139 71 95 139 71 0 0 255 0 0 255 196 201 168 196 201 168 196 201 168 196 201 168 196 201 168 196 201 168 196 201 168 196 201 168 196 201 168 196 201 168 196 201 168 196 201 168 196 201 168 196 201 168 196 201 168 196 201 168 196 201 168 196 201 168 196 201 168 196 201 168 196 201 168 196 201 168 196 201 168 196 201 168 196 201 168 196 201 168 196 201 168 196 201 168 196 201 168 196 201 168 196 201 168 196 201 168 196 201 168 196 201 168 196 201 168 196 201 168 196 201 168 196 201 168 196 201 168 196 201 168 196 201 168 196 201 168 196 201 168 196 201 168 196 201 168 196 201 168 196 201 168 196 201 168 196 201 168 196 201 168 196 201 168 196 201 168 196 201 168 196 201 168 192 192 143 192 192 143 192 192 143 192 192 143 192 192 143 192 192 143 192 192 143 192 192 143 192 192 143 192 192 143 192 192 143 192 192 143 192 192 143 192 192 143 192 192 143 192 192 143 192 192 143 192 192 143 192 192 143 192 192 143 192 192 143 192 192 143 192 192 143 192 192 143 192 192 143 192 192 143 192 192 143 192 192 143 192 192 143 192 192 143 192 192 143 192 192 143 192 192 143 192 192 143 192 192 143 192 192 143 192 192 143 192 192 143 192 192 143 192 192 143 192 192 143 192 192 143 192 192 143 192 192 143 192 192 143 192 192 143 192 192 143 192 192 143 192 192 143 0 0 255 0 0 255 192 199 159 192 199 159 192 199 159 192 199 159 192 199 159 192 199 159 192 199 159 192 199 159 192 199 159 192 199 159 0 0 255 0 0 255 0 0 255 107 129 71 107 129 71 107 129 71 107 129 71 107 129 71 107 129 71 107 129 71 107 129 71 0 0 255 0 0 255 0 0 255 107 129 71 107 129 71 107 129 71 107 129 71 0 0 255 0 0 255 192 199 159 192 199 159 192 199 159 192 199 159 192 199 159 192 199 159 192 199 159 192 199 159 192 199 159 192 199 159 192 199 159 192 199 159 192 199 159 192 199 159 192 199 159 192 199 159 0 0 255 0 0 255 194 201 169 194 201 169 194 201 169 194 201 169 194 201 169 194 201 169 194 201 169 194 201 169 194 201 169 194 201 169 194 201 169 194 201 169 194 201 169 194 201 169 194 201 169 194 201 169 194 201 169 194 201 169 194 201 169 194 201 169 194 201 169 194 201 169 194 201 169 194 201 169 194 201 169 194 201 169 194 201 169 194 201 169 194 201 169 194 201 169 194 201 169 194 201 169 194 201 169 194 201 169 194 201 169 194 201 169 194 201 169 194 201 169 194 201 169 194 201 169 194 201 169 194 201 169 194 201 169 194 201 169 194 201 169 194 201 169 194 201 169 194 201 169 194 201 169 194 201 169 194 201 169 194 201 169 194 201 169 194 201 169 194 201 169 194 201 169 194 201 169 194 201 169 194 201 169 0 0 255 0 0 255 0 0 255 0 0 255 0 0 255 0 0 255 0 0 255 0 0 255 0 0 255 0 0 255 0 0 255 192 201 168 192 201 168 192 201 168 192 201 168 192 201 168 192 201 168 192 201 168 192 201 168 192 201 168 192 201 168 192 201 168 0 0 255 0 0 255 95 139 71 95 139 71 95 139 71 95 139 71 95 139 71 95 139 71 95 139 71 95 139 71 95 139 71 95 139 71 95 139 71 95 139 71 95 139 71 95 139 71 95 139 71 95 139 71 95 139 71 95 139 71 0 0 255 0 0 255 196 201 168 196 201 168 196 201 168 196 201 168 196 201 168 196 201 168 196 201 168 196 201 168 196 201 168 196 201 168 196 201 168 196 201 168 196 201 168 196 201 168 196 201 168 196 201 168 196 201 168 196 201 168 196 201 168 196 201 168 196 201 168 196 201 168 196 201 168 196 201 168 196 201 168 196 201 168 196 201 168 196 201 168 196 201 168 196 201 168 196 201 168 196 201 168 196 201 168 196 201 168 196 201 168 196 201 168 196 201 168 196 201 168 196 201 168 196 201 168 196 201 168 196 201 168 196 201 168 196 201 168 196 201 168 196 201 168 196 201 168 196 201 168 196 201 168 196 201 168 196 201 168 196 201 168 196 201 168 196 201 168 192 192 143 0 0 255 0 0 255 0 0 255 0 0 255 192 192 143 192 192 143 192 192 143 192 192 143 192 192 143 192 192 143 192 192 143 192 192 143 192 192 143 192 192 143 192 192 143 192 192 143 192 192 143 192 192 143 192 192 143 192 192 143 192 192 143 192 192 143 192 192 143 192 192 143 192 192 143 192 192 143 192 192 143 192 192 143 192 192 143 192 192 143 192 192 143 192 192 143 192 192 143 192 192 143 192 192 143 192 192 143 192 192 143 192 192 143 192 192 143 192 192 143 192 192 143 192 192 143 192 192 143 192 192 143 192 192 143 192 192 143 192 192 143 0 0 255 0 0 255 192 199 159 192 199 159 192 199 159 192 199 159 192 199 159 192 199 159 192 199 159 192 199 159 192 199 159 192 199 159 0 0 255 0 0 255 0 0 255 107 129 71 107 129 71 107 129 71 107 129 71 107 129 71 107 129 71 107 129 71 107 129 71 0 0 255 0 0 255 0 0 255 0 0 255 107 129 71 107 129 71 107 129 71 107 129 71 0 0 255 0 0 255 192 199 159 192 199 159 192 199 159 192 199 159 192 199 159 192 199 159 192 199 159 192 199 159 192 199 159 192 199 159 192 199 159 192 199 159 192 199 159 192 199 159 192 199 159 192 199 159 0 0 255 0 0 255 194 201 169 194 201 169 194 201 169 194 201 169 194 201 169 194 201 169 194 201 169 194 201 169 194 201 169 194 201 169 194 201 169 194 201 169 194 201 169 194 201 169 194 201 169 194 201 169 194 201 169 194 201 169 194 201 169 194 201 169 194 201 169 194 201 169 194 201 169 194 201 169 194 201 169 194 201 169 194 201 169 194 201 169 194 201 169 194 201 169 194 201 169 194 201 169 194 201 169 194 201 169 194 201 169 194 201 169 194 201 169 194 201 169 194 201 169 194 201 169 194 201 169 194 201 169 194 201 169 194 201 169 194 201 169 194 201 169 194 201 169 194 201 169 194 201 169 194 201 169 194 201 169 194 201 169 194 201 169 194 201 169 194 201 169 194 201 169 194 201 169 194 201 169 194 201 169 0 0 255 0 0 255 192 201 168 192 201 168 192 201 168 0 0 255 0 0 255 0 0 255 0 0 255 192 201 168 192 201 168 192 201 168 192 201 168 192 201 168 192 201 168 192 201 168 192 201 168 192 201 168 192 201 168 192 201 168 192 201 168 0 0 255 0 0 255 95 139 71 95 139 71 95 139 71 95 139 71 95 139 71 95 139 71 95 139 71 95 139 71 95 139 71 95 139 71 95 139 71 95 139 71 95 139 71 95 139 71 0 0 255 95 139 71 95 139 71 95 139 71 95 139 71 0 0 255 0 0 255 0 0 255 196 201 168 196 201 168 196 201 168 196 201 168 196 201 168 196 201 168 196 201 168 196 201 168 196 201 168 196 201 168 196 201 168 196 201 168 196 201 168 196 201 168 196 201 168 196 201 168 196 201 168 196 201 168 196 201 168 196 201 168 196 201 168 196 201 168 196 201 168 196 201 168 196 201 168 196 201 168 196 201 168 196 201 168 196 201 168 196 201 168 196 201 168 196 201 168 196 201 168 196 201 168 196 201 168 196 201 168 196 201 168 0 0 255 0 0 255 0 0 255 0 0 255 0 0 255 0 0 255 0 0 255 0 0 255 0 0 255 0 0 255 0 0 255 0 0 255 0 0 255 0 0 255 0 0 255 196 201 168 188 187 134 0 0 255 0 0 255 0 0 255 0 0 255 0 0 255 0 0 255 0 0 255 192 192 143 192 192 143 192 192 143 192 192 143 192 192 143 192 192 143 192 192 143 192 192 143 192 192 143 192 192 143 192 192 143 192 192 143 192 192 143 192 192 143 192 192 143 192 192 143 192 192 143 192 192 143 192 192 143 192 192 143 192 192 143 192 192 143 192 192 143 192 192 143 192 192 143 192 192 143 192 192 143 192 192 143 192 192 143 192 192 143 192 192 143 192 192 143 192 192 143 192 192 143 192 192 143 192 192 143 192 192 143 192 192 143 192 192 143 192 192 143 0 0 255 0 0 255 192 199 159 192 199 159 192 199 159 192 199 159 192 199 159 192 199 159 192 199 159 192 199 159 192 199 159 0 0 255 0 0 255 0 0 255 0 0 255 107 129 71 107 129 71 107 129 71 107 129 71 107 129 71 107 129 71 107 129 71 107 129 71 107 129 71 0 0 255 0 0 255 107 129 71 107 129 71 107 129 71 107 129 71 107 129 71 0 0 255 0 0 255 192 199 159 192 199 159 192 199 159 192 199 159 192 199 159 192 199 159 192 199 159 192 199 159 192 199 159 192 199 159 192 199 159 192 199 159 192 199 159 192 199 159 192 199 159 192 199 159 192 199 159 0 0 255 0 0 255 194 201 169 194 201 169 194 201 169 194 201 169 194 201 169 194 201 169 194 201 169 194 201 169 194 201 169 194 201 169 194 201 169 194 201 169 194 201 169 194 201 169 194 201 169 194 201 169 194 201 169 194 201 169 194 201 169 194 201 169 194 201 169 194 201 169 194 201 169 194 201 169 194 201 169 194 201 169 194 201 169 194 201 169 194 201 169 194 201 169 194 201 169 194 201 169 194 201 169 194 201 169 194 201 169 194 201 169 194 201 169 194 201 169 194 201 169 194 201 169 194 201 169 194 201 169 194 201 169 194 201 169 194 201 169 194 201 169 194 201 169 194 201 169 194 201 169 194 201 169 194 201 169 194 201 169 194 201 169 194 201 169 194 201 169 194 201 169 194 201 169 0 0 255 0 0 255 192 201 168 192 201 168 192 201 168 192 201 168 192 201 168 192 201 168 192 201 168 192 201 168 192 201 168 192 201 168 192 201 168 192 201 168 192 201 168 192 201 168 192 201 168 192 201 168 192 201 168 192 201 168 192 201 168 192 201 168 0 0 255 0 0 255 95 139 71 95 139 71 95 139 71 95 139 71 95 139 71 95 139 71 95 139 71 95 139 71 95 139 71 95 139 71 95 139 71 95 139 71 95 139 71 0 0 255 0 0 255 0 0 255 95 139 71 95 139 71 95 139 71 0 0 255 0 0 255 0 0 255 0 0 255 0 0 255 0 0 255 0 0 255 0 0 255 0 0 255 0 0 255 0 0 255 0 0 255 0 0 255 0 0 255 0 0 255 0 0 255 0 0 255 0 0 255 0 0 255 0 0 255 0 0 255 0 0 255 0 0 255 0 0 255 0 0 255 0 0 255 0 0 255 0 0 255 0 0 255 0 0 255 0 0 255 0 0 255 0 0 255 0 0 255 0 0 255 0 0 255 0 0 255 0 0 255 0 0 255 0 0 255 0 0 255 0 0 255 0 0 255 0 0 255 0 0 255 0 0 255 0 0 255 0 0 255 0 0 255 0 0 255 0 0 255 0 0 255 0 0 255 0 0 255 0 0 255 194 199 167 188 187 134 188 187 134 188 187 134 188 187 134 188 187 134 0 0 255 0 0 255 0 0 255 0 0 255 0 0 255 0 0 255 192 192 143 192 192 143 192 192 143 192 192 143 192 192 143 192 192 143 192 192 143 192 192 143 192 192 143 192 192 143 192 192 143 192 192 143 192 192 143 192 192 143 192 192 143 192 192 143 192 192 143 192 192 143 192 192 143 192 192 143 192 192 143 192 192 143 192 192 143 192 192 143 192 192 143 192 192 143 192 192 143 192 192 143 192 192 143 192 192 143 192 192 143 192 192 143 192 192 143 192 192 143 192 192 143 192 192 143 192 192 143 0 0 255 0 0 255 192 199 159 192 199 159 192 199 159 192 199 159 192 199 159 192 199 159 192 199 159 192 199 159 192 199 159 0 0 255 0 0 255 0 0 255 107 129 71 107 129 71 107 129 71 107 129 71 107 129 71 107 129 71 107 129 71 107 129 71 107 129 71 107 129 71 107 129 71 107 129 71 107 129 71 107 129 71 107 129 71 107 129 71 0 0 255 0 0 255 192 199 159 192 199 159 192 199 159 192 199 159 192 199 159 192 199 159 192 199 159 192 199 159 192 199 159 192 199 159 192 199 159 192 199 159 192 199 159 192 199 159 192 199 159 192 199 159 192 199 159 192 199 159 0 0 255 0 0 255 194 201 169 194 201 169 194 201 169 194 201 169 194 201 169 194 201 169 194 201 169 194 201 169 194 201 169 194 201 169 194 201 169 194 201 169 194 201 169 194 201 169 194 201 169 194 201 169 194 201 169 194 201 169 194 201 169 194 201 169 194 201 169 194 201 169 194 201 169 194 201 169 194 201 169 194 201 169 194 201 169 194 201 169 194 201 169 194 201 169 194 201 169 194 201 169 194 201 169 194 201 169 194 201 169 194 201 169 194 201 169 194 201 169 194 201 169 194 201 169 194 201 169 194 201 169 194 201 169 194 201 169 194 201 169 194 201 169 194 201 169 194 201 169 194 201 169 194 201 169 194 201 169 194 201 169 194 201 169 194 201 169 194 201 169 194 201 169 194 201 169 0 0 255 0 0 255 192 201 168 192 201 168 192 201 168 192 201 168 192 201 168 192 201 168 192 201 168 192 201 168 192 201 168 192 201 168 192 201 168 192 201 168 192 201 168 192 201 168 192 201 168 192 201 168 192 201 168 192 201 168 192 201 168 0 0 255 0 0 255 95 139 71 95 139 71 95 139 71 95 139 71 95 139 71 95 139 71 95 139 71 95 139 71 95 139 71 95 139 71 95 139 71 95 139 71 95 139 71 0 0 255 0 0 255 0 0 255 0 0 255 95 139 71 95 139 71 95 139 71 0 0 255 0 0 255 194 199 167 0 0 255 0 0 255 0 0 255 0 0 255 0 0 255 0 0 255 0 0 255 0 0 255 0 0 255 0 0 255 0 0 255 0 0 255 0 0 255 0 0 255 0 0 255 0 0 255 0 0 255 0 0 255 0 0 255 0 0 255 0 0 255 0 0 255 0 0 255 0 0 255 0 0 255 0 0 255 0 0 255 0 0 255 0 0 255 0 0 255 0 0 255 0 0 255 0 0 255 0 0 255 0 0 255 0 0 255 0 0 255 194 199 167 194 199 167 194 199 167 194 199 167 194 199 167 194 199 167 194 199 167 194 199 167 194 199 167 194 199 167 194 199 167 194 199 167 194 199 167 194 199 167 194 199 167 194 199 167 188 187 134 188 187 134 188 187 134 188 187 134 188 187 134 188 187 134 188 187 134 188 187 134 0 0 255 0 0 255 0 0 255 0 0 255 0 0 255 0 0 255 0 0 255 0 0 255 192 192 143 192 192 143 192 192 143 192 192 143 192 192 143 192 192 143 192 192 143 192 192 143 192 192 143 192 192 143 192 192 143 192 192 143 192 192 143 192 192 143 192 192 143 192 192 143 192 192 143 192 192 143 192 192 143 192 192 143 192 192 143 192 192 143 192 192 143 192 192 143 192 192 143 192 192 143 192 192 143 192 192 143 192 192 143 192 192 143 192 192 143 192 192 143 0 0 255 0 0 255 192 199 159 192 199 159 192 199 159 192 199 159 192 199 159 192 199 159 192 199 159 192 199 159 0 0 255 0 0 255 0 0 255 107 129 71 107 129 71 107 129 71 107 129 71 107 129 71 107 129 71 107 129 71 107 129 71 107 129 71 107 129 71 107 129 71 107 129 71 107 129 71 107 129 71 107 129 71 107 129 71 107 129 71 0 0 255 0 0 255 192 199 159 192 199 159 192 199 159 192 199 159 192 199 159 192 199 159 192 199 159 192 199 159 192 199 159 192 199 159 192 199 159 192 199 159 192 199 159 192 199 159 192 199 159 192 199 159 192 199 159 192 199 159 0 0 255 0 0 255 194 201 169 194 201 169 194 201 169 194 201 169 194 201 169 194 201 169 194 201 169 194 201 169 194 201 169 194 201 169 194 201 169 194 201 169 194 201 169 194 201 169 194 201 169 194 201 169 194 201 169 194 201 169 194 201 169 194 201 169 194 201 169 194 201 169 194 201 169 194 201 169 194 201 169 194 201 169 194 201 169 194 201 169 194 201 169 194 201 169 194 201 169 194 201 169 194 201 169 194 201 169 194 201 169 194 201 169 194 201 169 194 201 169 194 201 169 194 201 169 194 201 169 194 201 169 194 201 169 194 201 169 194 201 169 194 201 169 194 201 169 194 201 169 194 201 169 194 201 169 194 201 169 194 201 169 194 201 169 194 201 169 194 201 169 194 201 169 194 201 169 0 0 255 0 0 255 192 201 168 192 201 168 192 201 168 192 201 168 192 201 168 192 201 168 192 201 168 192 201 168 192 201 168 192 201 168 192 201 168 192 201 168 192 201 168 192 201 168 192 201 168 192 201 168 192 201 168 192 201 168 0 0 255 0 0 255 95 139 71 95 139 71 95 139 71 95 139 71 95 139 71 95 139 71 95 139 71 95 139 71 95 139 71 95 139 71 95 139 71 95 139 71 95 139 71 95 139 71 95 139 71 0 0 255 0 0 255 95 139 71 95 139 71 95 139 71 95 139 71 0 0 255 0 0 255 194 199 167 194 199 167 194 199 167 194 199 167 194 199 167 194 199 167 194 199 167 194 199 167 194 199 167 194 199 167 194 199 167 194 199 167 194 199 167 194 199 167 194 199 167 194 199 167 194 199 167 194 199 167 194 199 167 194 199 167 194 199 167 194 199 167 194 199 167 194 199 167 194 199 167 194 199 167 194 199 167 194 199 167 194 199 167 194 199 167 194 199 167 194 199 167 194 199 167 194 199 167 194 199 167 194 199 167 194 199 167 194 199 167 194 199 167 194 199 167 194 199 167 194 199 167 194 199 167 194 199 167 194 199 167 194 199 167 194 199 167 194 199 167 194 199 167 194 199 167 194 199 167 194 199 167 194 199 167 194 199 167 188 187 134 188 187 134 188 187 134 188 187 134 188 187 134 188 187 134 188 187 134 188 187 134 188 187 134 188 187 134 188 187 134 0 0 255 0 0 255 0 0 255 0 0 255 0 0 255 0 0 255 192 192 143 192 192 143 192 192 143 192 192 143 192 192 143 192 192 143 192 192 143 192 192 143 192 192 143 192 192 143 192 192 143 192 192 143 192 192 143 192 192 143 192 192 143 192 192 143 192 192 143 192 192 143 192 192 143 192 192 143 192 192 143 192 192 143 192 192 143 192 192 143 192 192 143 192 192 143 192 192 143 192 192 143 192 192 143 192 192 143 192 192 143 0 0 255 0 0 255 192 199 159 192 199 159 192 199 159 192 199 159 192 199 159 192 199 159 192 199 159 0 0 255 0 0 255 0 0 255 0 0 255 107 129 71 107 129 71 107 129 71 107 129 71 107 129 71 107 129 71 107 129 71 107 129 71 107 129 71 107 129 71 107 129 71 107 129 71 107 129 71 107 129 71 107 129 71 107 129 71 0 0 255 0 0 255 192 199 159 192 199 159 192 199 159 192 199 159 192 199 159 192 199 159 192 199 159 192 199 159 192 199 159 192 199 159 192 199 159 192 199 159 192 199 159 192 199 159 192 199 159 192 199 159 192 199 159 192 199 159 192 199 159 0 0 255 0 0 255 194 201 169 194 201 169 194 201 169 194 201 169 194 201 169 194 201 169 194 201 169 194 201 169 194 201 169 194 201 169 194 201 169 194 201 169 194 201 169 194 201 169 194 201 169 194 201 169 194 201 169 194 201 169 194 201 169 194 201 169 194 201 169 194 201 169 194 201 169 194 201 169 194 201 169 194 201 169 194 201 169 194 201 169 194 201 169 194 201 169 194 201 169 194 201 169 194 201 169 194 201 169 194 201 169 194 201 169 194 201 169 194 201 169 194 201 169 194 201 169 194 201 169 194 201 169 194 201 169 194 201 169 194 201 169 194 201 169 194 201 169 194 201 169 194 201 169 194 201 169 194 201 169 194 201 169 194 201 169 194 201 169 194 201 169 194 201 169 0 0 255 0 0 255 192 201 168 192 201 168 192 201 168 192 201 168 192 201 168 192 201 168 192 201 168 192 201 168 192 201 168 192 201 168 192 201 168 192 201 168 192 201 168 192 201 168 192 201 168 192 201 168 192 201 168 192 201 168 0 0 255 0 0 255 95 139 71 95 139 71 95 139 71 95 139 71 95 139 71 95 139 71 95 139 71 95 139 71 95 139 71 95 139 71 95 139 71 95 139 71 95 139 71 95 139 71 95 139 71 95 139 71 95 139 71 95 139 71 95 139 71 95 139 71 95 139 71 95 139 71 0 0 255 0 0 255 194 199 167 194 199 167 194 199 167 194 199 167 194 199 167 194 199 167 194 199 167 194 199 167 194 199 167 194 199 167 194 199 167 194 199 167 194 199 167 194 199 167 194 199 167 194 199 167 194 199 167 194 199 167 194 199 167 194 199 167 194 199 167 194 199 167 194 199 167 194 199 167 194 199 167 194 199 167 194 199 167 194 199 167 194 199 167 194 199 167 194 199 167 194 199 167 194 199 167 194 199 167 194 199 167 194 199 167 194 199 167 194 199 167 194 199 167 194 199 167 194 199 167 194 199 167 194 199 167 194 199 167 194 199 167 194 199 167 194 199 167 194 199 167 194 199 167 194 199 167 194 199 167 194 199 167 194 199 167 194 199 167 188 187 134 188 187 134 188 187 134 188 187 134 188 187 134 188 187 134 188 187 134 188 187 134 188 187 134 188 187 134 188 187 134 188 187 134 188 187 134 188 187 134 188 187 134 0 0 255 0 0 255 0 0 255 0 0 255 0 0 255 0 0 255 192 192 143 192 192 143 192 192 143 192 192 143 192 192 143 192 192 143 192 192 143 192 192 143 192 192 143 192 192 143 192 192 143 192 192 143 192 192 143 192 192 143 192 192 143 192 192 143 192 192 143 192 192 143 192 192 143 192 192 143 192 192 143 192 192 143 192 192 143 192 192 143 192 192 143 0 0 255 0 0 255 0 0 255 0 0 255 192 199 159 192 199 159 192 199 159 192 199 159 192 199 159 192 199 159 192 199 159 0 0 255 0 0 255 0 0 255 0 0 255 107 129 71 107 129 71 107 129 71 107 129 71 107 129 71 107 129 71 107 129 71 107 129 71 107 129 71 107 129 71 107 129 71 107 129 71 107 129 71 107 129 71 107 129 71 107 129 71 0 0 255 0 0 255 192 199 159 192 199 159 192 199 159 192 199 159 192 199 159 192 199 159 192 199 159 192 199 159 192 199 159 192 199 159 192 199 159 192 199 159 192 199 159 192 199 159 192 199 159 192 199 159 192 199 159 192 199 159 192 199 159 0 0 255 0 0 255 194 201 169 194 201 169 194 201 169 194 201 169 194 201 169 194 201 169 194 201 169 194 201 169 194 201 169 194 201 169 194 201 169 194 201 169 194 201 169 194 201 169 194 201 169 194 201 169 194 201 169 194 201 169 194 201 169 194 201 169 194 201 169 194 201 169 194 201 169 194 201 169 194 201 169 194 201 169 194 201 169 194 201 169 194 201 169 194 201 169 194 201 169 194 201 169 194 201 169 194 201 169 194 201 169 194 201 169 194 201 169 194 201 169 194 201 169 194 201 169 194 201 169 194 201 169 194 201 169 194 201 169 194 201 169 194 201 169 194 201 169 194 201 169 194 201 169 194 201 169 194 201 169 194 201 169 194 201 169 194 201 169 194 201 169 194 201 169 0 0 255 0 0 255 192 201 168 192 201 168 192 201 168 192 201 168 192 201 168 192 201 168 192 201 168 192 201 168 192 201 168 192 201 168 192 201 168 192 201 168 192 201 168 192 201 168 192 201 168 192 201 168 192 201 168 0 0 255 0 0 255 95 139 71 95 139 71 95 139 71 95 139 71 95 139 71 95 139 71 95 139 71 95 139 71 95 139 71 95 139 71 95 139 71 95 139 71 95 139 71 95 139 71 95 139 71 95 139 71 95 139 71 95 139 71 95 139 71 95 139 71 95 139 71 95 139 71 95 139 71 0 0 255 0 0 255 194 199 167 194 199 167 194 199 167 194 199 167 194 199 167 194 199 167 194 199 167 194 199 167 194 199 167 194 199 167 194 199 167 194 199 167 194 199 167 194 199 167 194 199 167 194 199 167 194 199 167 194 199 167 194 199 167 194 199 167 194 199 167 194 199 167 194 199 167 194 199 167 194 199 167 194 199 167 194 199 167 194 199 167 194 199 167 194 199 167 194 199 167 194 199 167 194 199 167 194 199 167 194 199 167 194 199 167 194 199 167 194 199 167 194 199 167 194 199 167 194 199 167 194 199 167 194 199 167 194 199 167 194 199 167 194 199 167 194 199 167 194 199 167 194 199 167 194 199 167 194 199 167 194 199 167 194 199 167 194 199 167 188 187 134 188 187 134 188 187 134 188 187 134 188 187 134 188 187 134 188 187 134 188 187 134 188 187 134 188 187 134 188 187 134 188 187 134 188 187 134 188 187 134 188 187 134 188 187 134 0 0 255 0 0 255 0 0 255 0 0 255 0 0 255 0 0 255 0 0 255 0 0 255 192 192 143 192 192 143 192 192 143 192 192 143 192 192 143 192 192 143 192 192 143 192 192 143 192 192 143 192 192 143 192 192 143 192 192 143 192 192 143 192 192 143 192 192 143 192 192 143 192 192 143 192 192 143 192 192 143 192 192 143 192 192 143 0 0 255 0 0 255 0 0 255 0 0 255 192 199 159 192 199 159 192 199 159 192 199 159 192 199 159 192 199 159 192 199 159 192 199 159 0 0 255 0 0 255 0 0 255 0 0 255 107 129 71 107 129 71 107 129 71 107 129 71 107 129 71 107 129 71 107 129 71 107 129 71 107 129 71 107 129 71 107 129 71 107 129 71 107 129 71 107 129 71 107 129 71 0 0 255 0 0 255 192 199 159 192 199 159 192 199 159 192 199 159 192 199 159 192 199 159 192 199 159 192 199 159 192 199 159 192 199 159 192 199 159 192 199 159 192 199 159 192 199 159 192 199 159 192 199 159 192 199 159 192 199 159 192 199 159 192 199 159 192 199 159 0 0 255 0 0 255 194 201 169 194 201 169 194 201 169 194 201 169 194 201 169 194 201 169 194 201 169 194 201 169 194 201 169 194 201 169 194 201 169 194 201 169 194 201 169 194 201 169 194 201 169 194 201 169 194 201 169 194 201 169 194 201 169 194 201 169 194 201 169 194 201 169 194 201 169 194 201 169 194 201 169 194 201 169 194 201 169 194 201 169 194 201 169 194 201 169 194 201 169 194 201 169 194 201 169 194 201 169 194 201 169 194 201 169 194 201 169 194 201 169 194 201 169 194 201 169 194 201 169 194 201 169 194 201 169 194 201 169 194 201 169 194 201 169 194 201 169 194 201 169 194 201 169 194 201 169 194 201 169 194 201 169 194 201 169 194 201 169 0 0 255 0 0 255 192 201 168 192 201 168 192 201 168 192 201 168 192 201 168 192 201 168 192 201 168 192 201 168 192 201 168 192 201 168 192 201 168 192 201 168 192 201 168 192 201 168 192 201 168 192 201 168 192 201 168 192 201 168 0 0 255 0 0 255 95 139 71 95 139 71 95 139 71 95 139 71 95 139 71 95 139 71 95 139 71 95 139 71 95 139 71 95 139 71 95 139 71 95 139 71 95 139 71 95 139 71 95 139 71 95 139 71 95 139 71 95 139 71 95 139 71 95 139 71 95 139 71 95 139 71 95 139 71 0 0 255 0 0 255 194 199 167 194 199 167 194 199 167 194 199 167 194 199 167 194 199 167 194 199 167 194 199 167 194 199 167 194 199 167 194 199 167 194 199 167 194 199 167 194 199 167 194 199 167 194 199 167 194 199 167 194 199 167 194 199 167 194 199 167 194 199 167 194 199 167 194 199 167 194 199 167 194 199 167 194 199 167 194 199 167 194 199 167 194 199 167 194 199 167 194 199 167 194 199 167 194 199 167 194 199 167 194 199 167 194 199 167 194 199 167 194 199 167 194 199 167 194 199 167 194 199 167 194 199 167 194 199 167 194 199 167 194 199 167 194 199 167 194 199 167 194 199 167 194 199 167 194 199 167 194 199 167 194 199 167 194 199 167 194 199 167 188 187 134 188 187 134 188 187 134 188 187 134 188 187 134 188 187 134 188 187 134 188 187 134 188 187 134 188 187 134 188 187 134 188 187 134 188 187 134 188 187 134 188 187 134 188 187 134 188 187 134 188 187 134 188 187 134 188 187 134 188 187 134 0 0 255 0 0 255 0 0 255 0 0 255 0 0 255 0 0 255 0 0 255 192 192 143 192 192 143 192 192 143 192 192 143 192 192 143 192 192 143 192 192 143 192 192 143 192 192 143 192 192 143 192 192 143 192 192 143 192 192 143 192 192 143 192 192 143 192 192 143 192 192 143 0 0 255 0 0 255 192 199 159 192 199 159 192 199 159 192 199 159 192 199 159 192 199 159 192 199 159 192 199 159 192 199 159 192 199 159 0 0 255 0 0 255 0 0 255 0 0 255 107 129 71 107 129 71 107 129 71 107 129 71 107 129 71 107 129 71 107 129 71 107 129 71 107 129 71 107 129 71 107 129 71 107 129 71 107 129 71 107 129 71 0 0 255 0 0 255 192 199 159 192 199 159 192 199 159 192 199 159 192 199 159 192 199 159 192 199 159 192 199 159 192 199 159 192 199 159 192 199 159 192 199 159 192 199 159 192 199 159 192 199 159 192 199 159 192 199 159 192 199 159 192 199 159 192 199 159 192 199 159 192 199 159 0 0 255 0 0 255 194 201 169 194 201 169 194 201 169 194 201 169 194 201 169 194 201 169 194 201 169 194 201 169 194 201 169 194 201 169 194 201 169 194 201 169 194 201 169 194 201 169 194 201 169 194 201 169 194 201 169 194 201 169 194 201 169 194 201 169 194 201 169 194 201 169 194 201 169 194 201 169 194 201 169 194 201 169 194 201 169 194 201 169 194 201 169 194 201 169 194 201 169 194 201 169 194 201 169 194 201 169 194 201 169 194 201 169 194 201 169 194 201 169 194 201 169 194 201 169 194 201 169 194 201 169 194 201 169 194 201 169 194 201 169 194 201 169 194 201 169 194 201 169 194 201 169 194 201 169 194 201 169 194 201 169 194 201 169 194 201 169 0 0 255 0 0 255 192 201 168 192 201 168 192 201 168 192 201 168 192 201 168 192 201 168 192 201 168 192 201 168 192 201 168 192 201 168 192 201 168 192 201 168 192 201 168 192 201 168 192 201 168 192 201 168 192 201 168 192 201 168 0 0 255 0 0 255 95 139 71 95 139 71 95 139 71 95 139 71 95 139 71 95 139 71 95 139 71 95 139 71 95 139 71 95 139 71 95 139 71 95 139 71 95 139 71 95 139 71 95 139 71 95 139 71 95 139 71 95 139 71 95 139 71 95 139 71 95 139 71 95 139 71 0 0 255 0 0 255 194 199 167 194 199 167 194 199 167 194 199 167 194 199 167 194 199 167 194 199 167 194 199 167 194 199 167 194 199 167 194 199 167 194 199 167 194 199 167 194 199 167 194 199 167 194 199 167 194 199 167 194 199 167 194 199 167 194 199 167 194 199 167 194 199 167 194 199 167 194 199 167 194 199 167 194 199 167 194 199 167 194 199 167 194 199 167 194 199 167 194 199 167 194 199 167 194 199 167 194 199 167 194 199 167 194 199 167 194 199 167 194 199 167 194 199 167 194 199 167 194 199 167 194 199 167 194 199 167 194 199 167 194 199 167 194 199 167 194 199 167 194 199 167 194 199 167 194 199 167 194 199 167 194 199 167 194 199 167 194 199 167 194 199 167 188 187 134 188 187 134 188 187 134 188 187 134 188 187 134 188 187 134 188 187 134 188 187 134 188 187 134 188 187 134 188 187 134 188 187 134 188 187 134 188 187 134 188 187 134 188 187 134 188 187 134 188 187 134 188 187 134 188 187 134 188 187 134 188 187 134 188 187 134 188 187 134 0 0 255 0 0 255 0 0 255 0 0 255 0 0 255 0 0 255 0 0 255 0 0 255 0 0 255 0 0 255 192 192 143 192 192 143 192 192 143 192 192 143 192 192 143 192 192 143 192 192 143 192 192 143 192 192 143 192 192 143 0 0 255 0 0 255 192 199 159 192 199 159 192 199 159 192 199 159 192 199 159 192 199 159 192 199 159 192 199 159 192 199 159 192 199 159 192 199 159 0 0 255 0 0 255 0 0 255 0 0 255 107 129 71 107 129 71 107 129 71 107 129 71 107 129 71 107 129 71 107 129 71 107 129 71 107 129 71 107 129 71 107 129 71 107 129 71 107 129 71 107 129 71 0 0 255 0 0 255 192 199 159 192 199 159 192 199 159 192 199 159 192 199 159 192 199 159 192 199 159 192 199 159 192 199 159 192 199 159 192 199 159 192 199 159 192 199 159 192 199 159 192 199 159 192 199 159 192 199 159 192 199 159 192 199 159 192 199 159 192 199 159 192 199 159 0 0 255 0 0 255 194 201 169 194 201 169 194 201 169 194 201 169 194 201 169 194 201 169 194 201 169 194 201 169 194 201 169 194 201 169 194 201 169 194 201 169 194 201 169 194 201 169 194 201 169 194 201 169 194 201 169 194 201 169 194 201 169 194 201 169 194 201 169 194 201 169 194 201 169 194 201 169 194 201 169 194 201 169 194 201 169 194 201 169 194 201 169 194 201 169 194 201 169 194 201 169 194 201 169 194 201 169 194 201 169 194 201 169 194 201 169 194 201 169 194 201 169 194 201 169 194 201 169 194 201 169 194 201 169 194 201 169 194 201 169 194 201 169 194 201 169 194 201 169 194 201 169 194 201 169 194 201 169 194 201 169 194 201 169 194 201 169 0 0 255 0 0 255 192 201 168 192 201 168 192 201 168 192 201 168 192 201 168 192 201 168 192 201 168 192 201 168 192 201 168 192 201 168 192 201 168 192 201 168 192 201 168 192 201 168 192 201 168 192 201 168 192 201 168 192 201 168 192 201 168 0 0 255 0 0 255 95 139 71 95 139 71 95 139 71 95 139 71 95 139 71 95 139 71 95 139 71 95 139 71 95 139 71 95 139 71 95 139 71 95 139 71 95 139 71 95 139 71 95 139 71 95 139 71 95 139 71 95 139 71 95 139 71 95 139 71 95 139 71 0 0 255 0 0 255 194 199 167 194 199 167 194 199 167 194 199 167 194 199 167 194 199 167 194 199 167 194 199 167 194 199 167 194 199 167 194 199 167 194 199 167 194 199 167 194 199 167 194 199 167 194 199 167 194 199 167 194 199 167 194 199 167 194 199 167 194 199 167 194 199 167 194 199 167 194 199 167 194 199 167 194 199 167 194 199 167 194 199 167 194 199 167 194 199 167 194 199 167 194 199 167 194 199 167 194 199 167 194 199 167 194 199 167 194 199 167 194 199 167 194 199 167 194 199 167 194 199 167 194 199 167 194 199 167 194 199 167 194 199 167 194 199 167 194 199 167 194 199 167 194 199 167 194 199 167 194 199 167 194 199 167 194 199 167 194 199 167 194 199 167 188 187 134 188 187 134 188 187 134 188 187 134 188 187 134 188 187 134 188 187 134 188 187 134 188 187 134 188 187 134 188 187 134 188 187 134 188 187 134 188 187 134 188 187 134 188 187 134 188 187 134 188 187 134 188 187 134 188 187 134 188 187 134 188 187 134 188 187 134 188 187 134 188 187 134 188 187 134 188 187 134 188 187 134 0 0 255 0 0 255 0 0 255 0 0 255 0 0 255 0 0 255 0 0 255 0 0 255 0 0 255 192 192 143 192 192 143 192 192 143 192 192 143 192 192 143 192 192 143 192 192 143 0 0 255 0 0 255 192 199 159 192 199 159 192 199 159 192 199 159 192 199 159 192 199 159 192 199 159 192 199 159 192 199 159 192 199 159 192 199 159 192 199 159 0 0 255 0 0 255 0 0 255 107 129 71 107 129 71 107 129 71 107 129 71 107 129 71 107 129 71 107 129 71 107 129 71 107 129 71 107 129 71 107 129 71 107 129 71 107 129 71 0 0 255 0 0 255 192 199 159 192 199 159 192 199 159 192 199 159 192 199 159 192 199 159 192 199 159 192 199 159 192 199 159 192 199 159 192 199 159 192 199 159 192 199 159 192 199 159 192 199 159 192 199 159 192 199 159 192 199 159 192 199 159 192 199 159 192 199 159 192 199 159 192 199 159 0 0 255 0 0 255 194 201 169 194 201 169 194 201 169 194 201 169 194 201 169 194 201 169 194 201 169 194 201 169 194 201 169 194 201 169 194 201 169 194 201 169 194 201 169 194 201 169 194 201 169 194 201 169 194 201 169 194 201 169 194 201 169 194 201 169 194 201 169 194 201 169 194 201 169 194 201 169 194 201 169 194 201 169 194 201 169 194 201 169 194 201 169 194 201 169 194 201 169 194 201 169 194 201 169 194 201 169 194 201 169 194 201 169 194 201 169 194 201 169 194 201 169 194 201 169 194 201 169 194 201 169 194 201 169 194 201 169 194 201 169 194 201 169 194 201 169 194 201 169 194 201 169 194 201 169 194 201 169 194 201 169 194 201 169 0 0 255 0 0 255 192 201 168 192 201 168 192 201 168 192 201 168 192 201 168 192 201 168 192 201 168 192 201 168 192 201 168 192 201 168 192 201 168 192 201 168 192 201 168 192 201 168 192 201 168 192 201 168 192 201 168 192 201 168 192 201 168 192 201 168 0 0 255 0 0 255 95 139 71 95 139 71 95 139 71 95 139 71 95 139 71 95 139 71 95 139 71 95 139 71 95 139 71 95 139 71 95 139 71 95 139 71 95 139 71 95 139 71 95 139 71 95 139 71 95 139 71 95 139 71 95 139 71 95 139 71 0 0 255 0 0 255 194 199 167 194 199 167 194 199 167 194 199 167 194 199 167 194 199 167 194 199 167 194 199 167 194 199 167 194 199 167 194 199 167 194 199 167 194 199 167 194 199 167 194 199 167 194 199 167 194 199 167 194 199 167 194 199 167 194 199 167 194 199 167 194 199 167 194 199 167 194 199 167 194 199 167 194 199 167 194 199 167 194 199 167 194 199 167 194 199 167 194 199 167 194 199 167 194 199 167 194 199 167 194 199 167 194 199 167 194 199 167 194 199 167 194 199 167 194 199 167 194 199 167 194 199 167 194 199 167 194 199 167 194 199 167 194 199 167 194 199 167 194 199 167 194 199 167 194 199 167 194 199 167 194 199 167 194 199 167 194 199 167 194 199 167 194 199 167 188 187 134 188 187 134 188 187 134 188 187 134 188 187 134 188 187 134 188 187 134 188 187 134 188 187 134 188 187 134 188 187 134 188 187 134 188 187 134 188 187 134 188 187 134 188 187 134 188 187 134 188 187 134 188 187 134 188 187 134 188 187 134 188 187 134 188 187 134 188 187 134 188 187 134 188 187 134 188 187 134 188 187 134 188 187 134 188 187 134 188 187 134 188 187 134 188 187 134 188 187 134 0 0 255 0 0 255 0 0 255 0 0 255 0 0 255 0 0 255 0 0 255 0 0 255 192 192 143 0 0 255 0 0 255 192 199 159 192 199 159 192 199 159 192 199 159 192 199 159 192 199 159 192 199 159 192 199 159 192 199 159 192 199 159 192 199 159 192 199 159 192 199 159 0 0 255 0 0 255 0 0 255 0 0 255 107 129 71 107 129 71 107 129 71 107 129 71 107 129 71 107 129 71 107 129 71 107 129 71 107 129 71 107 129 71 0 0 255 0 0 255 0 0 255 192 199 159 192 199 159 192 199 159 192 199 159 192 199 159 192 199 159 192 199 159 192 199 159 192 199 159 192 199 159 192 199 159 192 199 159 192 199 159 192 199 159 192 199 159 192 199 159 192 199 159 192 199 159 192 199 159 192 199 159 192 199 159 192 199 159 192 199 159 192 199 159 192 199 159 0 0 255 0 0 255 194 201 169 194 201 169 194 201 169 194 201 169 194 201 169 194 201 169 194 201 169 194 201 169 194 201 169 194 201 169 194 201 169 194 201 169 194 201 169 194 201 169 194 201 169 194 201 169 194 201 169 194 201 169 194 201 169 194 201 169 194 201 169 194 201 169 194 201 169 194 201 169 194 201 169 194 201 169 194 201 169 194 201 169 194 201 169 194 201 169 194 201 169 194 201 169 194 201 169 194 201 169 194 201 169 194 201 169 194 201 169 194 201 169 194 201 169 194 201 169 194 201 169 194 201 169 194 201 169 194 201 169 194 201 169 194 201 169 194 201 169 194 201 169 194 201 169 194 201 169 194 201 169 194 201 169 0 0 255 0 0 255 192 201 168 192 201 168 192 201 168 192 201 168 192 201 168 192 201 168 192 201 168 192 201 168 192 201 168 192 201 168 192 201 168 192 201 168 192 201 168 192 201 168 192 201 168 192 201 168 192 201 168 192 201 168 192 201 168 192 201 168 0 0 255 0 0 255 95 139 71 95 139 71 95 139 71 95 139 71 95 139 71 95 139 71 95 139 71 95 139 71 95 139 71 95 139 71 95 139 71 95 139 71 95 139 71 95 139 71 95 139 71 95 139 71 95 139 71 95 139 71 95 139 71 0 0 255 0 0 255 0 0 255 0 0 255 194 199 167 194 199 167 194 199 167 194 199 167 194 199 167 194 199 167 194 199 167 194 199 167 194 199 167 194 199 167 194 199 167 194 199 167 194 199 167 194 199 167 194 199 167 194 199 167 194 199 167 194 199 167 194 199 167 194 199 167 194 199 167 194 199 167 194 199 167 194 199 167 194 199 167 194 199 167 194 199 167 194 199 167 194 199 167 194 199 167 194 199 167 194 199 167 194 199 167 194 199 167 194 199 167 194 199 167 194 199 167 194 199 167 194 199 167 194 199 167 194 199 167 194 199 167 194 199 167 194 199 167 194 199 167 194 199 167 194 199 167 194 199 167 194 199 167 194 199 167 194 199 167 194 199 167 194 199 167 194 199 167 194 199 167 188 187 134 188 187 134 188 187 134 188 187 134 188 187 134 188 187 134 188 187 134 188 187 134 188 187 134 188 187 134 188 187 134 188 187 134 188 187 134 188 187 134 188 187 134 188 187 134 188 187 134 188 187 134 188 187 134 188 187 134 188 187 134 188 187 134 188 187 134 188 187 134 188 187 134 188 187 134 188 187 134 188 187 134 188 187 134 188 187 134 188 187 134 188 187 134 188 187 134 188 187 134 188 187 134 188 187 134 188 187 134 0 0 255 0 0 255 0 0 255 0 0 255 0 0 255 0 0 255 0 0 255 0 0 255 192 199 159 192 199 159 192 199 159 192 199 159 192 199 159 192 199 159 192 199 159 192 199 159 192 199 159 192 199 159 192 199 159 192 199 159 192 199 159 192 199 159 0 0 255 0 0 255 0 0 255 0 0 255 107 129 71 107 129 71 107 129 71 107 129 71 107 129 71 107 129 71 107 129 71 107 129 71 0 0 255 0 0 255 0 0 255 192 199 159 192 199 159 192 199 159 192 199 159 192 199 159 192 199 159 192 199 159 192 199 159 192 199 159 192 199 159 192 199 159 192 199 159 192 199 159 192 199 159 192 199 159 192 199 159 192 199 159 192 199 159 192 199 159 192 199 159 192 199 159 192 199 159 192 199 159 192 199 159 192 199 159 192 199 159 0 0 255 0 0 255 194 201 169 194 201 169 194 201 169 194 201 169 194 201 169 194 201 169 194 201 169 194 201 169 194 201 169 194 201 169 194 201 169 194 201 169 194 201 169 194 201 169 194 201 169 194 201 169 194 201 169 194 201 169 194 201 169 194 201 169 194 201 169 194 201 169 194 201 169 194 201 169 194 201 169 194 201 169 194 201 169 194 201 169 194 201 169 194 201 169 194 201 169 194 201 169 194 201 169 194 201 169 194 201 169 194 201 169 194 201 169 194 201 169 194 201 169 194 201 169 194 201 169 194 201 169 194 201 169 194 201 169 194 201 169 194 201 169 194 201 169 194 201 169 194 201 169 194 201 169 194 201 169 0 0 255 0 0 255 192 201 168 192 201 168 192 201 168 192 201 168 192 201 168 192 201 168 192 201 168 192 201 168 192 201 168 192 201 168 192 201 168 192 201 168 192 201 168 192 201 168 192 201 168 192 201 168 192 201 168 192 201 168 192 201 168 192 201 168 192 201 168 192 201 168 0 0 255 0 0 255 95 139 71 95 139 71 95 139 71 95 139 71 95 139 71 95 139 71 95 139 71 95 139 71 95 139 71 95 139 71 95 139 71 95 139 71 95 139 71 95 139 71 95 139 71 95 139 71 95 139 71 0 0 255 0 0 255 192 201 168 0 0 255 0 0 255 194 199 167 194 199 167 194 199 167 194 199 167 194 199 167 194 199 167 194 199 167 194 199 167 194 199 167 194 199 167 194 199 167 194 199 167 194 199 167 194 199 167 194 199 167 194 199 167 194 199 167 194 199 167 194 199 167 194 199 167 194 199 167 194 199 167 194 199 167 194 199 167 194 199 167 194 199 167 194 199 167 194 199 167 194 199 167 194 199 167 194 199 167 194 199 167 194 199 167 194 199 167 194 199 167 194 199 167 194 199 167 194 199 167 194 199 167 194 199 167 194 199 167 194 199 167 194 199 167 194 199 167 194 199 167 194 199 167 194 199 167 194 199 167 194 199 167 194 199 167 194 199 167 194 199 167 194 199 167 194 199 167 194 199 167 188 187 134 188 187 134 188 187 134 188 187 134 188 187 134 188 187 134 188 187 134 188 187 134 188 187 134 188 187 134 188 187 134 188 187 134 188 187 134 188 187 134 188 187 134 188 187 134 188 187 134 188 187 134 188 187 134 188 187 134 188 187 134 188 187 134 188 187 134 188 187 134 188 187 134 188 187 134 188 187 134 188 187 134 188 187 134 188 187 134 188 187 134 188 187 134 188 187 134 188 187 134 188 187 134 188 187 134 188 187 134 188 187 134 188 187 134 188 187 134 188 187 134 188 187 134 0 0 255 0 0 255 0 0 255 192 199 159 192 199 159 192 199 159 192 199 159 192 199 159 192 199 159 192 199 159 192 199 159 192 199 159 192 199 159 192 199 159 192 199 159 192 199 159 192 199 159 192 199 159 0 0 255 0 0 255 0 0 255 0 0 255 0 0 255 0 0 255 107 129 71 107 129 71 0 0 255 0 0 255 0 0 255 0 0 255 0 0 255 192 199 159 192 199 159 192 199 159 192 199 159 192 199 159 192 199 159 192 199 159 192 199 159 192 199 159 192 199 159 192 199 159 192 199 159 192 199 159 192 199 159 192 199 159 192 199 159 192 199 159 192 199 159 192 199 159 192 199 159 192 199 159 192 199 159 192 199 159 192 199 159 192 199 159 192 199 159 192 199 159 0 0 255 0 0 255 194 201 169 194 201 169 194 201 169 194 201 169 194 201 169 194 201 169 194 201 169 194 201 169 194 201 169 194 201 169 194 201 169 194 201 169 194 201 169 194 201 169 194 201 169 194 201 169 194 201 169 194 201 169 194 201 169 194 201 169 194 201 169 194 201 169 194 201 169 194 201 169 194 201 169 194 201 169 194 201 169 194 201 169 194 201 169 194 201 169 194 201 169 194 201 169 194 201 169 194 201 169 194 201 169 194 201 169 194 201 169 194 201 169 194 201 169 194 201 169 194 201 169 194 201 169 194 201 169 194 201 169 194 201 169 194 201 169 194 201 169 194 201 169 194 201 169 194 201 169 194 201 169 0 0 255 0 0 255 192 201 168 192 201 168 192 201 168 192 201 168 192 201 168 192 201 168 192 201 168 192 201 168 192 201 168 192 201 168 192 201 168 192 201 168 192 201 168 192 201 168 192 201 168 192 201 168 192 201 168 192 201 168 192 201 168 192 201 168 192 201 168 192 201 168 192 201 168 0 0 255 0 0 255 0 0 255 95 139 71 95 139 71 95 139 71 95 139 71 95 139 71 95 139 71 95 139 71 95 139 71 95 139 71 95 139 71 95 139 71 95 139 71 95 139 71 0 0 255 0 0 255 0 0 255 192 201 168 192 201 168 0 0 255 0 0 255 194 199 167 194 199 167 194 199 167 194 199 167 194 199 167 194 199 167 194 199 167 194 199 167 194 199 167 194 199 167 194 199 167 194 199 167 194 199 167 194 199 167 194 199 167 194 199 167 194 199 167 194 199 167 194 199 167 194 199 167 194 199 167 194 199 167 194 199 167 194 199 167 194 199 167 194 199 167 194 199 167 194 199 167 194 199 167 194 199 167 194 199 167 194 199 167 194 199 167 194 199 167 194 199 167 194 199 167 194 199 167 194 199 167 194 199 167 194 199 167 194 199 167 194 199 167 194 199 167 194 199 167 194 199 167 194 199 167 194 199 167 194 199 167 194 199 167 194 199 167 194 199 167 194 199 167 194 199 167 194 199 167 194 199 167 188 187 134 188 187 134 188 187 134 188 187 134 188 187 134 188 187 134 188 187 134 188 187 134 188 187 134 188 187 134 188 187 134 188 187 134 188 187 134 188 187 134 188 187 134 188 187 134 188 187 134 188 187 134 188 187 134 188 187 134 188 187 134 188 187 134 188 187 134 188 187 134 188 187 134 188 187 134 188 187 134 188 187 134 188 187 134 188 187 134 188 187 134 188 187 134 188 187 134 188 187 134 188 187 134 188 187 134 188 187 134 188 187 134 188 187 134 188 187 134 188 187 134 188 187 134 188 187 134 0 0 255 0 0 255 192 199 159 192 199 159 192 199 159 192 199 159 192 199 159 192 199 159 192 199 159 192 199 159 192 199 159 192 199 159 192 199 159 192 199 159 192 199 159 192 199 159 192 199 159 192 199 159 0 0 255 0 0 255 0 0 255 0 0 255 0 0 255 0 0 255 0 0 255 0 0 255 0 0 255 0 0 255 0 0 255 192 199 159 192 199 159 192 199 159 192 199 159 192 199 159 192 199 159 192 199 159 192 199 159 192 199 159 192 199 159 192 199 159 192 199 159 192 199 159 192 199 159 192 199 159 192 199 159 192 199 159 192 199 159 192 199 159 192 199 159 192 199 159 192 199 159 192 199 159 192 199 159 192 199 159 192 199 159 192 199 159 192 199 159 0 0 255 0 0 255 194 201 169 194 201 169 194 201 169 194 201 169 194 201 169 194 201 169 194 201 169 194 201 169 194 201 169 194 201 169 194 201 169 194 201 169 194 201 169 194 201 169 194 201 169 194 201 169 194 201 169 194 201 169 194 201 169 194 201 169 194 201 169 194 201 169 194 201 169 194 201 169 194 201 169 194 201 169 194 201 169 194 201 169 194 201 169 194 201 169 194 201 169 194 201 169 194 201 169 194 201 169 194 201 169 194 201 169 194 201 169 194 201 169 194 201 169 194 201 169 194 201 169 194 201 169 194 201 169 194 201 169 194 201 169 194 201 169 194 201 169 194 201 169 194 201 169 194 201 169 0 0 255 0 0 255 192 201 168 192 201 168 192 201 168 192 201 168 192 201 168 192 201 168 192 201 168 192 201 168 192 201 168 192 201 168 192 201 168 192 201 168 192 201 168 192 201 168 192 201 168 192 201 168 192 201 168 192 201 168 192 201 168 192 201 168 192 201 168 192 201 168 192 201 168 192 201 168 192 201 168 0 0 255 0 0 255 0 0 255 0 0 255 95 139 71 95 139 71 95 139 71 95 139 71 95 139 71 95 139 71 95 139 71 95 139 71 95 139 71 95 139 71 0 0 255 0 0 255 0 0 255 192 201 168 192 201 168 192 201 168 0 0 255 0 0 255 194 199 167 194 199 167 194 199 167 194 199 167 194 199 167 194 199 167 194 199 167 194 199 167 194 199 167 194 199 167 194 199 167 194 199 167 194 199 167 194 199 167 194 199 167 194 199 167 194 199 167 194 199 167 194 199 167 194 199 167 194 199 167 194 199 167 194 199 167 194 199 167 194 199 167 194 199 167 194 199 167 194 199 167 194 199 167 194 199 167 194 199 167 194 199 167 194 199 167 194 199 167 194 199 167 194 199 167 194 199 167 194 199 167 194 199 167 194 199 167 194 199 167 194 199 167 194 199 167 194 199 167 194 199 167 194 199 167 194 199 167 194 199 167 194 199 167 194 199 167 194 199 167 194 199 167 194 199 167 194 199 167 194 199 167 188 187 134 188 187 134 188 187 134 188 187 134 188 187 134 188 187 134 188 187 134 188 187 134 188 187 134 188 187 134 188 187 134 188 187 134 188 187 134 188 187 134 188 187 134 188 187 134 188 187 134 188 187 134 188 187 134 188 187 134 188 187 134 188 187 134 188 187 134 188 187 134 188 187 134 188 187 134 188 187 134 188 187 134 188 187 134 188 187 134 188 187 134 188 187 134 188 187 134 188 187 134 188 187 134 188 187 134 188 187 134 188 187 134 188 187 134 188 187 134 188 187 134 188 187 134 188 187 134 188 187 134 0 0 255 0 0 255 192 199 159 192 199 159 192 199 159 192 199 159 192 199 159 192 199 159 192 199 159 192 199 159 192 199 159 192 199 159 192 199 159 192 199 159 192 199 159 192 199 159 192 199 159 192 199 159 192 199 159 0 0 255 0 0 255 0 0 255 0 0 255 0 0 255 0 0 255 0 0 255 192 199 159 192 199 159 192 199 159 192 199 159 192 199 159 192 199 159 192 199 159 192 199 159 192 199 159 192 199 159 192 199 159 192 199 159 192 199 159 192 199 159 192 199 159 192 199 159 192 199 159 192 199 159 192 199 159 192 199 159 192 199 159 192 199 159 192 199 159 192 199 159 192 199 159 192 199 159 192 199 159 192 199 159 192 199 159 192 199 159 192 199 159 0 0 255 0 0 255 194 201 169 194 201 169 194 201 169 194 201 169 194 201 169 194 201 169 194 201 169 194 201 169 194 201 169 194 201 169 194 201 169 194 201 169 194 201 169 194 201 169 194 201 169 194 201 169 194 201 169 194 201 169 194 201 169 194 201 169 194 201 169 194 201 169 194 201 169 194 201 169 194 201 169 194 201 169 194 201 169 194 201 169 194 201 169 194 201 169 194 201 169 194 201 169 194 201 169 194 201 169 194 201 169 194 201 169 194 201 169 194 201 169 194 201 169 194 201 169 194 201 169 194 201 169 194 201 169 194 201 169 194 201 169 194 201 169 194 201 169 194 201 169 194 201 169 0 0 255 0 0 255 192 201 168 192 201 168 192 201 168 192 201 168 192 201 168 192 201 168 192 201 168 192 201 168 192 201 168 192 201 168 192 201 168 192 201 168 192 201 168 192 201 168 192 201 168 192 201 168 192 201 168 192 201 168 192 201 168 192 201 168 192 201 168 192 201 168 192 201 168 192 201 168 192 201 168 192 201 168 192 201 168 0 0 255 0 0 255 0 0 255 0 0 255 0 0 255 0 0 255 95 139 71 95 139 71 0 0 255 0 0 255 0 0 255 0 0 255 0 0 255 192 201 168 192 201 168 192 201 168 192 201 168 192 201 168 0 0 255 0 0 255 194 199 167 194 199 167 194 199 167 194 199 167 194 199 167 194 199 167 194 199 167 194 199 167 194 199 167 194 199 167 194 199 167 194 199 167 194 199 167 194 199 167 194 199 167 194 199 167 194 199 167 194 199 167 194 199 167 194 199 167 194 199 167 194 199 167 194 199 167 194 199 167 194 199 167 194 199 167 194 199 167 194 199 167 194 199 167 194 199 167 194 199 167 194 199 167 194 199 167 194 199 167 194 199 167 194 199 167 194 199 167 194 199 167 194 199 167 194 199 167 194 199 167 194 199 167 194 199 167 194 199 167 194 199 167 194 199 167 194 199 167 194 199 167 194 199 167 194 199 167 194 199 167 194 199 167 194 199 167 194 199 167 194 199 167 188 187 134 188 187 134 188 187 134 188 187 134 188 187 134 188 187 134 188 187 134 188 187 134 188 187 134 188 187 134 188 187 134 188 187 134 188 187 134 188 187 134 188 187 134 188 187 134 188 187 134 188 187 134 188 187 134 188 187 134 188 187 134 188 187 134 188 187 134 188 187 134 188 187 134 188 187 134 188 187 134 188 187 134 188 187 134 188 187 134 188 187 134 188 187 134 188 187 134 188 187 134 188 187 134 188 187 134 188 187 134 188 187 134 188 187 134 188 187 134 188 187 134 188 187 134 188 187 134 188 187 134 0 0 255 0 0 255 192 199 159 192 199 159 192 199 159 192 199 159 192 199 159 192 199 159 192 199 159 192 199 159 192 199 159 192 199 159 192 199 159 192 199 159 192 199 159 192 199 159 192 199 159 192 199 159 192 199 159 192 199 159 192 199 159 192 199 159 192 199 159 192 199 159 192 199 159 192 199 159 192 199 159 192 199 159 192 199 159 192 199 159 192 199 159 192 199 159 192 199 159 192 199 159 192 199 159 192 199 159 192 199 159 192 199 159 192 199 159 192 199 159 192 199 159 192 199 159 192 199 159 192 199 159 192 199 159 192 199 159 192 199 159 192 199 159 192 199 159 192 199 159 192 199 159 192 199 159 192 199 159 192 199 159 192 199 159 192 199 159 192 199 159 0 0 255 0 0 255 194 201 169 194 201 169 194 201 169 194 201 169 194 201 169 194 201 169 194 201 169 194 201 169 194 201 169 194 201 169 194 201 169 194 201 169 194 201 169 194 201 169 194 201 169 194 201 169 194 201 169 194 201 169 194 201 169 194 201 169 194 201 169 194 201 169 194 201 169 194 201 169 194 201 169 194 201 169 194 201 169 194 201 169 194 201 169 194 201 169 194 201 169 194 201 169 194 201 169 194 201 169 194 201 169 194 201 169 194 201 169 194 201 169 194 201 169 194 201 169 194 201 169 194 201 169 194 201 169 194 201 169 194 201 169 194 201 169 194 201 169 194 201 169 0 0 255 0 0 255 192 201 168 192 201 168 192 201 168 192 201 168 192 201 168 192 201 168 192 201 168 192 201 168 192 201 168 192 201 168 192 201 168 192 201 168 192 201 168 192 201 168 192 201 168 192 201 168 192 201 168 192 201 168 192 201 168 192 201 168 192 201 168 192 201 168 192 201 168 192 201 168 192 201 168 192 201 168 192 201 168 192 201 168 192 201 168 192 201 168 0 0 255 0 0 255 0 0 255 0 0 255 0 0 255 0 0 255 0 0 255 0 0 255 0 0 255 0 0 255 192 201 168 192 201 168 192 201 168 192 201 168 192 201 168 192 201 168 0 0 255 0 0 255 194 199 167 194 199 167 194 199 167 194 199 167 194 199 167 194 199 167 194 199 167 194 199 167 194 199 167 194 199 167 194 199 167 194 199 167 194 199 167 194 199 167 194 199 167 194 199 167 194 199 167 194 199 167 194 199 167 194 199 167 194 199 167 194 199 167 194 199 167 194 199 167 194 199 167 194 199 167 194 199 167 194 199 167 194 199 167 194 199 167 194 199 167 194 199 167 194 199 167 194 199 167 194 199 167 194 199 167 194 199 167 194 199 167 194 199 167 194 199 167 194 199 167 194 199 167 194 199 167 194 199 167 194 199 167 194 199 167 194 199 167 194 199 167 194 199 167 194 199 167 194 199 167 194 199 167 194 199 167 194 199 167 194 199 167 188 187 134 188 187 134 188 187 134 188 187 134 188 187 134 188 187 134 188 187 134 188 187 134 188 187 134 188 187 134 188 187 134 188 187 134 188 187 134 188 187 134 188 187 134 188 187 134 188 187 134 188 187 134 188 187 134 188 187 134 188 187 134 188 187 134 188 187 134 188 187 134 188 187 134 188 187 134 188 187 134 188 187 134 188 187 134 188 187 134 188 187 134 188 187 134 188 187 134 188 187 134 188 187 134 188 187 134 188 187 134 188 187 134 188 187 134 188 187 134 188 187 134 188 187 134 188 187 134 188 187 134 188 187 134 0 0 255 0 0 255 192 199 159 192 199 159 192 199 159 192 199 159 192 199 159 192 199 159 192 199 159 192 199 159 192 199 159 192 199 159 192 199 159 192 199 159 192 199 159 192 199 159 192 199 159 192 199 159 192 199 159 192 199 159 192 199 159 192 199 159 192 199 159 192 199 159 192 199 159 192 199 159 192 199 159 192 199 159 192 199 159 192 199 159 192 199 159 192 199 159 192 199 159 192 199 159 192 199 159 192 199 159 192 199 159 192 199 159 192 199 159 192 199 159 192 199 159 192 199 159 192 199 159 192 199 159 192 199 159 192 199 159 192 199 159 192 199 159 192 199 159 192 199 159 192 199 159 192 199 159 192 199 159 192 199 159 192 199 159 192 199 159 0 0 255 0 0 255 194 201 169 194 201 169 194 201 169 194 201 169 194 201 169 194 201 169 194 201 169 194 201 169 194 201 169 194 201 169 194 201 169 194 201 169 194 201 169 194 201 169 194 201 169 194 201 169 194 201 169 194 201 169 194 201 169 194 201 169 194 201 169 194 201 169 194 201 169 194 201 169 194 201 169 194 201 169 194 201 169 194 201 169 194 201 169 194 201 169 194 201 169 194 201 169 194 201 169 194 201 169 194 201 169 194 201 169 194 201 169 194 201 169 194 201 169 194 201 169 194 201 169 194 201 169 194 201 169 194 201 169 194 201 169 194 201 169 194 201 169 194 201 169 0 0 255 0 0 255 192 201 168 192 201 168 192 201 168 192 201 168 192 201 168 192 201 168 192 201 168 192 201 168 192 201 168 192 201 168 192 201 168 192 201 168 192 201 168 192 201 168 192 201 168 192 201 168 192 201 168 192 201 168 192 201 168 192 201 168 192 201 168 192 201 168 192 201 168 192 201 168 192 201 168 192 201 168 192 201 168 192 201 168 192 201 168 192 201 168 192 201 168 192 201 168 192 201 168 192 201 168 0 0 255 0 0 255 192 201 168 192 201 168 192 201 168 192 201 168 192 201 168 192 201 168 192 201 168 192 201 168 192 201 168 192 201 168 0 0 255 0 0 255 194 199 167 194 199 167 194 199 167 194 199 167 194 199 167 194 199 167 194 199 167 194 199 167 194 199 167 194 199 167 194 199 167 194 199 167 194 199 167 194 199 167 194 199 167 194 199 167 194 199 167 194 199 167 194 199 167 194 199 167 194 199 167 194 199 167 194 199 167 194 199 167 194 199 167 194 199 167 194 199 167 194 199 167 194 199 167 194 199 167 194 199 167 194 199 167 194 199 167 194 199 167 194 199 167 194 199 167 194 199 167 194 199 167 194 199 167 194 199 167 194 199 167 194 199 167 194 199 167 194 199 167 194 199 167 194 199 167 194 199 167 194 199 167 194 199 167 194 199 167 194 199 167 194 199 167 194 199 167 194 199 167 194 199 167 188 187 134 188 187 134 188 187 134 188 187 134 188 187 134 188 187 134 188 187 134 188 187 134 188 187 134 188 187 134 188 187 134 188 187 134 188 187 134 188 187 134 188 187 134 188 187 134 188 187 134 188 187 134 188 187 134 188 187 134 188 187 134 188 187 134 188 187 134 188 187 134 188 187 134 188 187 134 188 187 134 188 187 134 188 187 134 188 187 134 188 187 134 188 187 134 188 187 134 188 187 134 188 187 134 188 187 134 188 187 134 188 187 134 188 187 134 188 187 134 188 187 134 188 187 134 188 187 134 188 187 134 188 187 134 0 0 255 0 0 255 192 199 159 192 199 159 192 199 159 192 199 159 192 199 159 192 199 159 192 199 159 192 199 159 192 199 159 192 199 159 192 199 159 192 199 159 192 199 159 192 199 159 192 199 159 192 199 159 192 199 159 192 199 159 192 199 159 192 199 159 192 199 159 192 199 159 192 199 159 192 199 159 192 199 159 192 199 159 192 199 159 192 199 159 192 199 159 192 199 159 192 199 159 192 199 159 192 199 159 192 199 159 192 199 159 192 199 159 192 199 159 192 199 159 192 199 159 192 199 159 192 199 159 192 199 159 192 199 159 192 199 159 192 199 159 192 199 159 192 199 159 192 199 159 192 199 159 192 199 159 192 199 159 192 199 159 192 199 159 192 199 159 192 199 159 0 0 255 0 0 255 194 201 169 194 201 169 194 201 169 194 201 169 194 201 169 194 201 169 194 201 169 194 201 169 194 201 169 194 201 169 194 201 169 194 201 169 194 201 169 194 201 169 194 201 169 194 201 169 194 201 169 194 201 169 194 201 169 194 201 169 194 201 169 194 201 169 194 201 169 194 201 169 194 201 169 194 201 169 194 201 169 194 201 169 194 201 169 194 201 169 194 201 169 194 201 169 194 201 169 194 201 169 194 201 169 194 201 169 194 201 169 194 201 169 194 201 169 194 201 169 194 201 169 194 201 169 194 201 169 194 201 169 194 201 169 194 201 169 0 0 255 0 0 255 192 201 168 192 201 168 192 201 168 192 201 168 192 201 168 192 201 168 192 201 168 192 201 168 192 201 168 192 201 168 192 201 168 192 201 168 192 201 168 192 201 168 192 201 168 192 201 168 192 201 168 192 201 168 192 201 168 192 201 168 192 201 168 192 201 168 192 201 168 192 201 168 192 201 168 192 201 168 192 201 168 192 201 168 192 201 168 192 201 168 192 201 168 192 201 168 192 201 168 192 201 168 192 201 168 192 201 168 192 201 168 192 201 168 192 201 168 192 201 168 192 201 168 192 201 168 192 201 168 192 201 168 192 201 168 192 201 168 192 201 168 0 0 255 0 0 255 194 199 167 194 199 167 194 199 167 194 199 167 194 199 167 194 199 167 194 199 167 194 199 167 194 199 167 194 199 167 194 199 167 194 199 167 194 199 167 194 199 167 194 199 167 194 199 167 194 199 167 194 199 167 194 199 167 194 199 167 194 199 167 194 199 167 194 199 167 194 199 167 194 199 167 194 199 167 194 199 167 194 199 167 194 199 167 194 199 167 194 199 167 194 199 167 194 199 167 194 199 167 194 199 167 194 199 167 194 199 167 194 199 167 194 199 167 194 199 167 194 199 167 194 199 167 194 199 167 194 199 167 194 199 167 194 199 167 194 199 167 194 199 167 194 199 167 194 199 167 194 199 167 194 199 167 194 199 167 194 199 167 194 199 167 188 187 134 188 187 134 188 187 134 188 187 134 188 187 134 188 187 134 188 187 134 188 187 134 188 187 134 188 187 134 188 187 134 188 187 134 188 187 134 188 187 134 188 187 134 188 187 134 188 187 134 188 187 134 188 187 134 188 187 134 188 187 134 188 187 134 188 187 134 188 187 134 188 187 134 188 187 134 188 187 134 188 187 134 188 187 134 188 187 134 188 187 134 188 187 134 188 187 134 188 187 134 188 187 134 188 187 134 188 187 134 188 187 134 188 187 134 188 187 134 188 187 134 188 187 134 188 187 134 188 187 134 188 187 134 0 0 255 0 0 255 192 199 159 192 199 159 192 199 159 192 199 159 192 199 159 192 199 159 192 199 159 192 199 159 192 199 159 192 199 159 192 199 159 192 199 159 192 199 159 192 199 159 192 199 159 192 199 159 192 199 159 192 199 159 192 199 159 192 199 159 192 199 159 192 199 159 192 199 159 192 199 159 192 199 159 192 199 159 192 199 159 192 199 159 192 199 159 192 199 159 192 199 159 192 199 159 192 199 159 192 199 159 192 199 159 192 199 159 192 199 159 192 199 159 192 199 159 192 199 159 192 199 159 192 199 159 192 199 159 192 199 159 192 199 159 192 199 159 192 199 159 192 199 159 192 199 159 192 199 159 192 199 159 192 199 159 192 199 159 192 199 159 192 199 159 0 0 255 0 0 255 194 201 169 194 201 169 194 201 169 194 201 169 194 201 169 194 201 169 194 201 169 194 201 169 194 201 169 194 201 169 194 201 169 194 201 169 194 201 169 194 201 169 194 201 169 194 201 169 194 201 169 194 201 169 194 201 169 194 201 169 194 201 169 194 201 169 194 201 169 194 201 169 194 201 169 194 201 169 194 201 169 194 201 169 194 201 169 194 201 169 194 201 169 194 201 169 194 201 169 194 201 169 194 201 169 194 201 169 194 201 169 194 201 169 194 201 169 194 201 169 194 201 169 194 201 169 194 201 169 194 201 169 194 201 169 194 201 169 0 0 255 0 0 255 192 201 168 192 201 168 192 201 168 192 201 168 192 201 168 192 201 168 192 201 168 192 201 168 192 201 168 192 201 168 192 201 168 192 201 168 192 201 168 192 201 168 192 201 168 192 201 168 192 201 168 192 201 168 192 201 168 192 201 168 192 201 168 192 201 168 192 201 168 192 201 168 192 201 168 192 201 168 192 201 168 192 201 168 192 201 168 192 201 168 192 201 168 192 201 168 192 201 168 192 201 168 192 201 168 192 201 168 192 201 168 192 201 168 192 201 168 192 201 168 192 201 168 192 201 168 192 201 168 192 201 168 192 201 168 192 201 168 192 201 168 0 0 255 0 0 255 194 199 167 194 199 167 194 199 167 194 199 167 194 199 167 194 199 167 194 199 167 194 199 167 194 199 167 194 199 167 194 199 167 194 199 167 194 199 167 194 199 167 194 199 167 194 199 167 194 199 167 194 199 167 194 199 167 194 199 167 194 199 167 194 199 167 194 199 167 194 199 167 194 199 167 194 199 167 194 199 167 194 199 167 194 199 167 194 199 167 194 199 167 194 199 167 194 199 167 194 199 167 194 199 167 194 199 167 194 199 167 194 199 167 194 199 167 194 199 167 194 199 167 194 199 167 194 199 167 194 199 167 194 199 167 194 199 167 194 199 167 194 199 167 194 199 167 194 199 167 194 199 167 194 199 167 194 199 167 194 199 167 194 199 167 188 187 134 188 187 134 188 187 134 188 187 134 188 187 134 188 187 134 188 187 134 188 187 134 188 187 134 188 187 134 188 187 134 188 187 134 188 187 134 188 187 134 188 187 134 188 187 134 188 187 134 188 187 134 188 187 134 188 187 134 188 187 134 188 187 134 188 187 134 188 187 134 188 187 134 188 187 134 188 187 134 188 187 134 188 187 134 188 187 134 188 187 134 188 187 134 188 187 134 188 187 134 188 187 134 188 187 134 188 187 134 188 187 134 188 187 134 188 187 134 188 187 134 188 187 134 188 187 134 188 187 134 188 187 134 188 187 134 0 0 255 0 0 255 192 199 159 192 199 159 192 199 159 192 199 159 192 199 159 192 199 159 192 199 159 192 199 159 192 199 159 192 199 159 192 199 159 192 199 159 192 199 159 192 199 159 192 199 159 192 199 159 192 199 159 192 199 159 192 199 159 192 199 159 192 199 159 192 199 159 192 199 159 192 199 159 192 199 159 192 199 159 192 199 159 192 199 159 192 199 159 192 199 159 192 199 159 192 199 159 192 199 159 192 199 159 192 199 159 192 199 159 192 199 159 192 199 159 192 199 159 192 199 159 192 199 159 192 199 159 192 199 159 192 199 159 192 199 159 192 199 159 192 199 159 192 199 159 192 199 159 192 199 159 192 199 159 192 199 159 192 199 159 192 199 159 0 0 255 0 0 255 194 201 169 194 201 169 194 201 169 194 201 169 194 201 169 194 201 169 194 201 169 194 201 169 194 201 169 194 201 169 194 201 169 194 201 169 194 201 169 194 201 169 194 201 169 194 201 169 194 201 169 194 201 169 194 201 169 194 201 169 194 201 169 194 201 169 194 201 169 194 201 169 194 201 169 194 201 169 194 201 169 194 201 169 194 201 169 194 201 169 194 201 169 194 201 169 194 201 169 194 201 169 194 201 169 194 201 169 194 201 169 194 201 169 194 201 169 194 201 169 194 201 169 194 201 169 194 201 169 194 201 169 194 201 169 194 201 169 0 0 255 0 0 255 192 201 168 192 201 168 192 201 168 192 201 168 192 201 168 192 201 168 192 201 168 192 201 168 192 201 168 192 201 168 192 201 168 192 201 168 192 201 168 192 201 168 192 201 168 192 201 168 192 201 168 192 201 168 192 201 168 192 201 168 192 201 168 192 201 168 192 201 168 192 201 168 192 201 168 192 201 168 192 201 168 192 201 168 192 201 168 192 201 168 192 201 168 192 201 168 192 201 168 192 201 168 192 201 168 192 201 168 192 201 168 192 201 168 192 201 168 192 201 168 192 201 168 192 201 168 192 201 168 192 201 168 192 201 168 192 201 168 192 201 168 0 0 255 0 0 255 194 199 167 194 199 167 194 199 167 194 199 167 194 199 167 194 199 167 194 199 167 194 199 167 194 199 167 194 199 167 194 199 167 194 199 167 194 199 167 194 199 167 194 199 167 194 199 167 194 199 167 194 199 167 194 199 167 194 199 167 194 199 167 194 199 167 194 199 167 194 199 167 194 199 167 194 199 167 194 199 167 194 199 167 194 199 167 194 199 167 194 199 167 194 199 167 194 199 167 194 199 167 194 199 167 194 199 167 194 199 167 194 199 167 194 199 167 194 199 167 194 199 167 194 199 167 194 199 167 194 199 167 194 199 167 194 199 167 194 199 167 194 199 167 194 199 167 194 199 167 194 199 167 194 199 167 194 199 167 194 199 167 194 199 167 188 187 134 188 187 134 188 187 134 188 187 134 188 187 134 188 187 134 188 187 134 188 187 134 188 187 134 188 187 134 188 187 134 188 187 134 188 187 134 188 187 134 188 187 134 188 187 134 188 187 134 188 187 134 188 187 134 188 187 134 188 187 134 188 187 134 188 187 134 188 187 134 188 187 134 188 187 134 188 187 134 188 187 134 188 187 134 188 187 134 188 187 134 188 187 134 188 187 134 188 187 134 188 187 134 188 187 134 188 187 134 188 187 134 188 187 134 188 187 134 188 187 134 188 187 134 188 187 134 188 187 134 188 187 134 188 187 134 0 0 255 0 0 255 192 199 159 192 199 159 192 199 159 192 199 159 192 199 159 192 199 159 192 199 159 192 199 159 192 199 159 192 199 159 192 199 159 192 199 159 192 199 159 192 199 159 192 199 159 192 199 159 192 199 159 192 199 159 192 199 159 192 199 159 192 199 159 192 199 159 192 199 159 192 199 159 192 199 159 192 199 159 192 199 159 192 199 159 192 199 159 192 199 159 192 199 159 192 199 159 192 199 159 192 199 159 192 199 159 192 199 159 192 199 159 192 199 159 192 199 159 192 199 159 192 199 159 192 199 159 192 199 159 192 199 159 192 199 159 192 199 159 192 199 159 192 199 159 192 199 159 192 199 159 192 199 159 192 199 159 192 199 159 192 199 159 192 199 159 0 0 255 0 0 255 194 201 169 194 201 169 194 201 169 194 201 169 194 201 169 194 201 169 194 201 169 194 201 169 194 201 169 194 201 169 194 201 169 194 201 169 194 201 169 194 201 169 194 201 169 194 201 169 194 201 169 194 201 169 194 201 169 194 201 169 194 201 169 194 201 169 194 201 169 194 201 169 194 201 169 194 201 169 194 201 169 194 201 169 194 201 169 194 201 169 194 201 169 194 201 169 194 201 169 194 201 169 194 201 169 194 201 169 194 201 169 194 201 169 194 201 169 194 201 169 194 201 169 194 201 169 194 201 169 194 201 169 0 0 255 0 0 255 192 201 168 192 201 168 192 201 168 192 201 168 192 201 168 192 201 168 192 201 168 192 201 168 192 201 168 192 201 168 192 201 168 192 201 168 192 201 168 192 201 168 192 201 168 192 201 168 192 201 168 192 201 168 192 201 168 192 201 168 192 201 168 192 201 168 192 201 168 192 201 168 192 201 168 192 201 168 192 201 168 192 201 168 192 201 168 192 201 168 192 201 168 192 201 168 192 201 168 192 201 168 192 201 168 192 201 168 192 201 168 192 201 168 192 201 168 192 201 168 192 201 168 192 201 168 192 201 168 192 201 168 192 201 168 192 201 168 192 201 168 192 201 168 0 0 255 0 0 255 194 199 167 194 199 167 194 199 167 194 199 167 194 199 167 194 199 167 194 199 167 194 199 167 194 199 167 194 199 167 194 199 167 194 199 167 194 199 167 194 199 167 194 199 167 194 199 167 194 199 167 194 199 167 194 199 167 194 199 167 194 199 167 194 199 167 194 199 167 194 199 167 194 199 167 194 199 167 194 199 167 194 199 167 194 199 167 194 199 167 194 199 167 194 199 167 194 199 167 194 199 167 194 199 167 194 199 167 194 199 167 194 199 167 194 199 167 194 199 167 194 199 167 194 199 167 194 199 167 194 199 167 194 199 167 194 199 167 194 199 167 194 199 167 194 199 167 194 199 167 194 199 167 194 199 167 194 199 167 194 199 167 194 199 167 188 187 134 188 187 134 188 187 134 188 187 134 188 187 134 188 187 134 188 187 134 188 187 134 188 187 134 188 187 134 188 187 134 188 187 134 188 187 134 188 187 134 188 187 134 188 187 134 188 187 134 188 187 134 188 187 134 188 187 134 188 187 134 188 187 134 188 187 134 188 187 134 188 187 134 188 187 134 188 187 134 188 187 134 188 187 134 188 187 134 188 187 134 188 187 134 188 187 134 188 187 134 188 187 134 188 187 134 188 187 134 188 187 134 188 187 134 188 187 134 188 187 134 188 187 134 188 187 134 188 187 134 188 187 134 188 187 134 0 0 255 0 0 255 192 199 159 192 199 159 192 199 159 192 199 159 192 199 159 192 199 159 192 199 159 192 199 159 192 199 159 192 199 159 192 199 159 192 199 159 192 199 159 192 199 159 192 199 159 192 199 159 192 199 159 192 199 159 192 199 159 192 199 159 192 199 159 192 199 159 192 199 159 192 199 159 192 199 159 192 199 159 192 199 159 192 199 159 192 199 159 192 199 159 192 199 159 192 199 159 192 199 159 192 199 159 192 199 159 192 199 159 192 199 159 192 199 159 192 199 159 192 199 159 192 199 159 192 199 159 192 199 159 192 199 159 192 199 159 192 199 159 192 199 159 192 199 159 192 199 159 192 199 159 192 199 159 192 199 159 192 199 159 192 199 159 192 199 159 0 0 255 0 0 255 194 201 169 194 201 169 194 201 169 194 201 169 194 201 169 194 201 169 194 201 169 194 201 169 194 201 169 194 201 169 194 201 169 194 201 169 194 201 169 194 201 169 194 201 169 194 201 169 194 201 169 194 201 169 194 201 169 194 201 169 194 201 169 194 201 169 194 201 169 194 201 169 194 201 169 194 201 169 194 201 169 194 201 169 194 201 169 194 201 169 194 201 169 194 201 169 194 201 169 194 201 169 194 201 169 194 201 169 194 201 169 194 201 169 194 201 169 194 201 169 194 201 169 194 201 169 194 201 169 194 201 169 0 0 255 0 0 255 192 201 168 192 201 168 192 201 168 192 201 168 192 201 168 192 201 168 192 201 168 192 201 168 192 201 168 192 201 168 192 201 168 192 201 168 192 201 168 192 201 168 192 201 168 192 201 168 192 201 168 192 201 168 192 201 168 192 201 168 192 201 168 192 201 168 192 201 168 192 201 168 192 201 168 192 201 168 192 201 168 192 201 168 192 201 168 192 201 168 192 201 168 192 201 168 192 201 168 192 201 168 192 201 168 192 201 168 192 201 168 192 201 168 192 201 168 192 201 168 192 201 168 192 201 168 192 201 168 192 201 168 192 201 168 192 201 168 192 201 168 192 201 168 0 0 255 0 0 255 194 199 167 194 199 167 194 199 167 194 199 167 194 199 167 194 199 167 194 199 167 194 199 167 194 199 167 194 199 167 194 199 167 194 199 167 194 199 167 194 199 167 194 199 167 194 199 167 194 199 167 194 199 167 194 199 167 194 199 167 194 199 167 194 199 167 194 199 167 194 199 167 194 199 167 194 199 167 194 199 167 194 199 167 194 199 167 194 199 167 194 199 167 194 199 167 194 199 167 194 199 167 194 199 167 194 199 167 194 199 167 194 199 167 194 199 167 194 199 167 194 199 167 194 199 167 194 199 167 194 199 167 194 199 167 194 199 167 194 199 167 194 199 167 194 199 167 194 199 167 194 199 167 194 199 167 194 199 167 194 199 167 194 199 167 188 187 134 188 187 134 188 187 134 188 187 134 188 187 134 188 187 134 188 187 134 188 187 134 188 187 134 188 187 134 188 187 134 188 187 134 188 187 134 188 187 134 188 187 134 188 187 134 188 187 134 188 187 134 188 187 134 188 187 134 188 187 134 188 187 134 188 187 134 188 187 134 188 187 134 188 187 134 188 187 134 188 187 134 188 187 134 188 187 134 188 187 134 188 187 134 188 187 134 188 187 134 188 187 134 188 187 134 188 187 134 188 187 134 188 187 134 188 187 134 188 187 134 188 187 134 188 187 134 188 187 134 188 187 134 188 187 134 188 187 134 0 0 255 0 0 255 192 199 159 192 199 159 192 199 159 192 199 159 192 199 159 192 199 159 192 199 159 192 199 159 192 199 159 192 199 159 192 199 159 192 199 159 192 199 159 192 199 159 192 199 159 192 199 159 192 199 159 192 199 159 192 199 159 192 199 159 192 199 159 192 199 159 192 199 159 192 199 159 192 199 159 192 199 159 192 199 159 192 199 159 192 199 159 192 199 159 192 199 159 192 199 159 192 199 159 192 199 159 192 199 159 192 199 159 192 199 159 192 199 159 192 199 159 192 199 159 192 199 159 192 199 159 192 199 159 192 199 159 192 199 159 192 199 159 192 199 159 192 199 159 192 199 159 192 199 159 192 199 159 192 199 159 192 199 159 192 199 159 0 0 255 0 0 255 194 201 169 194 201 169 194 201 169 194 201 169 194 201 169 194 201 169 194 201 169 194 201 169 194 201 169 194 201 169 194 201 169 194 201 169 194 201 169 194 201 169 194 201 169 194 201 169 194 201 169 194 201 169 194 201 169 194 201 169 194 201 169 194 201 169 194 201 169 194 201 169 194 201 169 194 201 169 194 201 169 194 201 169 194 201 169 194 201 169 194 201 169 194 201 169 194 201 169 194 201 169 194 201 169 194 201 169 194 201 169 194 201 169 194 201 169 194 201 169 194 201 169 194 201 169 194 201 169 0 0 255 0 0 255 192 201 168 192 201 168 192 201 168 192 201 168 192 201 168 192 201 168 192 201 168 192 201 168 192 201 168 192 201 168 192 201 168 192 201 168 192 201 168 192 201 168 192 201 168 192 201 168 192 201 168 192 201 168 192 201 168 192 201 168 192 201 168 192 201 168 192 201 168 192 201 168 192 201 168 192 201 168 192 201 168 192 201 168 192 201 168 192 201 168 192 201 168 192 201 168 192 201 168 192 201 168 192 201 168 192 201 168 192 201 168 192 201 168 192 201 168 192 201 168 192 201 168 192 201 168 192 201 168 192 201 168 192 201 168 192 201 168 192 201 168 192 201 168 192 201 168 0 0 255 0 0 255 194 199 167 194 199 167 194 199 167 194 199 167 194 199 167 194 199 167 194 199 167 194 199 167 194 199 167 194 199 167 194 199 167 194 199 167 194 199 167 194 199 167 194 199 167 194 199 167 194 199 167 194 199 167 194 199 167 194 199 167 194 199 167 194 199 167 194 199 167 194 199 167 194 199 167 194 199 167 194 199 167 194 199 167 194 199 167 194 199 167 194 199 167 194 199 167 194 199 167 194 199 167 194 199 167 194 199 167 194 199 167 194 199 167 194 199 167 194 199 167 194 199 167 194 199 167 194 199 167 194 199 167 194 199 167 194 199 167 194 199 167 194 199 167 194 199 167 194 199 167 194 199 167 194 199 167 194 199 167 194 199 167 194 199 167 188 187 134 188 187 134 188 187 134 188 187 134 188 187 134 188 187 134 188 187 134 188 187 134 188 187 134 188 187 134 188 187 134 188 187 134 188 187 134 188 187 134 188 187 134 188 187 134 188 187 134 188 187 134 188 187 134 188 187 134 188 187 134 188 187 134 188 187 134 188 187 134 188 187 134 188 187 134 188 187 134 188 187 134 188 187 134 188 187 134 188 187 134 188 187 134 188 187 134 188 187 134 188 187 134 188 187 134 188 187 134 188 187 134 188 187 134 188 187 134 188 187 134 188 187 134 188 187 134 188 187 134 188 187 134 188 187 134 188 187 134 0 0 255 0 0 255 192 199 159 192 199 159 192 199 159 192 199 159 192 199 159 192 199 159 192 199 159 192 199 159 192 199 159 192 199 159 192 199 159 192 199 159 192 199 159 192 199 159 192 199 159 192 199 159 192 199 159 192 199 159 192 199 159 192 199 159 192 199 159 192 199 159 192 199 159 192 199 159 192 199 159 192 199 159 192 199 159 192 199 159 192 199 159 192 199 159 192 199 159 192 199 159 192 199 159 192 199 159 192 199 159 192 199 159 192 199 159 192 199 159 192 199 159 192 199 159 192 199 159 192 199 159 192 199 159 192 199 159 192 199 159 192 199 159 192 199 159 192 199 159 192 199 159 192 199 159 192 199 159 192 199 159 192 199 159 192 199 159 0 0 255 0 0 255 194 201 169 194 201 169 194 201 169 194 201 169 194 201 169 194 201 169 194 201 169 194 201 169 194 201 169 194 201 169 194 201 169 194 201 169 194 201 169 194 201 169 194 201 169 194 201 169 194 201 169 194 201 169 194 201 169 194 201 169 194 201 169 194 201 169 194 201 169 194 201 169 194 201 169 194 201 169 194 201 169 194 201 169 194 201 169 194 201 169 194 201 169 194 201 169 194 201 169 194 201 169 194 201 169 194 201 169 194 201 169 194 201 169 194 201 169 194 201 169 194 201 169 194 201 169 194 201 169 0 0 255 0 0 255 192 201 168 192 201 168 192 201 168 192 201 168 192 201 168 192 201 168 192 201 168 192 201 168 192 201 168 192 201 168 192 201 168 192 201 168 192 201 168 192 201 168 192 201 168 192 201 168 192 201 168 192 201 168 192 201 168 192 201 168 192 201 168 192 201 168 192 201 168 192 201 168 192 201 168 192 201 168 192 201 168 192 201 168 192 201 168 192 201 168 192 201 168 192 201 168 192 201 168 192 201 168 192 201 168 192 201 168 192 201 168 192 201 168 192 201 168 192 201 168 192 201 168 192 201 168 192 201 168 192 201 168 192 201 168 192 201 168 192 201 168 192 201 168 192 201 168 0 0 255 0 0 255 194 199 167 194 199 167 194 199 167 194 199 167 194 199 167 194 199 167 194 199 167 194 199 167 194 199 167 194 199 167 194 199 167 194 199 167 194 199 167 194 199 167 194 199 167 194 199 167 194 199 167 194 199 167 194 199 167 194 199 167 194 199 167 194 199 167 194 199 167 194 199 167 194 199 167 194 199 167 194 199 167 194 199 167 194 199 167 194 199 167 194 199 167 194 199 167 194 199 167 194 199 167 194 199 167 194 199 167 194 199 167 194 199 167 194 199 167 194 199 167 194 199 167 194 199 167 194 199 167 194 199 167 194 199 167 194 199 167 194 199 167 194 199 167 194 199 167 194 199 167 194 199 167 194 199 167 194 199 167 194 199 167 194 199 167 188 187 134 188 187 134 188 187 134 188 187 134 188 187 134 188 187 134 188 187 134 188 187 134 188 187 134 188 187 134 188 187 134 188 187 134 188 187 134 188 187 134 188 187 134 188 187 134 188 187 134 188 187 134 188 187 134 188 187 134 188 187 134 188 187 134 188 187 134 188 187 134 188 187 134 188 187 134 188 187 134 188 187 134 188 187 134 188 187 134 188 187 134 188 187 134 188 187 134 188 187 134 188 187 134 188 187 134 188 187 134 188 187 134 188 187 134 188 187 134 188 187 134 188 187 134 188 187 134 188 187 134 188 187 134 188 187 134 188 187 134 188 187 134 0 0 255 0 0 255 192 199 159 192 199 159 192 199 159 192 199 159 192 199 159 192 199 159 192 199 159 192 199 159 192 199 159 192 199 159 192 199 159 192 199 159 192 199 159 192 199 159 192 199 159 192 199 159 192 199 159 192 199 159 192 199 159 192 199 159 192 199 159 192 199 159 192 199 159 192 199 159 192 199 159 192 199 159 192 199 159 192 199 159 192 199 159 192 199 159 192 199 159 192 199 159 192 199 159 192 199 159 192 199 159 192 199 159 192 199 159 192 199 159 192 199 159 192 199 159 192 199 159 192 199 159 192 199 159 192 199 159 192 199 159 192 199 159 192 199 159 192 199 159 192 199 159 192 199 159 192 199 159 192 199 159 192 199 159 0 0 255 0 0 255 194 201 169 194 201 169 194 201 169 194 201 169 194 201 169 194 201 169 194 201 169 194 201 169 194 201 169 194 201 169 194 201 169 194 201 169 194 201 169 194 201 169 194 201 169 194 201 169 194 201 169 194 201 169 194 201 169 194 201 169 194 201 169 194 201 169 194 201 169 194 201 169 194 201 169 194 201 169 194 201 169 194 201 169 194 201 169 194 201 169 194 201 169 194 201 169 194 201 169 194 201 169 194 201 169 194 201 169 194 201 169 194 201 169 194 201 169 194 201 169 194 201 169 194 201 169 0 0 255 0 0 255 192 201 168 192 201 168 192 201 168 192 201 168 192 201 168 192 201 168 192 201 168 192 201 168 192 201 168 192 201 168 192 201 168 192 201 168 192 201 168 192 201 168 192 201 168 192 201 168 192 201 168 192 201 168 192 201 168 192 201 168 192 201 168 192 201 168 192 201 168 192 201 168 192 201 168 192 201 168 192 201 168 192 201 168 192 201 168 192 201 168 192 201 168 192 201 168 192 201 168 192 201 168 192 201 168 192 201 168 192 201 168 192 201 168 192 201 168 192 201 168 192 201 168 192 201 168 192 201 168 192 201 168 192 201 168 192 201 168 192 201 168 192 201 168 192 201 168 192 201 168 0 0 255 0 0 255 194 199 167 194 199 167 194 199 167 194 199 167 194 199 167 194 199 167 194 199 167 194 199 167 194 199 167 194 199 167 194 199 167 194 199 167 194 199 167 194 199 167 194 199 167 194 199 167 194 199 167 194 199 167 194 199 167 194 199 167 194 199 167 194 199 167 194 199 167 194 199 167 194 199 167 194 199 167 194 199 167 194 199 167 194 199 167 194 199 167 194 199 167 194 199 167 194 199 167 194 199 167 194 199 167 194 199 167 194 199 167 194 199 167 194 199 167 194 199 167 194 199 167 194 199 167 194 199 167 194 199 167 194 199 167 194 199 167 194 199 167 194 199 167 194 199 167 194 199 167 194 199 167 194 199 167 194 199 167 194 199 167 194 199 167 188 187 134 188 187 134 188 187 134 188 187 134 188 187 134 188 187 134 188 187 134 188 187 134 188 187 134 188 187 134 188 187 134 188 187 134 188 187 134 188 187 134 188 187 134 188 187 134 188 187 134 188 187 134 188 187 134 188 187 134 188 187 134 188 187 134 188 187 134 188 187 134 188 187 134 188 187 134 188 187 134 188 187 134 188 187 134 188 187 134 188 187 134 188 187 134 188 187 134 188 187 134 188 187 134 188 187 134 188 187 134 188 187 134 188 187 134 188 187 134 188 187 134 188 187 134 188 187 134 188 187 134 188 187 134 188 187 134 188 187 134 188 187 134 0 0 255 0 0 255 192 199 159 192 199 159 192 199 159 192 199 159 192 199 159 192 199 159 192 199 159 192 199 159 192 199 159 192 199 159 192 199 159 192 199 159 192 199 159 192 199 159 192 199 159 192 199 159 192 199 159 192 199 159 192 199 159 192 199 159 192 199 159 192 199 159 192 199 159 192 199 159 192 199 159 192 199 159 192 199 159 192 199 159 192 199 159 192 199 159 192 199 159 192 199 159 192 199 159 192 199 159 192 199 159 192 199 159 192 199 159 192 199 159 192 199 159 192 199 159 192 199 159 192 199 159 192 199 159 192 199 159 192 199 159 192 199 159 192 199 159 192 199 159 192 199 159 192 199 159 192 199 159 192 199 159 192 199 159 192 199 159 0 0 255 0 0 255 194 201 169 194 201 169 194 201 169 194 201 169 194 201 169 194 201 169 194 201 169 194 201 169 194 201 169 194 201 169 194 201 169 194 201 169 194 201 169 194 201 169 194 201 169 194 201 169 194 201 169 194 201 169 194 201 169 194 201 169 194 201 169 194 201 169 194 201 169 194 201 169 194 201 169 194 201 169 194 201 169 194 201 169 194 201 169 194 201 169 194 201 169 194 201 169 194 201 169 194 201 169 194 201 169 194 201 169 194 201 169 194 201 169 194 201 169 194 201 169 194 201 169 0 0 255 0 0 255 192 201 168 192 201 168 192 201 168 192 201 168 192 201 168 192 201 168 192 201 168 192 201 168 192 201 168 192 201 168 192 201 168 192 201 168 192 201 168 192 201 168 192 201 168 192 201 168 192 201 168 192 201 168 192 201 168 192 201 168 192 201 168 192 201 168 192 201 168 192 201 168 192 201 168 192 201 168 192 201 168 192 201 168 192 201 168 192 201 168 192 201 168 192 201 168 192 201 168 192 201 168 192 201 168 192 201 168 192 201 168 192 201 168 192 201 168 192 201 168 192 201 168 192 201 168 192 201 168 192 201 168 192 201 168 192 201 168 192 201 168 192 201 168 192 201 168 192 201 168 0 0 255 0 0 255 194 199 167 194 199 167 194 199 167 194 199 167 194 199 167 194 199 167 194 199 167 194 199 167 194 199 167 194 199 167 194 199 167 194 199 167 194 199 167 194 199 167 194 199 167 194 199 167 194 199 167 194 199 167 194 199 167 194 199 167 194 199 167 194 199 167 194 199 167 194 199 167 194 199 167 194 199 167 194 199 167 194 199 167 194 199 167 194 199 167 194 199 167 194 199 167 194 199 167 194 199 167 194 199 167 194 199 167 194 199 167 194 199 167 194 199 167 194 199 167 194 199 167 194 199 167 194 199 167 194 199 167 194 199 167 194 199 167 194 199 167 194 199 167 194 199 167 194 199 167 194 199 167 194 199 167 194 199 167 194 199 167 194 199 167 188 187 134 188 187 134 188 187 134 188 187 134 188 187 134 188 187 134 188 187 134 188 187 134 188 187 134 188 187 134 188 187 134 188 187 134 188 187 134 188 187 134 188 187 134 188 187 134 188 187 134 188 187 134 188 187 134 188 187 134 188 187 134 188 187 134 188 187 134 188 187 134 188 187 134 188 187 134 188 187 134 188 187 134 188 187 134 188 187 134 188 187 134 188 187 134 188 187 134 188 187 134 188 187 134 188 187 134 188 187 134 188 187 134 188 187 134 188 187 134 188 187 134 188 187 134 188 187 134 188 187 134 188 187 134 188 187 134 188 187 134 188 187 134 0 0 255 0 0 255 192 199 159 192 199 159 192 199 159 192 199 159 192 199 159 192 199 159 192 199 159 192 199 159 192 199 159 192 199 159 192 199 159 192 199 159 192 199 159 192 199 159 192 199 159 192 199 159 192 199 159 192 199 159 192 199 159 192 199 159 192 199 159 192 199 159 192 199 159 192 199 159 192 199 159 192 199 159 192 199 159 192 199 159 192 199 159 192 199 159 192 199 159 192 199 159 192 199 159 192 199 159 192 199 159 192 199 159 192 199 159 192 199 159 192 199 159 192 199 159 192 199 159 192 199 159 192 199 159 192 199 159 192 199 159 192 199 159 192 199 159 192 199 159 192 199 159 192 199 159 192 199 159 192 199 159 192 199 159 192 199 159 0 0 255 0 0 255 194 201 169 194 201 169 194 201 169 194 201 169 194 201 169 194 201 169 194 201 169 194 201 169 194 201 169 194 201 169 194 201 169 194 201 169 194 201 169 194 201 169 194 201 169 194 201 169 194 201 169 194 201 169 194 201 169 194 201 169 194 201 169 194 201 169 194 201 169 194 201 169 194 201 169 194 201 169 194 201 169 194 201 169 194 201 169 194 201 169 194 201 169 194 201 169 194 201 169 194 201 169 194 201 169 194 201 169 194 201 169 194 201 169 194 201 169 194 201 169 0 0 255 0 0 255 192 201 168 192 201 168 192 201 168 192 201 168 192 201 168 192 201 168 192 201 168 192 201 168 192 201 168 192 201 168 192 201 168 192 201 168 192 201 168 192 201 168 192 201 168 192 201 168 192 201 168 192 201 168 192 201 168 192 201 168 192 201 168 192 201 168 192 201 168 192 201 168 192 201 168 192 201 168 192 201 168 192 201 168 192 201 168 192 201 168 192 201 168 192 201 168 192 201 168 192 201 168 192 201 168 192 201 168 192 201 168 192 201 168 192 201 168 192 201 168 192 201 168 192 201 168 192 201 168 192 201 168 192 201 168 192 201 168 192 201 168 192 201 168 192 201 168 192 201 168 192 201 168 0 0 255 0 0 255 194 199 167 194 199 167 194 199 167 194 199 167 194 199 167 194 199 167 194 199 167 194 199 167 194 199 167 194 199 167 194 199 167 194 199 167 194 199 167 194 199 167 194 199 167 194 199 167 194 199 167 194 199 167 194 199 167 194 199 167 194 199 167 194 199 167 194 199 167 194 199 167 194 199 167 194 199 167 194 199 167 194 199 167 194 199 167 194 199 167 194 199 167 194 199 167 194 199 167 194 199 167 194 199 167 194 199 167 194 199 167 194 199 167 194 199 167 194 199 167 194 199 167 194 199 167 194 199 167 194 199 167 194 199 167 194 199 167 194 199 167 194 199 167 194 199 167 194 199 167 194 199 167 194 199 167 194 199 167 194 199 167 194 199 167 188 187 134 188 187 134 188 187 134 188 187 134 188 187 134 188 187 134 188 187 134 188 187 134 188 187 134 188 187 134 188 187 134 188 187 134 188 187 134 188 187 134 188 187 134 188 187 134 188 187 134 188 187 134 188 187 134 188 187 134 188 187 134 188 187 134 188 187 134 188 187 134 188 187 134 188 187 134 188 187 134 188 187 134 188 187 134 188 187 134 188 187 134 188 187 134 188 187 134 188 187 134 188 187 134 188 187 134 188 187 134 188 187 134 188 187 134 188 187 134 188 187 134 188 187 134 188 187 134 188 187 134 188 187 134 188 187 134 188 187 134 188 187 134 0 0 255 0 0 255 192 199 159 192 199 159 192 199 159 192 199 159 192 199 159 192 199 159 192 199 159 192 199 159 192 199 159 192 199 159 192 199 159 192 199 159 192 199 159 192 199 159 192 199 159 192 199 159 192 199 159 192 199 159 192 199 159 192 199 159 192 199 159 192 199 159 192 199 159 192 199 159 192 199 159 192 199 159 192 199 159 192 199 159 192 199 159 192 199 159 192 199 159 192 199 159 192 199 159 192 199 159 192 199 159 192 199 159 192 199 159 192 199 159 192 199 159 192 199 159 192 199 159 192 199 159 192 199 159 192 199 159 192 199 159 192 199 159 192 199 159 192 199 159 192 199 159 192 199 159 192 199 159 192 199 159 192 199 159 192 199 159 0 0 255 0 0 255 194 201 169 194 201 169 194 201 169 194 201 169 194 201 169 194 201 169 194 201 169 194 201 169 194 201 169 194 201 169 194 201 169 194 201 169 194 201 169 194 201 169 194 201 169 194 201 169 194 201 169 194 201 169 194 201 169 194 201 169 194 201 169 194 201 169 194 201 169 194 201 169 194 201 169 194 201 169 194 201 169 194 201 169 194 201 169 194 201 169 194 201 169 194 201 169 194 201 169 194 201 169 194 201 169 194 201 169 194 201 169 194 201 169 194 201 169 194 201 169 0 0 255 0 0 255 192 201 168 192 201 168 192 201 168 192 201 168 192 201 168 192 201 168 192 201 168 192 201 168 192 201 168 192 201 168 192 201 168 192 201 168 192 201 168 192 201 168 192 201 168 192 201 168 192 201 168 192 201 168 192 201 168 192 201 168 192 201 168 192 201 168 192 201 168 192 201 168 192 201 168 192 201 168 192 201 168 192 201 168 192 201 168 192 201 168 192 201 168 192 201 168 192 201 168 192 201 168 192 201 168 192 201 168 192 201 168 192 201 168 192 201 168 192 201 168 192 201 168 192 201 168 192 201 168 192 201 168 192 201 168 192 201 168 192 201 168 192 201 168 192 201 168 192 201 168 192 201 168 0 0 255 0 0 255 194 199 167 194 199 167 194 199 167 194 199 167 194 199 167 194 199 167 194 199 167 194 199 167 194 199 167 194 199 167 194 199 167 194 199 167 194 199 167 194 199 167 194 199 167 194 199 167 194 199 167 194 199 167 194 199 167 194 199 167 194 199 167 194 199 167 194 199 167 194 199 167 194 199 167 194 199 167 194 199 167 194 199 167 194 199 167 194 199 167 194 199 167 194 199 167 194 199 167 194 199 167 194 199 167 194 199 167 194 199 167 194 199 167 194 199 167 194 199 167 194 199 167 194 199 167 194 199 167 194 199 167 194 199 167 194 199 167 194 199 167 194 199 167 194 199 167 194 199 167 194 199 167 194 199 167 194 199 167 194 199 167 194 199 167 188 187 134 188 187 134 188 187 134 188 187 134 188 187 134 188 187 134 188 187 134 188 187 134 188 187 134 188 187 134 188 187 134 188 187 134 188 187 134 188 187 134 188 187 134 188 187 134 188 187 134 188 187 134 188 187 134 188 187 134 188 187 134 188 187 134 188 187 134 188 187 134 188 187 134 188 187 134 188 187 134 188 187 134 188 187 134 188 187 134 188 187 134 188 187 134 188 187 134 188 187 134 188 187 134 188 187 134 188 187 134 188 187 134 188 187 134 188 187 134 188 187 134 188 187 134 188 187 134 188 187 134 188 187 134 188 187 134 188 187 134 188 187 134 0 0 255 0 0 255 192 199 159 192 199 159 192 199 159 192 199 159 192 199 159 192 199 159 192 199 159 192 199 159 192 199 159 192 199 159 192 199 159 192 199 159 192 199 159 192 199 159 192 199 159 192 199 159 192 199 159 192 199 159 192 199 159 192 199 159 192 199 159 192 199 159 192 199 159 192 199 159 192 199 159 192 199 159 192 199 159 192 199 159 192 199 159 192 199 159 192 199 159 192 199 159 192 199 159 192 199 159 192 199 159 192 199 159 192 199 159 192 199 159 192 199 159 192 199 159 192 199 159 192 199 159 192 199 159 192 199 159 192 199 159 192 199 159 192 199 159 192 199 159 192 199 159 192 199 159 192 199 159 192 199 159 192 199 159 192 199 159 192 199 159 0 0 255 0 0 255 194 201 169 194 201 169 194 201 169 194 201 169 194 201 169 194 201 169 194 201 169 194 201 169 194 201 169 194 201 169 194 201 169 194 201 169 194 201 169 194 201 169 194 201 169 194 201 169 194 201 169 194 201 169 194 201 169 194 201 169 194 201 169 194 201 169 194 201 169 194 201 169 194 201 169 194 201 169 194 201 169 194 201 169 194 201 169 194 201 169 194 201 169 194 201 169 194 201 169 194 201 169 194 201 169 194 201 169 194 201 169 194 201 169 194 201 169 0 0 255 0 0 255 192 201 168 192 201 168 192 201 168 192 201 168 192 201 168 192 201 168 192 201 168 192 201 168 192 201 168 192 201 168 192 201 168 192 201 168 192 201 168 192 201 168 192 201 168 192 201 168 192 201 168 192 201 168 192 201 168 192 201 168 192 201 168 192 201 168 192 201 168 192 201 168 192 201 168 192 201 168 192 201 168 192 201 168 192 201 168 192 201 168 192 201 168 192 201 168 192 201 168 192 201 168 192 201 168 192 201 168 192 201 168 192 201 168 192 201 168 192 201 168 192 201 168 192 201 168 192 201 168 192 201 168 192 201 168 192 201 168 192 201 168 192 201 168 192 201 168 192 201 168 192 201 168 0 0 255 0 0 255 194 199 167 194 199 167 194 199 167 194 199 167 194 199 167 194 199 167 194 199 167 194 199 167 194 199 167 194 199 167 194 199 167 194 199 167 194 199 167 194 199 167 194 199 167 194 199 167 194 199 167 194 199 167 194 199 167 194 199 167 194 199 167 194 199 167 194 199 167 194 199 167 194 199 167 194 199 167 194 199 167 194 199 167 194 199 167 194 199 167 194 199 167 194 199 167 194 199 167 194 199 167 194 199 167 194 199 167 194 199 167 194 199 167 194 199 167 194 199 167 194 199 167 194 199 167 194 199 167 194 199 167 194 199 167 194 199 167 194 199 167 194 199 167 194 199 167 194 199 167 194 199 167 194 199 167 194 199 167 194 199 167 194 199 167 188 187 134 188 187 134 188 187 134 188 187 134 188 187 134 188 187 134 188 187 134 188 187 134 188 187 134 188 187 134 188 187 134 188 187 134 188 187 134 188 187 134 188 187 134 188 187 134 188 187 134 188 187 134 188 187 134 188 187 134 188 187 134 188 187 134 188 187 134 188 187 134 188 187 134 188 187 134 188 187 134 188 187 134 188 187 134 188 187 134 188 187 134 188 187 134 188 187 134 188 187 134 188 187 134 188 187 134 188 187 134 188 187 134 188 187 134 188 187 134 188 187 134 188 187 134 188 187 134 188 187 134 188 187 134 188 187 134 188 187 134 188 187 134 188 187 134 0 0 255 0 0 255 192 199 159 192 199 159 192 199 159 192 199 159 192 199 159 192 199 159 192 199 159 192 199 159 192 199 159 192 199 159 192 199 159 192 199 159 192 199 159 192 199 159 192 199 159 192 199 159 192 199 159 192 199 159 192 199 159 192 199 159 192 199 159 192 199 159 192 199 159 192 199 159 192 199 159 192 199 159 192 199 159 192 199 159 192 199 159 192 199 159 192 199 159 192 199 159 192 199 159 192 199 159 192 199 159 192 199 159 192 199 159 192 199 159 192 199 159 192 199 159 192 199 159 192 199 159 192 199 159 192 199 159 192 199 159 192 199 159 192 199 159 192 199 159 192 199 159 192 199 159 192 199 159 192 199 159 192 199 159 192 199 159 0 0 255 0 0 255 194 201 169 194 201 169 194 201 169 194 201 169 194 201 169 194 201 169 194 201 169 194 201 169 194 201 169 194 201 169 194 201 169 194 201 169 194 201 169 194 201 169 194 201 169 194 201 169 194 201 169 194 201 169 194 201 169 194 201 169 194 201 169 194 201 169 194 201 169 194 201 169 194 201 169 194 201 169 194 201 169 194 201 169 194 201 169 194 201 169 194 201 169 194 201 169 194 201 169 194 201 169 194 201 169 194 201 169 194 201 169 194 201 169 0 0 255 0 0 255 192 201 168 192 201 168 192 201 168 192 201 168 192 201 168 192 201 168 192 201 168 192 201 168 192 201 168 192 201 168 192 201 168 192 201 168 192 201 168 192 201 168 192 201 168 192 201 168 192 201 168 192 201 168 192 201 168 192 201 168 192 201 168 192 201 168 192 201 168 192 201 168 192 201 168 192 201 168 192 201 168 192 201 168 192 201 168 192 201 168 192 201 168 192 201 168 192 201 168 192 201 168 192 201 168 192 201 168 192 201 168 192 201 168 192 201 168 192 201 168 192 201 168 192 201 168 192 201 168 192 201 168 192 201 168 192 201 168 192 201 168 192 201 168 192 201 168 192 201 168 192 201 168 192 201 168 0 0 255 0 0 255 194 199 167 194 199 167 194 199 167 194 199 167 194 199 167 194 199 167 194 199 167 194 199 167 194 199 167 194 199 167 194 199 167 194 199 167 194 199 167 194 199 167 194 199 167 194 199 167 194 199 167 194 199 167 194 199 167 194 199 167 194 199 167 194 199 167 194 199 167 194 199 167 194 199 167 194 199 167 194 199 167 194 199 167 194 199 167 194 199 167 194 199 167 194 199 167 194 199 167 194 199 167 194 199 167 194 199 167 194 199 167 194 199 167 194 199 167 194 199 167 194 199 167 194 199 167 194 199 167 194 199 167 194 199 167 194 199 167 194 199 167 194 199 167 194 199 167 194 199 167 194 199 167 194 199 167 194 199 167 194 199 167 194 199 167 188 187 134 188 187 134 188 187 134 188 187 134 188 187 134 188 187 134 188 187 134 188 187 134 188 187 134 188 187 134 188 187 134 188 187 134 188 187 134 188 187 134 188 187 134 188 187 134 188 187 134 188 187 134 188 187 134 188 187 134 188 187 134 188 187 134 188 187 134 188 187 134 188 187 134 188 187 134 188 187 134 188 187 134 188 187 134 188 187 134 188 187 134 188 187 134 188 187 134 188 187 134 188 187 134 188 187 134 188 187 134 188 187 134 188 187 134 188 187 134 188 187 134 188 187 134 188 187 134 188 187 134 188 187 134 188 187 134 188 187 134 188 187 134 188 187 134 0 0 255 0 0 255 192 199 159 192 199 159 192 199 159 192 199 159 192 199 159 192 199 159 192 199 159 192 199 159 192 199 159 192 199 159 192 199 159 192 199 159 192 199 159 192 199 159 192 199 159 192 199 159 192 199 159 192 199 159 192 199 159 192 199 159 192 199 159 192 199 159 192 199 159 192 199 159 192 199 159 192 199 159 192 199 159 192 199 159 192 199 159 192 199 159 192 199 159 192 199 159 192 199 159 192 199 159 192 199 159 192 199 159 192 199 159 192 199 159 192 199 159 192 199 159 192 199 159 192 199 159 192 199 159 192 199 159 192 199 159 192 199 159 192 199 159 192 199 159 192 199 159 192 199 159 192 199 159 192 199 159 192 199 159 192 199 159 0 0 255 0 0 255 194 201 169 194 201 169 194 201 169 194 201 169 194 201 169 194 201 169 194 201 169 194 201 169 194 201 169 194 201 169 194 201 169 194 201 169 194 201 169 194 201 169 194 201 169 194 201 169 194 201 169 194 201 169 194 201 169 194 201 169 194 201 169 194 201 169 194 201 169 194 201 169 194 201 169 194 201 169 194 201 169 194 201 169 194 201 169 194 201 169 194 201 169 194 201 169 194 201 169 194 201 169 194 201 169 194 201 169 194 201 169 194 201 169 0 0 255 0 0 255 192 201 168 192 201 168 192 201 168 192 201 168 192 201 168 192 201 168 192 201 168 192 201 168 192 201 168 192 201 168 192 201 168 192 201 168 192 201 168 192 201 168 192 201 168 192 201 168 192 201 168 192 201 168 192 201 168 192 201 168 192 201 168 192 201 168 192 201 168 192 201 168 192 201 168 192 201 168 192 201 168 192 201 168 192 201 168 192 201 168 192 201 168 192 201 168 192 201 168 192 201 168 192 201 168 192 201 168 192 201 168 192 201 168 192 201 168 192 201 168 192 201 168 192 201 168 192 201 168 192 201 168 192 201 168 192 201 168 192 201 168 192 201 168 192 201 168 192 201 168 192 201 168 192 201 168 0 0 255 0 0 255 194 199 167 194 199 167 194 199 167 194 199 167 194 199 167 194 199 167 194 199 167 194 199 167 194 199 167 194 199 167 194 199 167 194 199 167 194 199 167 194 199 167 194 199 167 194 199 167 194 199 167 194 199 167 194 199 167 194 199 167 194 199 167 194 199 167 194 199 167 194 199 167 194 199 167 194 199 167 194 199 167 194 199 167 194 199 167 194 199 167 194 199 167 194 199 167 194 199 167 194 199 167 194 199 167 194 199 167 194 199 167 194 199 167 194 199 167 194 199 167 194 199 167 194 199 167 194 199 167 194 199 167 194 199 167 194 199 167 194 199 167 194 199 167 194 199 167 194 199 167 194 199 167 194 199 167 194 199 167 194 199 167 194 199 167 188 187 134 188 187 134 188 187 134 188 187 134 188 187 134 188 187 134 188 187 134 188 187 134 188 187 134 188 187 134 188 187 134 188 187 134 188 187 134 188 187 134 188 187 134 188 187 134 188 187 134 188 187 134 188 187 134 188 187 134 188 187 134 188 187 134 188 187 134 188 187 134 188 187 134 188 187 134 188 187 134 188 187 134 188 187 134 188 187 134 188 187 134 188 187 134 188 187 134 188 187 134 188 187 134 188 187 134 188 187 134 188 187 134 188 187 134 188 187 134 188 187 134 188 187 134 188 187 134 188 187 134 188 187 134 188 187 134 188 187 134 188 187 134 188 187 134 0 0 255 0 0 255 192 199 159 192 199 159 192 199 159 192 199 159 192 199 159 192 199 159 192 199 159 192 199 159 192 199 159 192 199 159 192 199 159 192 199 159 192 199 159 192 199 159 192 199 159 192 199 159 192 199 159 192 199 159 192 199 159 192 199 159 192 199 159 192 199 159 192 199 159 192 199 159 192 199 159 192 199 159 192 199 159 192 199 159 192 199 159 192 199 159 192 199 159 192 199 159 192 199 159 192 199 159 192 199 159 192 199 159 192 199 159 192 199 159 192 199 159 192 199 159 192 199 159 192 199 159 192 199 159 192 199 159 192 199 159 192 199 159 192 199 159 192 199 159 192 199 159 192 199 159 192 199 159 192 199 159 192 199 159 192 199 159 0 0 255 0 0 255 194 201 169 194 201 169 194 201 169 194 201 169 194 201 169 194 201 169 194 201 169 194 201 169 194 201 169 194 201 169 194 201 169 194 201 169 194 201 169 194 201 169 194 201 169 194 201 169 194 201 169 194 201 169 194 201 169 194 201 169 194 201 169 194 201 169 194 201 169 194 201 169 194 201 169 194 201 169 194 201 169 194 201 169 194 201 169 194 201 169 194 201 169 194 201 169 194 201 169 194 201 169 194 201 169 194 201 169 194 201 169 0 0 255 0 0 255 192 201 168 192 201 168 192 201 168 192 201 168 192 201 168 192 201 168 192 201 168 192 201 168 192 201 168 192 201 168 192 201 168 192 201 168 192 201 168 192 201 168 192 201 168 192 201 168 192 201 168 192 201 168 192 201 168 192 201 168 192 201 168 192 201 168 192 201 168 192 201 168 192 201 168 192 201 168 192 201 168 192 201 168 192 201 168 192 201 168 192 201 168 192 201 168 192 201 168 192 201 168 192 201 168 192 201 168 192 201 168 192 201 168 192 201 168 192 201 168 192 201 168 192 201 168 192 201 168 192 201 168 192 201 168 192 201 168 192 201 168 192 201 168 192 201 168 192 201 168 192 201 168 192 201 168 192 201 168 0 0 255 0 0 255 194 199 167 194 199 167 194 199 167 194 199 167 194 199 167 194 199 167 194 199 167 194 199 167 194 199 167 194 199 167 194 199 167 194 199 167 194 199 167 194 199 167 194 199 167 194 199 167 194 199 167 194 199 167 194 199 167 194 199 167 194 199 167 194 199 167 194 199 167 194 199 167 194 199 167 194 199 167 194 199 167 194 199 167 194 199 167 194 199 167 194 199 167 194 199 167 194 199 167 194 199 167 194 199 167 194 199 167 194 199 167 194 199 167 194 199 167 194 199 167 194 199 167 194 199 167 194 199 167 194 199 167 194 199 167 194 199 167 194 199 167 194 199 167 194 199 167 194 199 167 194 199 167 194 199 167 194 199 167 194 199 167 194 199 167 188 187 134 188 187 134 188 187 134 188 187 134 188 187 134 188 187 134 188 187 134 188 187 134 188 187 134 188 187 134 188 187 134 188 187 134 188 187 134 188 187 134 188 187 134 188 187 134 188 187 134 188 187 134 188 187 134 188 187 134 188 187 134 188 187 134 188 187 134 188 187 134 188 187 134 188 187 134 188 187 134 188 187 134 188 187 134 188 187 134 188 187 134 188 187 134 188 187 134 188 187 134 188 187 134 188 187 134 188 187 134 188 187 134 188 187 134 188 187 134 188 187 134 188 187 134 188 187 134 188 187 134 188 187 134 188 187 134 188 187 134 188 187 134 188 187 134 0 0 255 0 0 255 192 199 159 192 199 159 192 199 159 192 199 159 192 199 159 192 199 159 192 199 159 192 199 159 192 199 159 192 199 159 192 199 159 192 199 159 192 199 159 192 199 159 192 199 159 192 199 159 192 199 159 192 199 159 192 199 159 192 199 159 192 199 159 192 199 159 192 199 159 192 199 159 192 199 159 192 199 159 192 199 159 192 199 159 192 199 159 192 199 159 192 199 159 192 199 159 192 199 159 192 199 159 192 199 159 192 199 159 192 199 159 192 199 159 192 199 159 192 199 159 192 199 159 192 199 159 192 199 159 192 199 159 192 199 159 192 199 159 192 199 159 192 199 159 192 199 159 192 199 159 192 199 159 192 199 159 192 199 159 192 199 159 192 199 159 0 0 255 0 0 255 194 201 169 194 201 169 194 201 169 194 201 169 194 201 169 194 201 169 194 201 169 194 201 169 194 201 169 194 201 169 194 201 169 194 201 169 194 201 169 194 201 169 194 201 169 194 201 169 194 201 169 194 201 169 194 201 169 194 201 169 194 201 169 194 201 169 194 201 169 194 201 169 194 201 169 194 201 169 194 201 169 194 201 169 194 201 169 194 201 169 194 201 169 194 201 169 194 201 169 194 201 169 194 201 169 194 201 169 0 0 255 0 0 255 192 201 168 192 201 168 192 201 168 192 201 168 192 201 168 192 201 168 192 201 168 192 201 168 192 201 168 192 201 168 192 201 168 192 201 168 192 201 168 192 201 168 192 201 168 192 201 168 192 201 168 192 201 168 192 201 168 192 201 168 192 201 168 192 201 168 192 201 168 192 201 168 192 201 168 192 201 168 192 201 168 192 201 168 192 201 168 192 201 168 192 201 168 192 201 168 192 201 168 192 201 168 192 201 168 192 201 168 192 201 168 192 201 168 192 201 168 192 201 168 192 201 168 192 201 168 192 201 168 192 201 168 192 201 168 192 201 168 192 201 168 192 201 168 192 201 168 192 201 168 192 201 168 192 201 168 192 201 168 0 0 255 0 0 255 194 199 167 194 199 167 194 199 167 194 199 167 194 199 167 194 199 167 194 199 167 194 199 167 194 199 167 194 199 167 194 199 167 194 199 167 194 199 167 194 199 167 194 199 167 194 199 167 194 199 167 194 199 167 194 199 167 194 199 167 194 199 167 194 199 167 194 199 167 194 199 167 194 199 167 194 199 167 194 199 167 194 199 167 194 199 167 194 199 167 194 199 167 194 199 167 194 199 167 194 199 167 194 199 167 194 199 167 194 199 167 194 199 167 194 199 167 194 199 167 194 199 167 194 199 167 194 199 167 194 199 167 194 199 167 194 199 167 194 199 167 194 199 167 194 199 167 194 199 167 194 199 167 194 199 167 194 199 167 194 199 167 194 199 167 188 187 134 188 187 134 188 187 134 188 187 134 188 187 134 188 187 134 188 187 134 188 187 134 188 187 134 188 187 134 188 187 134 188 187 134 188 187 134 188 187 134 188 187 134 188 187 134 188 187 134 188 187 134 188 187 134 188 187 134 188 187 134 188 187 134 188 187 134 188 187 134 188 187 134 188 187 134 188 187 134 188 187 134 188 187 134 188 187 134 188 187 134 188 187 134 188 187 134 188 187 134 188 187 134 188 187 134 188 187 134 188 187 134 188 187 134 188 187 134 188 187 134 188 187 134 188 187 134 188 187 134 188 187 134 188 187 134 188 187 134 188 187 134 188 187 134 0 0 255 0 0 255 192 199 159 192 199 159 192 199 159 192 199 159 192 199 159 192 199 159 192 199 159 192 199 159 192 199 159 192 199 159 192 199 159 192 199 159 192 199 159 192 199 159 192 199 159 192 199 159 192 199 159 192 199 159 192 199 159 192 199 159 192 199 159 192 199 159 192 199 159 192 199 159 192 199 159 192 199 159 192 199 159 192 199 159 192 199 159 192 199 159 192 199 159 192 199 159 192 199 159 192 199 159 192 199 159 192 199 159 192 199 159 192 199 159 192 199 159 192 199 159 192 199 159 192 199 159 192 199 159 192 199 159 192 199 159 192 199 159 192 199 159 192 199 159 192 199 159 192 199 159 192 199 159 192 199 159 192 199 159 192 199 159 192 199 159 0 0 255 0 0 255 194 201 169 194 201 169 194 201 169 194 201 169 194 201 169 194 201 169 194 201 169 194 201 169 194 201 169 194 201 169 194 201 169 194 201 169 194 201 169 194 201 169 194 201 169 194 201 169 194 201 169 194 201 169 194 201 169 194 201 169 194 201 169 194 201 169 194 201 169 194 201 169 194 201 169 194 201 169 194 201 169 194 201 169 194 201 169 194 201 169 194 201 169 194 201 169 194 201 169 194 201 169 194 201 169 0 0 255 0 0 255 192 201 168 192 201 168 192 201 168 192 201 168 192 201 168 192 201 168 192 201 168 192 201 168 192 201 168 192 201 168 192 201 168 192 201 168 192 201 168 192 201 168 192 201 168 192 201 168 192 201 168 192 201 168 192 201 168 192 201 168 192 201 168 192 201 168 192 201 168 192 201 168 192 201 168 192 201 168 192 201 168 192 201 168 192 201 168 192 201 168 192 201 168 192 201 168 192 201 168 192 201 168 192 201 168 192 201 168 192 201 168 192 201 168 192 201 168 192 201 168 192 201 168 192 201 168 192 201 168 192 201 168 192 201 168 192 201 168 192 201 168 192 201 168 192 201 168 192 201 168 192 201 168 192 201 168 192 201 168 192 201 168 0 0 255 0 0 255 194 199 167 194 199 167 194 199 167 194 199 167 194 199 167 194 199 167 194 199 167 194 199 167 194 199 167 194 199 167 194 199 167 194 199 167 194 199 167 194 199 167 194 199 167 194 199 167 194 199 167 194 199 167 194 199 167 194 199 167 194 199 167 194 199 167 194 199 167 194 199 167 194 199 167 194 199 167 194 199 167 194 199 167 194 199 167 194 199 167 194 199 167 194 199 167 194 199 167 194 199 167 194 199 167 194 199 167 194 199 167 194 199 167 194 199 167 194 199 167 194 199 167 194 199 167 194 199 167 194 199 167 194 199 167 194 199 167 194 199 167 194 199 167 194 199 167 194 199 167 194 199 167 194 199 167 194 199 167 194 199 167 194 199 167 188 187 134 188 187 134 188 187 134 188 187 134 188 187 134 188 187 134 188 187 134 188 187 134 188 187 134 188 187 134 188 187 134 188 187 134 188 187 134 188 187 134 188 187 134 188 187 134 188 187 134 188 187 134 188 187 134 188 187 134 188 187 134 188 187 134 188 187 134 188 187 134 188 187 134 188 187 134 188 187 134 188 187 134 188 187 134 188 187 134 188 187 134 188 187 134 188 187 134 188 187 134 188 187 134 188 187 134 188 187 134 188 187 134 188 187 134 188 187 134 188 187 134 188 187 134 188 187 134 188 187 134 188 187 134 188 187 134 188 187 134 188 187 134 188 187 134 188 187 134 0 0 255 0 0 255 192 199 159 192 199 159 192 199 159 192 199 159 192 199 159 192 199 159 192 199 159 192 199 159 192 199 159 192 199 159 192 199 159 192 199 159 192 199 159 192 199 159 192 199 159 192 199 159 192 199 159 192 199 159 192 199 159 192 199 159 192 199 159 192 199 159 192 199 159 192 199 159 192 199 159 192 199 159 192 199 159 192 199 159 192 199 159 192 199 159 192 199 159 192 199 159 192 199 159 192 199 159 192 199 159 192 199 159 192 199 159 192 199 159 192 199 159 192 199 159 192 199 159 192 199 159 192 199 159 192 199 159 192 199 159 192 199 159 192 199 159 192 199 159 192 199 159 192 199 159 192 199 159 192 199 159 192 199 159 192 199 159 0 0 255 0 0 255 194 201 169 194 201 169 194 201 169 194 201 169 194 201 169 194 201 169 194 201 169 194 201 169 194 201 169 194 201 169 194 201 169 194 201 169 194 201 169 194 201 169 194 201 169 194 201 169 194 201 169 194 201 169 194 201 169 194 201 169 194 201 169 194 201 169 194 201 169 194 201 169 194 201 169 194 201 169 194 201 169 194 201 169 194 201 169 194 201 169 194 201 169 194 201 169 194 201 169 194 201 169 194 201 169 0 0 255 0 0 255 192 201 168 192 201 168 192 201 168 192 201 168 192 201 168 192 201 168 192 201 168 192 201 168 192 201 168 192 201 168 192 201 168 192 201 168 192 201 168 192 201 168 192 201 168 192 201 168 192 201 168 192 201 168 192 201 168 192 201 168 192 201 168 192 201 168 192 201 168 192 201 168 192 201 168 192 201 168 192 201 168 192 201 168 192 201 168 192 201 168 192 201 168 192 201 168 192 201 168 192 201 168 192 201 168 192 201 168 192 201 168 192 201 168 192 201 168 192 201 168 192 201 168 192 201 168 192 201 168 192 201 168 192 201 168 192 201 168 192 201 168 192 201 168 192 201 168 192 201 168 192 201 168 192 201 168 192 201 168 192 201 168 0 0 255 0 0 255 194 199 167 194 199 167 194 199 167 194 199 167 194 199 167 194 199 167 194 199 167 194 199 167 194 199 167 194 199 167 194 199 167 194 199 167 194 199 167 194 199 167 194 199 167 194 199 167 194 199 167 194 199 167 194 199 167 194 199 167 194 199 167 194 199 167 194 199 167 194 199 167 194 199 167 194 199 167 194 199 167 194 199 167 194 199 167 194 199 167 194 199 167 194 199 167 194 199 167 194 199 167 194 199 167 194 199 167 194 199 167 194 199 167 194 199 167 194 199 167 194 199 167 194 199 167 194 199 167 194 199 167 194 199 167 194 199 167 194 199 167 194 199 167 194 199 167 194 199 167 194 199 167 194 199 167 194 199 167 194 199 167 194 199 167 188 187 134 188 187 134 188 187 134 188 187 134 188 187 134 188 187 134 188 187 134 188 187 134 188 187 134 188 187 134 188 187 134 188 187 134 188 187 134 188 187 134 188 187 134 188 187 134 188 187 134 188 187 134 188 187 134 188 187 134 188 187 134 188 187 134 188 187 134 188 187 134 188 187 134 188 187 134 188 187 134 188 187 134 188 187 134 188 187 134 188 187 134 188 187 134 188 187 134 188 187 134 188 187 134 188 187 134 188 187 134 188 187 134 188 187 134 188 187 134 188 187 134 188 187 134 188 187 134 188 187 134 188 187 134 188 187 134 188 187 134 188 187 134 188 187 134 188 187 134 0 0 255 0 0 255 192 199 159 192 199 159 192 199 159 192 199 159 192 199 159 192 199 159 192 199 159 192 199 159 192 199 159 192 199 159 192 199 159 192 199 159 192 199 159 192 199 159 192 199 159 192 199 159 192 199 159 192 199 159 192 199 159 192 199 159 192 199 159 192 199 159 192 199 159 192 199 159 192 199 159 192 199 159 192 199 159 192 199 159 192 199 159 192 199 159 192 199 159 192 199 159 192 199 159 192 199 159 192 199 159 192 199 159 192 199 159 192 199 159 192 199 159 192 199 159 192 199 159 192 199 159 192 199 159 192 199 159 192 199 159 192 199 159 192 199 159 192 199 159 192 199 159 192 199 159 192 199 159 192 199 159 192 199 159 192 199 159 0 0 255 0 0 255 194 201 169 194 201 169 194 201 169 194 201 169 194 201 169 194 201 169 194 201 169 194 201 169 194 201 169 194 201 169 194 201 169 194 201 169 194 201 169 194 201 169 194 201 169 194 201 169 194 201 169 194 201 169 194 201 169 194 201 169 194 201 169 194 201 169 194 201 169 194 201 169 194 201 169 194 201 169 194 201 169 194 201 169 194 201 169 194 201 169 194 201 169 194 201 169 194 201 169 194 201 169 0 0 255 0 0 255 192 201 168 192 201 168 192 201 168 192 201 168 192 201 168 192 201 168 192 201 168 192 201 168 192 201 168 192 201 168 192 201 168 192 201 168 192 201 168 192 201 168 192 201 168 192 201 168 192 201 168 192 201 168 192 201 168 192 201 168 192 201 168 192 201 168 192 201 168 192 201 168 192 201 168 192 201 168 192 201 168 192 201 168 192 201 168 192 201 168 192 201 168 192 201 168 192 201 168 192 201 168 192 201 168 192 201 168 192 201 168 192 201 168 192 201 168 192 201 168 192 201 168 192 201 168 192 201 168 192 201 168 192 201 168 192 201 168 192 201 168 192 201 168 192 201 168 192 201 168 192 201 168 192 201 168 192 201 168 192 201 168 192 201 168 0 0 255 0 0 255 194 199 167 194 199 167 194 199 167 194 199 167 194 199 167 194 199 167 194 199 167 194 199 167 194 199 167 194 199 167 194 199 167 194 199 167 194 199 167 194 199 167 194 199 167 194 199 167 194 199 167 194 199 167 194 199 167 194 199 167 194 199 167 194 199 167 194 199 167 194 199 167 194 199 167 194 199 167 194 199 167 194 199 167 194 199 167 194 199 167 194 199 167 194 199 167 194 199 167 194 199 167 194 199 167 194 199 167 194 199 167 194 199 167 194 199 167 194 199 167 194 199 167 194 199 167 194 199 167 194 199 167 194 199 167 194 199 167 194 199 167 194 199 167 194 199 167 194 199 167 194 199 167 194 199 167 194 199 167 194 199 167 194 199 167 188 187 134 188 187 134 188 187 134 188 187 134 188 187 134 188 187 134 188 187 134 188 187 134 188 187 134 188 187 134 188 187 134 188 187 134 188 187 134 188 187 134 188 187 134 188 187 134 188 187 134 188 187 134 188 187 134 188 187 134 188 187 134 188 187 134 188 187 134 188 187 134 188 187 134 188 187 134 188 187 134 188 187 134 188 187 134 188 187 134 188 187 134 188 187 134 188 187 134 188 187 134 188 187 134 188 187 134 188 187 134 188 187 134 188 187 134 188 187 134 188 187 134 188 187 134 188 187 134 188 187 134 188 187 134 188 187 134 188 187 134 188 187 134 188 187 134 188 187 134 0 0 255 0 0 255 192 199 159 192 199 159 192 199 159 192 199 159 192 199 159 192 199 159 192 199 159 192 199 159 192 199 159 192 199 159 192 199 159 192 199 159 192 199 159 192 199 159 192 199 159 192 199 159 192 199 159 192 199 159 192 199 159 192 199 159 192 199 159 192 199 159 192 199 159 192 199 159 192 199 159 192 199 159 192 199 159 192 199 159 192 199 159 192 199 159 192 199 159 192 199 159 192 199 159 192 199 159 192 199 159 192 199 159 192 199 159 192 199 159 192 199 159 192 199 159 192 199 159 192 199 159 192 199 159 192 199 159 192 199 159 192 199 159 192 199 159 192 199 159 192 199 159 192 199 159 192 199 159 192 199 159 192 199 159 192 199 159 192 199 159 0 0 255 0 0 255 194 201 169 194 201 169 194 201 169 194 201 169 194 201 169 194 201 169 194 201 169 194 201 169 194 201 169 194 201 169 194 201 169 194 201 169 194 201 169 194 201 169 194 201 169 194 201 169 194 201 169 194 201 169 194 201 169 194 201 169 194 201 169 194 201 169 194 201 169 194 201 169 194 201 169 194 201 169 194 201 169 194 201 169 194 201 169 194 201 169 194 201 169 194 201 169 194 201 169 0 0 255 0 0 255 192 201 168 192 201 168 192 201 168 192 201 168 192 201 168 192 201 168 192 201 168 192 201 168 192 201 168 192 201 168 192 201 168 192 201 168 192 201 168 192 201 168 192 201 168 192 201 168 192 201 168 192 201 168 192 201 168 192 201 168 192 201 168 192 201 168 192 201 168 192 201 168 192 201 168 192 201 168 192 201 168 192 201 168 192 201 168 192 201 168 192 201 168 192 201 168 192 201 168 192 201 168 192 201 168 192 201 168 192 201 168 192 201 168 192 201 168 192 201 168 192 201 168 192 201 168 192 201 168 192 201 168 192 201 168 192 201 168 192 201 168 192 201 168 192 201 168 192 201 168 192 201 168 192 201 168 192 201 168 192 201 168 192 201 168 0 0 255 0 0 255 194 199 167 194 199 167 194 199 167 194 199 167 194 199 167 194 199 167 194 199 167 194 199 167 194 199 167 194 199 167 194 199 167 194 199 167 194 199 167 194 199 167 194 199 167 194 199 167 194 199 167 194 199 167 194 199 167 194 199 167 194 199 167 194 199 167 194 199 167 194 199 167 194 199 167 194 199 167 194 199 167 194 199 167 194 199 167 194 199 167 194 199 167 194 199 167 194 199 167 194 199 167 194 199 167 194 199 167 194 199 167 194 199 167 194 199 167 194 199 167 194 199 167 194 199 167 194 199 167 194 199 167 194 199 167 194 199 167 194 199 167 194 199 167 194 199 167 194 199 167 194 199 167 194 199 167 194 199 167 194 199 167 194 199 167 188 187 134 188 187 134 188 187 134 188 187 134 188 187 134 188 187 134 188 187 134 188 187 134 188 187 134 188 187 134 188 187 134 188 187 134 188 187 134 188 187 134 188 187 134 188 187 134 188 187 134 188 187 134 188 187 134 188 187 134 188 187 134 188 187 134 188 187 134 188 187 134 188 187 134 188 187 134 188 187 134 188 187 134 188 187 134 188 187 134 188 187 134 188 187 134 188 187 134 188 187 134 188 187 134 188 187 134 188 187 134 188 187 134 188 187 134 188 187 134 188 187 134 188 187 134 188 187 134 188 187 134 188 187 134 188 187 134 188 187 134 188 187 134 188 187 134 188 187 134 188 187 134 0 0 255 0 0 255 192 199 159 192 199 159 192 199 159 192 199 159 192 199 159 192 199 159 192 199 159 192 199 159 192 199 159 192 199 159 192 199 159 192 199 159 192 199 159 192 199 159 192 199 159 192 199 159 192 199 159 192 199 159 192 199 159 192 199 159 192 199 159 192 199 159 192 199 159 192 199 159 192 199 159 192 199 159 192 199 159 192 199 159 192 199 159 192 199 159 192 199 159 192 199 159 192 199 159 192 199 159 192 199 159 192 199 159 192 199 159 192 199 159 192 199 159 192 199 159 192 199 159 192 199 159 192 199 159 192 199 159 192 199 159 192 199 159 192 199 159 192 199 159 192 199 159 192 199 159 192 199 159 192 199 159 192 199 159 192 199 159 0 0 255 0 0 255 194 201 169 194 201 169 194 201 169 194 201 169 194 201 169 194 201 169 194 201 169 194 201 169 194 201 169 194 201 169 194 201 169 194 201 169 194 201 169 194 201 169 194 201 169 194 201 169 194 201 169 194 201 169 194 201 169 194 201 169 194 201 169 194 201 169 194 201 169 194 201 169 194 201 169 194 201 169 194 201 169 194 201 169 194 201 169 194 201 169 194 201 169 194 201 169 194 201 169 0 0 255 0 0 255 192 201 168 192 201 168 192 201 168 192 201 168 192 201 168 192 201 168 192 201 168 192 201 168 192 201 168 192 201 168 192 201 168 192 201 168 192 201 168 192 201 168 192 201 168 192 201 168 192 201 168 192 201 168 192 201 168 192 201 168 192 201 168 192 201 168 192 201 168 192 201 168 192 201 168 192 201 168 192 201 168 192 201 168 192 201 168 192 201 168 192 201 168 192 201 168 192 201 168 192 201 168 192 201 168 192 201 168 192 201 168 192 201 168 192 201 168 192 201 168 192 201 168 192 201 168 192 201 168 192 201 168 192 201 168 192 201 168 192 201 168 192 201 168 192 201 168 192 201 168 192 201 168 192 201 168 192 201 168 192 201 168 192 201 168 0 0 255 0 0 255 194 199 167 194 199 167 194 199 167 194 199 167 194 199 167 194 199 167 194 199 167 194 199 167 194 199 167 194 199 167 194 199 167 194 199 167 194 199 167 194 199 167 194 199 167 194 199 167 194 199 167 194 199 167 194 199 167 194 199 167 194 199 167 194 199 167 194 199 167 194 199 167 194 199 167 194 199 167 194 199 167 194 199 167 194 199 167 194 199 167 194 199 167 194 199 167 194 199 167 194 199 167 194 199 167 194 199 167 194 199 167 194 199 167 194 199 167 194 199 167 194 199 167 194 199 167 194 199 167 194 199 167 194 199 167 194 199 167 194 199 167 194 199 167 194 199 167 194 199 167 194 199 167 194 199 167 194 199 167 194 199 167 194 199 167 188 187 134 188 187 134 188 187 134 188 187 134 188 187 134 188 187 134 188 187 134 188 187 134 188 187 134 188 187 134 188 187 134 188 187 134 188 187 134 188 187 134 188 187 134 188 187 134 188 187 134 188 187 134 188 187 134 188 187 134 188 187 134 188 187 134 188 187 134 188 187 134 188 187 134 188 187 134 188 187 134 188 187 134 188 187 134 188 187 134 188 187 134 188 187 134 188 187 134 188 187 134 188 187 134 188 187 134 188 187 134 188 187 134 188 187 134 188 187 134 188 187 134 188 187 134 188 187 134 188 187 134 188 187 134 188 187 134 188 187 134 188 187 134 188 187 134 188 187 134 188 187 134 188 187 134 0 0 255 0 0 255 192 199 159 192 199 159 192 199 159 192 199 159 192 199 159 192 199 159 192 199 159 192 199 159 192 199 159 192 199 159 192 199 159 192 199 159 192 199 159 192 199 159 192 199 159 192 199 159 192 199 159 192 199 159 192 199 159 192 199 159 192 199 159 192 199 159 192 199 159 192 199 159 192 199 159 192 199 159 192 199 159 192 199 159 192 199 159 192 199 159 192 199 159 192 199 159 192 199 159 192 199 159 192 199 159 192 199 159 192 199 159 192 199 159 192 199 159 192 199 159 192 199 159 192 199 159 192 199 159 192 199 159 192 199 159 192 199 159 192 199 159 192 199 159 192 199 159 192 199 159 192 199 159 192 199 159 192 199 159 192 199 159 0 0 255 0 0 255 194 201 169 194 201 169 194 201 169 194 201 169 194 201 169 194 201 169 194 201 169 194 201 169 194 201 169 194 201 169 194 201 169 194 201 169 194 201 169 194 201 169 194 201 169 194 201 169 194 201 169 194 201 169 194 201 169 194 201 169 194 201 169 194 201 169 194 201 169 194 201 169 194 201 169 194 201 169 194 201 169 194 201 169 194 201 169 194 201 169 194 201 169 0 0 255 0 0 255 192 201 168 192 201 168 192 201 168 192 201 168 192 201 168 192 201 168 192 201 168 192 201 168 192 201 168 192 201 168 192 201 168 192 201 168 192 201 168 192 201 168 192 201 168 192 201 168 192 201 168 192 201 168 192 201 168 192 201 168 192 201 168 192 201 168 192 201 168 192 201 168 192 201 168 192 201 168 192 201 168 192 201 168 192 201 168 192 201 168 192 201 168 192 201 168 192 201 168 192 201 168 192 201 168 192 201 168 192 201 168 192 201 168 192 201 168 192 201 168 192 201 168 192 201 168 192 201 168 192 201 168 192 201 168 192 201 168 192 201 168 192 201 168 192 201 168 192 201 168 192 201 168 192 201 168 192 201 168 192 201 168 192 201 168 192 201 168 0 0 255 0 0 255 194 199 167 194 199 167 194 199 167 194 199 167 194 199 167 194 199 167 194 199 167 194 199 167 194 199 167 194 199 167 194 199 167 194 199 167 194 199 167 194 199 167 194 199 167 194 199 167 194 199 167 194 199 167 194 199 167 194 199 167 194 199 167 194 199 167 194 199 167 194 199 167 194 199 167 194 199 167 194 199 167 194 199 167 194 199 167 194 199 167 194 199 167 194 199 167 194 199 167 194 199 167 194 199 167 194 199 167 194 199 167 194 199 167 194 199 167 194 199 167 194 199 167 194 199 167 194 199 167 194 199 167 194 199 167 194 199 167 194 199 167 194 199 167 194 199 167 194 199 167 194 199 167 194 199 167 194 199 167 194 199 167 194 199 167 188 187 134 188 187 134 188 187 134 188 187 134 188 187 134 188 187 134 188 187 134 188 187 134 188 187 134 188 187 134 188 187 134 188 187 134 188 187 134 188 187 134 188 187 134 188 187 134 188 187 134 188 187 134 188 187 134 188 187 134 188 187 134 188 187 134 188 187 134 188 187 134 188 187 134 188 187 134 188 187 134 188 187 134 188 187 134 188 187 134 188 187 134 188 187 134 188 187 134 188 187 134 188 187 134 188 187 134 188 187 134 188 187 134 188 187 134 188 187 134 188 187 134 188 187 134 188 187 134 188 187 134 188 187 134 188 187 134 188 187 134 188 187 134 188 187 134 188 187 134 188 187 134 188 187 134 0 0 255 0 0 255 192 199 159 192 199 159 192 199 159 192 199 159 192 199 159 192 199 159 192 199 159 192 199 159 192 199 159 192 199 159 192 199 159 192 199 159 192 199 159 192 199 159 192 199 159 192 199 159 192 199 159 192 199 159 192 199 159 192 199 159 192 199 159 192 199 159 192 199 159 192 199 159 192 199 159 192 199 159 192 199 159 192 199 159 192 199 159 192 199 159 192 199 159 192 199 159 192 199 159 192 199 159 192 199 159 192 199 159 192 199 159 192 199 159 192 199 159 192 199 159 192 199 159 192 199 159 192 199 159 192 199 159 192 199 159 192 199 159 192 199 159 192 199 159 192 199 159 192 199 159 192 199 159 192 199 159 192 199 159 192 199 159 0 0 255 0 0 255 194 201 169 194 201 169 194 201 169 194 201 169 194 201 169 194 201 169 194 201 169 194 201 169 194 201 169 194 201 169 194 201 169 194 201 169 194 201 169 194 201 169 194 201 169 194 201 169 194 201 169 194 201 169 194 201 169 194 201 169 194 201 169 194 201 169 194 201 169 194 201 169 194 201 169 194 201 169 194 201 169 194 201 169 194 201 169 194 201 169 194 201 169 0 0 255 0 0 255 192 201 168 192 201 168 192 201 168 192 201 168 192 201 168 192 201 168 192 201 168 192 201 168 192 201 168 192 201 168 192 201 168 192 201 168 192 201 168 192 201 168 192 201 168 192 201 168 192 201 168 192 201 168 192 201 168 192 201 168 192 201 168 192 201 168 192 201 168 192 201 168 192 201 168 192 201 168 192 201 168 192 201 168 192 201 168 192 201 168 192 201 168 192 201 168 192 201 168 192 201 168 192 201 168 192 201 168 192 201 168 192 201 168 192 201 168 192 201 168 192 201 168 192 201 168 192 201 168 192 201 168 192 201 168 192 201 168 192 201 168 192 201 168 192 201 168 192 201 168 192 201 168 192 201 168 192 201 168 192 201 168 192 201 168 192 201 168 0 0 255 0 0 255 194 199 167 194 199 167 194 199 167 194 199 167 194 199 167 194 199 167 194 199 167 194 199 167 194 199 167 194 199 167 194 199 167 194 199 167 194 199 167 194 199 167 194 199 167 194 199 167 194 199 167 194 199 167 194 199 167 194 199 167 194 199 167 194 199 167 194 199 167 194 199 167 194 199 167 194 199 167 194 199 167 194 199 167 194 199 167 194 199 167 194 199 167 194 199 167 194 199 167 194 199 167 194 199 167 194 199 167 194 199 167 194 199 167 194 199 167 194 199 167 194 199 167 194 199 167 194 199 167 194 199 167 194 199 167 194 199 167 194 199 167 194 199 167 194 199 167 194 199 167 194 199 167 194 199 167 194 199 167 194 199 167 194 199 167 188 187 134 188 187 134 188 187 134 188 187 134 188 187 134 188 187 134 188 187 134 188 187 134 188 187 134 188 187 134 188 187 134 188 187 134 188 187 134 188 187 134 188 187 134 188 187 134 188 187 134 188 187 134 188 187 134 188 187 134 188 187 134 188 187 134 188 187 134 188 187 134 188 187 134 188 187 134 188 187 134 188 187 134 188 187 134 188 187 134 188 187 134 188 187 134 188 187 134 188 187 134 188 187 134 188 187 134 188 187 134 188 187 134 188 187 134 188 187 134 188 187 134 188 187 134 188 187 134 188 187 134 188 187 134 188 187 134 188 187 134 188 187 134 188 187 134 188 187 134 188 187 134 188 187 134 0 0 255 0 0 255 192 199 159 192 199 159 192 199 159 192 199 159 192 199 159 192 199 159 192 199 159 192 199 159 192 199 159 192 199 159 192 199 159 192 199 159 192 199 159 192 199 159 192 199 159 192 199 159 192 199 159 192 199 159 192 199 159 192 199 159 192 199 159 192 199 159 192 199 159 192 199 159 192 199 159 192 199 159 192 199 159 192 199 159 192 199 159 192 199 159 192 199 159 192 199 159 192 199 159 192 199 159 192 199 159 192 199 159 192 199 159 192 199 159 192 199 159 192 199 159 192 199 159 192 199 159 192 199 159 192 199 159 192 199 159 192 199 159 192 199 159 192 199 159 192 199 159 192 199 159 192 199 159 192 199 159 192 199 159 192 199 159 0 0 255 0 0 255 194 201 169 194 201 169 194 201 169 194 201 169 194 201 169 194 201 169 194 201 169 194 201 169 194 201 169 194 201 169 194 201 169 194 201 169 194 201 169 194 201 169 194 201 169 194 201 169 194 201 169 194 201 169 194 201 169 194 201 169 194 201 169 194 201 169 194 201 169 194 201 169 194 201 169 194 201 169 194 201 169 194 201 169 194 201 169 194 201 169 0 0 255 0 0 255 192 201 168 192 201 168 192 201 168 192 201 168 192 201 168 192 201 168 192 201 168 192 201 168 192 201 168 192 201 168 192 201 168 192 201 168 192 201 168 192 201 168 192 201 168 192 201 168 192 201 168 192 201 168 192 201 168 192 201 168 192 201 168 192 201 168 192 201 168 192 201 168 192 201 168 192 201 168 192 201 168 192 201 168 192 201 168 192 201 168 192 201 168 192 201 168 192 201 168 192 201 168 192 201 168 192 201 168 192 201 168 192 201 168 192 201 168 192 201 168 192 201 168 192 201 168 192 201 168 192 201 168 192 201 168 192 201 168 192 201 168 192 201 168 192 201 168 192 201 168 192 201 168 192 201 168 192 201 168 192 201 168 192 201 168 192 201 168 192 201 168 0 0 255 0 0 255 194 199 167 194 199 167 194 199 167 194 199 167 194 199 167 194 199 167 194 199 167 194 199 167 194 199 167 194 199 167 194 199 167 194 199 167 194 199 167 194 199 167 194 199 167 194 199 167 194 199 167 194 199 167 194 199 167 194 199 167 194 199 167 194 199 167 194 199 167 194 199 167 194 199 167 194 199 167 194 199 167 194 199 167 194 199 167 194 199 167 194 199 167 194 199 167 194 199 167 194 199 167 194 199 167 194 199 167 194 199 167 194 199 167 194 199 167 194 199 167 194 199 167 194 199 167 194 199 167 194 199 167 194 199 167 194 199 167 194 199 167 194 199 167 194 199 167 194 199 167 194 199 167 194 199 167 194 199 167 194 199 167 194 199 167 188 187 134 188 187 134 188 187 134 188 187 134 188 187 134 188 187 134 188 187 134 188 187 134 188 187 134 188 187 134 188 187 134 188 187 134 188 187 134 188 187 134 188 187 134 188 187 134 188 187 134 188 187 134 188 187 134 188 187 134 188 187 134 188 187 134 188 187 134 188 187 134 188 187 134 188 187 134 188 187 134 188 187 134 188 187 134 188 187 134 188 187 134 188 187 134 188 187 134 188 187 134 188 187 134 188 187 134 188 187 134 188 187 134 188 187 134 188 187 134 188 187 134 188 187 134 188 187 134 188 187 134 188 187 134 188 187 134 188 187 134 188 187 134 188 187 134 188 187 134 188 187 134 188 187 134 0 0 255 0 0 255 192 199 159 192 199 159 192 199 159 192 199 159 192 199 159 192 199 159 192 199 159 192 199 159 192 199 159 192 199 159 192 199 159 192 199 159 192 199 159 192 199 159 192 199 159 192 199 159 192 199 159 192 199 159 192 199 159 192 199 159 192 199 159 192 199 159 192 199 159 192 199 159 192 199 159 192 199 159 192 199 159 192 199 159 192 199 159 192 199 159 192 199 159 192 199 159 192 199 159 192 199 159 192 199 159 192 199 159 192 199 159 192 199 159 192 199 159 192 199 159 192 199 159 192 199 159 192 199 159 192 199 159 192 199 159 192 199 159 192 199 159 192 199 159 192 199 159 192 199 159 192 199 159 192 199 159 192 199 159 192 199 159 192 199 159 0 0 255 0 0 255 194 201 169 194 201 169 194 201 169 194 201 169 194 201 169 194 201 169 194 201 169 194 201 169 194 201 169 194 201 169 194 201 169 194 201 169 194 201 169 194 201 169 194 201 169 194 201 169 194 201 169 194 201 169 194 201 169 194 201 169 194 201 169 194 201 169 194 201 169 194 201 169 194 201 169 194 201 169 194 201 169 194 201 169 194 201 169 0 0 255 0 0 255 192 201 168 192 201 168 192 201 168 192 201 168 192 201 168 192 201 168 192 201 168 192 201 168 192 201 168 192 201 168 192 201 168 192 201 168 192 201 168 192 201 168 192 201 168 192 201 168 192 201 168 192 201 168 192 201 168 192 201 168 192 201 168 192 201 168 192 201 168 192 201 168 192 201 168 192 201 168 192 201 168 192 201 168 192 201 168 192 201 168 192 201 168 192 201 168 192 201 168 192 201 168 192 201 168 192 201 168 192 201 168 192 201 168 192 201 168 192 201 168 192 201 168 192 201 168 192 201 168 192 201 168 192 201 168 192 201 168 192 201 168 192 201 168 192 201 168 192 201 168 192 201 168 192 201 168 192 201 168 192 201 168 192 201 168 192 201 168 192 201 168 0 0 255 0 0 255 194 199 167 194 199 167 194 199 167 194 199 167 194 199 167 194 199 167 194 199 167 194 199 167 194 199 167 194 199 167 194 199 167 194 199 167 194 199 167 194 199 167 194 199 167 194 199 167 194 199 167 194 199 167 194 199 167 194 199 167 194 199 167 194 199 167 194 199 167 194 199 167 194 199 167 194 199 167 194 199 167 194 199 167 194 199 167 194 199 167 194 199 167 194 199 167 194 199 167 194 199 167 194 199 167 194 199 167 194 199 167 194 199 167 194 199 167 194 199 167 194 199 167 194 199 167 194 199 167 194 199 167 194 199 167 194 199 167 194 199 167 194 199 167 194 199 167 194 199 167 194 199 167 194 199 167 194 199 167 194 199 167 194 199 167 188 187 134 188 187 134 188 187 134 188 187 134 188 187 134 188 187 134 188 187 134 188 187 134 188 187 134 188 187 134 188 187 134 188 187 134 188 187 134 188 187 134 188 187 134 188 187 134 188 187 134 188 187 134 188 187 134 188 187 134 188 187 134 188 187 134 188 187 134 188 187 134 188 187 134 188 187 134 188 187 134 188 187 134 188 187 134 188 187 134 188 187 134 188 187 134 188 187 134 188 187 134 188 187 134 188 187 134 188 187 134 188 187 134 188 187 134 188 187 134 188 187 134 188 187 134 188 187 134 188 187 134 188 187 134 188 187 134 188 187 134 188 187 134 188 187 134 188 187 134 188 187 134 188 187 134 0 0 255 0 0 255 192 199 159 192 199 159 192 199 159 192 199 159 192 199 159 192 199 159 192 199 159 192 199 159 192 199 159 192 199 159 192 199 159 192 199 159 192 199 159 192 199 159 192 199 159 192 199 159 192 199 159 192 199 159 192 199 159 192 199 159 192 199 159 192 199 159 192 199 159 192 199 159 192 199 159 192 199 159 192 199 159 192 199 159 192 199 159 192 199 159 192 199 159 192 199 159 192 199 159 192 199 159 192 199 159 192 199 159 192 199 159 192 199 159 192 199 159 192 199 159 192 199 159 192 199 159 192 199 159 192 199 159 192 199 159 192 199 159 192 199 159 192 199 159 192 199 159 192 199 159 192 199 159 192 199 159 192 199 159 192 199 159 192 199 159 0 0 255 0 0 255 194 201 169 194 201 169 194 201 169 194 201 169 194 201 169 194 201 169 194 201 169 194 201 169 194 201 169 194 201 169 194 201 169 194 201 169 194 201 169 194 201 169 194 201 169 194 201 169 194 201 169 194 201 169 194 201 169 194 201 169 194 201 169 194 201 169 194 201 169 194 201 169 194 201 169 194 201 169 194 201 169 194 201 169 0 0 255 0 0 255 192 201 168 192 201 168 192 201 168 192 201 168 192 201 168 192 201 168 192 201 168 192 201 168 192 201 168 192 201 168 192 201 168 192 201 168 192 201 168 192 201 168 192 201 168 192 201 168 192 201 168 192 201 168 192 201 168 192 201 168 192 201 168 192 201 168 192 201 168 192 201 168 192 201 168 192 201 168 192 201 168 192 201 168 192 201 168 192 201 168 192 201 168 192 201 168 192 201 168 192 201 168 192 201 168 192 201 168 192 201 168 192 201 168 192 201 168 192 201 168 192 201 168 192 201 168 192 201 168 192 201 168 192 201 168 192 201 168 192 201 168 192 201 168 192 201 168 192 201 168 192 201 168 192 201 168 192 201 168 192 201 168 192 201 168 192 201 168 192 201 168 192 201 168 0 0 255 0 0 255 194 199 167 194 199 167 194 199 167 194 199 167 194 199 167 194 199 167 194 199 167 194 199 167 194 199 167 194 199 167 194 199 167 194 199 167 194 199 167 194 199 167 194 199 167 194 199 167 194 199 167 194 199 167 194 199 167 194 199 167 194 199 167 194 199 167 194 199 167 194 199 167 194 199 167 194 199 167 194 199 167 194 199 167 194 199 167 194 199 167 194 199 167 194 199 167 194 199 167 194 199 167 194 199 167 194 199 167 194 199 167 194 199 167 194 199 167 194 199 167 194 199 167 194 199 167 194 199 167 194 199 167 194 199 167 194 199 167 194 199 167 194 199 167 194 199 167 194 199 167 194 199 167 194 199 167 194 199 167 194 199 167 194 199 167 188 187 134 188 187 134 188 187 134 188 187 134 188 187 134 188 187 134 188 187 134 188 187 134 188 187 134 188 187 134 188 187 134 188 187 134 188 187 134 188 187 134 188 187 134 188 187 134 188 187 134 188 187 134 188 187 134 188 187 134 188 187 134 188 187 134 188 187 134 188 187 134 188 187 134 188 187 134 188 187 134 188 187 134 188 187 134 188 187 134 188 187 134 188 187 134 188 187 134 188 187 134 188 187 134 188 187 134 188 187 134 188 187 134 188 187 134 188 187 134 188 187 134 188 187 134 188 187 134 188 187 134 188 187 134 188 187 134 188 187 134 188 187 134 188 187 134 188 187 134 188 187 134 188 187 134 188 187 134 0 0 255 0 0 255 192 199 159 192 199 159 192 199 159 192 199 159 192 199 159 192 199 159 192 199 159 192 199 159 192 199 159 192 199 159 192 199 159 192 199 159 192 199 159 192 199 159 192 199 159 192 199 159 192 199 159 192 199 159 192 199 159 192 199 159 192 199 159 192 199 159 192 199 159 192 199 159 192 199 159 192 199 159 192 199 159 192 199 159 192 199 159 192 199 159 192 199 159 192 199 159 192 199 159 192 199 159 192 199 159 192 199 159 192 199 159 192 199 159 192 199 159 192 199 159 192 199 159 192 199 159 192 199 159 192 199 159 192 199 159 192 199 159 192 199 159 192 199 159 192 199 159 192 199 159 192 199 159 192 199 159 192 199 159 192 199 159 0 0 255 0 0 255 194 201 169 194 201 169 194 201 169 194 201 169 194 201 169 194 201 169 194 201 169 194 201 169 194 201 169 194 201 169 194 201 169 194 201 169 194 201 169 194 201 169 194 201 169 194 201 169 194 201 169 194 201 169 194 201 169 194 201 169 194 201 169 194 201 169 194 201 169 194 201 169 194 201 169 194 201 169 194 201 169 194 201 169 0 0 255 0 0 255 192 201 168 192 201 168 192 201 168 192 201 168 192 201 168 192 201 168 192 201 168 192 201 168 192 201 168 192 201 168 192 201 168 192 201 168 192 201 168 192 201 168 192 201 168 192 201 168 192 201 168 192 201 168 192 201 168 192 201 168 192 201 168 192 201 168 192 201 168 192 201 168 192 201 168 192 201 168 192 201 168 192 201 168 192 201 168 192 201 168 192 201 168 192 201 168 192 201 168 192 201 168 192 201 168 192 201 168 192 201 168 192 201 168 192 201 168 192 201 168 192 201 168 192 201 168 192 201 168 192 201 168 192 201 168 192 201 168 192 201 168 192 201 168 192 201 168 192 201 168 192 201 168 192 201 168 192 201 168 192 201 168 192 201 168 192 201 168 192 201 168 192 201 168 0 0 255 0 0 255 194 199 167 194 199 167 194 199 167 194 199 167 194 199 167 194 199 167 194 199 167 194 199 167 194 199 167 194 199 167 194 199 167 194 199 167 194 199 167 194 199 167 194 199 167 194 199 167 194 199 167 194 199 167 194 199 167 194 199 167 194 199 167 194 199 167 194 199 167 194 199 167 194 199 167 194 199 167 194 199 167 194 199 167 194 199 167 194 199 167 194 199 167 194 199 167 194 199 167 194 199 167 194 199 167 194 199 167 194 199 167 194 199 167 194 199 167 194 199 167 194 199 167 194 199 167 194 199 167 194 199 167 194 199 167 194 199 167 194 199 167 194 199 167 194 199 167 194 199 167 194 199 167 194 199 167 194 199 167 194 199 167 194 199 167 188 187 134 188 187 134 188 187 134 188 187 134 188 187 134 188 187 134 188 187 134 188 187 134 188 187 134 188 187 134 188 187 134 188 187 134 188 187 134 188 187 134 188 187 134 188 187 134 188 187 134 188 187 134 188 187 134 188 187 134 188 187 134 188 187 134 188 187 134 188 187 134 188 187 134 188 187 134 188 187 134 188 187 134 188 187 134 188 187 134 188 187 134 188 187 134 188 187 134 188 187 134 188 187 134 188 187 134 188 187 134 188 187 134 188 187 134 188 187 134 188 187 134 188 187 134 188 187 134 188 187 134 188 187 134 188 187 134 188 187 134 188 187 134 188 187 134 188 187 134 188 187 134 188 187 134 188 187 134 0 0 255 0 0 255 192 199 159 192 199 159 192 199 159 192 199 159 192 199 159 192 199 159 192 199 159 192 199 159 192 199 159 192 199 159 192 199 159 192 199 159 192 199 159 192 199 159 192 199 159 192 199 159 192 199 159 192 199 159 192 199 159 192 199 159 192 199 159 192 199 159 192 199 159 192 199 159 192 199 159 192 199 159 192 199 159 192 199 159 192 199 159 192 199 159 192 199 159 192 199 159 192 199 159 192 199 159 192 199 159 192 199 159 192 199 159 192 199 159 192 199 159 192 199 159 192 199 159 192 199 159 192 199 159 192 199 159 192 199 159 192 199 159 192 199 159 192 199 159 192 199 159 192 199 159 192 199 159 192 199 159 192 199 159 192 199 159 192 199 159 0 0 255 0 0 255 194 201 169 194 201 169 194 201 169 194 201 169 194 201 169 194 201 169 194 201 169 194 201 169 194 201 169 194 201 169 194 201 169 194 201 169 194 201 169 194 201 169 194 201 169 194 201 169 194 201 169 194 201 169 194 201 169 194 201 169 194 201 169 194 201 169 194 201 169 194 201 169 194 201 169 194 201 169 194 201 169 0 0 255 0 0 255 192 201 168 192 201 168 192 201 168 192 201 168 192 201 168 192 201 168 192 201 168 192 201 168 192 201 168 192 201 168 192 201 168 192 201 168 192 201 168 192 201 168 192 201 168 192 201 168 192 201 168 192 201 168 192 201 168 192 201 168 192 201 168 192 201 168 192 201 168 192 201 168 192 201 168 192 201 168 192 201 168 192 201 168 192 201 168 192 201 168 192 201 168 192 201 168 192 201 168 192 201 168 192 201 168 192 201 168 192 201 168 192 201 168 192 201 168 192 201 168 192 201 168 192 201 168 192 201 168 192 201 168 192 201 168 192 201 168 192 201 168 192 201 168 192 201 168 192 201 168 192 201 168 192 201 168 192 201 168 192 201 168 192 201 168 192 201 168 192 201 168 192 201 168 0 0 255 0 0 255 194 199 167 194 199 167 194 199 167 194 199 167 194 199 167 194 199 167 194 199 167 194 199 167 194 199 167 194 199 167 194 199 167 194 199 167 194 199 167 194 199 167 194 199 167 194 199 167 194 199 167 194 199 167 194 199 167 194 199 167 194 199 167 194 199 167 194 199 167 194 199 167 194 199 167 194 199 167 194 199 167 194 199 167 194 199 167 194 199 167 194 199 167 194 199 167 194 199 167 194 199 167 194 199 167 194 199 167 194 199 167 194 199 167 194 199 167 194 199 167 194 199 167 194 199 167 194 199 167 194 199 167 194 199 167 194 199 167 194 199 167 194 199 167 194 199 167 194 199 167 194 199 167 194 199 167 194 199 167 194 199 167 194 199 167 188 187 134 188 187 134 188 187 134 188 187 134 188 187 134 188 187 134 188 187 134 188 187 134 188 187 134 188 187 134 188 187 134 188 187 134 188 187 134 188 187 134 188 187 134 188 187 134 188 187 134 188 187 134 188 187 134 188 187 134 188 187 134 188 187 134 188 187 134 188 187 134 188 187 134 188 187 134 188 187 134 188 187 134 188 187 134 188 187 134 188 187 134 188 187 134 188 187 134 188 187 134 188 187 134 188 187 134 188 187 134 188 187 134 188 187 134 188 187 134 188 187 134 188 187 134 188 187 134 188 187 134 188 187 134 188 187 134 188 187 134 188 187 134 188 187 134 188 187 134 188 187 134 188 187 134 188 187 134 0 0 255 0 0 255 192 199 159 192 199 159 192 199 159 192 199 159 192 199 159 192 199 159 192 199 159 192 199 159 192 199 159 192 199 159 192 199 159 192 199 159 192 199 159 192 199 159 192 199 159 192 199 159 192 199 159 192 199 159 192 199 159 192 199 159 192 199 159 192 199 159 192 199 159 192 199 159 192 199 159 192 199 159 192 199 159 192 199 159 192 199 159 192 199 159 192 199 159 192 199 159 192 199 159 192 199 159 192 199 159 192 199 159 192 199 159 192 199 159 192 199 159 192 199 159 192 199 159 192 199 159 192 199 159 192 199 159 192 199 159 192 199 159 192 199 159 192 199 159 192 199 159 192 199 159 192 199 159 192 199 159 192 199 159 192 199 159 192 199 159 0 0 255 0 0 255 194 201 169 194 201 169 194 201 169 194 201 169 194 201 169 194 201 169 194 201 169 194 201 169 194 201 169 194 201 169 194 201 169 194 201 169 194 201 169 194 201 169 194 201 169 194 201 169 194 201 169 194 201 169 194 201 169 194 201 169 194 201 169 194 201 169 194 201 169 194 201 169 194 201 169 194 201 169 0 0 255 0 0 255 192 201 168 192 201 168 192 201 168 192 201 168 192 201 168 192 201 168 192 201 168 192 201 168 192 201 168 192 201 168 192 201 168 192 201 168 192 201 168 192 201 168 192 201 168 192 201 168 192 201 168 192 201 168 192 201 168 192 201 168 192 201 168 192 201 168 192 201 168 192 201 168 192 201 168 192 201 168 192 201 168 192 201 168 192 201 168 192 201 168 192 201 168 192 201 168 192 201 168 192 201 168 192 201 168 192 201 168 192 201 168 192 201 168 192 201 168 192 201 168 192 201 168 192 201 168 192 201 168 192 201 168 192 201 168 192 201 168 192 201 168 192 201 168 192 201 168 192 201 168 192 201 168 192 201 168 192 201 168 192 201 168 192 201 168 192 201 168 192 201 168 192 201 168 192 201 168 0 0 255 0 0 255 194 199 167 194 199 167 194 199 167 194 199 167 194 199 167 194 199 167 194 199 167 194 199 167 194 199 167 194 199 167 194 199 167 194 199 167 194 199 167 194 199 167 194 199 167 194 199 167 194 199 167 194 199 167 194 199 167 194 199 167 194 199 167 194 199 167 194 199 167 194 199 167 194 199 167 194 199 167 194 199 167 194 199 167 194 199 167 194 199 167 194 199 167 194 199 167 194 199 167 194 199 167 194 199 167 194 199 167 194 199 167 194 199 167 194 199 167 194 199 167 194 199 167 194 199 167 194 199 167 194 199 167 194 199 167 194 199 167 194 199 167 194 199 167 194 199 167 194 199 167 194 199 167 194 199 167 194 199 167 194 199 167 194 199 167 188 187 134 188 187 134 188 187 134 188 187 134 188 187 134 188 187 134 188 187 134 188 187 134 188 187 134 188 187 134 188 187 134 188 187 134 188 187 134 188 187 134 188 187 134 188 187 134 188 187 134 188 187 134 188 187 134 188 187 134 188 187 134 188 187 134 188 187 134 188 187 134 188 187 134 188 187 134 188 187 134 188 187 134 188 187 134 188 187 134 188 187 134 188 187 134 188 187 134 188 187 134 188 187 134 188 187 134 188 187 134 188 187 134 188 187 134 188 187 134 188 187 134 188 187 134 188 187 134 188 187 134 188 187 134 188 187 134 188 187 134 188 187 134 188 187 134 188 187 134 188 187 134 188 187 134 0 0 255 0 0 255 192 199 159 192 199 159 192 199 159 192 199 159 192 199 159 192 199 159 192 199 159 192 199 159 192 199 159 192 199 159 192 199 159 192 199 159 192 199 159 192 199 159 192 199 159 192 199 159 192 199 159 192 199 159 192 199 159 192 199 159 192 199 159 192 199 159 192 199 159 192 199 159 192 199 159 192 199 159 192 199 159 192 199 159 192 199 159 192 199 159 192 199 159 192 199 159 192 199 159 192 199 159 192 199 159 192 199 159 192 199 159 192 199 159 192 199 159 192 199 159 192 199 159 192 199 159 192 199 159 192 199 159 192 199 159 192 199 159 192 199 159 192 199 159 192 199 159 192 199 159 192 199 159 192 199 159 192 199 159 192 199 159 192 199 159 192 199 159 0 0 255 0 0 255 194 201 169 194 201 169 194 201 169 194 201 169 194 201 169 194 201 169 194 201 169 194 201 169 194 201 169 194 201 169 194 201 169 194 201 169 194 201 169 194 201 169 194 201 169 194 201 169 194 201 169 194 201 169 194 201 169 194 201 169 194 201 169 194 201 169 194 201 169 194 201 169 194 201 169 194 201 169 0 0 255 0 0 255 192 201 168 192 201 168 192 201 168 192 201 168 192 201 168 192 201 168 192 201 168 192 201 168 192 201 168 192 201 168 192 201 168 192 201 168 192 201 168 192 201 168 192 201 168 192 201 168 192 201 168 192 201 168 192 201 168 192 201 168 192 201 168 192 201 168 192 201 168 192 201 168 192 201 168 192 201 168 192 201 168 192 201 168 192 201 168 192 201 168 192 201 168 192 201 168 192 201 168 192 201 168 192 201 168 192 201 168 192 201 168 192 201 168 192 201 168 192 201 168 192 201 168 192 201 168 192 201 168 192 201 168 192 201 168 192 201 168 192 201 168 192 201 168 192 201 168 192 201 168 192 201 168 192 201 168 192 201 168 192 201 168 192 201 168 192 201 168 192 201 168 192 201 168 192 201 168 0 0 255 0 0 255 194 199 167 194 199 167 194 199 167 194 199 167 194 199 167 194 199 167 194 199 167 194 199 167 194 199 167 194 199 167 194 199 167 194 199 167 194 199 167 194 199 167 194 199 167 194 199 167 194 199 167 194 199 167 194 199 167 194 199 167 194 199 167 194 199 167 194 199 167 194 199 167 194 199 167 194 199 167 194 199 167 194 199 167 194 199 167 194 199 167 194 199 167 194 199 167 194 199 167 194 199 167 194 199 167 194 199 167 194 199 167 194 199 167 194 199 167 194 199 167 194 199 167 194 199 167 194 199 167 194 199 167 194 199 167 194 199 167 194 199 167 194 199 167 194 199 167 194 199 167 194 199 167 194 199 167 194 199 167 194 199 167 194 199 167 188 187 134 188 187 134 188 187 134 188 187 134 188 187 134 188 187 134 188 187 134 188 187 134 188 187 134 188 187 134 188 187 134 188 187 134 188 187 134 188 187 134 188 187 134 188 187 134 188 187 134 188 187 134 188 187 134 188 187 134 188 187 134 188 187 134 188 187 134 188 187 134 188 187 134 188 187 134 188 187 134 188 187 134 188 187 134 188 187 134 188 187 134 188 187 134 188 187 134 188 187 134 188 187 134 188 187 134 188 187 134 188 187 134 188 187 134 188 187 134 188 187 134 188 187 134 188 187 134 188 187 134 188 187 134 188 187 134 188 187 134 188 187 134 188 187 134 188 187 134 188 187 134 188 187 134 0 0 255 0 0 255 192 199 159 192 199 159 192 199 159 192 199 159 192 199 159 192 199 159 192 199 159 192 199 159 192 199 159 192 199 159 192 199 159 192 199 159 192 199 159 192 199 159 192 199 159 192 199 159 192 199 159 192 199 159 192 199 159 192 199 159 192 199 159 192 199 159 192 199 159 192 199 159 192 199 159 192 199 159 192 199 159 192 199 159 192 199 159 192 199 159 192 199 159 192 199 159 192 199 159 192 199 159 192 199 159 192 199 159 192 199 159 192 199 159 192 199 159 192 199 159 192 199 159 192 199 159 192 199 159 192 199 159 192 199 159 192 199 159 192 199 159 192 199 159 192 199 159 192 199 159 192 199 159 192 199 159 192 199 159 192 199 159 192 199 159 192 199 159 0 0 255 0 0 255 194 201 169 194 201 169 194 201 169 194 201 169 194 201 169 194 201 169 194 201 169 194 201 169 194 201 169 194 201 169 194 201 169 194 201 169 194 201 169 194 201 169 194 201 169 194 201 169 194 201 169 194 201 169 194 201 169 194 201 169 194 201 169 194 201 169 194 201 169 194 201 169 194 201 169 0 0 255 0 0 255 192 201 168 192 201 168 192 201 168 192 201 168 192 201 168 192 201 168 192 201 168 192 201 168 192 201 168 192 201 168 192 201 168 192 201 168 192 201 168 192 201 168 192 201 168 192 201 168 192 201 168 192 201 168 192 201 168 192 201 168 192 201 168 192 201 168 192 201 168 192 201 168 192 201 168 192 201 168 192 201 168 192 201 168 192 201 168 192 201 168 192 201 168 192 201 168 192 201 168 192 201 168 192 201 168 192 201 168 192 201 168 192 201 168 192 201 168 192 201 168 192 201 168 192 201 168 192 201 168 192 201 168 192 201 168 192 201 168 192 201 168 192 201 168 192 201 168 192 201 168 192 201 168 192 201 168 192 201 168 192 201 168 192 201 168 192 201 168 192 201 168 192 201 168 192 201 168 192 201 168 0 0 255 0 0 255 194 199 167 194 199 167 194 199 167 194 199 167 194 199 167 194 199 167 194 199 167 194 199 167 194 199 167 194 199 167 194 199 167 194 199 167 194 199 167 194 199 167 194 199 167 194 199 167 194 199 167 194 199 167 194 199 167 194 199 167 194 199 167 194 199 167 194 199 167 194 199 167 194 199 167 194 199 167 194 199 167 194 199 167 194 199 167 194 199 167 194 199 167 194 199 167 194 199 167 194 199 167 194 199 167 194 199 167 194 199 167 194 199 167 194 199 167 194 199 167 194 199 167 194 199 167 194 199 167 194 199 167 194 199 167 194 199 167 194 199 167 194 199 167 194 199 167 194 199 167 194 199 167 194 199 167 194 199 167 194 199 167 194 199 167 188 187 134 188 187 134 188 187 134 188 187 134 188 187 134 188 187 134 188 187 134 188 187 134 188 187 134 188 187 134 188 187 134 188 187 134 188 187 134 188 187 134 188 187 134 188 187 134 188 187 134 188 187 134 188 187 134 188 187 134 188 187 134 188 187 134 188 187 134 188 187 134 188 187 134 188 187 134 188 187 134 188 187 134 188 187 134 188 187 134 188 187 134 188 187 134 188 187 134 188 187 134 188 187 134 188 187 134 188 187 134 188 187 134 188 187 134 188 187 134 188 187 134 188 187 134 188 187 134 188 187 134 188 187 134 188 187 134 188 187 134 188 187 134 188 187 134 188 187 134 188 187 134 188 187 134 188 187 134 0 0 255 0 0 255 192 199 159 192 199 159 192 199 159 192 199 159 192 199 159 192 199 159 192 199 159 192 199 159 192 199 159 192 199 159 192 199 159 192 199 159 192 199 159 192 199 159 192 199 159 192 199 159 192 199 159 192 199 159 192 199 159 192 199 159 192 199 159 192 199 159 192 199 159 192 199 159 192 199 159 192 199 159 192 199 159 192 199 159 192 199 159 192 199 159 192 199 159 192 199 159 192 199 159 192 199 159 192 199 159 192 199 159 192 199 159 192 199 159 192 199 159 192 199 159 192 199 159 192 199 159 192 199 159 192 199 159 192 199 159 192 199 159 192 199 159 192 199 159 192 199 159 192 199 159 192 199 159 192 199 159 192 199 159 192 199 159 192 199 159 0 0 255 0 0 255 194 201 169 194 201 169 194 201 169 194 201 169 194 201 169 194 201 169 194 201 169 194 201 169 194 201 169 194 201 169 194 201 169 194 201 169 194 201 169 194 201 169 194 201 169 194 201 169 194 201 169 194 201 169 194 201 169 194 201 169 194 201 169 194 201 169 194 201 169 194 201 169 194 201 169 0 0 255 0 0 255 192 201 168 192 201 168 192 201 168 192 201 168 192 201 168 192 201 168 192 201 168 192 201 168 192 201 168 192 201 168 192 201 168 192 201 168 192 201 168 192 201 168 192 201 168 192 201 168 192 201 168 192 201 168 192 201 168 192 201 168 192 201 168 192 201 168 192 201 168 192 201 168 192 201 168 192 201 168 192 201 168 192 201 168 192 201 168 192 201 168 192 201 168 192 201 168 192 201 168 192 201 168 192 201 168 192 201 168 192 201 168 192 201 168 192 201 168 192 201 168 192 201 168 192 201 168 192 201 168 192 201 168 192 201 168 192 201 168 192 201 168 192 201 168 192 201 168 192 201 168 192 201 168 192 201 168 192 201 168 192 201 168 192 201 168 192 201 168 192 201 168 192 201 168 192 201 168 192 201 168 0 0 255 0 0 255 194 199 167 194 199 167 194 199 167 194 199 167 194 199 167 194 199 167 194 199 167 194 199 167 194 199 167 194 199 167 194 199 167 194 199 167 194 199 167 194 199 167 194 199 167 194 199 167 194 199 167 194 199 167 194 199 167 194 199 167 194 199 167 194 199 167 194 199 167 194 199 167 194 199 167 194 199 167 194 199 167 194 199 167 194 199 167 194 199 167 194 199 167 194 199 167 194 199 167 194 199 167 194 199 167 194 199 167 194 199 167 194 199 167 194 199 167 194 199 167 194 199 167 194 199 167 194 199 167 194 199 167 194 199 167 194 199 167 194 199 167 194 199 167 194 199 167 194 199 167 194 199 167 194 199 167 194 199 167 194 199 167 194 199 167 188 187 134 188 187 134 188 187 134 188 187 134 188 187 134 188 187 134 188 187 134 188 187 134 188 187 134 188 187 134 188 187 134 188 187 134 188 187 134 188 187 134 188 187 134 188 187 134 188 187 134 188 187 134 188 187 134 188 187 134 188 187 134 188 187 134 188 187 134 188 187 134 188 187 134 188 187 134 188 187 134 188 187 134 188 187 134 188 187 134 188 187 134 188 187 134 188 187 134 188 187 134 188 187 134 188 187 134 188 187 134 188 187 134 188 187 134 188 187 134 188 187 134 188 187 134 188 187 134 188 187 134 188 187 134 188 187 134 188 187 134 188 187 134 188 187 134 188 187 134 188 187 134 188 187 134 188 187 134 188 187 134 0 0 255 0 0 255 192 199 159 192 199 159 192 199 159 192 199 159 192 199 159 192 199 159 192 199 159 192 199 159 192 199 159 192 199 159 192 199 159 192 199 159 192 199 159 192 199 159 192 199 159 192 199 159 192 199 159 192 199 159 192 199 159 192 199 159 192 199 159 192 199 159 192 199 159 192 199 159 192 199 159 192 199 159 192 199 159 192 199 159 192 199 159 192 199 159 192 199 159 192 199 159 192 199 159 192 199 159 192 199 159 192 199 159 192 199 159 192 199 159 192 199 159 192 199 159 192 199 159 192 199 159 192 199 159 192 199 159 192 199 159 192 199 159 192 199 159 192 199 159 192 199 159 192 199 159 192 199 159 192 199 159 192 199 159 192 199 159 192 199 159 0 0 255 0 0 255 194 201 169 194 201 169 194 201 169 194 201 169 194 201 169 194 201 169 194 201 169 194 201 169 194 201 169 194 201 169 194 201 169 194 201 169 194 201 169 194 201 169 194 201 169 194 201 169 194 201 169 194 201 169 194 201 169 194 201 169 194 201 169 194 201 169 194 201 169 0 0 255 0 0 255 192 201 168 192 201 168 192 201 168 192 201 168 192 201 168 192 201 168 192 201 168 192 201 168 192 201 168 192 201 168 192 201 168 192 201 168 192 201 168 192 201 168 192 201 168 192 201 168 192 201 168 192 201 168 192 201 168 192 201 168 192 201 168 192 201 168 192 201 168 192 201 168 192 201 168 192 201 168 192 201 168 192 201 168 192 201 168 192 201 168 192 201 168 192 201 168 192 201 168 192 201 168 192 201 168 192 201 168 192 201 168 192 201 168 192 201 168 192 201 168 192 201 168 192 201 168 192 201 168 192 201 168 192 201 168 192 201 168 192 201 168 192 201 168 192 201 168 192 201 168 192 201 168 192 201 168 192 201 168 192 201 168 192 201 168 192 201 168 192 201 168 192 201 168 192 201 168 192 201 168 192 201 168 0 0 255 0 0 255 194 199 167 194 199 167 194 199 167 194 199 167 194 199 167 194 199 167 194 199 167 194 199 167 194 199 167 194 199 167 194 199 167 194 199 167 194 199 167 194 199 167 194 199 167 194 199 167 194 199 167 194 199 167 194 199 167 194 199 167 194 199 167 194 199 167 194 199 167 194 199 167 194 199 167 194 199 167 194 199 167 194 199 167 194 199 167 194 199 167 194 199 167 194 199 167 194 199 167 194 199 167 194 199 167 194 199 167 194 199 167 194 199 167 194 199 167 194 199 167 194 199 167 194 199 167 194 199 167 194 199 167 194 199 167 194 199 167 194 199 167 194 199 167 194 199 167 194 199 167 194 199 167 194 199 167 194 199 167 194 199 167 194 199 167 188 187 134 188 187 134 188 187 134 188 187 134 188 187 134 188 187 134 188 187 134 188 187 134 188 187 134 188 187 134 188 187 134 188 187 134 188 187 134 188 187 134 188 187 134 188 187 134 188 187 134 188 187 134 188 187 134 188 187 134 188 187 134 188 187 134 188 187 134 188 187 134 188 187 134 188 187 134 188 187 134 188 187 134 188 187 134 188 187 134 188 187 134 188 187 134 188 187 134 188 187 134 188 187 134 188 187 134 188 187 134 188 187 134 188 187 134 188 187 134 188 187 134 188 187 134 188 187 134 188 187 134 188 187 134 188 187 134 188 187 134 188 187 134 188 187 134 188 187 134 188 187 134 188 187 134 188 187 134 188 187 134 0 0 255 0 0 255 192 199 159 192 199 159 192 199 159 192 199 159 192 199 159 192 199 159 192 199 159 192 199 159 192 199 159 192 199 159 192 199 159 192 199 159 192 199 159 192 199 159 192 199 159 192 199 159 192 199 159 192 199 159 192 199 159 192 199 159 192 199 159 192 199 159 192 199 159 192 199 159 192 199 159 192 199 159 192 199 159 192 199 159 192 199 159 192 199 159 192 199 159 192 199 159 192 199 159 192 199 159 192 199 159 192 199 159 192 199 159 192 199 159 192 199 159 192 199 159 192 199 159 192 199 159 192 199 159 192 199 159 192 199 159 192 199 159 192 199 159 192 199 159 192 199 159 192 199 159 192 199 159 192 199 159 192 199 159 192 199 159 192 199 159 0 0 255 0 0 255 194 201 169 194 201 169 194 201 169 194 201 169 194 201 169 194 201 169 194 201 169 194 201 169 194 201 169 194 201 169 194 201 169 194 201 169 194 201 169 194 201 169 194 201 169 194 201 169 194 201 169 194 201 169 194 201 169 194 201 169 194 201 169 194 201 169 194 201 169 0 0 255 0 0 255 192 201 168 192 201 168 192 201 168 192 201 168 192 201 168 192 201 168 192 201 168 192 201 168 192 201 168 192 201 168 192 201 168 192 201 168 192 201 168 192 201 168 192 201 168 192 201 168 192 201 168 192 201 168 192 201 168 192 201 168 192 201 168 192 201 168 192 201 168 192 201 168 192 201 168 192 201 168 192 201 168 192 201 168 192 201 168 192 201 168 192 201 168 192 201 168 192 201 168 192 201 168 192 201 168 192 201 168 192 201 168 192 201 168 192 201 168 192 201 168 192 201 168 192 201 168 192 201 168 192 201 168 192 201 168 192 201 168 192 201 168 192 201 168 192 201 168 192 201 168 192 201 168 192 201 168 192 201 168 192 201 168 192 201 168 192 201 168 192 201 168 192 201 168 192 201 168 192 201 168 192 201 168 0 0 255 0 0 255 194 199 167 194 199 167 194 199 167 194 199 167 194 199 167 194 199 167 194 199 167 194 199 167 194 199 167 194 199 167 194 199 167 194 199 167 194 199 167 194 199 167 194 199 167 194 199 167 194 199 167 194 199 167 194 199 167 194 199 167 194 199 167 194 199 167 194 199 167 194 199 167 194 199 167 194 199 167 194 199 167 194 199 167 194 199 167 194 199 167 194 199 167 194 199 167 194 199 167 194 199 167 194 199 167 194 199 167 194 199 167 194 199 167 194 199 167 194 199 167 194 199 167 194 199 167 194 199 167 194 199 167 194 199 167 194 199 167 194 199 167 194 199 167 194 199 167 194 199 167 194 199 167 194 199 167 194 199 167 194 199 167 194 199 167 188 187 134 188 187 134 188 187 134 188 187 134 188 187 134 188 187 134 188 187 134 188 187 134 188 187 134 188 187 134 188 187 134 188 187 134 188 187 134 188 187 134 188 187 134 188 187 134 188 187 134 188 187 134 188 187 134 188 187 134 188 187 134 188 187 134 188 187 134 188 187 134 188 187 134 188 187 134 188 187 134 188 187 134 188 187 134 188 187 134 188 187 134 188 187 134 188 187 134 188 187 134 188 187 134 188 187 134 188 187 134 188 187 134 188 187 134 188 187 134 188 187 134 188 187 134 188 187 134 188 187 134 188 187 134 188 187 134 188 187 134 188 187 134 188 187 134 188 187 134 188 187 134 188 187 134 188 187 134 188 187 134 0 0 255 0 0 255 192 199 159 192 199 159 192 199 159 192 199 159 192 199 159 192 199 159 192 199 159 192 199 159 192 199 159 192 199 159 192 199 159 192 199 159 192 199 159 192 199 159 192 199 159 192 199 159 192 199 159 192 199 159 192 199 159 192 199 159 192 199 159 192 199 159 192 199 159 192 199 159 192 199 159 192 199 159 192 199 159 192 199 159 192 199 159 192 199 159 192 199 159 192 199 159 192 199 159 192 199 159 192 199 159 192 199 159 192 199 159 192 199 159 192 199 159 192 199 159 192 199 159 192 199 159 192 199 159 192 199 159 192 199 159 192 199 159 192 199 159 192 199 159 192 199 159 192 199 159 192 199 159 192 199 159 192 199 159 192 199 159 192 199 159 0 0 255 0 0 255 194 201 169 194 201 169 194 201 169 194 201 169 194 201 169 194 201 169 194 201 169 194 201 169 194 201 169 194 201 169 194 201 169 194 201 169 194 201 169 194 201 169 194 201 169 194 201 169 194 201 169 194 201 169 194 201 169 194 201 169 194 201 169 194 201 169 0 0 255 0 0 255 192 201 168 192 201 168 192 201 168 192 201 168 192 201 168 192 201 168 192 201 168 192 201 168 192 201 168 192 201 168 192 201 168 192 201 168 192 201 168 192 201 168 192 201 168 192 201 168 192 201 168 192 201 168 192 201 168 192 201 168 192 201 168 192 201 168 192 201 168 192 201 168 192 201 168 192 201 168 192 201 168 192 201 168 192 201 168 192 201 168 192 201 168 192 201 168 192 201 168 192 201 168 192 201 168 192 201 168 192 201 168 192 201 168 192 201 168 192 201 168 192 201 168 192 201 168 192 201 168 192 201 168 192 201 168 192 201 168 192 201 168 192 201 168 192 201 168 192 201 168 192 201 168 192 201 168 192 201 168 192 201 168 192 201 168 192 201 168 192 201 168 192 201 168 192 201 168 192 201 168 192 201 168 192 201 168 192 201 168 0 0 255 0 0 255 194 199 167 194 199 167 194 199 167 194 199 167 194 199 167 194 199 167 194 199 167 194 199 167 194 199 167 194 199 167 194 199 167 194 199 167 194 199 167 194 199 167 194 199 167 194 199 167 194 199 167 194 199 167 194 199 167 194 199 167 194 199 167 194 199 167 194 199 167 194 199 167 194 199 167 194 199 167 194 199 167 194 199 167 194 199 167 194 199 167 194 199 167 194 199 167 194 199 167 194 199 167 194 199 167 194 199 167 194 199 167 194 199 167 194 199 167 194 199 167 194 199 167 194 199 167 194 199 167 194 199 167 194 199 167 194 199 167 194 199 167 194 199 167 194 199 167 194 199 167 194 199 167 194 199 167 194 199 167 194 199 167 188 187 134 188 187 134 188 187 134 188 187 134 188 187 134 188 187 134 188 187 134 188 187 134 188 187 134 188 187 134 188 187 134 188 187 134 188 187 134 188 187 134 188 187 134 188 187 134 188 187 134 188 187 134 188 187 134 188 187 134 188 187 134 188 187 134 188 187 134 188 187 134 188 187 134 188 187 134 188 187 134 188 187 134 188 187 134 188 187 134 188 187 134 188 187 134 188 187 134 188 187 134 188 187 134 188 187 134 188 187 134 188 187 134 188 187 134 188 187 134 188 187 134 188 187 134 188 187 134 188 187 134 188 187 134 188 187 134 188 187 134 188 187 134 188 187 134 188 187 134 188 187 134 188 187 134 188 187 134 188 187 134 0 0 255 0 0 255 192 199 159 192 199 159 192 199 159 192 199 159 192 199 159 192 199 159 192 199 159 192 199 159 192 199 159 192 199 159 192 199 159 192 199 159 192 199 159 192 199 159 192 199 159 192 199 159 192 199 159 192 199 159 192 199 159 192 199 159 192 199 159 192 199 159 192 199 159 192 199 159 192 199 159 192 199 159 192 199 159 192 199 159 192 199 159 192 199 159 192 199 159 192 199 159 192 199 159 192 199 159 192 199 159 192 199 159 192 199 159 192 199 159 192 199 159 192 199 159 192 199 159 192 199 159 192 199 159 192 199 159 192 199 159 192 199 159 192 199 159 192 199 159 192 199 159 192 199 159 192 199 159 192 199 159 192 199 159 192 199 159 192 199 159 192 199 159 0 0 255 0 0 255 194 201 169 194 201 169 194 201 169 194 201 169 194 201 169 194 201 169 194 201 169 194 201 169 194 201 169 194 201 169 194 201 169 194 201 169 194 201 169 194 201 169 194 201 169 194 201 169 194 201 169 194 201 169 194 201 169 194 201 169 194 201 169 0 0 255 0 0 255 192 201 168 192 201 168 192 201 168 192 201 168 192 201 168 192 201 168 192 201 168 192 201 168 192 201 168 192 201 168 192 201 168 192 201 168 192 201 168 192 201 168 192 201 168 192 201 168 192 201 168 192 201 168 192 201 168 192 201 168 192 201 168 192 201 168 192 201 168 192 201 168 192 201 168 192 201 168 192 201 168 192 201 168 192 201 168 192 201 168 192 201 168 192 201 168 192 201 168 192 201 168 192 201 168 192 201 168 192 201 168 192 201 168 192 201 168 192 201 168 192 201 168 192 201 168 192 201 168 192 201 168 192 201 168 192 201 168 192 201 168 192 201 168 192 201 168 192 201 168 192 201 168 192 201 168 192 201 168 192 201 168 192 201 168 192 201 168 192 201 168 192 201 168 192 201 168 192 201 168 192 201 168 192 201 168 192 201 168 0 0 255 0 0 255 194 199 167 194 199 167 194 199 167 194 199 167 194 199 167 194 199 167 194 199 167 194 199 167 194 199 167 194 199 167 194 199 167 194 199 167 194 199 167 194 199 167 194 199 167 194 199 167 194 199 167 194 199 167 194 199 167 194 199 167 194 199 167 194 199 167 194 199 167 194 199 167 194 199 167 194 199 167 194 199 167 194 199 167 194 199 167 194 199 167 194 199 167 194 199 167 194 199 167 194 199 167 194 199 167 194 199 167 194 199 167 194 199 167 194 199 167 194 199 167 194 199 167 194 199 167 194 199 167 194 199 167 194 199 167 194 199 167 194 199 167 194 199 167 194 199 167 194 199 167 194 199 167 194 199 167 194 199 167 194 199 167 188 187 134 188 187 134 188 187 134 188 187 134 188 187 134 188 187 134 188 187 134 188 187 134 188 187 134 188 187 134 188 187 134 188 187 134 188 187 134 188 187 134 188 187 134 188 187 134 188 187 134 188 187 134 188 187 134 188 187 134 188 187 134 188 187 134 188 187 134 188 187 134 188 187 134 188 187 134 188 187 134 188 187 134 188 187 134 188 187 134 188 187 134 188 187 134 188 187 134 188 187 134 188 187 134 188 187 134 188 187 134 188 187 134 188 187 134 188 187 134 188 187 134 188 187 134 188 187 134 188 187 134 188 187 134 188 187 134 188 187 134 188 187 134 188 187 134 188 187 134 188 187 134 188 187 134 188 187 134 188 187 134 188 187 134 192 199 159 192 199 159 192 199 159 192 199 159 192 199 159 192 199 159 192 199 159 192 199 159 192 199 159 192 199 159 192 199 159 192 199 159 192 199 159 192 199 159 192 199 159 192 199 159 192 199 159 192 199 159 192 199 159 192 199 159 192 199 159 192 199 159 192 199 159 192 199 159 192 199 159 192 199 159 192 199 159 192 199 159 192 199 159 192 199 159 192 199 159 192 199 159 192 199 159 192 199 159 192 199 159 192 199 159 192 199 159 192 199 159 192 199 159 192 199 159 192 199 159 192 199 159 192 199 159 192 199 159 192 199 159 192 199 159 192 199 159 192 199 159 192 199 159 192 199 159 192 199 159 192 199 159 192 199 159 192 199 159 192 199 159 192 199 159 192 199 159 192 199 159 194 201 169 194 201 169 194 201 169 194 201 169 194 201 169 194 201 169 194 201 169 194 201 169 194 201 169 194 201 169 194 201 169 194 201 169 194 201 169 194 201 169 194 201 169 194 201 169 194 201 169 194 201 169 194 201 169 194 201 169 194 201 169 194 201 169 194 201 169 192 201 168 192 201 168 192 201 168 192 201 168 192 201 168 192 201 168 192 201 168 192 201 168 192 201 168 192 201 168 192 201 168 192 201 168 192 201 168 192 201 168 192 201 168 192 201 168 192 201 168 192 201 168 192 201 168 192 201 168 192 201 168 192 201 168 192 201 168 192 201 168 192 201 168 192 201 168 192 201 168 192 201 168 192 201 168 192 201 168 192 201 168 192 201 168 192 201 168 192 201 168 192 201 168 192 201 168 192 201 168 192 201 168 192 201 168 192 201 168 192 201 168 192 201 168 192 201 168 192 201 168 192 201 168 192 201 168 192 201 168 192 201 168 192 201 168 192 201 168 192 201 168 192 201 168 192 201 168 192 201 168 192 201 168 192 201 168 192 201 168 192 201 168 192 201 168 192 201 168 192 201 168 192 201 168 192 201 168 192 201 168 192 201 168 194 199 167 194 199 167 194 199 167 194 199 167 194 199 167 194 199 167 194 199 167 194 199 167 194 199 167 194 199 167 194 199 167 194 199 167 194 199 167 194 199 167 194 199 167 194 199 167 194 199 167 194 199 167 194 199 167 194 199 167 194 199 167 194 199 167 194 199 167 194 199 167 194 199 167 194 199 167 194 199 167 194 199 167 194 199 167 194 199 167 194 199 167 194 199 167 194 199 167 194 199 167 194 199 167 194 199 167 194 199 167 194 199 167 194 199 167 194 199 167 194 199 167 194 199 167 194 199 167 194 199 167 194 199 167 194 199 167 194 199 167 194 199 167 194 199 167 194 199 167 194 199 167 194 199 167 194 199 167 194 199 167 194 199 167 