P3
256 256
255
99 40 166 99 40 166 99 40 166 99 40 166 99 40 166 99 40 166 99 40 166 99 40 166 99 40 166 99 40 166 99 40 166 99 40 166 99 40 166 99 40 166 99 40 166 99 40 166 99 40 166 99 40 166 99 40 166 99 40 166 99 40 166 99 40 166 99 40 166 99 40 166 99 40 166 98 40 165 98 40 165 98 40 165 98 40 165 98 40 165 98 40 165 98 40 165 98 40 165 98 40 165 98 40 165 98 40 165 98 40 165 98 40 165 98 40 165 98 40 165 98 40 165 98 40 165 98 40 165 98 40 165 98 40 165 98 40 165 98 40 165 98 40 165 98 40 165 98 40 165 98 40 165 100 40 166 100 40 166 100 40 166 100 40 166 100 40 166 100 40 166 100 40 166 100 40 166 100 40 166 100 40 166 100 40 166 100 40 166 100 40 166 100 40 166 100 40 166 100 40 166 100 40 166 100 40 166 100 40 166 100 40 166 100 40 166 100 40 166 100 40 166 100 40 166 100 40 166 100 40 166 100 40 166 101 39 166 101 39 166 101 39 166 101 39 166 101 39 166 101 39 166 101 39 166 101 39 166 101 39 166 101 39 166 101 39 166 101 39 166 101 39 166 101 39 166 101 39 166 101 39 166 101 39 166 101 39 166 101 39 166 101 39 166 101 39 166 101 39 166 101 39 166 101 39 166 101 39 166 101 39 166 101 39 166 101 39 166 100 40 165 100 40 165 100 40 165 100 40 165 100 40 165 100 40 165 100 40 165 100 40 165 100 40 165 100 40 165 100 40 165 100 40 165 100 40 165 100 40 165 100 40 165 100 40 165 100 40 165 100 40 165 100 40 165 100 40 165 100 40 165 100 40 165 100 40 165 100 40 165 100 40 165 100 40 165 100 40 165 100 40 165 100 40 165 100 40 165 103 40 165 103 40 165 103 40 165 103 40 165 103 40 165 103 40 165 103 40 165 103 40 165 103 40 165 103 40 165 103 40 165 103 40 165 103 40 165 103 40 165 103 40 165 103 40 165 103 40 165 103 40 165 103 40 165 103 40 165 103 40 165 103 40 165 103 40 165 103 40 165 103 40 165 103 40 165 103 40 165 103 40 165 103 40 165 103 40 165 103 40 165 103 40 165 103 40 165 103 40 165 103 40 165 103 40 165 103 40 165 103 40 165 103 40 165 103 40 165 103 40 165 103 40 165 103 40 165 103 40 165 103 40 165 103 40 165 103 40 165 103 40 165 103 40 165 103 40 165 103 40 165 103 40 165 103 40 165 103 40 165 103 40 165 103 40 165 103 40 165 103 40 165 103 40 165 103 40 165 103 40 165 103 40 165 103 40 165 103 40 165 103 40 165 103 40 165 103 40 165 103 40 165 103 40 165 103 40 165 103 40 165 103 40 165 103 40 165 103 40 165 103 40 165 103 40 165 103 40 165 103 40 165 103 40 165 103 40 165 103 40 165 103 40 165 103 40 165 103 40 165 103 40 165 103 40 165 103 40 165 103 40 165 103 40 165 103 40 165 102 40 166 102 40 166 102 40 166 102 40 166 102 40 166 102 40 166 102 40 166 102 40 166 102 40 166 102 40 166 102 40 166 102 40 166 102 40 166 102 40 166 102 40 166 102 40 166 102 40 166 102 40 166 102 40 166 102 40 166 102 40 166 102 40 166 102 40 166 102 40 166 102 40 166 102 40 166 102 40 166 102 40 166 102 40 166 102 40 166 159 196 223 159 196 223 159 196 223 159 196 223 159 196 223 159 196 223 159 196 223 159 196 223 159 196 223 159 196 223 159 196 223 159 196 223 159 196 223 159 196 223 159 196 223 159 196 223 159 196 223 159 196 223 159 196 223 159 196 223 159 196 223 159 196 223 159 196 223 159 196 223 159 196 223 159 196 223 159 196 223 159 196 223 159 196 223 159 196 223 159 196 223 159 196 223 159 196 223 159 196 223 159 196 223 159 196 223 158 196 223 158 196 223 158 196 223 158 196 223 158 196 223 158 196 223 158 196 223 158 196 223 158 196 223 158 196 223 158 196 223 158 196 223 158 196 223 158 196 223 158 196 223 158 196 223 158 196 223 158 196 223 158 196 223 158 196 223 158 196 223 158 196 223 158 196 223 158 196 223 158 196 223 158 196 223 158 196 223 158 196 223 158 196 223 158 196 223 161 196 222 161 196 222 161 196 222 161 196 222 161 196 222 161 196 222 161 196 222 161 196 222 161 196 222 161 196 222 161 196 222 161 196 222 161 196 222 161 196 222 161 196 222 161 196 222 161 196 222 161 196 222 161 196 222 161 196 222 161 196 222 161 196 222 161 196 222 161 196 222 161 196 222 161 196 222 161 196 222 161 196 222 161 196 222 161 196 222 161 196 222 161 196 222 161 196 222 161 196 222 161 196 222 161 196 222 161 196 222 161 196 222 161 196 222 161 196 222 161 196 222 161 196 222 161 196 222 161 196 222 159 196 223 159 196 223 159 196 223 159 196 223 159 196 223 159 196 223 159 196 223 159 196 223 159 196 223 159 196 223 159 196 223 159 196 223 159 196 223 159 196 223 159 196 223 159 196 223 159 196 223 159 196 223 159 196 223 159 196 223 159 196 223 159 196 223 159 196 223 159 196 223 159 196 223 159 196 223 159 196 223 159 196 223 159 196 223 159 196 223 159 196 223 159 196 223 159 196 223 159 196 223 159 196 223 159 196 223 159 196 223 159 196 223 159 196 223 159 196 223 159 196 223 159 196 223 159 196 223 159 196 223 159 196 223 159 196 223 159 196 223 159 196 223 159 196 223 159 196 223 159 196 223 159 196 223 159 196 223 159 196 223 159 196 223 159 196 223 159 196 223 159 196 223 159 196 223 159 196 223 159 196 223 159 196 223 159 196 223 159 196 223 159 196 223 159 196 223 159 196 223 159 196 223 159 196 223 159 196 223 159 196 223 159 196 223 159 196 223 159 196 223 159 196 223 159 196 223 159 196 223 159 196 223 159 196 223 159 196 223 159 196 223 159 196 223 159 196 223 159 196 223 159 196 223 159 196 223 159 196 223 159 196 223 159 196 223 159 196 223 159 196 223 159 196 223 159 196 223 159 196 223 159 196 223 159 196 223 159 196 223 159 196 223 159 196 223 159 196 223 159 196 223 159 196 223 159 196 223 159 196 223 159 196 223 159 196 223 159 196 223 159 196 223 159 196 223 159 196 223 159 196 223 159 196 223 159 196 223 159 196 223 159 196 223 159 196 223 157 196 224 157 196 224 157 196 224 157 196 224 157 196 224 157 196 224 157 196 224 157 196 224 157 196 224 157 196 224 157 196 224 157 196 224 157 196 224 157 196 224 157 196 224 157 196 224 157 196 224 157 196 224 157 196 224 157 196 224 157 196 224 157 196 224 157 196 224 157 196 224 157 196 224 157 196 224 157 196 224 157 196 224 157 196 224 157 196 224 159 196 223 159 196 223 159 196 223 159 196 223 159 196 223 159 196 223 159 196 223 159 196 223 159 196 223 159 196 223 159 196 223 159 196 223 159 196 223 159 196 223 159 196 223 159 196 223 159 196 223 159 196 223 159 196 223 159 196 223 159 196 223 159 196 223 159 196 223 159 196 223 159 196 223 159 196 223 159 196 223 159 196 223 159 196 223 159 196 223 159 196 223 159 196 223 159 196 223 159 196 223 159 196 223 158 196 223 158 196 223 158 196 223 158 196 223 158 196 223 158 196 223 158 196 223 158 196 223 158 196 223 158 196 223 158 196 223 158 196 223 158 196 223 158 196 223 158 196 223 158 196 223 158 196 223 158 196 223 158 196 223 158 196 223 158 196 223 158 196 223 158 196 223 158 196 223 158 196 223 158 196 223 158 196 223 158 196 223 158 196 223 158 196 223 158 196 223 158 196 223 158 196 223 158 196 223 161 196 222 161 196 222 161 196 222 161 196 222 161 196 222 161 196 222 161 196 222 161 196 222 161 196 222 161 196 222 161 196 222 161 196 222 161 196 222 161 196 222 161 196 222 161 196 222 161 196 222 161 196 222 161 196 222 161 196 222 161 196 222 161 196 222 161 196 222 161 196 222 161 196 222 161 196 222 161 196 222 161 196 222 161 196 222 161 196 222 161 196 222 161 196 222 161 196 222 161 196 222 161 196 222 161 196 222 161 196 222 161 196 222 161 196 222 161 196 222 159 196 223 159 196 223 159 196 223 159 196 223 159 196 223 159 196 223 159 196 223 159 196 223 159 196 223 159 196 223 159 196 223 159 196 223 159 196 223 159 196 223 159 196 223 159 196 223 159 196 223 159 196 223 159 196 223 159 196 223 159 196 223 159 196 223 159 196 223 159 196 223 159 196 223 159 196 223 159 196 223 159 196 223 159 196 223 159 196 223 159 196 223 159 196 223 159 196 223 159 196 223 159 196 223 159 196 223 159 196 223 159 196 223 159 196 223 159 196 223 159 196 223 159 196 223 159 196 223 159 196 223 159 196 223 159 196 223 159 196 223 159 196 223 159 196 223 159 196 223 159 196 223 159 196 223 159 196 223 159 196 223 159 196 223 159 196 223 159 196 223 159 196 223 159 196 223 159 196 223 159 196 223 159 196 223 159 196 223 159 196 223 159 196 223 159 196 223 159 196 223 159 196 223 159 196 223 159 196 223 159 196 223 159 196 223 159 196 223 159 196 223 159 196 223 159 196 223 159 196 223 159 196 223 159 196 223 159 196 223 159 196 223 159 196 223 159 196 223 159 196 223 159 196 223 159 196 223 159 196 223 159 196 223 159 196 223 159 196 223 159 196 223 159 196 223 159 196 223 159 196 223 159 196 223 159 196 223 159 196 223 159 196 223 159 196 223 159 196 223 159 196 223 159 196 223 159 196 223 159 196 223 159 196 223 159 196 223 159 196 223 159 196 223 159 196 223 159 196 223 159 196 223 159 196 223 159 196 223 159 196 223 159 196 223 157 196 224 157 196 224 157 196 224 157 196 224 157 196 224 157 196 224 157 196 224 157 196 224 157 196 224 157 196 224 157 196 224 157 196 224 157 196 224 157 196 224 157 196 224 157 196 224 157 196 224 157 196 224 157 196 224 157 196 224 157 196 224 157 196 224 157 196 224 157 196 224 157 196 224 157 196 224 157 196 224 157 196 224 157 196 224 157 196 224 157 196 224 157 196 224 159 196 223 159 196 223 159 196 223 159 196 223 159 196 223 159 196 223 159 196 223 159 196 223 159 196 223 159 196 223 159 196 223 159 196 223 159 196 223 159 196 223 159 196 223 159 196 223 159 196 223 159 196 223 159 196 223 159 196 223 159 196 223 159 196 223 159 196 223 159 196 223 159 196 223 159 196 223 159 196 223 159 196 223 159 196 223 159 196 223 159 196 223 159 196 223 159 196 223 159 196 223 159 196 223 158 196 223 158 196 223 158 196 223 158 196 223 158 196 223 158 196 223 158 196 223 158 196 223 158 196 223 158 196 223 158 196 223 158 196 223 158 196 223 158 196 223 158 196 223 158 196 223 158 196 223 158 196 223 158 196 223 158 196 223 158 196 223 158 196 223 158 196 223 158 196 223 158 196 223 158 196 223 158 196 223 158 196 223 158 196 223 158 196 223 158 196 223 158 196 223 158 196 223 158 196 223 158 196 223 161 196 222 161 196 222 161 196 222 161 196 222 161 196 222 161 196 222 161 196 222 161 196 222 161 196 222 161 196 222 161 196 222 161 196 222 161 196 222 161 196 222 161 196 222 161 196 222 161 196 222 161 196 222 161 196 222 161 196 222 161 196 222 161 196 222 161 196 222 161 196 222 161 196 222 161 196 222 161 196 222 161 196 222 161 196 222 161 196 222 161 196 222 161 196 222 161 196 222 161 196 222 161 196 222 161 196 222 161 196 222 161 196 222 159 196 223 159 196 223 159 196 223 159 196 223 159 196 223 159 196 223 159 196 223 159 196 223 159 196 223 159 196 223 159 196 223 159 196 223 159 196 223 159 196 223 159 196 223 159 196 223 159 196 223 159 196 223 159 196 223 159 196 223 159 196 223 159 196 223 159 196 223 159 196 223 159 196 223 159 196 223 159 196 223 159 196 223 159 196 223 159 196 223 159 196 223 159 196 223 159 196 223 159 196 223 159 196 223 159 196 223 159 196 223 159 196 223 159 196 223 159 196 223 159 196 223 159 196 223 159 196 223 159 196 223 159 196 223 159 196 223 159 196 223 159 196 223 159 196 223 159 196 223 159 196 223 159 196 223 159 196 223 159 196 223 159 196 223 159 196 223 159 196 223 159 196 223 159 196 223 159 196 223 159 196 223 159 196 223 159 196 223 159 196 223 159 196 223 159 196 223 159 196 223 159 196 223 159 196 223 159 196 223 159 196 223 159 196 223 159 196 223 159 196 223 159 196 223 159 196 223 159 196 223 159 196 223 159 196 223 159 196 223 159 196 223 159 196 223 159 196 223 159 196 223 159 196 223 159 196 223 159 196 223 159 196 223 159 196 223 159 196 223 159 196 223 159 196 223 159 196 223 159 196 223 159 196 223 159 196 223 159 196 223 159 196 223 159 196 223 159 196 223 159 196 223 159 196 223 159 196 223 159 196 223 159 196 223 159 196 223 159 196 223 159 196 223 159 196 223 159 196 223 159 196 223 159 196 223 159 196 223 159 196 223 159 196 223 157 196 224 157 196 224 157 196 224 157 196 224 157 196 224 157 196 224 157 196 224 157 196 224 157 196 224 157 196 224 157 196 224 157 196 224 157 196 224 157 196 224 157 196 224 157 196 224 157 196 224 157 196 224 157 196 224 157 196 224 157 196 224 157 196 224 157 196 224 157 196 224 157 196 224 157 196 224 157 196 224 157 196 224 157 196 224 157 196 224 157 196 224 157 196 224 157 196 224 159 196 223 159 196 223 159 196 223 159 196 223 159 196 223 159 196 223 159 196 223 159 196 223 159 196 223 159 196 223 159 196 223 159 196 223 159 196 223 159 196 223 159 196 223 159 196 223 159 196 223 159 196 223 159 196 223 159 196 223 159 196 223 159 196 223 159 196 223 159 196 223 159 196 223 159 196 223 159 196 223 159 196 223 159 196 223 159 196 223 159 196 223 159 196 223 159 196 223 159 196 223 159 196 223 158 196 223 158 196 223 158 196 223 158 196 223 158 196 223 158 196 223 158 196 223 158 196 223 158 196 223 158 196 223 158 196 223 158 196 223 158 196 223 158 196 223 158 196 223 158 196 223 158 196 223 158 196 223 158 196 223 158 196 223 158 196 223 158 196 223 158 196 223 158 196 223 158 196 223 158 196 223 158 196 223 158 196 223 158 196 223 158 196 223 158 196 223 158 196 223 158 196 223 158 196 223 158 196 223 161 196 222 161 196 222 161 196 222 161 196 222 161 196 222 161 196 222 161 196 222 161 196 222 161 196 222 161 196 222 161 196 222 161 196 222 161 196 222 161 196 222 161 196 222 161 196 222 161 196 222 161 196 222 161 196 222 161 196 222 161 196 222 161 196 222 161 196 222 161 196 222 161 196 222 161 196 222 161 196 222 161 196 222 161 196 222 161 196 222 161 196 222 161 196 222 161 196 222 161 196 222 161 196 222 161 196 222 161 196 222 161 196 222 159 196 223 159 196 223 159 196 223 159 196 223 159 196 223 159 196 223 159 196 223 159 196 223 159 196 223 159 196 223 159 196 223 159 196 223 159 196 223 159 196 223 159 196 223 159 196 223 159 196 223 159 196 223 159 196 223 159 196 223 159 196 223 159 196 223 159 196 223 159 196 223 159 196 223 159 196 223 159 196 223 159 196 223 159 196 223 159 196 223 159 196 223 159 196 223 159 196 223 159 196 223 159 196 223 159 196 223 159 196 223 159 196 223 159 196 223 159 196 223 159 196 223 159 196 223 159 196 223 159 196 223 159 196 223 159 196 223 159 196 223 159 196 223 159 196 223 159 196 223 159 196 223 159 196 223 159 196 223 159 196 223 159 196 223 159 196 223 159 196 223 159 196 223 159 196 223 159 196 223 159 196 223 159 196 223 159 196 223 159 196 223 159 196 223 159 196 223 159 196 223 159 196 223 159 196 223 159 196 223 159 196 223 159 196 223 159 196 223 159 196 223 159 196 223 159 196 223 159 196 223 159 196 223 159 196 223 159 196 223 159 196 223 159 196 223 159 196 223 159 196 223 159 196 223 159 196 223 159 196 223 159 196 223 159 196 223 159 196 223 159 196 223 159 196 223 159 196 223 159 196 223 159 196 223 159 196 223 159 196 223 159 196 223 159 196 223 159 196 223 159 196 223 159 196 223 159 196 223 159 196 223 159 196 223 159 196 223 159 196 223 159 196 223 159 196 223 159 196 223 159 196 223 159 196 223 159 196 223 159 196 223 159 196 223 157 196 224 157 196 224 157 196 224 157 196 224 157 196 224 157 196 224 157 196 224 157 196 224 157 196 224 157 196 224 157 196 224 157 196 224 157 196 224 157 196 224 157 196 224 157 196 224 157 196 224 157 196 224 157 196 224 157 196 224 157 196 224 157 196 224 157 196 224 157 196 224 157 196 224 157 196 224 157 196 224 157 196 224 157 196 224 157 196 224 157 196 224 157 196 224 157 196 224 159 196 223 159 196 223 159 196 223 159 196 223 159 196 223 159 196 223 159 196 223 159 196 223 159 196 223 159 196 223 159 196 223 159 196 223 159 196 223 159 196 223 159 196 223 159 196 223 159 196 223 159 196 223 159 196 223 159 196 223 159 196 223 159 196 223 159 196 223 159 196 223 159 196 223 159 196 223 159 196 223 159 196 223 159 196 223 159 196 223 159 196 223 159 196 223 159 196 223 159 196 223 159 196 223 158 196 223 158 196 223 158 196 223 158 196 223 158 196 223 158 196 223 158 196 223 158 196 223 158 196 223 158 196 223 158 196 223 158 196 223 158 196 223 158 196 223 158 196 223 158 196 223 158 196 223 158 196 223 158 196 223 158 196 223 158 196 223 158 196 223 158 196 223 158 196 223 158 196 223 158 196 223 158 196 223 158 196 223 158 196 223 158 196 223 158 196 223 158 196 223 158 196 223 158 196 223 158 196 223 161 196 222 161 196 222 161 196 222 161 196 222 161 196 222 161 196 222 161 196 222 161 196 222 161 196 222 161 196 222 161 196 222 161 196 222 161 196 222 161 196 222 161 196 222 161 196 222 161 196 222 161 196 222 161 196 222 161 196 222 161 196 222 161 196 222 161 196 222 161 196 222 161 196 222 161 196 222 161 196 222 161 196 222 161 196 222 161 196 222 161 196 222 161 196 222 161 196 222 161 196 222 161 196 222 161 196 222 161 196 222 161 196 222 159 196 223 159 196 223 159 196 223 159 196 223 159 196 223 159 196 223 159 196 223 159 196 223 159 196 223 159 196 223 159 196 223 159 196 223 159 196 223 159 196 223 159 196 223 159 196 223 159 196 223 159 196 223 159 196 223 159 196 223 159 196 223 159 196 223 159 196 223 159 196 223 159 196 223 159 196 223 159 196 223 159 196 223 159 196 223 159 196 223 159 196 223 159 196 223 159 196 223 159 196 223 159 196 223 159 196 223 159 196 223 159 196 223 159 196 223 159 196 223 159 196 223 159 196 223 159 196 223 159 196 223 159 196 223 159 196 223 159 196 223 159 196 223 159 196 223 159 196 223 159 196 223 159 196 223 159 196 223 159 196 223 159 196 223 159 196 223 159 196 223 159 196 223 159 196 223 159 196 223 159 196 223 159 196 223 159 196 223 159 196 223 159 196 223 159 196 223 159 196 223 159 196 223 159 196 223 159 196 223 159 196 223 159 196 223 159 196 223 159 196 223 159 196 223 159 196 223 159 196 223 159 196 223 159 196 223 159 196 223 159 196 223 159 196 223 159 196 223 159 196 223 159 196 223 159 196 223 159 196 223 159 196 223 159 196 223 159 196 223 159 196 223 159 196 223 159 196 223 159 196 223 159 196 223 159 196 223 159 196 223 159 196 223 159 196 223 159 196 223 159 196 223 159 196 223 159 196 223 159 196 223 159 196 223 159 196 223 159 196 223 159 196 223 159 196 223 159 196 223 159 196 223 159 196 223 159 196 223 159 196 223 159 196 223 157 196 224 157 196 224 157 196 224 157 196 224 157 196 224 157 196 224 157 196 224 157 196 224 157 196 224 157 196 224 157 196 224 157 196 224 157 196 224 157 196 224 157 196 224 157 196 224 157 196 224 157 196 224 157 196 224 157 196 224 157 196 224 157 196 224 157 196 224 157 196 224 157 196 224 157 196 224 157 196 224 157 196 224 157 196 224 157 196 224 157 196 224 157 196 224 157 196 224 159 196 223 159 196 223 159 196 223 159 196 223 159 196 223 159 196 223 159 196 223 159 196 223 159 196 223 159 196 223 159 196 223 159 196 223 159 196 223 159 196 223 159 196 223 159 196 223 159 196 223 159 196 223 159 196 223 159 196 223 159 196 223 159 196 223 159 196 223 159 196 223 159 196 223 159 196 223 159 196 223 159 196 223 159 196 223 159 196 223 159 196 223 159 196 223 159 196 223 159 196 223 159 196 223 158 196 223 158 196 223 158 196 223 158 196 223 158 196 223 158 196 223 158 196 223 158 196 223 158 196 223 158 196 223 158 196 223 158 196 223 158 196 223 158 196 223 158 196 223 158 196 223 158 196 223 158 196 223 158 196 223 158 196 223 158 196 223 158 196 223 158 196 223 158 196 223 158 196 223 158 196 223 158 196 223 158 196 223 158 196 223 158 196 223 158 196 223 158 196 223 158 196 223 158 196 223 158 196 223 161 196 222 161 196 222 161 196 222 161 196 222 161 196 222 161 196 222 161 196 222 161 196 222 161 196 222 161 196 222 161 196 222 161 196 222 161 196 222 161 196 222 161 196 222 161 196 222 161 196 222 161 196 222 161 196 222 161 196 222 161 196 222 161 196 222 161 196 222 161 196 222 161 196 222 161 196 222 161 196 222 161 196 222 161 196 222 161 196 222 161 196 222 161 196 222 161 196 222 161 196 222 161 196 222 161 196 222 161 196 222 161 196 222 159 196 223 159 196 223 159 196 223 159 196 223 159 196 223 159 196 223 159 196 223 159 196 223 159 196 223 159 196 223 159 196 223 159 196 223 159 196 223 159 196 223 159 196 223 159 196 223 159 196 223 159 196 223 159 196 223 159 196 223 159 196 223 159 196 223 159 196 223 159 196 223 159 196 223 159 196 223 159 196 223 159 196 223 159 196 223 159 196 223 159 196 223 159 196 223 159 196 223 159 196 223 159 196 223 159 196 223 159 196 223 159 196 223 159 196 223 159 196 223 159 196 223 159 196 223 159 196 223 159 196 223 159 196 223 159 196 223 159 196 223 159 196 223 159 196 223 159 196 223 159 196 223 159 196 223 159 196 223 159 196 223 159 196 223 159 196 223 159 196 223 159 196 223 159 196 223 159 196 223 159 196 223 159 196 223 159 196 223 159 196 223 159 196 223 159 196 223 159 196 223 159 196 223 159 196 223 159 196 223 159 196 223 159 196 223 159 196 223 159 196 223 159 196 223 159 196 223 159 196 223 159 196 223 159 196 223 159 196 223 159 196 223 159 196 223 159 196 223 159 196 223 159 196 223 159 196 223 159 196 223 159 196 223 159 196 223 159 196 223 159 196 223 159 196 223 159 196 223 159 196 223 159 196 223 159 196 223 159 196 223 159 196 223 159 196 223 159 196 223 159 196 223 159 196 223 159 196 223 159 196 223 159 196 223 159 196 223 159 196 223 159 196 223 159 196 223 159 196 223 159 196 223 159 196 223 159 196 223 159 196 223 159 196 223 157 196 224 157 196 224 157 196 224 157 196 224 157 196 224 157 196 224 157 196 224 157 196 224 157 196 224 157 196 224 157 196 224 157 196 224 157 196 224 157 196 224 157 196 224 157 196 224 157 196 224 157 196 224 157 196 224 157 196 224 157 196 224 157 196 224 157 196 224 157 196 224 157 196 224 157 196 224 157 196 224 157 196 224 157 196 224 157 196 224 157 196 224 157 196 224 157 196 224 159 196 223 159 196 223 159 196 223 159 196 223 159 196 223 159 196 223 159 196 223 159 196 223 159 196 223 159 196 223 159 196 223 159 196 223 159 196 223 159 196 223 159 196 223 159 196 223 159 196 223 159 196 223 159 196 223 159 196 223 159 196 223 159 196 223 159 196 223 159 196 223 159 196 223 159 196 223 159 196 223 159 196 223 159 196 223 159 196 223 159 196 223 159 196 223 159 196 223 159 196 223 159 196 223 158 196 223 158 196 223 158 196 223 158 196 223 158 196 223 158 196 223 158 196 223 158 196 223 158 196 223 158 196 223 158 196 223 158 196 223 158 196 223 158 196 223 158 196 223 158 196 223 158 196 223 158 196 223 158 196 223 158 196 223 158 196 223 158 196 223 158 196 223 158 196 223 158 196 223 158 196 223 158 196 223 158 196 223 158 196 223 158 196 223 158 196 223 158 196 223 158 196 223 158 196 223 158 196 223 161 196 222 161 196 222 161 196 222 161 196 222 161 196 222 161 196 222 161 196 222 161 196 222 161 196 222 161 196 222 161 196 222 161 196 222 161 196 222 161 196 222 161 196 222 161 196 222 161 196 222 161 196 222 161 196 222 161 196 222 161 196 222 161 196 222 161 196 222 161 196 222 161 196 222 161 196 222 161 196 222 161 196 222 161 196 222 161 196 222 161 196 222 161 196 222 161 196 222 161 196 222 161 196 222 161 196 222 161 196 222 161 196 222 159 196 223 159 196 223 159 196 223 159 196 223 159 196 223 159 196 223 159 196 223 159 196 223 159 196 223 159 196 223 159 196 223 159 196 223 159 196 223 159 196 223 159 196 223 159 196 223 159 196 223 159 196 223 159 196 223 159 196 223 159 196 223 159 196 223 159 196 223 159 196 223 159 196 223 159 196 223 159 196 223 159 196 223 159 196 223 159 196 223 159 196 223 159 196 223 159 196 223 159 196 223 159 196 223 159 196 223 159 196 223 159 196 223 159 196 223 159 196 223 159 196 223 159 196 223 159 196 223 159 196 223 159 196 223 159 196 223 159 196 223 159 196 223 159 196 223 159 196 223 159 196 223 159 196 223 159 196 223 159 196 223 159 196 223 159 196 223 159 196 223 159 196 223 159 196 223 159 196 223 159 196 223 159 196 223 159 196 223 159 196 223 159 196 223 159 196 223 159 196 223 159 196 223 159 196 223 159 196 223 159 196 223 159 196 223 159 196 223 159 196 223 159 196 223 159 196 223 159 196 223 159 196 223 159 196 223 159 196 223 159 196 223 159 196 223 159 196 223 159 196 223 159 196 223 159 196 223 159 196 223 159 196 223 159 196 223 159 196 223 159 196 223 159 196 223 159 196 223 159 196 223 159 196 223 159 196 223 159 196 223 159 196 223 159 196 223 159 196 223 159 196 223 159 196 223 159 196 223 159 196 223 159 196 223 159 196 223 159 196 223 159 196 223 159 196 223 159 196 223 159 196 223 159 196 223 159 196 223 159 196 223 159 196 223 157 196 224 157 196 224 157 196 224 157 196 224 157 196 224 157 196 224 157 196 224 157 196 224 157 196 224 157 196 224 157 196 224 157 196 224 157 196 224 157 196 224 157 196 224 157 196 224 157 196 224 157 196 224 157 196 224 157 196 224 157 196 224 157 196 224 157 196 224 157 196 224 157 196 224 157 196 224 157 196 224 157 196 224 157 196 224 157 196 224 157 196 224 157 196 224 157 196 224 159 196 223 159 196 223 159 196 223 159 196 223 159 196 223 159 196 223 159 196 223 159 196 223 159 196 223 159 196 223 159 196 223 159 196 223 159 196 223 159 196 223 159 196 223 159 196 223 159 196 223 159 196 223 159 196 223 159 196 223 159 196 223 159 196 223 159 196 223 159 196 223 159 196 223 159 196 223 159 196 223 159 196 223 159 196 223 159 196 223 159 196 223 159 196 223 159 196 223 159 196 223 159 196 223 158 196 223 158 196 223 158 196 223 158 196 223 158 196 223 158 196 223 158 196 223 158 196 223 158 196 223 158 196 223 158 196 223 158 196 223 158 196 223 158 196 223 158 196 223 158 196 223 158 196 223 158 196 223 158 196 223 158 196 223 158 196 223 158 196 223 158 196 223 158 196 223 158 196 223 158 196 223 158 196 223 158 196 223 158 196 223 158 196 223 158 196 223 158 196 223 158 196 223 158 196 223 158 196 223 161 196 222 161 196 222 161 196 222 161 196 222 161 196 222 161 196 222 161 196 222 161 196 222 161 196 222 161 196 222 161 196 222 161 196 222 161 196 222 161 196 222 161 196 222 161 196 222 161 196 222 161 196 222 161 196 222 161 196 222 161 196 222 161 196 222 161 196 222 161 196 222 161 196 222 161 196 222 161 196 222 161 196 222 161 196 222 161 196 222 161 196 222 161 196 222 161 196 222 161 196 222 161 196 222 161 196 222 161 196 222 161 196 222 159 196 223 159 196 223 159 196 223 159 196 223 159 196 223 159 196 223 159 196 223 159 196 223 159 196 223 159 196 223 159 196 223 159 196 223 159 196 223 159 196 223 159 196 223 159 196 223 159 196 223 159 196 223 159 196 223 159 196 223 159 196 223 159 196 223 159 196 223 159 196 223 159 196 223 159 196 223 159 196 223 159 196 223 159 196 223 159 196 223 159 196 223 159 196 223 159 196 223 159 196 223 159 196 223 159 196 223 159 196 223 159 196 223 159 196 223 159 196 223 159 196 223 159 196 223 159 196 223 159 196 223 159 196 223 159 196 223 159 196 223 159 196 223 159 196 223 159 196 223 159 196 223 159 196 223 159 196 223 159 196 223 159 196 223 159 196 223 159 196 223 159 196 223 159 196 223 159 196 223 159 196 223 159 196 223 159 196 223 159 196 223 159 196 223 159 196 223 159 196 223 159 196 223 159 196 223 159 196 223 159 196 223 159 196 223 159 196 223 159 196 223 159 196 223 159 196 223 159 196 223 159 196 223 159 196 223 159 196 223 159 196 223 159 196 223 159 196 223 159 196 223 159 196 223 159 196 223 159 196 223 159 196 223 159 196 223 159 196 223 159 196 223 159 196 223 159 196 223 159 196 223 159 196 223 159 196 223 159 196 223 159 196 223 159 196 223 159 196 223 159 196 223 159 196 223 159 196 223 159 196 223 159 196 223 159 196 223 159 196 223 159 196 223 159 196 223 159 196 223 159 196 223 159 196 223 159 196 223 159 196 223 159 196 223 157 196 224 157 196 224 157 196 224 157 196 224 157 196 224 157 196 224 157 196 224 157 196 224 157 196 224 157 196 224 157 196 224 157 196 224 157 196 224 157 196 224 157 196 224 157 196 224 157 196 224 157 196 224 157 196 224 157 196 224 157 196 224 157 196 224 157 196 224 157 196 224 157 196 224 157 196 224 157 196 224 157 196 224 157 196 224 157 196 224 157 196 224 157 196 224 157 196 224 159 196 223 159 196 223 159 196 223 159 196 223 159 196 223 159 196 223 159 196 223 159 196 223 159 196 223 159 196 223 159 196 223 159 196 223 159 196 223 159 196 223 159 196 223 159 196 223 159 196 223 159 196 223 159 196 223 159 196 223 159 196 223 159 196 223 159 196 223 159 196 223 159 196 223 159 196 223 159 196 223 159 196 223 159 196 223 159 196 223 159 196 223 159 196 223 159 196 223 159 196 223 159 196 223 158 196 223 158 196 223 158 196 223 158 196 223 158 196 223 158 196 223 158 196 223 158 196 223 158 196 223 158 196 223 158 196 223 158 196 223 158 196 223 158 196 223 158 196 223 158 196 223 158 196 223 158 196 223 158 196 223 158 196 223 158 196 223 158 196 223 158 196 223 158 196 223 158 196 223 158 196 223 158 196 223 158 196 223 158 196 223 158 196 223 158 196 223 158 196 223 158 196 223 158 196 223 158 196 223 161 196 222 161 196 222 161 196 222 161 196 222 161 196 222 161 196 222 161 196 222 161 196 222 161 196 222 161 196 222 161 196 222 161 196 222 161 196 222 161 196 222 161 196 222 161 196 222 161 196 222 161 196 222 161 196 222 161 196 222 161 196 222 161 196 222 161 196 222 161 196 222 161 196 222 161 196 222 161 196 222 161 196 222 161 196 222 161 196 222 161 196 222 161 196 222 161 196 222 161 196 222 161 196 222 161 196 222 161 196 222 161 196 222 159 196 223 159 196 223 159 196 223 159 196 223 159 196 223 159 196 223 159 196 223 159 196 223 159 196 223 159 196 223 159 196 223 159 196 223 159 196 223 159 196 223 159 196 223 159 196 223 159 196 223 159 196 223 159 196 223 159 196 223 159 196 223 159 196 223 159 196 223 159 196 223 159 196 223 159 196 223 159 196 223 159 196 223 159 196 223 159 196 223 159 196 223 159 196 223 159 196 223 159 196 223 159 196 223 159 196 223 159 196 223 159 196 223 159 196 223 159 196 223 159 196 223 159 196 223 159 196 223 159 196 223 159 196 223 159 196 223 159 196 223 159 196 223 159 196 223 159 196 223 159 196 223 159 196 223 159 196 223 159 196 223 159 196 223 159 196 223 159 196 223 159 196 223 159 196 223 159 196 223 159 196 223 159 196 223 159 196 223 159 196 223 159 196 223 159 196 223 159 196 223 159 196 223 159 196 223 159 196 223 159 196 223 159 196 223 159 196 223 159 196 223 159 196 223 159 196 223 159 196 223 159 196 223 159 196 223 159 196 223 159 196 223 159 196 223 159 196 223 159 196 223 159 196 223 159 196 223 159 196 223 159 196 223 159 196 223 159 196 223 159 196 223 159 196 223 159 196 223 159 196 223 159 196 223 159 196 223 159 196 223 159 196 223 159 196 223 159 196 223 159 196 223 159 196 223 159 196 223 159 196 223 159 196 223 159 196 223 159 196 223 159 196 223 159 196 223 159 196 223 159 196 223 159 196 223 159 196 223 159 196 223 159 196 223 157 196 224 157 196 224 157 196 224 157 196 224 157 196 224 157 196 224 157 196 224 157 196 224 157 196 224 157 196 224 157 196 224 157 196 224 157 196 224 157 196 224 157 196 224 157 196 224 157 196 224 157 196 224 157 196 224 157 196 224 157 196 224 157 196 224 157 196 224 157 196 224 157 196 224 157 196 224 157 196 224 157 196 224 157 196 224 157 196 224 157 196 224 157 196 224 157 196 224 159 196 223 159 196 223 159 196 223 159 196 223 159 196 223 159 196 223 159 196 223 159 196 223 159 196 223 159 196 223 159 196 223 159 196 223 159 196 223 159 196 223 159 196 223 159 196 223 159 196 223 159 196 223 159 196 223 159 196 223 159 196 223 159 196 223 159 196 223 159 196 223 159 196 223 159 196 223 159 196 223 159 196 223 159 196 223 159 196 223 159 196 223 159 196 223 159 196 223 159 196 223 158 196 223 158 196 223 158 196 223 158 196 223 158 196 223 158 196 223 158 196 223 158 196 223 158 196 223 158 196 223 158 196 223 158 196 223 158 196 223 158 196 223 158 196 223 158 196 223 158 196 223 158 196 223 158 196 223 158 196 223 158 196 223 158 196 223 158 196 223 158 196 223 158 196 223 158 196 223 158 196 223 158 196 223 158 196 223 158 196 223 158 196 223 158 196 223 158 196 223 158 196 223 158 196 223 158 196 223 158 196 223 161 196 222 161 196 222 161 196 222 161 196 222 161 196 222 161 196 222 161 196 222 161 196 222 161 196 222 161 196 222 161 196 222 161 196 222 161 196 222 161 196 222 161 196 222 161 196 222 161 196 222 161 196 222 161 196 222 161 196 222 161 196 222 161 196 222 161 196 222 161 196 222 161 196 222 161 196 222 161 196 222 161 196 222 161 196 222 161 196 222 161 196 222 161 196 222 161 196 222 161 196 222 161 196 222 161 196 222 161 196 222 159 196 223 159 196 223 159 196 223 159 196 223 159 196 223 159 196 223 159 196 223 159 196 223 159 196 223 159 196 223 159 196 223 159 196 223 159 196 223 159 196 223 159 196 223 159 196 223 159 196 223 159 196 223 159 196 223 159 196 223 159 196 223 159 196 223 159 196 223 159 196 223 159 196 223 159 196 223 159 196 223 159 196 223 159 196 223 159 196 223 159 196 223 159 196 223 159 196 223 159 196 223 159 196 223 159 196 223 159 196 223 159 196 223 159 196 223 159 196 223 159 196 223 159 196 223 159 196 223 159 196 223 159 196 223 159 196 223 159 196 223 159 196 223 159 196 223 159 196 223 159 196 223 159 196 223 159 196 223 159 196 223 159 196 223 159 196 223 159 196 223 159 196 223 159 196 223 159 196 223 159 196 223 159 196 223 159 196 223 159 196 223 159 196 223 159 196 223 159 196 223 159 196 223 159 196 223 159 196 223 159 196 223 159 196 223 159 196 223 159 196 223 159 196 223 159 196 223 159 196 223 159 196 223 159 196 223 159 196 223 159 196 223 159 196 223 159 196 223 159 196 223 159 196 223 159 196 223 159 196 223 159 196 223 159 196 223 159 196 223 159 196 223 159 196 223 159 196 223 159 196 223 159 196 223 159 196 223 159 196 223 159 196 223 159 196 223 159 196 223 159 196 223 159 196 223 159 196 223 159 196 223 159 196 223 159 196 223 159 196 223 159 196 223 159 196 223 159 196 223 159 196 223 159 196 223 159 196 223 159 196 223 159 196 223 157 196 224 157 196 224 157 196 224 157 196 224 157 196 224 157 196 224 157 196 224 157 196 224 157 196 224 157 196 224 157 196 224 157 196 224 157 196 224 157 196 224 157 196 224 157 196 224 157 196 224 157 196 224 157 196 224 157 196 224 157 196 224 157 196 224 157 196 224 157 196 224 157 196 224 157 196 224 157 196 224 157 196 224 157 196 224 157 196 224 157 196 224 157 196 224 157 196 224 159 196 223 159 196 223 159 196 223 159 196 223 159 196 223 159 196 223 159 196 223 159 196 223 159 196 223 159 196 223 159 196 223 159 196 223 159 196 223 159 196 223 159 196 223 159 196 223 159 196 223 159 196 223 159 196 223 159 196 223 159 196 223 159 196 223 159 196 223 159 196 223 159 196 223 159 196 223 159 196 223 159 196 223 159 196 223 159 196 223 159 196 223 159 196 223 159 196 223 159 196 223 159 196 223 158 196 223 158 196 223 158 196 223 158 196 223 158 196 223 158 196 223 158 196 223 158 196 223 158 196 223 158 196 223 158 196 223 158 196 223 158 196 223 158 196 223 158 196 223 158 196 223 158 196 223 158 196 223 158 196 223 158 196 223 158 196 223 158 196 223 158 196 223 158 196 223 158 196 223 158 196 223 158 196 223 158 196 223 158 196 223 158 196 223 158 196 223 158 196 223 158 196 223 158 196 223 158 196 223 158 196 223 161 196 222 161 196 222 161 196 222 161 196 222 161 196 222 161 196 222 161 196 222 161 196 222 161 196 222 161 196 222 161 196 222 161 196 222 161 196 222 161 196 222 161 196 222 161 196 222 161 196 222 161 196 222 161 196 222 161 196 222 161 196 222 161 196 222 161 196 222 161 196 222 161 196 222 161 196 222 161 196 222 161 196 222 161 196 222 161 196 222 161 196 222 161 196 222 161 196 222 161 196 222 161 196 222 161 196 222 159 196 223 159 196 223 159 196 223 159 196 223 159 196 223 159 196 223 159 196 223 159 196 223 159 196 223 159 196 223 159 196 223 159 196 223 159 196 223 159 196 223 159 196 223 159 196 223 159 196 223 159 196 223 159 196 223 159 196 223 159 196 223 159 196 223 159 196 223 159 196 223 159 196 223 159 196 223 159 196 223 159 196 223 159 196 223 159 196 223 159 196 223 159 196 223 159 196 223 159 196 223 159 196 223 159 196 223 159 196 223 159 196 223 159 196 223 159 196 223 159 196 223 159 196 223 159 196 223 159 196 223 159 196 223 159 196 223 159 196 223 159 196 223 159 196 223 159 196 223 159 196 223 159 196 223 159 196 223 159 196 223 159 196 223 159 196 223 159 196 223 159 196 223 159 196 223 159 196 223 159 196 223 159 196 223 159 196 223 159 196 223 159 196 223 159 196 223 159 196 223 159 196 223 159 196 223 159 196 223 159 196 223 159 196 223 159 196 223 159 196 223 159 196 223 159 196 223 159 196 223 159 196 223 159 196 223 159 196 223 159 196 223 159 196 223 159 196 223 159 196 223 159 196 223 159 196 223 159 196 223 159 196 223 159 196 223 159 196 223 159 196 223 159 196 223 159 196 223 159 196 223 159 196 223 159 196 223 159 196 223 159 196 223 159 196 223 159 196 223 159 196 223 159 196 223 159 196 223 159 196 223 159 196 223 159 196 223 159 196 223 159 196 223 159 196 223 159 196 223 159 196 223 159 196 223 159 196 223 159 196 223 159 196 223 157 196 224 157 196 224 157 196 224 157 196 224 157 196 224 157 196 224 157 196 224 157 196 224 157 196 224 157 196 224 157 196 224 157 196 224 157 196 224 157 196 224 157 196 224 157 196 224 157 196 224 157 196 224 157 196 224 157 196 224 157 196 224 157 196 224 157 196 224 157 196 224 157 196 224 157 196 224 157 196 224 157 196 224 157 196 224 157 196 224 157 196 224 157 196 224 157 196 224 157 196 224 159 196 223 159 196 223 159 196 223 159 196 223 159 196 223 159 196 223 159 196 223 159 196 223 159 196 223 159 196 223 159 196 223 159 196 223 159 196 223 159 196 223 159 196 223 159 196 223 159 196 223 159 196 223 159 196 223 159 196 223 159 196 223 159 196 223 159 196 223 159 196 223 159 196 223 159 196 223 159 196 223 159 196 223 159 196 223 159 196 223 159 196 223 159 196 223 159 196 223 159 196 223 158 196 223 158 196 223 158 196 223 158 196 223 158 196 223 158 196 223 158 196 223 158 196 223 158 196 223 158 196 223 158 196 223 158 196 223 158 196 223 158 196 223 158 196 223 158 196 223 158 196 223 158 196 223 158 196 223 158 196 223 158 196 223 158 196 223 158 196 223 158 196 223 158 196 223 158 196 223 158 196 223 158 196 223 158 196 223 158 196 223 158 196 223 158 196 223 158 196 223 158 196 223 158 196 223 158 196 223 158 196 223 161 196 222 161 196 222 161 196 222 161 196 222 161 196 222 161 196 222 161 196 222 161 196 222 161 196 222 161 196 222 161 196 222 161 196 222 161 196 222 161 196 222 161 196 222 161 196 222 161 196 222 161 196 222 161 196 222 161 196 222 161 196 222 161 196 222 161 196 222 161 196 222 161 196 222 161 196 222 161 196 222 161 196 222 161 196 222 161 196 222 161 196 222 161 196 222 161 196 222 161 196 222 161 196 222 161 196 222 159 196 223 159 196 223 159 196 223 159 196 223 159 196 223 159 196 223 159 196 223 159 196 223 159 196 223 159 196 223 159 196 223 159 196 223 159 196 223 159 196 223 159 196 223 159 196 223 159 196 223 159 196 223 159 196 223 159 196 223 159 196 223 159 196 223 159 196 223 159 196 223 159 196 223 159 196 223 159 196 223 159 196 223 159 196 223 159 196 223 159 196 223 159 196 223 159 196 223 159 196 223 159 196 223 159 196 223 159 196 223 159 196 223 159 196 223 159 196 223 159 196 223 159 196 223 159 196 223 159 196 223 159 196 223 159 196 223 159 196 223 159 196 223 159 196 223 159 196 223 159 196 223 159 196 223 159 196 223 159 196 223 159 196 223 159 196 223 159 196 223 159 196 223 159 196 223 159 196 223 159 196 223 159 196 223 159 196 223 159 196 223 159 196 223 159 196 223 159 196 223 159 196 223 159 196 223 159 196 223 159 196 223 159 196 223 159 196 223 159 196 223 159 196 223 159 196 223 159 196 223 159 196 223 159 196 223 159 196 223 159 196 223 159 196 223 159 196 223 159 196 223 159 196 223 159 196 223 159 196 223 159 196 223 159 196 223 159 196 223 159 196 223 159 196 223 159 196 223 159 196 223 159 196 223 159 196 223 159 196 223 159 196 223 159 196 223 159 196 223 159 196 223 159 196 223 159 196 223 159 196 223 159 196 223 159 196 223 159 196 223 159 196 223 159 196 223 159 196 223 159 196 223 159 196 223 159 196 223 159 196 223 159 196 223 159 196 223 157 196 224 157 196 224 157 196 224 157 196 224 157 196 224 157 196 224 157 196 224 157 196 224 157 196 224 157 196 224 157 196 224 157 196 224 157 196 224 157 196 224 157 196 224 157 196 224 157 196 224 157 196 224 157 196 224 157 196 224 157 196 224 157 196 224 157 196 224 157 196 224 157 196 224 157 196 224 157 196 224 157 196 224 157 196 224 157 196 224 157 196 224 157 196 224 157 196 224 159 196 223 159 196 223 159 196 223 159 196 223 159 196 223 159 196 223 159 196 223 159 196 223 159 196 223 159 196 223 159 196 223 159 196 223 159 196 223 159 196 223 159 196 223 159 196 223 159 196 223 159 196 223 159 196 223 159 196 223 159 196 223 159 196 223 159 196 223 159 196 223 159 196 223 159 196 223 159 196 223 159 196 223 159 196 223 159 196 223 159 196 223 159 196 223 159 196 223 159 196 223 159 196 223 158 196 223 158 196 223 158 196 223 158 196 223 158 196 223 158 196 223 158 196 223 158 196 223 158 196 223 158 196 223 158 196 223 158 196 223 158 196 223 158 196 223 158 196 223 158 196 223 158 196 223 158 196 223 158 196 223 158 196 223 158 196 223 158 196 223 158 196 223 158 196 223 158 196 223 158 196 223 158 196 223 158 196 223 158 196 223 158 196 223 158 196 223 158 196 223 158 196 223 158 196 223 158 196 223 158 196 223 161 196 222 161 196 222 161 196 222 161 196 222 161 196 222 161 196 222 161 196 222 161 196 222 161 196 222 161 196 222 161 196 222 161 196 222 161 196 222 161 196 222 161 196 222 161 196 222 161 196 222 161 196 222 161 196 222 161 196 222 161 196 222 161 196 222 161 196 222 161 196 222 161 196 222 161 196 222 161 196 222 161 196 222 161 196 222 161 196 222 161 196 222 161 196 222 161 196 222 161 196 222 161 196 222 161 196 222 159 196 223 159 196 223 159 196 223 159 196 223 159 196 223 159 196 223 159 196 223 159 196 223 159 196 223 159 196 223 159 196 223 159 196 223 159 196 223 159 196 223 159 196 223 159 196 223 159 196 223 159 196 223 159 196 223 159 196 223 159 196 223 159 196 223 159 196 223 159 196 223 159 196 223 159 196 223 159 196 223 159 196 223 159 196 223 159 196 223 159 196 223 159 196 223 159 196 223 159 196 223 159 196 223 159 196 223 159 196 223 159 196 223 159 196 223 159 196 223 159 196 223 159 196 223 159 196 223 159 196 223 159 196 223 159 196 223 159 196 223 159 196 223 159 196 223 159 196 223 159 196 223 159 196 223 159 196 223 159 196 223 159 196 223 159 196 223 159 196 223 159 196 223 159 196 223 159 196 223 159 196 223 159 196 223 159 196 223 159 196 223 159 196 223 159 196 223 159 196 223 159 196 223 159 196 223 159 196 223 159 196 223 159 196 223 159 196 223 159 196 223 159 196 223 159 196 223 159 196 223 159 196 223 159 196 223 159 196 223 159 196 223 159 196 223 159 196 223 159 196 223 159 196 223 159 196 223 159 196 223 159 196 223 159 196 223 159 196 223 159 196 223 159 196 223 159 196 223 159 196 223 159 196 223 159 196 223 159 196 223 159 196 223 159 196 223 159 196 223 159 196 223 159 196 223 159 196 223 159 196 223 159 196 223 159 196 223 159 196 223 159 196 223 159 196 223 159 196 223 159 196 223 159 196 223 159 196 223 159 196 223 159 196 223 159 196 223 157 196 224 157 196 224 157 196 224 157 196 224 157 196 224 157 196 224 157 196 224 157 196 224 157 196 224 157 196 224 157 196 224 157 196 224 157 196 224 157 196 224 157 196 224 157 196 224 157 196 224 157 196 224 157 196 224 157 196 224 157 196 224 157 196 224 157 196 224 157 196 224 157 196 224 157 196 224 157 196 224 157 196 224 157 196 224 157 196 224 157 196 224 157 196 224 157 196 224 159 196 223 159 196 223 159 196 223 159 196 223 159 196 223 159 196 223 159 196 223 159 196 223 159 196 223 159 196 223 159 196 223 159 196 223 159 196 223 159 196 223 159 196 223 159 196 223 159 196 223 159 196 223 159 196 223 159 196 223 159 196 223 159 196 223 159 196 223 159 196 223 159 196 223 159 196 223 159 196 223 159 196 223 159 196 223 159 196 223 159 196 223 159 196 223 159 196 223 159 196 223 159 196 223 158 196 223 158 196 223 158 196 223 158 196 223 158 196 223 158 196 223 158 196 223 158 196 223 158 196 223 158 196 223 158 196 223 158 196 223 158 196 223 158 196 223 158 196 223 158 196 223 158 196 223 158 196 223 158 196 223 158 196 223 158 196 223 158 196 223 158 196 223 158 196 223 158 196 223 158 196 223 158 196 223 158 196 223 158 196 223 158 196 223 158 196 223 158 196 223 158 196 223 158 196 223 158 196 223 158 196 223 161 196 222 161 196 222 161 196 222 161 196 222 161 196 222 161 196 222 161 196 222 161 196 222 161 196 222 161 196 222 161 196 222 161 196 222 161 196 222 161 196 222 161 196 222 161 196 222 161 196 222 161 196 222 161 196 222 161 196 222 161 196 222 161 196 222 161 196 222 161 196 222 161 196 222 161 196 222 161 196 222 161 196 222 161 196 222 161 196 222 161 196 222 161 196 222 161 196 222 161 196 222 161 196 222 161 196 222 159 196 223 159 196 223 159 196 223 159 196 223 159 196 223 159 196 223 159 196 223 159 196 223 159 196 223 159 196 223 159 196 223 159 196 223 159 196 223 159 196 223 159 196 223 159 196 223 159 196 223 159 196 223 159 196 223 159 196 223 159 196 223 159 196 223 159 196 223 159 196 223 159 196 223 159 196 223 159 196 223 159 196 223 159 196 223 159 196 223 159 196 223 159 196 223 159 196 223 159 196 223 159 196 223 159 196 223 159 196 223 159 196 223 159 196 223 159 196 223 159 196 223 159 196 223 159 196 223 159 196 223 159 196 223 159 196 223 159 196 223 159 196 223 159 196 223 159 196 223 159 196 223 159 196 223 159 196 223 159 196 223 159 196 223 159 196 223 159 196 223 159 196 223 159 196 223 159 196 223 159 196 223 159 196 223 159 196 223 159 196 223 159 196 223 159 196 223 159 196 223 159 196 223 159 196 223 159 196 223 159 196 223 159 196 223 159 196 223 159 196 223 159 196 223 159 196 223 159 196 223 159 196 223 159 196 223 159 196 223 159 196 223 159 196 223 159 196 223 159 196 223 159 196 223 159 196 223 159 196 223 159 196 223 159 196 223 159 196 223 159 196 223 159 196 223 159 196 223 159 196 223 159 196 223 159 196 223 159 196 223 159 196 223 159 196 223 159 196 223 159 196 223 159 196 223 159 196 223 159 196 223 159 196 223 159 196 223 159 196 223 159 196 223 159 196 223 159 196 223 159 196 223 159 196 223 159 196 223 159 196 223 159 196 223 159 196 223 157 196 224 157 196 224 157 196 224 157 196 224 157 196 224 157 196 224 157 196 224 157 196 224 157 196 224 157 196 224 157 196 224 157 196 224 157 196 224 157 196 224 157 196 224 157 196 224 157 196 224 157 196 224 157 196 224 157 196 224 157 196 224 157 196 224 157 196 224 157 196 224 157 196 224 157 196 224 157 196 224 157 196 224 157 196 224 157 196 224 157 196 224 157 196 224 157 196 224 159 196 223 159 196 223 159 196 223 159 196 223 159 196 223 159 196 223 159 196 223 159 196 223 159 196 223 159 196 223 159 196 223 159 196 223 159 196 223 159 196 223 159 196 223 159 196 223 159 196 223 159 196 223 159 196 223 159 196 223 159 196 223 159 196 223 159 196 223 159 196 223 159 196 223 159 196 223 159 196 223 159 196 223 159 196 223 159 196 223 159 196 223 159 196 223 159 196 223 159 196 223 159 196 223 158 196 223 158 196 223 158 196 223 158 196 223 158 196 223 158 196 223 158 196 223 158 196 223 158 196 223 158 196 223 158 196 223 158 196 223 158 196 223 158 196 223 158 196 223 158 196 223 158 196 223 158 196 223 158 196 223 158 196 223 158 196 223 158 196 223 158 196 223 158 196 223 158 196 223 158 196 223 158 196 223 158 196 223 158 196 223 158 196 223 158 196 223 158 196 223 158 196 223 158 196 223 158 196 223 158 196 223 161 196 222 161 196 222 161 196 222 161 196 222 161 196 222 161 196 222 161 196 222 161 196 222 161 196 222 161 196 222 161 196 222 161 196 222 161 196 222 161 196 222 161 196 222 161 196 222 161 196 222 161 196 222 161 196 222 161 196 222 161 196 222 161 196 222 161 196 222 161 196 222 161 196 222 161 196 222 161 196 222 161 196 222 161 196 222 161 196 222 161 196 222 161 196 222 161 196 222 161 196 222 161 196 222 161 196 222 159 196 223 159 196 223 159 196 223 159 196 223 159 196 223 159 196 223 159 196 223 159 196 223 159 196 223 159 196 223 159 196 223 159 196 223 159 196 223 159 196 223 159 196 223 159 196 223 159 196 223 159 196 223 159 196 223 159 196 223 159 196 223 159 196 223 159 196 223 159 196 223 159 196 223 159 196 223 159 196 223 159 196 223 159 196 223 159 196 223 159 196 223 159 196 223 159 196 223 159 196 223 159 196 223 159 196 223 159 196 223 159 196 223 159 196 223 159 196 223 159 196 223 159 196 223 159 196 223 159 196 223 159 196 223 159 196 223 159 196 223 159 196 223 159 196 223 159 196 223 159 196 223 159 196 223 159 196 223 159 196 223 159 196 223 159 196 223 159 196 223 159 196 223 159 196 223 159 196 223 159 196 223 159 196 223 159 196 223 159 196 223 159 196 223 159 196 223 159 196 223 159 196 223 159 196 223 159 196 223 159 196 223 159 196 223 159 196 223 159 196 223 159 196 223 159 196 223 159 196 223 159 196 223 159 196 223 159 196 223 159 196 223 159 196 223 159 196 223 159 196 223 159 196 223 159 196 223 159 196 223 159 196 223 159 196 223 159 196 223 159 196 223 159 196 223 159 196 223 159 196 223 159 196 223 159 196 223 159 196 223 159 196 223 159 196 223 159 196 223 159 196 223 159 196 223 159 196 223 159 196 223 159 196 223 159 196 223 159 196 223 159 196 223 159 196 223 159 196 223 159 196 223 159 196 223 159 196 223 159 196 223 159 196 223 159 196 223 157 196 224 157 196 224 157 196 224 157 196 224 157 196 224 157 196 224 157 196 224 157 196 224 157 196 224 157 196 224 157 196 224 157 196 224 157 196 224 157 196 224 157 196 224 157 196 224 157 196 224 157 196 224 157 196 224 157 196 224 157 196 224 157 196 224 157 196 224 157 196 224 157 196 224 157 196 224 157 196 224 157 196 224 157 196 224 157 196 224 157 196 224 157 196 224 157 196 224 159 196 223 159 196 223 159 196 223 159 196 223 159 196 223 159 196 223 159 196 223 159 196 223 159 196 223 159 196 223 159 196 223 159 196 223 159 196 223 159 196 223 159 196 223 159 196 223 159 196 223 159 196 223 159 196 223 159 196 223 159 196 223 159 196 223 159 196 223 159 196 223 159 196 223 159 196 223 159 196 223 159 196 223 159 196 223 159 196 223 159 196 223 159 196 223 159 196 223 159 196 223 159 196 223 158 196 223 158 196 223 158 196 223 158 196 223 158 196 223 158 196 223 158 196 223 158 196 223 158 196 223 158 196 223 158 196 223 158 196 223 158 196 223 158 196 223 158 196 223 158 196 223 158 196 223 158 196 223 158 196 223 158 196 223 158 196 223 158 196 223 158 196 223 158 196 223 158 196 223 158 196 223 158 196 223 158 196 223 158 196 223 158 196 223 158 196 223 158 196 223 158 196 223 158 196 223 158 196 223 158 196 223 161 196 222 161 196 222 161 196 222 161 196 222 161 196 222 161 196 222 161 196 222 161 196 222 161 196 222 161 196 222 161 196 222 161 196 222 161 196 222 161 196 222 161 196 222 161 196 222 161 196 222 161 196 222 161 196 222 161 196 222 161 196 222 161 196 222 161 196 222 161 196 222 161 196 222 161 196 222 161 196 222 161 196 222 161 196 222 161 196 222 161 196 222 161 196 222 161 196 222 161 196 222 161 196 222 161 196 222 159 196 223 159 196 223 159 196 223 159 196 223 159 196 223 159 196 223 159 196 223 159 196 223 159 196 223 159 196 223 159 196 223 159 196 223 159 196 223 159 196 223 159 196 223 159 196 223 159 196 223 159 196 223 159 196 223 159 196 223 159 196 223 159 196 223 159 196 223 159 196 223 159 196 223 159 196 223 159 196 223 159 196 223 159 196 223 159 196 223 159 196 223 159 196 223 159 196 223 159 196 223 159 196 223 159 196 223 159 196 223 159 196 223 159 196 223 159 196 223 159 196 223 159 196 223 159 196 223 159 196 223 159 196 223 159 196 223 159 196 223 159 196 223 159 196 223 159 196 223 159 196 223 159 196 223 159 196 223 159 196 223 159 196 223 159 196 223 159 196 223 159 196 223 159 196 223 159 196 223 159 196 223 159 196 223 159 196 223 159 196 223 159 196 223 159 196 223 159 196 223 159 196 223 159 196 223 159 196 223 159 196 223 159 196 223 159 196 223 159 196 223 159 196 223 159 196 223 159 196 223 159 196 223 159 196 223 159 196 223 159 196 223 159 196 223 159 196 223 159 196 223 159 196 223 159 196 223 159 196 223 159 196 223 159 196 223 159 196 223 159 196 223 159 196 223 159 196 223 159 196 223 159 196 223 159 196 223 159 196 223 159 196 223 159 196 223 159 196 223 159 196 223 159 196 223 159 196 223 159 196 223 159 196 223 159 196 223 159 196 223 159 196 223 159 196 223 159 196 223 159 196 223 159 196 223 159 196 223 159 196 223 159 196 223 157 196 224 157 196 224 157 196 224 157 196 224 157 196 224 157 196 224 157 196 224 157 196 224 157 196 224 157 196 224 157 196 224 157 196 224 157 196 224 157 196 224 157 196 224 157 196 224 157 196 224 157 196 224 157 196 224 157 196 224 157 196 224 157 196 224 157 196 224 157 196 224 157 196 224 157 196 224 157 196 224 157 196 224 157 196 224 157 196 224 157 196 224 157 196 224 157 196 224 157 196 224 159 196 223 159 196 223 159 196 223 159 196 223 159 196 223 159 196 223 159 196 223 159 196 223 159 196 223 159 196 223 159 196 223 159 196 223 159 196 223 159 196 223 159 196 223 159 196 223 159 196 223 159 196 223 159 196 223 159 196 223 159 196 223 159 196 223 159 196 223 159 196 223 159 196 223 159 196 223 159 196 223 159 196 223 159 196 223 159 196 223 159 196 223 159 196 223 159 196 223 159 196 223 159 196 223 158 196 223 158 196 223 158 196 223 158 196 223 158 196 223 158 196 223 158 196 223 158 196 223 158 196 223 158 196 223 158 196 223 158 196 223 158 196 223 158 196 223 158 196 223 158 196 223 158 196 223 158 196 223 158 196 223 158 196 223 158 196 223 158 196 223 158 196 223 158 196 223 158 196 223 158 196 223 158 196 223 158 196 223 158 196 223 158 196 223 158 196 223 158 196 223 158 196 223 158 196 223 158 196 223 158 196 223 161 196 222 161 196 222 161 196 222 161 196 222 161 196 222 161 196 222 161 196 222 161 196 222 161 196 222 161 196 222 161 196 222 161 196 222 161 196 222 161 196 222 161 196 222 161 196 222 161 196 222 161 196 222 161 196 222 161 196 222 161 196 222 161 196 222 161 196 222 161 196 222 161 196 222 161 196 222 161 196 222 161 196 222 161 196 222 161 196 222 161 196 222 161 196 222 161 196 222 161 196 222 161 196 222 161 196 222 159 196 223 159 196 223 159 196 223 159 196 223 159 196 223 159 196 223 159 196 223 159 196 223 159 196 223 159 196 223 159 196 223 159 196 223 159 196 223 159 196 223 159 196 223 159 196 223 159 196 223 159 196 223 159 196 223 159 196 223 159 196 223 159 196 223 159 196 223 159 196 223 159 196 223 159 196 223 159 196 223 159 196 223 159 196 223 159 196 223 159 196 223 159 196 223 159 196 223 159 196 223 159 196 223 159 196 223 159 196 223 159 196 223 159 196 223 159 196 223 159 196 223 159 196 223 159 196 223 159 196 223 159 196 223 159 196 223 159 196 223 159 196 223 159 196 223 159 196 223 159 196 223 159 196 223 159 196 223 159 196 223 159 196 223 159 196 223 159 196 223 159 196 223 159 196 223 159 196 223 159 196 223 159 196 223 159 196 223 159 196 223 159 196 223 159 196 223 159 196 223 159 196 223 159 196 223 159 196 223 159 196 223 159 196 223 159 196 223 159 196 223 159 196 223 159 196 223 159 196 223 159 196 223 159 196 223 159 196 223 159 196 223 159 196 223 159 196 223 159 196 223 159 196 223 159 196 223 159 196 223 159 196 223 159 196 223 159 196 223 159 196 223 159 196 223 159 196 223 159 196 223 159 196 223 159 196 223 159 196 223 159 196 223 159 196 223 159 196 223 159 196 223 159 196 223 159 196 223 159 196 223 159 196 223 159 196 223 159 196 223 159 196 223 159 196 223 159 196 223 159 196 223 159 196 223 159 196 223 159 196 223 159 196 223 157 196 224 157 196 224 157 196 224 157 196 224 157 196 224 157 196 224 157 196 224 157 196 224 157 196 224 157 196 224 157 196 224 157 196 224 157 196 224 157 196 224 157 196 224 157 196 224 157 196 224 157 196 224 157 196 224 157 196 224 157 196 224 157 196 224 157 196 224 157 196 224 157 196 224 157 196 224 157 196 224 157 196 224 157 196 224 157 196 224 157 196 224 157 196 224 157 196 224 157 196 224 159 196 223 159 196 223 159 196 223 159 196 223 159 196 223 159 196 223 159 196 223 159 196 223 159 196 223 159 196 223 159 196 223 159 196 223 159 196 223 159 196 223 159 196 223 159 196 223 159 196 223 159 196 223 159 196 223 159 196 223 159 196 223 159 196 223 159 196 223 159 196 223 159 196 223 159 196 223 159 196 223 159 196 223 159 196 223 159 196 223 159 196 223 159 196 223 159 196 223 159 196 223 159 196 223 158 196 223 158 196 223 158 196 223 158 196 223 158 196 223 158 196 223 158 196 223 158 196 223 158 196 223 158 196 223 158 196 223 158 196 223 158 196 223 158 196 223 158 196 223 158 196 223 158 196 223 158 196 223 158 196 223 158 196 223 158 196 223 158 196 223 158 196 223 158 196 223 158 196 223 158 196 223 158 196 223 158 196 223 158 196 223 158 196 223 158 196 223 158 196 223 158 196 223 158 196 223 158 196 223 158 196 223 161 196 222 161 196 222 161 196 222 161 196 222 161 196 222 161 196 222 161 196 222 161 196 222 161 196 222 161 196 222 161 196 222 161 196 222 161 196 222 161 196 222 161 196 222 161 196 222 161 196 222 161 196 222 161 196 222 161 196 222 161 196 222 161 196 222 161 196 222 161 196 222 161 196 222 161 196 222 161 196 222 161 196 222 161 196 222 161 196 222 161 196 222 161 196 222 161 196 222 161 196 222 161 196 222 161 196 222 159 196 223 159 196 223 159 196 223 159 196 223 159 196 223 159 196 223 159 196 223 159 196 223 159 196 223 159 196 223 159 196 223 159 196 223 159 196 223 159 196 223 159 196 223 159 196 223 159 196 223 159 196 223 159 196 223 159 196 223 159 196 223 159 196 223 159 196 223 159 196 223 159 196 223 159 196 223 159 196 223 159 196 223 159 196 223 159 196 223 159 196 223 159 196 223 159 196 223 159 196 223 159 196 223 159 196 223 159 196 223 159 196 223 159 196 223 159 196 223 159 196 223 159 196 223 159 196 223 159 196 223 159 196 223 159 196 223 159 196 223 159 196 223 159 196 223 159 196 223 159 196 223 159 196 223 159 196 223 159 196 223 159 196 223 159 196 223 159 196 223 159 196 223 159 196 223 159 196 223 159 196 223 159 196 223 159 196 223 159 196 223 159 196 223 159 196 223 159 196 223 159 196 223 159 196 223 159 196 223 159 196 223 159 196 223 159 196 223 159 196 223 159 196 223 159 196 223 159 196 223 159 196 223 159 196 223 159 196 223 159 196 223 159 196 223 159 196 223 159 196 223 159 196 223 159 196 223 159 196 223 159 196 223 159 196 223 159 196 223 159 196 223 159 196 223 159 196 223 159 196 223 159 196 223 159 196 223 159 196 223 159 196 223 159 196 223 159 196 223 159 196 223 159 196 223 159 196 223 159 196 223 159 196 223 159 196 223 159 196 223 159 196 223 159 196 223 159 196 223 159 196 223 159 196 223 159 196 223 159 196 223 159 196 223 157 196 224 157 196 224 157 196 224 157 196 224 157 196 224 157 196 224 157 196 224 157 196 224 157 196 224 157 196 224 157 196 224 157 196 224 157 196 224 157 196 224 157 196 224 157 196 224 157 196 224 157 196 224 157 196 224 157 196 224 157 196 224 157 196 224 157 196 224 157 196 224 157 196 224 157 196 224 157 196 224 157 196 224 157 196 224 157 196 224 157 196 224 157 196 224 157 196 224 157 196 224 159 196 223 159 196 223 159 196 223 159 196 223 159 196 223 159 196 223 159 196 223 159 196 223 159 196 223 159 196 223 159 196 223 159 196 223 159 196 223 159 196 223 159 196 223 159 196 223 159 196 223 159 196 223 159 196 223 159 196 223 159 196 223 159 196 223 159 196 223 159 196 223 159 196 223 159 196 223 159 196 223 159 196 223 159 196 223 159 196 223 159 196 223 159 196 223 159 196 223 159 196 223 159 196 223 158 196 223 158 196 223 158 196 223 158 196 223 158 196 223 158 196 223 158 196 223 158 196 223 158 196 223 158 196 223 158 196 223 158 196 223 158 196 223 158 196 223 158 196 223 158 196 223 158 196 223 158 196 223 158 196 223 158 196 223 158 196 223 158 196 223 158 196 223 158 196 223 158 196 223 158 196 223 158 196 223 158 196 223 158 196 223 158 196 223 158 196 223 158 196 223 158 196 223 158 196 223 158 196 223 158 196 223 161 196 222 161 196 222 161 196 222 161 196 222 161 196 222 161 196 222 161 196 222 161 196 222 161 196 222 161 196 222 161 196 222 161 196 222 161 196 222 161 196 222 161 196 222 161 196 222 161 196 222 161 196 222 161 196 222 161 196 222 161 196 222 161 196 222 161 196 222 161 196 222 161 196 222 161 196 222 161 196 222 161 196 222 161 196 222 161 196 222 161 196 222 161 196 222 161 196 222 161 196 222 161 196 222 161 196 222 159 196 223 159 196 223 159 196 223 159 196 223 159 196 223 159 196 223 159 196 223 159 196 223 159 196 223 159 196 223 159 196 223 159 196 223 159 196 223 159 196 223 159 196 223 159 196 223 159 196 223 159 196 223 159 196 223 159 196 223 159 196 223 159 196 223 159 196 223 159 196 223 159 196 223 159 196 223 159 196 223 159 196 223 159 196 223 159 196 223 159 196 223 159 196 223 159 196 223 159 196 223 159 196 223 159 196 223 159 196 223 159 196 223 159 196 223 159 196 223 159 196 223 159 196 223 159 196 223 159 196 223 159 196 223 159 196 223 159 196 223 159 196 223 159 196 223 159 196 223 159 196 223 159 196 223 159 196 223 159 196 223 159 196 223 159 196 223 159 196 223 159 196 223 159 196 223 159 196 223 159 196 223 159 196 223 159 196 223 159 196 223 159 196 223 159 196 223 159 196 223 159 196 223 159 196 223 159 196 223 159 196 223 159 196 223 159 196 223 159 196 223 159 196 223 159 196 223 159 196 223 159 196 223 159 196 223 159 196 223 159 196 223 159 196 223 159 196 223 159 196 223 159 196 223 159 196 223 159 196 223 159 196 223 159 196 223 159 196 223 159 196 223 159 196 223 159 196 223 159 196 223 159 196 223 159 196 223 159 196 223 159 196 223 159 196 223 159 196 223 159 196 223 159 196 223 159 196 223 159 196 223 159 196 223 159 196 223 159 196 223 159 196 223 159 196 223 159 196 223 159 196 223 159 196 223 159 196 223 159 196 223 159 196 223 157 196 224 157 196 224 157 196 224 157 196 224 157 196 224 157 196 224 157 196 224 157 196 224 157 196 224 157 196 224 157 196 224 157 196 224 157 196 224 157 196 224 157 196 224 157 196 224 157 196 224 157 196 224 157 196 224 157 196 224 157 196 224 157 196 224 157 196 224 157 196 224 157 196 224 157 196 224 157 196 224 157 196 224 157 196 224 157 196 224 157 196 224 157 196 224 157 196 224 157 196 224 159 196 223 159 196 223 159 196 223 159 196 223 159 196 223 159 196 223 159 196 223 159 196 223 159 196 223 159 196 223 159 196 223 159 196 223 159 196 223 159 196 223 159 196 223 159 196 223 159 196 223 159 196 223 159 196 223 159 196 223 159 196 223 159 196 223 159 196 223 159 196 223 159 196 223 159 196 223 159 196 223 159 196 223 159 196 223 159 196 223 159 196 223 159 196 223 159 196 223 159 196 223 159 196 223 158 196 223 158 196 223 158 196 223 158 196 223 158 196 223 158 196 223 158 196 223 158 196 223 158 196 223 158 196 223 158 196 223 158 196 223 158 196 223 158 196 223 158 196 223 158 196 223 158 196 223 158 196 223 158 196 223 158 196 223 158 196 223 158 196 223 158 196 223 158 196 223 158 196 223 158 196 223 158 196 223 158 196 223 158 196 223 158 196 223 158 196 223 158 196 223 158 196 223 158 196 223 158 196 223 158 196 223 158 196 223 161 196 222 161 196 222 161 196 222 161 196 222 161 196 222 161 196 222 161 196 222 161 196 222 161 196 222 161 196 222 161 196 222 161 196 222 161 196 222 161 196 222 161 196 222 161 196 222 161 196 222 161 196 222 161 196 222 161 196 222 161 196 222 161 196 222 161 196 222 161 196 222 161 196 222 161 196 222 161 196 222 161 196 222 161 196 222 161 196 222 161 196 222 161 196 222 161 196 222 161 196 222 161 196 222 159 196 223 159 196 223 159 196 223 159 196 223 159 196 223 159 196 223 159 196 223 159 196 223 159 196 223 159 196 223 159 196 223 159 196 223 159 196 223 159 196 223 159 196 223 159 196 223 159 196 223 159 196 223 159 196 223 159 196 223 159 196 223 159 196 223 159 196 223 159 196 223 159 196 223 159 196 223 159 196 223 159 196 223 159 196 223 159 196 223 159 196 223 159 196 223 159 196 223 159 196 223 159 196 223 159 196 223 159 196 223 159 196 223 159 196 223 159 196 223 159 196 223 159 196 223 159 196 223 159 196 223 159 196 223 159 196 223 159 196 223 159 196 223 159 196 223 159 196 223 159 196 223 159 196 223 159 196 223 159 196 223 159 196 223 159 196 223 159 196 223 159 196 223 159 196 223 159 196 223 159 196 223 159 196 223 159 196 223 159 196 223 159 196 223 159 196 223 159 196 223 159 196 223 159 196 223 159 196 223 159 196 223 159 196 223 159 196 223 159 196 223 159 196 223 159 196 223 159 196 223 159 196 223 159 196 223 159 196 223 159 196 223 159 196 223 159 196 223 159 196 223 159 196 223 159 196 223 159 196 223 159 196 223 159 196 223 159 196 223 159 196 223 159 196 223 159 196 223 159 196 223 159 196 223 159 196 223 159 196 223 159 196 223 159 196 223 159 196 223 159 196 223 159 196 223 159 196 223 159 196 223 159 196 223 159 196 223 159 196 223 159 196 223 159 196 223 159 196 223 159 196 223 159 196 223 159 196 223 159 196 223 159 196 223 157 196 224 157 196 224 157 196 224 157 196 224 157 196 224 157 196 224 157 196 224 157 196 224 157 196 224 157 196 224 157 196 224 157 196 224 157 196 224 157 196 224 157 196 224 157 196 224 157 196 224 157 196 224 157 196 224 157 196 224 157 196 224 157 196 224 157 196 224 157 196 224 157 196 224 157 196 224 157 196 224 157 196 224 157 196 224 157 196 224 157 196 224 157 196 224 157 196 224 157 196 224 159 196 223 159 196 223 159 196 223 159 196 223 159 196 223 159 196 223 159 196 223 159 196 223 159 196 223 159 196 223 159 196 223 159 196 223 159 196 223 159 196 223 159 196 223 159 196 223 159 196 223 159 196 223 159 196 223 159 196 223 159 196 223 159 196 223 159 196 223 159 196 223 159 196 223 159 196 223 159 196 223 159 196 223 159 196 223 159 196 223 159 196 223 159 196 223 159 196 223 159 196 223 159 196 223 158 196 223 158 196 223 158 196 223 158 196 223 158 196 223 158 196 223 158 196 223 158 196 223 158 196 223 158 196 223 158 196 223 158 196 223 158 196 223 158 196 223 158 196 223 158 196 223 158 196 223 158 196 223 158 196 223 158 196 223 158 196 223 158 196 223 158 196 223 158 196 223 158 196 223 158 196 223 158 196 223 158 196 223 158 196 223 158 196 223 158 196 223 158 196 223 158 196 223 158 196 223 158 196 223 158 196 223 158 196 223 161 196 222 161 196 222 161 196 222 161 196 222 161 196 222 161 196 222 161 196 222 161 196 222 161 196 222 161 196 222 161 196 222 161 196 222 161 196 222 161 196 222 161 196 222 161 196 222 161 196 222 161 196 222 161 196 222 161 196 222 161 196 222 161 196 222 161 196 222 161 196 222 161 196 222 161 196 222 161 196 222 161 196 222 161 196 222 161 196 222 161 196 222 161 196 222 161 196 222 161 196 222 161 196 222 159 196 223 159 196 223 159 196 223 159 196 223 159 196 223 159 196 223 159 196 223 159 196 223 159 196 223 159 196 223 159 196 223 159 196 223 159 196 223 159 196 223 159 196 223 159 196 223 159 196 223 159 196 223 159 196 223 159 196 223 159 196 223 159 196 223 159 196 223 159 196 223 159 196 223 159 196 223 159 196 223 159 196 223 159 196 223 159 196 223 159 196 223 159 196 223 159 196 223 159 196 223 159 196 223 159 196 223 159 196 223 159 196 223 159 196 223 159 196 223 159 196 223 159 196 223 159 196 223 159 196 223 159 196 223 159 196 223 159 196 223 159 196 223 159 196 223 159 196 223 159 196 223 159 196 223 159 196 223 159 196 223 159 196 223 159 196 223 159 196 223 159 196 223 159 196 223 159 196 223 159 196 223 159 196 223 159 196 223 159 196 223 159 196 223 159 196 223 159 196 223 159 196 223 159 196 223 159 196 223 159 196 223 159 196 223 159 196 223 159 196 223 159 196 223 159 196 223 159 196 223 159 196 223 159 196 223 159 196 223 159 196 223 159 196 223 159 196 223 159 196 223 159 196 223 159 196 223 159 196 223 159 196 223 159 196 223 159 196 223 159 196 223 159 196 223 159 196 223 159 196 223 159 196 223 159 196 223 159 196 223 159 196 223 159 196 223 159 196 223 159 196 223 159 196 223 159 196 223 159 196 223 159 196 223 159 196 223 159 196 223 159 196 223 159 196 223 159 196 223 159 196 223 159 196 223 159 196 223 159 196 223 159 196 223 157 196 224 157 196 224 157 196 224 157 196 224 157 196 224 157 196 224 157 196 224 157 196 224 157 196 224 157 196 224 157 196 224 157 196 224 157 196 224 157 196 224 157 196 224 157 196 224 157 196 224 157 196 224 157 196 224 157 196 224 157 196 224 157 196 224 157 196 224 157 196 224 157 196 224 157 196 224 157 196 224 157 196 224 157 196 224 157 196 224 157 196 224 157 196 224 157 196 224 157 196 224 159 196 223 159 196 223 159 196 223 159 196 223 159 196 223 159 196 223 159 196 223 159 196 223 159 196 223 159 196 223 159 196 223 159 196 223 159 196 223 159 196 223 159 196 223 159 196 223 159 196 223 159 196 223 159 196 223 159 196 223 159 196 223 159 196 223 159 196 223 159 196 223 159 196 223 159 196 223 159 196 223 159 196 223 159 196 223 159 196 223 159 196 223 159 196 223 159 196 223 159 196 223 159 196 223 158 196 223 158 196 223 158 196 223 158 196 223 158 196 223 158 196 223 158 196 223 158 196 223 158 196 223 158 196 223 158 196 223 158 196 223 158 196 223 158 196 223 158 196 223 158 196 223 158 196 223 158 196 223 158 196 223 158 196 223 158 196 223 158 196 223 158 196 223 158 196 223 158 196 223 158 196 223 158 196 223 158 196 223 158 196 223 158 196 223 158 196 223 158 196 223 158 196 223 158 196 223 158 196 223 158 196 223 158 196 223 161 196 222 161 196 222 161 196 222 161 196 222 161 196 222 161 196 222 161 196 222 161 196 222 161 196 222 161 196 222 161 196 222 161 196 222 161 196 222 161 196 222 161 196 222 161 196 222 161 196 222 161 196 222 161 196 222 161 196 222 161 196 222 161 196 222 161 196 222 161 196 222 161 196 222 161 196 222 161 196 222 161 196 222 161 196 222 161 196 222 161 196 222 161 196 222 161 196 222 161 196 222 161 196 222 159 196 223 159 196 223 159 196 223 159 196 223 159 196 223 159 196 223 159 196 223 159 196 223 159 196 223 159 196 223 159 196 223 159 196 223 159 196 223 159 196 223 159 196 223 159 196 223 159 196 223 159 196 223 159 196 223 159 196 223 159 196 223 159 196 223 159 196 223 159 196 223 159 196 223 159 196 223 159 196 223 159 196 223 159 196 223 159 196 223 159 196 223 159 196 223 159 196 223 159 196 223 159 196 223 159 196 223 159 196 223 159 196 223 159 196 223 159 196 223 159 196 223 159 196 223 159 196 223 159 196 223 159 196 223 159 196 223 159 196 223 159 196 223 159 196 223 159 196 223 159 196 223 159 196 223 159 196 223 159 196 223 159 196 223 159 196 223 159 196 223 159 196 223 159 196 223 159 196 223 159 196 223 159 196 223 159 196 223 159 196 223 159 196 223 159 196 223 159 196 223 159 196 223 159 196 223 159 196 223 159 196 223 159 196 223 159 196 223 159 196 223 159 196 223 159 196 223 159 196 223 159 196 223 159 196 223 159 196 223 159 196 223 159 196 223 159 196 223 159 196 223 159 196 223 159 196 223 159 196 223 159 196 223 159 196 223 159 196 223 159 196 223 159 196 223 159 196 223 159 196 223 159 196 223 159 196 223 159 196 223 159 196 223 159 196 223 159 196 223 159 196 223 159 196 223 159 196 223 159 196 223 159 196 223 159 196 223 159 196 223 159 196 223 159 196 223 159 196 223 159 196 223 159 196 223 159 196 223 159 196 223 159 196 223 157 196 224 157 196 224 157 196 224 157 196 224 157 196 224 157 196 224 157 196 224 157 196 224 157 196 224 157 196 224 157 196 224 157 196 224 157 196 224 157 196 224 157 196 224 157 196 224 157 196 224 157 196 224 157 196 224 157 196 224 157 196 224 157 196 224 157 196 224 157 196 224 157 196 224 157 196 224 157 196 224 157 196 224 157 196 224 157 196 224 157 196 224 157 196 224 157 196 224 157 196 224 159 196 223 159 196 223 159 196 223 159 196 223 159 196 223 159 196 223 159 196 223 159 196 223 159 196 223 159 196 223 159 196 223 159 196 223 159 196 223 159 196 223 159 196 223 159 196 223 159 196 223 159 196 223 159 196 223 159 196 223 159 196 223 159 196 223 159 196 223 159 196 223 159 196 223 159 196 223 159 196 223 159 196 223 159 196 223 159 196 223 159 196 223 159 196 223 159 196 223 159 196 223 159 196 223 158 196 223 158 196 223 158 196 223 158 196 223 158 196 223 158 196 223 158 196 223 158 196 223 158 196 223 158 196 223 158 196 223 158 196 223 158 196 223 158 196 223 158 196 223 158 196 223 158 196 223 158 196 223 158 196 223 158 196 223 158 196 223 158 196 223 158 196 223 158 196 223 158 196 223 158 196 223 158 196 223 158 196 223 158 196 223 158 196 223 158 196 223 158 196 223 158 196 223 158 196 223 158 196 223 158 196 223 158 196 223 161 196 222 161 196 222 161 196 222 161 196 222 161 196 222 161 196 222 161 196 222 161 196 222 161 196 222 161 196 222 161 196 222 161 196 222 161 196 222 161 196 222 161 196 222 161 196 222 161 196 222 161 196 222 161 196 222 161 196 222 161 196 222 161 196 222 161 196 222 161 196 222 161 196 222 161 196 222 161 196 222 161 196 222 161 196 222 161 196 222 161 196 222 161 196 222 161 196 222 161 196 222 161 196 222 159 196 223 159 196 223 159 196 223 159 196 223 159 196 223 159 196 223 159 196 223 159 196 223 159 196 223 159 196 223 159 196 223 159 196 223 159 196 223 159 196 223 159 196 223 159 196 223 159 196 223 159 196 223 159 196 223 159 196 223 159 196 223 159 196 223 159 196 223 159 196 223 159 196 223 159 196 223 159 196 223 159 196 223 159 196 223 159 196 223 159 196 223 159 196 223 159 196 223 159 196 223 159 196 223 159 196 223 159 196 223 159 196 223 159 196 223 159 196 223 159 196 223 159 196 223 159 196 223 159 196 223 159 196 223 159 196 223 159 196 223 159 196 223 159 196 223 159 196 223 159 196 223 159 196 223 159 196 223 159 196 223 159 196 223 159 196 223 159 196 223 159 196 223 159 196 223 159 196 223 159 196 223 159 196 223 159 196 223 159 196 223 159 196 223 159 196 223 159 196 223 159 196 223 159 196 223 159 196 223 159 196 223 159 196 223 159 196 223 159 196 223 159 196 223 159 196 223 159 196 223 159 196 223 159 196 223 159 196 223 159 196 223 159 196 223 159 196 223 159 196 223 159 196 223 159 196 223 159 196 223 159 196 223 159 196 223 159 196 223 159 196 223 159 196 223 159 196 223 159 196 223 159 196 223 159 196 223 159 196 223 159 196 223 159 196 223 159 196 223 159 196 223 159 196 223 159 196 223 159 196 223 159 196 223 159 196 223 159 196 223 159 196 223 159 196 223 159 196 223 159 196 223 159 196 223 159 196 223 159 196 223 159 196 223 157 196 224 157 196 224 157 196 224 157 196 224 157 196 224 157 196 224 157 196 224 157 196 224 157 196 224 157 196 224 157 196 224 157 196 224 157 196 224 157 196 224 157 196 224 157 196 224 157 196 224 157 196 224 157 196 224 157 196 224 157 196 224 157 196 224 157 196 224 157 196 224 157 196 224 157 196 224 157 196 224 157 196 224 157 196 224 157 196 224 157 196 224 157 196 224 157 196 224 157 196 224 159 196 223 159 196 223 159 196 223 159 196 223 159 196 223 159 196 223 159 196 223 159 196 223 159 196 223 159 196 223 159 196 223 159 196 223 159 196 223 159 196 223 159 196 223 159 196 223 159 196 223 159 196 223 159 196 223 159 196 223 159 196 223 159 196 223 159 196 223 159 196 223 159 196 223 159 196 223 159 196 223 159 196 223 159 196 223 159 196 223 159 196 223 159 196 223 159 196 223 159 196 223 159 196 223 158 196 223 158 196 223 158 196 223 158 196 223 158 196 223 158 196 223 158 196 223 158 196 223 158 196 223 158 196 223 158 196 223 158 196 223 158 196 223 158 196 223 158 196 223 158 196 223 158 196 223 158 196 223 158 196 223 158 196 223 158 196 223 158 196 223 158 196 223 158 196 223 158 196 223 158 196 223 158 196 223 158 196 223 158 196 223 158 196 223 158 196 223 158 196 223 158 196 223 158 196 223 158 196 223 158 196 223 158 196 223 161 196 222 161 196 222 161 196 222 161 196 222 161 196 222 161 196 222 161 196 222 161 196 222 161 196 222 161 196 222 161 196 222 161 196 222 161 196 222 161 196 222 161 196 222 161 196 222 161 196 222 160 163 164 160 163 164 160 163 164 153 102 98 160 163 164 160 163 164 160 163 164 160 163 164 160 163 164 160 163 164 161 196 222 161 196 222 161 196 222 161 196 222 161 196 222 161 196 222 161 196 222 161 196 222 159 196 223 159 196 223 159 196 223 159 196 223 159 196 223 159 196 223 159 196 223 159 196 223 159 196 223 159 196 223 159 196 223 159 196 223 159 196 223 159 196 223 159 196 223 159 196 223 159 196 223 159 196 223 159 196 223 159 196 223 159 196 223 159 196 223 159 196 223 159 196 223 159 196 223 159 196 223 159 196 223 159 196 223 159 196 223 159 196 223 159 196 223 159 196 223 159 196 223 159 196 223 159 196 223 159 196 223 159 196 223 159 196 223 159 196 223 159 196 223 159 196 223 159 196 223 159 196 223 159 196 223 159 196 223 159 196 223 159 196 223 159 196 223 159 196 223 159 196 223 159 196 223 159 196 223 159 196 223 159 196 223 159 196 223 159 196 223 159 196 223 159 196 223 159 196 223 159 196 223 159 196 223 159 196 223 159 196 223 159 196 223 159 196 223 159 196 223 159 196 223 159 196 223 159 196 223 159 196 223 159 196 223 159 196 223 159 196 223 159 196 223 159 196 223 159 196 223 159 196 223 159 196 223 159 196 223 159 196 223 159 196 223 159 196 223 159 196 223 159 196 223 159 196 223 159 196 223 159 196 223 159 196 223 159 196 223 159 196 223 159 196 223 159 196 223 159 196 223 159 196 223 159 196 223 159 196 223 159 196 223 159 196 223 159 196 223 159 196 223 159 196 223 159 196 223 159 196 223 159 196 223 159 196 223 159 196 223 159 196 223 159 196 223 159 196 223 159 196 223 159 196 223 159 196 223 159 196 223 159 196 223 159 196 223 157 196 224 157 196 224 157 196 224 157 196 224 157 196 224 157 196 224 157 196 224 157 196 224 157 196 224 157 196 224 157 196 224 157 196 224 157 196 224 157 196 224 157 196 224 157 196 224 157 196 224 157 196 224 157 196 224 157 196 224 157 196 224 157 196 224 157 196 224 157 196 224 157 196 224 157 196 224 157 196 224 157 196 224 157 196 224 157 196 224 157 196 224 157 196 224 157 196 224 157 196 224 159 196 223 159 196 223 159 196 223 159 196 223 159 196 223 159 196 223 159 196 223 159 196 223 159 196 223 159 196 223 159 196 223 159 196 223 159 196 223 159 196 223 159 196 223 159 196 223 159 196 223 159 196 223 159 196 223 159 196 223 159 196 223 159 196 223 159 196 223 159 196 223 159 196 223 159 196 223 159 196 223 159 196 223 159 196 223 159 196 223 159 196 223 159 196 223 159 196 223 159 196 223 159 196 223 158 196 223 158 196 223 158 196 223 158 196 223 158 196 223 158 196 223 158 196 223 158 196 223 158 196 223 158 196 223 158 196 223 158 196 223 158 196 223 158 196 223 158 196 223 158 196 223 158 196 223 158 196 223 158 196 223 158 196 223 158 196 223 158 196 223 158 196 223 158 196 223 158 196 223 158 196 223 158 196 223 158 196 223 158 196 223 158 196 223 158 196 223 158 196 223 158 196 223 158 196 223 158 196 223 158 196 223 158 196 223 161 196 222 161 196 222 161 196 222 161 196 222 161 196 222 161 196 222 161 196 222 161 196 222 161 196 222 161 196 222 161 196 222 161 196 222 161 196 222 161 196 222 160 163 164 160 163 164 160 163 164 153 102 98 153 102 98 153 102 98 153 102 98 153 102 98 153 102 98 153 102 98 153 102 98 153 102 98 160 163 164 160 163 164 160 163 164 160 163 164 160 163 164 160 163 164 161 196 222 161 196 222 161 196 222 161 196 222 159 196 223 159 196 223 159 196 223 159 196 223 159 196 223 159 196 223 159 196 223 159 196 223 159 196 223 159 196 223 159 196 223 159 196 223 159 196 223 159 196 223 159 196 223 159 196 223 159 196 223 159 196 223 159 196 223 159 196 223 159 196 223 159 196 223 159 196 223 159 196 223 159 196 223 159 196 223 159 196 223 159 196 223 159 196 223 159 196 223 159 196 223 159 196 223 159 196 223 159 196 223 159 196 223 159 196 223 159 196 223 159 196 223 159 196 223 159 196 223 159 196 223 159 196 223 159 196 223 159 196 223 159 196 223 159 196 223 159 196 223 159 196 223 159 196 223 159 196 223 159 196 223 159 196 223 159 196 223 159 196 223 159 196 223 159 196 223 159 196 223 159 196 223 159 196 223 159 196 223 159 196 223 159 196 223 159 196 223 159 196 223 159 196 223 159 196 223 159 196 223 159 196 223 159 196 223 159 196 223 159 196 223 159 196 223 159 196 223 159 196 223 159 196 223 159 196 223 159 196 223 159 196 223 159 196 223 159 196 223 159 196 223 159 196 223 159 196 223 159 196 223 159 196 223 159 196 223 159 196 223 159 196 223 159 196 223 159 196 223 159 196 223 159 196 223 159 196 223 159 196 223 159 196 223 159 196 223 159 196 223 159 196 223 159 196 223 159 196 223 159 196 223 159 196 223 159 196 223 159 196 223 159 196 223 159 196 223 159 196 223 159 196 223 159 196 223 159 196 223 159 196 223 159 196 223 159 196 223 159 196 223 157 196 224 157 196 224 157 196 224 157 196 224 157 196 224 157 196 224 157 196 224 157 196 224 157 196 224 157 196 224 157 196 224 157 196 224 157 196 224 157 196 224 157 196 224 157 196 224 157 196 224 157 196 224 157 196 224 157 196 224 157 196 224 157 196 224 157 196 224 157 196 224 157 196 224 157 196 224 157 196 224 157 196 224 157 196 224 157 196 224 157 196 224 157 196 224 157 196 224 157 196 224 159 196 223 159 196 223 159 196 223 159 196 223 159 196 223 159 196 223 159 196 223 159 196 223 159 196 223 159 196 223 159 196 223 159 196 223 159 196 223 159 196 223 159 196 223 159 196 223 159 196 223 159 196 223 159 196 223 159 196 223 159 196 223 159 196 223 159 196 223 159 196 223 159 196 223 159 196 223 159 196 223 159 196 223 159 196 223 159 196 223 159 196 223 159 196 223 159 196 223 159 196 223 155 196 222 158 196 223 158 196 223 158 196 223 158 196 223 158 196 223 158 196 223 158 196 223 158 196 223 158 196 223 158 196 223 158 196 223 158 196 223 158 196 223 158 196 223 158 196 223 158 196 223 158 196 223 158 196 223 158 196 223 158 196 223 158 196 223 158 196 223 158 196 223 158 196 223 158 196 223 158 196 223 158 196 223 158 196 223 158 196 223 158 196 223 158 196 223 158 196 223 158 196 223 158 196 223 158 196 223 158 196 223 158 196 223 161 196 222 161 196 222 161 196 222 161 196 222 161 196 222 161 196 222 161 196 222 161 196 222 161 196 222 161 196 222 161 196 222 160 163 164 160 163 164 160 163 164 153 102 98 153 102 98 153 102 98 153 102 98 153 102 98 153 102 98 153 102 98 153 102 98 153 102 98 153 102 98 153 102 98 153 102 98 153 102 98 153 102 98 153 102 98 153 102 98 160 163 164 160 163 164 160 163 164 160 163 164 160 163 164 160 163 164 160 163 164 159 196 223 159 196 223 159 196 223 159 196 223 159 196 223 159 196 223 159 196 223 159 196 223 159 196 223 159 196 223 159 196 223 159 196 223 159 196 223 159 196 223 159 196 223 159 196 223 159 196 223 159 196 223 159 196 223 159 196 223 159 196 223 159 196 223 159 196 223 159 196 223 159 196 223 159 196 223 159 196 223 159 196 223 159 196 223 159 196 223 159 196 223 159 196 223 159 196 223 159 196 223 159 196 223 159 196 223 159 196 223 159 196 223 159 196 223 159 196 223 159 196 223 159 196 223 159 196 223 159 196 223 159 196 223 159 196 223 159 196 223 159 196 223 159 196 223 159 196 223 159 196 223 159 196 223 159 196 223 159 196 223 159 196 223 159 196 223 159 196 223 159 196 223 159 196 223 159 196 223 159 196 223 159 196 223 159 196 223 159 196 223 159 196 223 159 196 223 159 196 223 159 196 223 159 196 223 159 196 223 159 196 223 159 196 223 159 196 223 159 196 223 159 196 223 159 196 223 159 196 223 159 196 223 159 196 223 159 196 223 159 196 223 159 196 223 159 196 223 159 196 223 159 196 223 159 196 223 159 196 223 159 196 223 159 196 223 159 196 223 159 196 223 159 196 223 159 196 223 159 196 223 159 196 223 159 196 223 159 196 223 159 196 223 159 196 223 159 196 223 159 196 223 159 196 223 159 196 223 159 196 223 159 196 223 159 196 223 159 196 223 159 196 223 159 196 223 159 196 223 159 196 223 159 196 223 159 196 223 157 196 224 157 196 224 157 196 224 157 196 224 157 196 224 157 196 224 157 196 224 157 196 224 157 196 224 157 196 224 157 196 224 157 196 224 157 196 224 157 196 224 157 196 224 157 196 224 157 196 224 157 196 224 157 196 224 157 196 224 157 196 224 157 196 224 157 196 224 157 196 224 157 196 224 157 196 224 157 196 224 157 196 224 157 196 224 157 196 224 157 196 224 157 196 224 157 196 224 157 196 224 159 196 223 159 196 223 159 196 223 159 196 223 159 196 223 159 196 223 159 196 223 159 196 223 159 196 223 159 196 223 159 196 223 159 196 223 159 196 223 159 196 223 159 196 223 159 196 223 159 196 223 159 196 223 159 196 223 159 196 223 159 196 223 159 196 223 159 196 223 159 196 223 159 196 223 159 196 223 159 196 223 159 196 223 159 196 223 159 196 223 159 196 223 159 196 223 159 196 223 155 196 222 155 196 222 155 196 222 155 196 222 158 196 223 158 196 223 158 196 223 158 196 223 158 196 223 158 196 223 158 196 223 158 196 223 158 196 223 158 196 223 158 196 223 158 196 223 158 196 223 158 196 223 158 196 223 158 196 223 158 196 223 158 196 223 158 196 223 158 196 223 158 196 223 158 196 223 158 196 223 158 196 223 158 196 223 158 196 223 158 196 223 158 196 223 158 196 223 158 196 223 158 196 223 158 196 223 158 196 223 158 196 223 158 196 223 161 196 222 161 196 222 161 196 222 161 196 222 161 196 222 161 196 222 161 196 222 161 196 222 160 163 164 160 163 164 160 163 164 153 102 98 153 102 98 153 102 98 153 102 98 153 102 98 153 102 98 153 102 98 153 102 98 153 102 98 153 102 98 153 102 98 153 102 98 153 102 98 153 102 98 153 102 98 153 102 98 153 102 98 153 102 98 153 102 98 153 102 98 153 102 98 153 102 98 153 102 98 153 102 98 160 163 164 160 163 164 160 163 164 160 163 164 160 163 164 160 163 164 159 196 223 159 196 223 159 196 223 159 196 223 159 196 223 159 196 223 159 196 223 159 196 223 159 196 223 159 196 223 159 196 223 159 196 223 159 196 223 159 196 223 159 196 223 159 196 223 159 196 223 159 196 223 159 196 223 159 196 223 159 196 223 159 196 223 159 196 223 159 196 223 159 196 223 159 196 223 159 196 223 159 196 223 159 196 223 159 196 223 161 197 219 161 197 219 161 197 219 161 197 219 159 196 223 159 196 223 159 196 223 159 196 223 159 196 223 159 196 223 159 196 223 159 196 223 159 196 223 159 196 223 159 196 223 159 196 223 159 196 223 159 196 223 159 196 223 159 196 223 159 196 223 159 196 223 159 196 223 159 196 223 159 196 223 159 196 223 159 196 223 159 196 223 159 196 223 159 196 223 159 196 223 159 196 223 159 196 223 159 196 223 159 196 223 159 196 223 159 196 223 159 196 223 159 196 223 159 196 223 159 196 223 159 196 223 159 196 223 159 196 223 159 196 223 159 196 223 159 196 223 159 196 223 159 196 223 159 196 223 159 196 223 159 196 223 159 196 223 159 196 223 159 196 223 159 196 223 159 196 223 159 196 223 159 196 223 159 196 223 159 196 223 159 196 223 159 196 223 159 196 223 159 196 223 159 196 223 159 196 223 159 196 223 159 196 223 159 196 223 159 196 223 159 196 223 159 196 223 159 196 223 159 196 223 159 196 223 159 196 223 159 196 223 159 196 223 157 196 224 157 196 224 157 196 224 157 196 224 157 196 224 157 196 224 157 196 224 157 196 224 157 196 224 157 196 224 157 196 224 157 196 224 157 196 224 157 196 224 157 196 224 157 196 224 157 196 224 157 196 224 157 196 224 157 196 224 157 196 224 157 196 224 157 196 224 157 196 224 157 196 224 157 196 224 157 196 224 157 196 224 157 196 224 157 196 224 157 196 224 157 196 224 157 196 224 157 196 224 159 196 223 159 196 223 159 196 223 159 196 223 159 196 223 159 196 223 159 196 223 159 196 223 159 196 223 159 196 223 159 196 223 159 196 223 159 196 223 159 196 223 159 196 223 159 196 223 159 196 223 159 196 223 159 196 223 159 196 223 159 196 223 159 196 223 159 196 223 159 196 223 159 196 223 159 196 223 159 196 223 159 196 223 159 196 223 159 196 223 159 196 223 159 196 223 155 196 222 155 196 222 155 196 222 155 196 222 155 196 222 155 196 222 158 196 223 158 196 223 158 196 223 158 196 223 158 196 223 158 196 223 158 196 223 158 196 223 158 196 223 158 196 223 158 196 223 158 196 223 158 196 223 158 196 223 158 196 223 158 196 223 158 196 223 158 196 223 158 196 223 158 196 223 158 196 223 158 196 223 158 196 223 158 196 223 158 196 223 158 196 223 158 196 223 158 196 223 158 196 223 158 196 223 158 196 223 158 196 223 158 196 223 161 196 222 161 196 222 161 196 222 161 196 222 161 196 222 161 196 222 160 163 164 160 163 164 160 163 164 153 102 98 153 102 98 153 102 98 153 102 98 153 102 98 153 102 98 153 102 98 153 102 98 153 102 98 153 102 98 153 102 98 153 102 98 153 102 98 153 102 98 153 102 98 153 102 98 153 102 98 153 102 98 153 102 98 153 102 98 153 102 98 153 102 98 153 102 98 153 102 98 153 102 98 153 102 98 153 102 98 153 102 98 153 102 98 153 102 98 153 102 98 153 102 98 160 163 164 160 163 164 159 196 223 159 196 223 159 196 223 159 196 223 159 196 223 159 196 223 159 196 223 159 196 223 159 196 223 159 196 223 159 196 223 159 196 223 159 196 223 159 196 223 159 196 223 159 196 223 159 196 223 159 196 223 159 196 223 159 196 223 159 196 223 159 196 223 159 196 223 159 196 223 159 196 223 159 196 223 161 197 219 161 197 219 161 197 219 161 197 219 161 197 219 161 197 219 161 197 219 161 197 219 159 196 223 159 196 223 159 196 223 159 196 223 159 196 223 159 196 223 159 196 223 159 196 223 159 196 223 159 196 223 159 196 223 159 196 223 159 196 223 159 196 223 159 196 223 159 196 223 159 196 223 159 196 223 159 196 223 159 196 223 159 196 223 159 196 223 159 196 223 159 196 223 159 196 223 159 196 223 159 196 223 159 196 223 159 196 223 159 196 223 159 196 223 159 196 223 159 196 223 159 196 223 159 196 223 159 196 223 159 196 223 159 196 223 159 196 223 159 196 223 159 196 223 159 196 223 159 196 223 159 196 223 159 196 223 159 196 223 159 196 223 159 196 223 159 196 223 159 196 223 159 196 223 159 196 223 159 196 223 159 196 223 159 196 223 159 196 223 159 196 223 159 196 223 159 196 223 159 196 223 159 196 223 159 196 223 159 196 223 159 196 223 159 196 223 159 196 223 159 196 223 159 196 223 159 196 223 159 196 223 159 196 223 159 196 223 159 196 223 159 196 223 157 196 224 157 196 224 157 196 224 157 196 224 157 196 224 157 196 224 157 196 224 157 196 224 157 196 224 157 196 224 157 196 224 157 196 224 157 196 224 157 196 224 157 196 224 157 196 224 157 196 224 157 196 224 157 196 224 157 196 224 157 196 224 157 196 224 157 196 224 157 196 224 157 196 224 157 196 224 157 196 224 157 196 224 157 196 224 157 196 224 157 196 224 157 196 224 157 196 224 157 196 224 159 196 223 159 196 223 159 196 223 159 196 223 159 196 223 159 196 223 159 196 223 159 196 223 159 196 223 159 196 223 159 196 223 159 196 223 159 196 223 159 196 223 159 196 223 159 196 223 159 196 223 159 196 223 159 196 223 159 196 223 159 196 223 159 196 223 159 196 223 159 196 223 159 196 223 159 196 223 159 196 223 159 196 223 159 196 223 155 196 222 155 196 222 155 196 222 155 196 222 155 196 222 155 196 222 155 196 222 155 196 222 155 196 222 155 196 222 155 196 222 158 196 223 158 196 223 158 196 223 158 196 223 158 196 223 158 196 223 158 196 223 158 196 223 158 196 223 158 196 223 158 196 223 158 196 223 158 196 223 158 196 223 158 196 223 158 196 223 158 196 223 158 196 223 158 196 223 158 196 223 158 196 223 158 196 223 158 196 223 158 196 223 158 196 223 158 196 223 158 196 223 158 196 223 160 199 220 160 199 220 160 199 220 160 199 220 160 199 220 161 196 222 160 163 164 160 163 164 160 163 164 153 102 98 153 102 98 153 102 98 153 102 98 153 102 98 153 102 98 153 102 98 153 102 98 153 102 98 153 102 98 153 102 98 153 102 98 153 102 98 153 102 98 153 102 98 153 102 98 153 102 98 153 102 98 153 102 98 153 102 98 153 102 98 153 102 98 153 102 98 153 102 98 153 102 98 153 102 98 153 102 98 153 102 98 153 102 98 153 102 98 153 102 98 153 102 98 153 102 98 153 102 98 153 102 98 117 98 108 160 163 164 159 196 223 159 196 223 159 196 223 159 196 223 159 196 223 159 196 223 159 196 223 159 196 223 159 196 223 159 196 223 159 196 223 159 196 223 159 196 223 159 196 223 159 196 223 159 196 223 159 196 223 159 196 223 159 196 223 159 196 223 159 196 223 159 196 223 159 196 223 159 196 223 161 197 219 161 197 219 161 197 219 161 197 219 161 197 219 161 197 219 161 197 219 161 197 219 161 197 219 161 197 219 161 197 219 159 196 223 159 196 223 159 196 223 159 196 223 159 196 223 159 196 223 159 196 223 159 196 223 159 196 223 159 196 223 159 196 223 159 196 223 159 196 223 159 196 223 159 196 223 159 196 223 159 196 223 159 196 223 159 196 223 159 196 223 159 196 223 159 196 223 159 196 223 159 196 223 159 196 223 159 196 223 159 196 223 159 196 223 159 196 223 159 196 223 159 196 223 159 196 223 159 196 223 159 196 223 159 196 223 159 196 223 159 196 223 159 196 223 159 196 223 159 196 223 159 196 223 159 196 223 159 196 223 159 196 223 159 196 223 159 196 223 159 196 223 159 196 223 159 196 223 159 196 223 159 196 223 159 196 223 159 196 223 159 196 223 159 196 223 159 196 223 159 196 223 159 196 223 159 196 223 159 196 223 159 196 223 159 196 223 159 196 223 159 196 223 159 196 223 159 196 223 159 196 223 159 196 223 159 196 223 159 196 223 159 196 223 159 196 223 159 196 223 157 196 224 157 196 224 157 196 224 157 196 224 157 196 224 157 196 224 157 196 224 157 196 224 157 196 224 157 196 224 157 196 224 157 196 224 157 196 224 157 196 224 157 196 224 157 196 224 157 196 224 157 196 224 157 196 224 157 196 224 157 196 224 157 196 224 157 196 224 157 196 224 157 196 224 157 196 224 157 196 224 157 196 224 157 196 224 157 196 224 157 196 224 157 196 224 157 196 224 157 196 224 155 197 221 155 197 221 155 197 221 159 196 223 159 196 223 159 196 223 159 196 223 159 196 223 159 196 223 159 196 223 159 196 223 159 196 223 159 196 223 159 196 223 159 196 223 159 196 223 159 196 223 159 196 223 159 196 223 159 196 223 159 196 223 159 196 223 159 196 223 159 196 223 159 196 223 159 196 223 159 196 223 155 196 222 155 196 222 155 196 222 155 196 222 155 196 222 155 196 222 155 196 222 155 196 222 155 196 222 155 196 222 155 196 222 155 196 222 155 196 222 155 196 222 158 196 223 158 196 223 158 196 223 158 196 223 158 196 223 158 196 223 158 196 223 158 196 223 158 196 223 158 196 223 158 196 223 158 196 223 158 196 223 158 196 223 158 196 223 158 196 223 158 196 223 158 196 223 158 196 223 158 196 223 158 196 223 158 196 223 158 196 223 160 199 220 160 199 220 160 199 220 160 199 220 160 199 220 160 199 220 160 199 220 160 199 220 160 163 164 160 163 164 153 102 98 153 102 98 153 102 98 153 102 98 153 102 98 153 102 98 153 102 98 153 102 98 153 102 98 153 102 98 153 102 98 153 102 98 153 102 98 153 102 98 153 102 98 153 102 98 153 102 98 153 102 98 153 102 98 153 102 98 153 102 98 153 102 98 153 102 98 153 102 98 153 102 98 153 102 98 153 102 98 153 102 98 153 102 98 153 102 98 153 102 98 153 102 98 153 102 98 153 102 98 153 102 98 153 102 98 153 102 98 153 102 98 117 98 108 160 163 164 159 196 223 159 196 223 159 196 223 159 196 223 159 196 223 159 196 223 159 196 223 159 196 223 159 196 223 159 196 223 159 196 223 159 196 223 159 196 223 159 196 223 159 196 223 159 196 223 159 196 223 159 196 223 159 196 223 159 196 223 159 196 223 161 197 219 161 197 219 161 197 219 161 197 219 161 197 219 161 197 219 161 197 219 161 197 219 161 197 219 161 197 219 161 197 219 161 197 219 161 197 219 161 197 219 161 197 219 159 196 223 159 196 223 159 196 223 159 196 223 159 196 223 159 196 223 159 196 223 159 196 223 159 196 223 159 196 223 159 196 223 159 196 223 159 196 223 159 196 223 159 196 223 159 196 223 159 196 223 159 196 223 159 196 223 159 196 223 159 196 223 159 196 223 159 196 223 159 196 223 159 196 223 159 196 223 159 196 223 159 196 223 159 196 223 159 196 223 159 196 223 159 196 223 159 196 223 159 196 223 160 196 220 160 196 220 160 196 220 160 196 220 159 196 223 159 196 223 159 196 223 159 196 223 159 196 223 159 196 223 159 196 223 159 196 223 159 196 223 159 196 223 159 196 223 159 196 223 159 196 223 159 196 223 159 196 223 159 196 223 159 196 223 159 196 223 159 196 223 159 196 223 159 196 223 159 196 223 159 196 223 159 196 223 159 196 223 159 196 223 159 196 223 159 196 223 159 196 223 159 196 223 159 196 223 159 196 223 159 196 223 159 196 223 157 196 224 157 196 224 157 196 224 157 196 224 157 196 224 157 196 224 157 196 224 157 196 224 157 196 224 157 196 224 157 196 224 157 196 224 157 196 224 157 196 224 157 196 224 157 196 224 157 196 224 157 196 224 157 196 224 157 196 224 157 196 224 157 196 224 157 196 224 157 196 224 157 196 224 157 196 224 157 196 224 157 196 224 157 196 224 157 196 224 157 196 224 157 196 224 157 196 224 157 196 224 155 197 221 155 197 221 155 197 221 155 197 221 155 197 221 155 197 221 155 197 221 155 197 221 155 197 221 159 196 223 159 196 223 159 196 223 159 196 223 159 196 223 159 196 223 159 196 223 159 196 223 159 196 223 159 196 223 159 196 223 159 196 223 159 196 223 159 196 223 159 196 223 159 196 223 159 196 223 155 196 222 155 196 222 155 196 222 155 196 222 155 196 222 155 196 222 155 196 222 155 196 222 155 196 222 155 196 222 155 196 222 155 196 222 155 196 222 155 196 222 155 196 222 155 196 222 155 196 222 158 196 223 158 196 223 158 196 223 158 196 223 158 196 223 158 196 223 158 196 223 158 196 223 158 196 223 158 196 223 158 196 223 158 196 223 158 196 223 158 196 223 158 196 223 160 199 220 160 199 220 160 199 220 160 199 220 160 199 220 160 199 220 160 199 220 160 199 220 160 199 220 160 199 220 160 199 220 160 163 164 160 163 164 160 163 164 153 102 98 153 102 98 153 102 98 153 102 98 153 102 98 153 102 98 153 102 98 153 102 98 153 102 98 153 102 98 153 102 98 153 102 98 153 102 98 153 102 98 153 102 98 153 102 98 153 102 98 153 102 98 153 102 98 153 102 98 153 102 98 153 102 98 153 102 98 153 102 98 153 102 98 153 102 98 153 102 98 153 102 98 153 102 98 153 102 98 153 102 98 153 102 98 153 102 98 153 102 98 153 102 98 153 102 98 153 102 98 153 102 98 153 102 98 153 102 98 117 98 108 160 163 164 159 196 223 159 196 223 159 196 223 159 196 223 159 196 223 159 196 223 159 196 223 159 196 223 159 196 223 159 196 223 159 196 223 159 196 223 159 196 223 159 196 223 159 196 223 159 196 223 159 196 223 159 196 223 159 196 223 161 197 219 161 197 219 161 197 219 161 197 219 161 197 219 161 197 219 161 197 219 161 197 219 161 197 219 161 197 219 161 197 219 161 197 219 161 197 219 161 197 219 161 197 219 161 197 219 161 197 219 161 197 219 159 196 223 159 196 223 159 196 223 159 196 223 159 196 223 159 196 223 159 196 223 159 196 223 159 196 223 159 196 223 159 196 223 159 196 223 159 196 223 159 196 223 159 196 223 159 196 223 159 196 223 159 196 223 159 196 223 159 196 223 159 196 223 159 196 223 159 196 223 159 196 223 159 196 223 159 196 223 159 196 223 159 196 223 159 196 223 159 196 223 159 196 223 159 196 223 160 196 220 160 196 220 160 196 220 160 196 220 160 196 220 160 196 220 160 196 220 159 196 223 159 196 223 159 196 223 159 196 223 159 196 223 159 196 223 159 196 223 159 196 223 159 196 223 159 196 223 159 196 223 159 196 223 159 196 223 159 196 223 159 196 223 159 196 223 159 196 223 159 196 223 159 196 223 159 196 223 159 196 223 159 196 223 159 196 223 159 196 223 159 196 223 159 196 223 159 196 223 159 196 223 159 196 223 159 196 223 159 196 223 159 196 223 157 196 224 157 196 224 157 196 224 157 196 224 157 196 224 157 196 224 157 196 224 157 196 224 157 196 224 157 196 224 157 196 224 157 196 224 157 196 224 157 196 224 157 196 224 157 196 224 157 196 224 157 196 224 157 196 224 157 196 224 157 196 224 157 196 224 157 196 224 157 196 224 157 196 224 157 196 224 157 196 224 157 196 224 157 196 224 157 196 224 157 196 224 157 196 224 157 196 224 157 196 224 155 197 221 155 197 221 155 197 221 155 197 221 155 197 221 155 197 221 155 197 221 155 197 221 155 197 221 155 197 221 155 197 221 155 197 221 155 197 221 155 197 221 155 197 221 159 196 223 159 196 223 159 196 223 159 196 223 159 196 223 159 196 223 159 196 223 159 196 223 155 196 222 155 196 222 155 196 222 155 196 222 155 196 222 155 196 222 155 196 222 155 196 222 155 196 222 155 196 222 155 196 222 155 196 222 155 196 222 155 196 222 155 196 222 155 196 222 155 196 222 155 196 222 155 196 222 155 196 222 155 196 222 155 196 222 158 196 223 158 196 223 158 196 223 158 196 223 158 196 223 160 199 220 160 199 220 160 199 220 160 199 220 160 199 220 160 199 220 160 199 220 160 199 220 160 199 220 160 199 220 160 199 220 160 199 220 160 199 220 160 199 220 160 199 220 160 199 220 160 199 220 160 163 164 160 163 164 153 102 98 153 102 98 153 102 98 153 102 98 153 102 98 153 102 98 153 102 98 153 102 98 153 102 98 153 102 98 153 102 98 153 102 98 153 102 98 153 102 98 153 102 98 153 102 98 153 102 98 153 102 98 153 102 98 153 102 98 153 102 98 153 102 98 153 102 98 153 102 98 153 102 98 153 102 98 153 102 98 153 102 98 153 102 98 153 102 98 153 102 98 153 102 98 153 102 98 153 102 98 153 102 98 153 102 98 153 102 98 153 102 98 153 102 98 117 98 108 153 102 98 153 102 98 117 98 108 117 98 108 160 163 164 159 196 223 159 196 223 159 196 223 159 196 223 159 196 223 159 196 223 159 196 223 159 196 223 159 196 223 159 196 223 159 196 223 159 196 223 159 196 223 159 196 223 159 196 223 159 196 223 159 196 223 161 197 219 161 197 219 161 197 219 161 197 219 161 197 219 161 197 219 161 197 219 161 197 219 161 197 219 161 197 219 161 197 219 161 197 219 161 197 219 161 197 219 161 197 219 161 197 219 161 197 219 161 197 219 161 197 219 161 197 219 161 197 219 159 196 223 159 196 223 159 196 223 159 196 223 159 196 223 159 196 223 159 196 223 159 196 223 159 196 223 159 196 223 159 196 223 159 196 223 159 196 223 159 196 223 159 196 223 159 196 223 159 196 223 159 196 223 159 196 223 159 196 223 159 196 223 159 196 223 159 196 223 159 196 223 159 196 223 159 196 223 159 196 223 159 196 223 159 196 223 160 196 220 160 196 220 160 196 220 160 196 220 160 196 220 160 196 220 160 196 220 160 196 220 160 196 220 160 196 220 160 196 220 159 196 223 159 196 223 159 196 223 159 196 223 159 196 223 159 196 223 159 196 223 159 196 223 159 196 223 159 196 223 159 196 223 159 196 223 159 196 223 159 196 223 159 196 223 159 196 223 159 196 223 159 196 223 159 196 223 159 196 223 159 196 223 159 196 223 159 196 223 159 196 223 159 196 223 159 196 223 159 196 223 159 196 223 159 196 223 159 196 223 157 196 224 157 196 224 157 196 224 157 196 224 157 196 224 157 196 224 157 196 224 157 196 224 157 196 224 157 196 224 157 196 224 157 196 224 157 196 224 157 196 224 157 196 224 157 196 224 157 196 224 157 196 224 157 196 224 157 196 224 157 196 224 157 196 224 157 196 224 157 196 224 157 196 224 157 196 224 157 196 224 157 196 224 157 196 224 157 196 224 157 196 224 157 196 224 157 196 224 157 196 224 155 197 221 155 197 221 155 197 221 155 197 221 155 197 221 155 197 221 155 197 221 155 197 221 155 197 221 155 197 221 155 197 221 155 197 221 155 197 221 155 197 221 155 197 221 155 197 221 155 197 221 155 197 221 155 197 221 155 197 221 159 196 223 159 196 223 155 196 222 155 196 222 155 196 222 155 196 222 155 196 222 155 196 222 155 196 222 155 196 222 155 196 222 155 196 222 155 196 222 155 196 222 155 196 222 155 196 222 155 196 222 155 196 222 155 196 222 155 196 222 155 196 222 155 196 222 155 196 222 155 196 222 155 196 222 155 196 222 160 199 220 160 199 220 160 199 220 160 199 220 160 199 220 160 199 220 160 199 220 160 199 220 160 199 220 160 199 220 160 199 220 160 199 220 160 199 220 160 199 220 160 199 220 160 199 220 160 199 220 160 199 220 160 199 220 160 199 220 153 102 98 153 102 98 153 102 98 153 102 98 153 102 98 153 102 98 153 102 98 153 102 98 153 102 98 153 102 98 153 102 98 153 102 98 153 102 98 153 102 98 153 102 98 153 102 98 153 102 98 153 102 98 153 102 98 153 102 98 153 102 98 153 102 98 153 102 98 153 102 98 153 102 98 153 102 98 153 102 98 153 102 98 153 102 98 153 102 98 153 102 98 153 102 98 153 102 98 153 102 98 153 102 98 153 102 98 153 102 98 153 102 98 153 102 98 153 102 98 153 102 98 153 102 98 153 102 98 153 102 98 153 102 98 117 98 108 160 163 164 159 196 223 159 196 223 159 196 223 159 196 223 159 196 223 159 196 223 159 196 223 159 196 223 159 196 223 159 196 223 159 196 223 159 196 223 159 196 223 159 196 223 159 196 223 161 197 219 161 197 219 161 197 219 161 197 219 161 197 219 161 197 219 161 197 219 161 197 219 161 197 219 161 197 219 161 197 219 161 197 219 161 197 219 161 197 219 161 197 219 161 197 219 161 197 219 161 197 219 161 197 219 161 197 219 161 197 219 161 197 219 161 197 219 161 197 219 161 197 219 159 196 223 159 196 223 159 196 223 159 196 223 159 196 223 159 196 223 159 196 223 159 196 223 159 196 223 159 196 223 159 196 223 159 196 223 159 196 223 159 196 223 159 196 223 159 196 223 159 196 223 159 196 223 159 196 223 159 196 223 159 196 223 159 196 223 159 196 223 159 196 223 159 196 223 159 196 223 159 196 223 160 196 220 160 196 220 160 196 220 160 196 220 160 196 220 160 196 220 160 196 220 160 196 220 160 196 220 160 196 220 160 196 220 160 196 220 160 196 220 159 196 223 159 196 223 159 196 223 159 196 223 159 196 223 159 196 223 159 196 223 159 196 223 159 196 223 159 196 223 159 196 223 159 196 223 159 196 223 159 196 223 159 196 223 159 196 223 159 196 223 159 196 223 159 196 223 159 196 223 159 196 223 159 196 223 159 196 223 159 196 223 159 196 223 159 196 223 159 196 223 159 196 223 159 196 223 157 196 224 157 196 224 157 196 224 157 196 224 157 196 224 157 196 224 157 196 224 157 196 224 157 196 224 157 196 224 157 196 224 157 196 224 157 196 224 157 196 224 157 196 224 157 196 224 157 196 224 157 196 224 157 196 224 157 196 224 157 196 224 157 196 224 157 196 224 157 196 224 157 196 224 157 196 224 157 196 224 157 196 224 157 196 224 157 196 224 157 196 224 157 196 224 157 196 224 157 196 224 155 197 221 155 197 221 155 197 221 155 197 221 155 197 221 155 197 221 155 197 221 155 197 221 155 197 221 155 197 221 155 197 221 155 197 221 155 197 221 155 197 221 155 197 221 155 197 221 155 197 221 155 197 221 155 197 221 155 197 221 155 197 221 155 196 222 155 196 222 155 196 222 155 196 222 155 196 222 155 196 222 155 196 222 155 196 222 155 196 222 155 196 222 155 196 222 155 196 222 155 196 222 155 196 222 155 196 222 155 196 222 155 196 222 155 196 222 155 196 222 155 196 222 155 196 222 155 196 222 155 196 222 155 196 222 155 196 222 160 199 220 160 199 220 160 199 220 160 199 220 160 199 220 160 199 220 160 199 220 160 199 220 160 199 220 160 199 220 160 199 220 160 199 220 160 199 220 160 199 220 160 199 220 160 199 220 160 199 220 160 199 220 160 199 220 160 163 164 153 102 98 153 102 98 153 102 98 153 102 98 153 102 98 153 102 98 153 102 98 153 102 98 153 102 98 153 102 98 153 102 98 153 102 98 153 102 98 153 102 98 153 102 98 153 102 98 153 102 98 153 102 98 153 102 98 153 102 98 153 102 98 153 102 98 153 102 98 153 102 98 153 102 98 153 102 98 153 102 98 153 102 98 153 102 98 153 102 98 153 102 98 153 102 98 153 102 98 153 102 98 153 102 98 153 102 98 153 102 98 153 102 98 153 102 98 153 102 98 153 102 98 153 102 98 153 102 98 153 102 98 153 102 98 153 102 98 160 163 164 159 196 223 159 196 223 159 196 223 159 196 223 159 196 223 159 196 223 159 196 223 159 196 223 159 196 223 159 196 223 159 196 223 159 196 223 161 197 219 161 197 219 161 197 219 161 197 219 161 197 219 161 197 219 161 197 219 161 197 219 161 197 219 161 197 219 161 197 219 161 197 219 161 197 219 161 197 219 161 197 219 161 197 219 161 197 219 161 197 219 161 197 219 161 197 219 161 197 219 161 197 219 161 197 219 161 197 219 161 197 219 161 197 219 161 197 219 161 197 219 161 197 219 159 196 223 159 196 223 159 196 223 159 196 223 159 196 223 159 196 223 159 196 223 159 196 223 159 196 223 159 196 223 159 196 223 159 196 223 159 196 223 159 196 223 159 196 223 159 196 223 159 196 223 159 196 223 159 196 223 159 196 223 159 196 223 159 196 223 159 196 223 159 196 223 159 196 223 160 196 220 160 196 220 160 196 220 160 196 220 160 196 220 160 196 220 160 196 220 160 196 220 160 196 220 160 196 220 160 196 220 160 196 220 160 196 220 160 196 220 160 196 220 160 196 220 159 196 223 159 196 223 159 196 223 159 196 223 159 196 223 159 196 223 159 196 223 159 196 223 159 196 223 159 196 223 159 196 223 159 196 223 159 196 223 159 196 223 159 196 223 159 196 223 159 196 223 159 196 223 159 196 223 159 196 223 159 196 223 159 196 223 159 196 223 159 196 223 159 196 223 159 196 223 159 196 223 157 196 224 157 196 224 157 196 224 157 196 224 157 196 224 157 196 224 157 196 224 157 196 224 157 196 224 157 196 224 157 196 224 157 196 224 157 196 224 157 196 224 157 196 224 157 196 224 157 196 224 157 196 224 157 196 224 157 196 224 157 196 224 157 196 224 157 196 224 157 196 224 157 196 224 157 196 224 157 196 224 157 196 224 157 196 224 157 196 224 157 196 224 157 196 224 157 196 224 157 196 224 155 197 221 155 197 221 155 197 221 155 197 221 155 197 221 155 197 221 155 197 221 155 197 221 155 197 221 155 197 221 155 197 221 155 197 221 155 197 221 155 197 221 155 197 221 155 197 221 155 197 221 155 197 221 155 197 221 155 197 221 155 197 221 155 197 221 155 196 222 155 196 222 155 196 222 155 196 222 155 196 222 155 196 222 155 196 222 155 196 222 155 196 222 155 196 222 155 196 222 155 196 222 155 196 222 155 196 222 155 196 222 155 196 222 155 196 222 155 196 222 155 196 222 155 196 222 155 196 222 155 196 222 155 196 222 155 196 222 160 199 220 160 199 220 160 199 220 160 199 220 160 199 220 160 199 220 160 199 220 160 199 220 160 199 220 160 199 220 160 199 220 160 199 220 160 199 220 160 199 220 160 199 220 160 199 220 160 199 220 160 199 220 160 199 220 160 199 220 153 102 98 153 102 98 153 102 98 153 102 98 153 102 98 153 102 98 153 102 98 153 102 98 153 102 98 153 102 98 153 102 98 153 102 98 153 102 98 153 102 98 153 102 98 153 102 98 153 102 98 153 102 98 153 102 98 153 102 98 153 102 98 153 102 98 153 102 98 153 102 98 153 102 98 153 102 98 153 102 98 153 102 98 153 102 98 153 102 98 153 102 98 153 102 98 153 102 98 153 102 98 153 102 98 153 102 98 153 102 98 153 102 98 153 102 98 153 102 98 153 102 98 153 102 98 153 102 98 153 102 98 153 102 98 153 102 98 160 163 164 159 196 223 159 196 223 159 196 223 159 196 223 159 196 223 159 196 223 159 196 223 159 196 223 159 196 223 159 196 223 161 197 219 161 197 219 161 197 219 161 197 219 161 197 219 161 197 219 161 197 219 161 197 219 161 197 219 161 197 219 161 197 219 161 197 219 161 197 219 161 197 219 161 197 219 161 197 219 161 197 219 161 197 219 161 197 219 161 197 219 161 197 219 161 197 219 161 197 219 161 197 219 161 197 219 161 197 219 161 197 219 161 197 219 161 197 219 161 197 219 161 197 219 161 197 219 159 196 223 159 196 223 159 196 223 159 196 223 159 196 223 159 196 223 159 196 223 159 196 223 159 196 223 159 196 223 159 196 223 159 196 223 159 196 223 159 196 223 159 196 223 159 196 223 159 196 223 159 196 223 159 196 223 159 196 223 159 196 223 159 196 223 160 196 220 160 196 220 160 196 220 160 196 220 160 196 220 160 196 220 160 196 220 160 196 220 160 196 220 160 196 220 160 196 220 160 196 220 160 196 220 160 196 220 160 196 220 160 196 220 160 196 220 160 196 220 160 196 220 160 196 220 159 196 223 159 196 223 159 196 223 159 196 223 159 196 223 159 196 223 159 196 223 159 196 223 159 196 223 159 196 223 159 196 223 159 196 223 159 196 223 159 196 223 159 196 223 159 196 223 159 196 223 159 196 223 159 196 223 159 196 223 159 196 223 159 196 223 159 196 223 159 196 223 159 196 223 157 196 224 157 196 224 157 196 224 157 196 224 157 196 224 157 196 224 157 196 224 157 196 224 157 196 224 157 196 224 157 196 224 157 196 224 157 196 224 157 196 224 157 196 224 157 196 224 157 196 224 157 196 224 157 196 224 157 196 224 157 196 224 157 196 224 157 196 224 157 196 224 157 196 224 157 196 224 157 196 224 157 196 224 157 196 224 157 196 224 157 196 224 157 196 224 157 196 224 157 196 224 155 197 221 155 197 221 155 197 221 155 197 221 155 197 221 155 197 221 155 197 221 155 197 221 155 197 221 155 197 221 155 197 221 155 197 221 155 197 221 155 197 221 155 197 221 155 197 221 155 197 221 155 197 221 155 197 221 155 197 221 155 197 221 155 197 221 155 196 222 155 196 222 155 196 222 155 196 222 155 196 222 155 196 222 155 196 222 155 196 222 155 196 222 155 196 222 155 196 222 155 196 222 155 196 222 155 196 222 155 196 222 155 196 222 155 196 222 155 196 222 155 196 222 155 196 222 155 196 222 155 196 222 155 196 222 155 196 222 160 199 220 160 199 220 160 199 220 160 199 220 160 199 220 160 199 220 160 199 220 160 199 220 160 199 220 160 199 220 160 199 220 160 199 220 160 199 220 160 199 220 160 199 220 160 199 220 160 199 220 160 199 220 160 199 220 160 199 220 153 102 98 153 102 98 153 102 98 153 102 98 153 102 98 153 102 98 153 102 98 153 102 98 153 102 98 153 102 98 153 102 98 153 102 98 153 102 98 153 102 98 153 102 98 153 102 98 153 102 98 153 102 98 153 102 98 153 102 98 153 102 98 153 102 98 153 102 98 153 102 98 153 102 98 153 102 98 153 102 98 153 102 98 153 102 98 153 102 98 153 102 98 153 102 98 153 102 98 153 102 98 153 102 98 153 102 98 153 102 98 153 102 98 153 102 98 153 102 98 153 102 98 153 102 98 153 102 98 153 102 98 153 102 98 153 102 98 160 163 164 159 196 223 159 196 223 159 196 223 159 196 223 159 196 223 159 196 223 159 196 223 159 196 223 161 197 219 161 197 219 161 197 219 161 197 219 161 197 219 161 197 219 161 197 219 161 197 219 161 197 219 161 197 219 161 197 219 161 197 219 161 197 219 161 197 219 161 197 219 161 197 219 161 197 219 161 197 219 161 197 219 161 197 219 161 197 219 161 197 219 161 197 219 161 197 219 161 197 219 161 197 219 161 197 219 161 197 219 161 197 219 161 197 219 161 197 219 161 197 219 161 197 219 161 197 219 161 197 219 159 196 223 159 196 223 159 196 223 159 196 223 159 196 223 159 196 223 159 196 223 159 196 223 159 196 223 159 196 223 159 196 223 159 196 223 159 196 223 159 196 223 159 196 223 159 196 223 159 196 223 159 196 223 159 196 223 159 196 223 160 196 220 160 196 220 160 196 220 160 196 220 160 196 220 160 196 220 160 196 220 160 196 220 160 196 220 160 196 220 160 196 220 160 196 220 160 196 220 160 196 220 160 196 220 160 196 220 160 196 220 160 196 220 160 196 220 160 196 220 160 196 220 160 196 220 160 196 220 159 196 223 159 196 223 159 196 223 159 196 223 159 196 223 159 196 223 159 196 223 159 196 223 159 196 223 159 196 223 159 196 223 159 196 223 159 196 223 159 196 223 159 196 223 159 196 223 159 196 223 159 196 223 159 196 223 159 196 223 159 196 223 159 196 223 159 196 223 157 196 224 157 196 224 157 196 224 157 196 224 157 196 224 157 196 224 157 196 224 157 196 224 157 196 224 157 196 224 157 196 224 157 196 224 157 196 224 157 196 224 157 196 224 157 196 224 157 196 224 157 196 224 157 196 224 157 196 224 157 196 224 157 196 224 157 196 224 157 196 224 157 196 224 157 196 224 157 196 224 157 196 224 157 196 224 157 196 224 157 196 224 157 196 224 157 196 224 157 196 224 155 197 221 155 197 221 155 197 221 155 197 221 155 197 221 155 197 221 155 197 221 155 197 221 155 197 221 155 197 221 155 197 221 155 197 221 155 197 221 155 197 221 155 197 221 155 197 221 155 197 221 155 197 221 155 197 221 155 197 221 155 197 221 155 197 221 155 196 222 155 196 222 155 196 222 155 196 222 155 196 222 155 196 222 155 196 222 155 196 222 155 196 222 155 196 222 155 196 222 155 196 222 155 196 222 155 196 222 155 196 222 155 196 222 155 196 222 155 196 222 155 196 222 155 196 222 155 196 222 155 196 222 155 196 222 155 196 222 160 199 220 160 199 220 160 199 220 160 199 220 160 199 220 160 199 220 160 199 220 160 199 220 160 199 220 160 199 220 160 199 220 160 199 220 160 199 220 160 199 220 160 199 220 160 199 220 160 199 220 160 199 220 160 199 220 160 199 220 153 102 98 153 102 98 153 102 98 153 102 98 153 102 98 153 102 98 153 102 98 153 102 98 153 102 98 153 102 98 153 102 98 153 102 98 153 102 98 153 102 98 153 102 98 153 102 98 153 102 98 153 102 98 153 102 98 153 102 98 153 102 98 153 102 98 153 102 98 153 102 98 153 102 98 153 102 98 153 102 98 153 102 98 153 102 98 153 102 98 153 102 98 153 102 98 153 102 98 153 102 98 153 102 98 153 102 98 153 102 98 153 102 98 153 102 98 153 102 98 153 102 98 153 102 98 153 102 98 153 102 98 153 102 98 153 102 98 160 163 164 159 196 223 159 196 223 159 196 223 159 196 223 161 197 219 161 197 219 161 197 219 161 197 219 161 197 219 161 197 219 161 197 219 161 197 219 161 197 219 161 197 219 161 197 219 161 197 219 161 197 219 161 197 219 161 197 219 161 197 219 161 197 219 161 197 219 161 197 219 161 197 219 161 197 219 161 197 219 161 197 219 161 197 219 161 197 219 161 197 219 161 197 219 161 197 219 161 197 219 161 197 219 161 197 219 161 197 219 161 197 219 161 197 219 161 197 219 161 197 219 161 197 219 161 197 219 161 197 219 161 197 219 159 196 223 159 196 223 159 196 223 159 196 223 159 196 223 159 196 223 159 196 223 159 196 223 159 196 223 159 196 223 159 196 223 159 196 223 159 196 223 159 196 223 159 196 223 159 196 223 159 196 223 160 196 220 160 196 220 160 196 220 160 196 220 160 196 220 160 196 220 160 196 220 160 196 220 160 196 220 160 196 220 160 196 220 160 196 220 160 196 220 160 196 220 160 196 220 160 196 220 160 196 220 160 196 220 160 196 220 160 196 220 160 196 220 160 196 220 160 196 220 160 196 220 160 196 220 160 196 220 160 196 220 159 196 223 159 196 223 159 196 223 159 196 223 159 196 223 159 196 223 159 196 223 159 196 223 159 196 223 159 196 223 159 196 223 159 196 223 159 196 223 159 196 223 159 196 223 159 196 223 159 196 223 159 196 223 159 196 223 159 196 223 159 197 222 157 196 224 157 196 224 157 196 224 157 196 224 157 196 224 157 196 224 157 196 224 157 196 224 157 196 224 157 196 224 157 196 224 157 196 224 157 196 224 157 196 224 157 196 224 157 196 224 157 196 224 157 196 224 157 196 224 157 196 224 157 196 224 157 196 224 157 196 224 157 196 224 157 196 224 157 196 224 157 196 224 157 196 224 157 196 224 157 196 224 157 196 224 157 196 224 157 196 224 157 196 224 155 197 221 155 197 221 155 197 221 155 197 221 155 197 221 155 197 221 155 197 221 155 197 221 155 197 221 155 197 221 155 197 221 155 197 221 155 197 221 155 197 221 155 197 221 155 197 221 155 197 221 155 197 221 155 197 221 155 197 221 155 197 221 155 197 221 155 196 222 155 196 222 155 196 222 155 196 222 155 196 222 155 196 222 155 196 222 155 196 222 155 196 222 155 196 222 155 196 222 155 196 222 155 196 222 155 196 222 155 196 222 155 196 222 155 196 222 155 196 222 155 196 222 155 196 222 155 196 222 155 196 222 155 196 222 155 196 222 160 199 220 160 199 220 160 199 220 160 199 220 160 199 220 160 199 220 160 199 220 160 199 220 160 199 220 160 199 220 160 199 220 160 199 220 160 199 220 160 199 220 160 199 220 160 199 220 160 199 220 160 199 220 160 199 220 160 199 220 153 102 98 153 102 98 153 102 98 153 102 98 153 102 98 153 102 98 153 102 98 153 102 98 153 102 98 153 102 98 153 102 98 153 102 98 153 102 98 153 102 98 153 102 98 153 102 98 153 102 98 153 102 98 153 102 98 153 102 98 153 102 98 153 102 98 153 102 98 153 102 98 153 102 98 153 102 98 153 102 98 153 102 98 153 102 98 153 102 98 153 102 98 153 102 98 153 102 98 153 102 98 153 102 98 153 102 98 153 102 98 153 102 98 153 102 98 153 102 98 153 102 98 153 102 98 153 102 98 153 102 98 153 102 98 153 102 98 160 163 164 159 196 223 161 197 219 161 197 219 161 197 219 161 197 219 161 197 219 161 197 219 161 197 219 161 197 219 161 197 219 161 197 219 161 197 219 161 197 219 161 197 219 161 197 219 161 197 219 161 197 219 161 197 219 161 197 219 161 197 219 161 197 219 161 197 219 161 197 219 161 197 219 161 197 219 161 197 219 161 197 219 161 197 219 161 197 219 161 197 219 161 197 219 161 197 219 161 197 219 161 197 219 161 197 219 161 197 219 161 197 219 161 197 219 161 197 219 161 197 219 161 197 219 161 197 219 161 197 219 161 197 219 161 197 219 159 196 223 159 196 223 159 196 223 159 196 223 159 196 223 159 196 223 159 196 223 159 196 223 159 196 223 159 196 223 159 196 223 159 196 223 159 196 223 159 196 223 159 196 223 160 196 220 160 196 220 160 196 220 160 196 220 160 196 220 160 196 220 160 196 220 160 196 220 160 196 220 160 196 220 160 196 220 160 196 220 160 196 220 160 196 220 160 196 220 160 196 220 160 196 220 160 196 220 160 196 220 160 196 220 160 196 220 160 196 220 160 196 220 160 196 220 160 196 220 160 196 220 160 196 220 160 196 220 160 196 220 160 196 220 159 196 223 159 196 223 159 196 223 159 196 223 159 196 223 159 196 223 159 196 223 159 196 223 159 196 223 159 196 223 159 196 223 159 196 223 159 196 223 159 196 223 159 196 223 159 196 223 159 196 223 159 197 222 159 197 222 159 197 222 159 197 222 159 197 222 159 197 222 159 197 222 159 197 222 159 197 222 159 197 222 157 196 224 157 196 224 157 196 224 157 196 224 157 196 224 157 196 224 157 196 224 157 196 224 157 196 224 157 196 224 157 196 224 157 196 224 157 196 224 157 196 224 157 196 224 157 196 224 157 196 224 157 196 224 157 196 224 157 196 224 157 196 224 157 196 224 157 196 224 157 196 224 157 196 224 157 196 224 155 197 221 155 197 221 155 197 221 155 197 221 155 197 221 155 197 221 155 197 221 155 197 221 155 197 221 155 197 221 155 197 221 155 197 221 155 197 221 155 197 221 155 197 221 155 197 221 155 197 221 155 197 221 155 197 221 155 197 221 155 197 221 155 197 221 155 196 222 155 196 222 155 196 222 155 196 222 155 196 222 155 196 222 155 196 222 155 196 222 155 196 222 155 196 222 155 196 222 155 196 222 155 196 222 155 196 222 155 196 222 155 196 222 155 196 222 155 196 222 155 196 222 155 196 222 155 196 222 155 196 222 155 196 222 155 196 222 160 199 220 160 199 220 160 199 220 160 199 220 160 199 220 160 199 220 160 199 220 160 199 220 160 199 220 160 199 220 160 199 220 160 199 220 160 199 220 160 199 220 160 199 220 160 199 220 160 199 220 160 199 220 160 199 220 160 199 220 160 163 164 153 102 98 153 102 98 153 102 98 153 102 98 153 102 98 153 102 98 153 102 98 153 102 98 153 102 98 153 102 98 153 102 98 153 102 98 153 102 98 153 102 98 153 102 98 153 102 98 153 102 98 153 102 98 153 102 98 153 102 98 153 102 98 153 102 98 153 102 98 153 102 98 153 102 98 153 102 98 153 102 98 153 102 98 153 102 98 153 102 98 153 102 98 153 102 98 153 102 98 153 102 98 153 102 98 153 102 98 153 102 98 153 102 98 153 102 98 153 102 98 153 102 98 153 102 98 153 102 98 153 102 98 153 102 98 160 163 164 161 197 219 161 197 219 161 197 219 161 197 219 161 197 219 161 197 219 161 197 219 161 197 219 161 197 219 161 197 219 161 197 219 161 197 219 161 197 219 161 197 219 161 197 219 161 197 219 161 197 219 161 197 219 161 197 219 161 197 219 161 197 219 161 197 219 161 197 219 161 197 219 161 197 219 161 197 219 161 197 219 161 197 219 161 197 219 161 197 219 161 197 219 161 197 219 161 197 219 161 197 219 161 197 219 161 197 219 161 197 219 161 197 219 161 197 219 161 197 219 161 197 219 161 197 219 161 197 219 161 197 219 161 197 219 161 197 219 159 196 223 159 196 223 159 196 223 159 196 223 159 196 223 159 196 223 159 196 223 159 196 223 159 196 223 159 196 223 159 196 223 159 196 223 160 196 220 160 196 220 160 196 220 160 196 220 160 196 220 160 196 220 160 196 220 160 196 220 160 196 220 160 196 220 160 196 220 160 196 220 160 196 220 160 196 220 160 196 220 160 196 220 160 196 220 160 196 220 160 196 220 160 196 220 160 196 220 160 196 220 160 196 220 160 196 220 160 196 220 160 196 220 160 196 220 160 196 220 160 196 220 160 196 220 160 196 220 160 196 220 160 196 220 160 196 220 159 196 223 159 196 223 159 196 223 159 196 223 159 196 223 159 196 223 159 196 223 159 196 223 159 196 223 159 196 223 159 196 223 159 196 223 159 196 223 159 196 223 159 197 222 159 197 222 159 197 222 159 197 222 159 197 222 159 197 222 159 197 222 159 197 222 159 197 222 159 197 222 159 197 222 159 197 222 159 197 222 159 197 222 159 197 222 159 197 222 159 197 222 159 197 222 159 197 222 157 196 224 157 196 224 157 196 224 157 196 224 157 196 224 157 196 224 157 196 224 157 196 224 157 196 224 157 196 224 157 196 224 157 196 224 157 196 224 157 196 224 157 196 224 157 196 224 157 196 224 157 196 224 155 197 221 155 197 221 155 197 221 155 197 221 155 197 221 155 197 221 155 197 221 155 197 221 155 197 221 155 197 221 155 197 221 155 197 221 155 197 221 155 197 221 155 197 221 155 197 221 155 197 221 155 197 221 155 197 221 155 197 221 155 197 221 155 197 221 155 196 222 155 196 222 155 196 222 155 196 222 155 196 222 155 196 222 155 196 222 155 196 222 155 196 222 155 196 222 155 196 222 155 196 222 155 196 222 155 196 222 155 196 222 155 196 222 155 196 222 155 196 222 155 196 222 155 196 222 155 196 222 155 196 222 155 196 222 155 196 222 160 199 220 160 199 220 160 199 220 160 199 220 160 199 220 160 199 220 160 199 220 160 199 220 160 199 220 160 199 220 160 199 220 160 199 220 160 199 220 160 199 220 160 199 220 160 199 220 160 199 220 160 199 220 160 199 220 160 199 220 160 163 164 153 102 98 153 102 98 153 102 98 153 102 98 153 102 98 153 102 98 153 102 98 153 102 98 153 102 98 153 102 98 153 102 98 153 102 98 153 102 98 153 102 98 153 102 98 153 102 98 153 102 98 153 102 98 153 102 98 153 102 98 153 102 98 153 102 98 153 102 98 153 102 98 153 102 98 153 102 98 153 102 98 153 102 98 153 102 98 153 102 98 153 102 98 153 102 98 153 102 98 153 102 98 153 102 98 153 102 98 153 102 98 153 102 98 153 102 98 153 102 98 153 102 98 153 102 98 153 102 98 153 102 98 153 102 98 160 163 164 161 197 219 161 197 219 161 197 219 161 197 219 161 197 219 161 197 219 161 197 219 161 197 219 161 197 219 161 197 219 161 197 219 161 197 219 161 197 219 161 197 219 161 197 219 161 197 219 161 197 219 161 197 219 161 197 219 161 197 219 161 197 219 161 197 219 161 197 219 161 197 219 161 197 219 161 197 219 161 197 219 161 197 219 161 197 219 161 197 219 161 197 219 161 197 219 161 197 219 161 197 219 161 197 219 161 197 219 161 197 219 161 197 219 161 197 219 161 197 219 161 197 219 161 197 219 161 197 219 161 197 219 161 197 219 161 197 219 161 197 219 159 196 223 159 196 223 159 196 223 159 196 223 159 196 223 159 196 223 159 196 223 159 196 223 159 196 223 159 196 223 160 196 220 160 196 220 160 196 220 160 196 220 160 196 220 160 196 220 160 196 220 160 196 220 160 196 220 160 196 220 160 196 220 160 196 220 160 196 220 160 196 220 160 196 220 160 196 220 160 196 220 160 196 220 160 196 220 160 196 220 160 196 220 160 196 220 160 196 220 160 196 220 160 196 220 160 196 220 160 196 220 160 196 220 160 196 220 160 196 220 160 196 220 160 196 220 160 196 220 160 196 220 160 196 220 160 196 220 160 196 220 159 196 223 159 196 223 159 196 223 159 196 223 159 196 223 159 196 223 159 196 223 159 196 223 159 196 223 159 196 223 159 196 223 159 197 222 159 197 222 159 197 222 159 197 222 159 197 222 159 197 222 159 197 222 159 197 222 159 197 222 159 197 222 159 197 222 159 197 222 159 197 222 159 197 222 159 197 222 159 197 222 159 197 222 159 197 222 159 197 222 159 197 222 159 197 222 159 197 222 159 197 222 159 197 222 159 197 222 159 197 222 159 197 222 157 196 224 157 196 224 157 196 224 157 196 224 157 196 224 157 196 224 157 196 224 157 196 224 157 196 224 157 196 224 157 196 224 155 197 221 155 197 221 155 197 221 155 197 221 155 197 221 155 197 221 155 197 221 155 197 221 155 197 221 155 197 221 155 197 221 155 197 221 155 197 221 155 197 221 155 197 221 155 197 221 155 197 221 155 197 221 155 197 221 155 197 221 155 197 221 155 197 221 155 196 222 155 196 222 155 196 222 155 196 222 155 196 222 155 196 222 155 196 222 155 196 222 155 196 222 155 196 222 155 196 222 155 196 222 155 196 222 155 196 222 155 196 222 155 196 222 155 196 222 155 196 222 155 196 222 155 196 222 155 196 222 155 196 222 155 196 222 155 196 222 160 199 220 160 199 220 160 199 220 160 199 220 160 199 220 160 199 220 160 199 220 160 199 220 160 199 220 160 199 220 160 199 220 160 199 220 160 199 220 160 199 220 160 199 220 160 199 220 160 199 220 160 199 220 160 199 220 160 199 220 160 163 164 153 102 98 153 102 98 153 102 98 153 102 98 153 102 98 153 102 98 153 102 98 153 102 98 153 102 98 153 102 98 153 102 98 153 102 98 153 102 98 153 102 98 153 102 98 153 102 98 153 102 98 153 102 98 153 102 98 153 102 98 153 102 98 153 102 98 153 102 98 153 102 98 153 102 98 153 102 98 153 102 98 153 102 98 153 102 98 153 102 98 153 102 98 153 102 98 153 102 98 153 102 98 153 102 98 153 102 98 153 102 98 153 102 98 153 102 98 153 102 98 153 102 98 153 102 98 153 102 98 153 102 98 153 102 98 160 163 164 161 197 219 161 197 219 161 197 219 161 197 219 161 197 219 161 197 219 161 197 219 161 197 219 161 197 219 161 197 219 161 197 219 161 197 219 161 197 219 161 197 219 161 197 219 161 197 219 161 197 219 161 197 219 161 197 219 161 197 219 161 197 219 161 197 219 161 197 219 161 197 219 161 197 219 161 197 219 161 197 219 161 197 219 161 197 219 161 197 219 161 197 219 161 197 219 161 197 219 161 197 219 161 197 219 161 197 219 161 197 219 161 197 219 161 197 219 161 197 219 161 197 219 161 197 219 161 197 219 161 197 219 161 197 219 161 197 219 161 197 219 161 197 219 159 196 223 159 196 223 159 196 223 159 196 223 159 196 223 159 196 223 159 196 223 160 196 220 160 196 220 160 196 220 160 196 220 160 196 220 160 196 220 160 196 220 160 196 220 160 196 220 160 196 220 160 196 220 160 196 220 160 196 220 160 196 220 160 196 220 160 196 220 160 196 220 160 196 220 160 196 220 160 196 220 160 196 220 160 196 220 160 196 220 160 196 220 160 196 220 160 196 220 160 196 220 160 196 220 160 196 220 160 196 220 160 196 220 160 196 220 160 196 220 160 196 220 160 196 220 160 196 220 160 196 220 160 196 220 160 196 220 160 196 220 160 196 220 159 196 223 159 196 223 159 196 223 159 196 223 159 196 223 159 196 223 159 196 223 159 197 222 159 197 222 159 197 222 159 197 222 159 197 222 159 197 222 159 197 222 159 197 222 159 197 222 159 197 222 159 197 222 159 197 222 159 197 222 159 197 222 159 197 222 159 197 222 159 197 222 159 197 222 159 197 222 159 197 222 159 197 222 159 197 222 159 197 222 159 197 222 159 197 222 159 197 222 159 197 222 159 197 222 159 197 222 159 197 222 159 197 222 159 197 222 159 197 222 159 197 222 159 197 222 159 197 222 157 196 224 157 196 224 157 196 224 157 196 224 155 197 221 155 197 221 155 197 221 155 197 221 155 197 221 155 197 221 155 197 221 155 197 221 155 197 221 155 197 221 155 197 221 155 197 221 155 197 221 155 197 221 155 197 221 155 197 221 155 197 221 155 197 221 155 197 221 155 197 221 155 197 221 155 197 221 155 196 222 155 196 222 155 196 222 155 196 222 155 196 222 155 196 222 155 196 222 155 196 222 155 196 222 155 196 222 155 196 222 155 196 222 155 196 222 155 196 222 155 196 222 155 196 222 155 196 222 155 196 222 155 196 222 155 196 222 155 196 222 155 196 222 155 196 222 155 196 222 160 199 220 160 199 220 160 199 220 160 199 220 160 199 220 160 199 220 160 199 220 160 199 220 160 199 220 160 199 220 160 199 220 160 199 220 160 199 220 160 199 220 160 199 220 160 199 220 160 199 220 160 199 220 160 199 220 160 199 220 160 163 164 153 102 98 153 102 98 153 102 98 153 102 98 153 102 98 153 102 98 153 102 98 153 102 98 153 102 98 153 102 98 153 102 98 153 102 98 153 102 98 153 102 98 153 102 98 153 102 98 153 102 98 153 102 98 153 102 98 153 102 98 153 102 98 153 102 98 153 102 98 153 102 98 153 102 98 153 102 98 153 102 98 153 102 98 153 102 98 153 102 98 153 102 98 153 102 98 153 102 98 153 102 98 153 102 98 153 102 98 153 102 98 153 102 98 153 102 98 153 102 98 153 102 98 153 102 98 153 102 98 153 102 98 153 102 98 160 163 164 161 197 219 161 197 219 161 197 219 161 197 219 161 197 219 161 197 219 161 197 219 161 197 219 161 197 219 161 197 219 161 197 219 161 197 219 161 197 219 161 197 219 161 197 219 161 197 219 161 197 219 161 197 219 161 197 219 161 197 219 161 197 219 161 197 219 161 197 219 161 197 219 161 197 219 161 197 219 161 197 219 161 197 219 161 197 219 161 197 219 161 197 219 161 197 219 161 197 219 161 197 219 161 197 219 161 197 219 161 197 219 161 197 219 161 197 219 161 197 219 161 197 219 161 197 219 161 197 219 161 197 219 161 197 219 161 197 219 161 197 219 161 197 219 161 197 219 159 196 223 159 196 223 159 196 223 159 196 223 159 196 223 160 196 220 160 196 220 160 196 220 160 196 220 160 196 220 160 196 220 160 196 220 160 196 220 160 196 220 160 196 220 160 196 220 160 196 220 160 196 220 160 196 220 160 196 220 160 196 220 160 196 220 160 196 220 160 196 220 160 196 220 160 196 220 160 196 220 160 196 220 160 196 220 160 196 220 160 196 220 160 196 220 160 196 220 160 196 220 160 196 220 160 196 220 160 196 220 160 196 220 160 196 220 160 196 220 160 196 220 160 196 220 160 196 220 160 196 220 160 196 220 160 196 220 160 196 220 160 196 220 160 196 220 159 196 223 159 196 223 159 196 223 159 196 223 159 197 222 159 197 222 159 197 222 159 197 222 159 197 222 159 197 222 159 197 222 159 197 222 159 197 222 159 197 222 159 197 222 159 197 222 159 197 222 159 197 222 159 197 222 159 197 222 159 197 222 159 197 222 159 197 222 159 197 222 159 197 222 159 197 222 159 197 222 159 197 222 159 197 222 159 197 222 159 197 222 159 197 222 159 197 222 159 197 222 159 197 222 159 197 222 159 197 222 159 197 222 159 197 222 159 197 222 159 197 222 159 197 222 159 197 222 159 197 222 159 197 222 155 197 221 155 197 221 155 197 221 155 197 221 155 197 221 155 197 221 155 197 221 155 197 221 155 197 221 155 197 221 155 197 221 155 197 221 155 197 221 155 197 221 155 197 221 155 197 221 155 197 221 155 197 221 155 197 221 155 197 221 155 197 221 155 197 221 155 196 222 155 196 222 155 196 222 155 196 222 155 196 222 155 196 222 155 196 222 155 196 222 155 196 222 155 196 222 155 196 222 155 196 222 155 196 222 155 196 222 155 196 222 155 196 222 155 196 222 155 196 222 155 196 222 155 196 222 155 196 222 155 196 222 155 196 222 155 196 222 160 199 220 160 199 220 160 199 220 160 199 220 160 199 220 160 199 220 160 199 220 160 199 220 160 199 220 160 199 220 160 199 220 160 199 220 160 199 220 160 199 220 160 199 220 160 199 220 160 199 220 160 199 220 160 199 220 160 199 220 160 163 164 153 102 98 153 102 98 153 102 98 153 102 98 153 102 98 153 102 98 153 102 98 153 102 98 153 102 98 153 102 98 153 102 98 153 102 98 153 102 98 153 102 98 153 102 98 153 102 98 153 102 98 153 102 98 153 102 98 153 102 98 153 102 98 153 102 98 153 102 98 153 102 98 153 102 98 153 102 98 153 102 98 153 102 98 153 102 98 153 102 98 153 102 98 153 102 98 153 102 98 153 102 98 153 102 98 153 102 98 153 102 98 153 102 98 153 102 98 153 102 98 153 102 98 153 102 98 153 102 98 153 102 98 153 102 98 160 163 164 161 197 219 161 197 219 161 197 219 161 197 219 161 197 219 161 197 219 161 197 219 161 197 219 161 197 219 161 197 219 161 197 219 161 197 219 161 197 219 161 197 219 161 197 219 161 197 219 161 197 219 161 197 219 161 197 219 161 197 219 161 197 219 161 197 219 161 197 219 161 197 219 161 197 219 161 197 219 161 197 219 161 197 219 161 197 219 161 197 219 161 197 219 161 197 219 161 197 219 161 197 219 161 197 219 161 197 219 161 197 219 161 197 219 161 197 219 161 197 219 161 197 219 161 197 219 161 197 219 161 197 219 161 197 219 161 197 219 161 197 219 161 197 219 161 197 219 161 197 219 159 196 223 159 196 223 160 196 220 160 196 220 160 196 220 160 196 220 160 196 220 160 196 220 160 196 220 160 196 220 160 196 220 160 196 220 160 196 220 160 196 220 160 196 220 160 196 220 160 196 220 160 196 220 160 196 220 160 196 220 160 196 220 160 196 220 160 196 220 160 196 220 160 196 220 160 196 220 160 196 220 160 196 220 160 196 220 160 196 220 160 196 220 160 196 220 160 196 220 160 196 220 160 196 220 160 196 220 160 196 220 160 196 220 160 196 220 160 196 220 160 196 220 160 196 220 160 196 220 160 196 220 160 196 220 160 196 220 160 196 220 160 196 220 160 196 220 160 196 220 159 196 223 159 197 222 159 197 222 159 197 222 159 197 222 159 197 222 159 197 222 159 197 222 159 197 222 159 197 222 159 197 222 159 197 222 159 197 222 159 197 222 159 197 222 159 197 222 159 197 222 159 197 222 159 197 222 159 197 222 159 197 222 159 197 222 159 197 222 159 197 222 159 197 222 159 197 222 159 197 222 159 197 222 159 197 222 159 197 222 159 197 222 159 197 222 159 197 222 159 197 222 159 197 222 159 197 222 159 197 222 159 197 222 159 197 222 159 197 222 159 197 222 159 197 222 159 197 222 155 197 221 155 197 221 155 197 221 155 197 221 155 197 221 155 197 221 155 197 221 155 197 221 155 197 221 155 197 221 155 197 221 155 197 221 155 197 221 155 197 221 155 197 221 155 197 221 155 197 221 155 197 221 155 197 221 155 197 221 155 197 221 155 197 221 155 196 222 155 196 222 155 196 222 155 196 222 155 196 222 155 196 222 155 196 222 155 196 222 155 196 222 155 196 222 155 196 222 155 196 222 155 196 222 155 196 222 155 196 222 155 196 222 155 196 222 155 196 222 155 196 222 155 196 222 155 196 222 155 196 222 155 196 222 155 196 222 160 199 220 160 199 220 160 199 220 160 199 220 160 199 220 160 199 220 160 199 220 160 199 220 160 199 220 160 199 220 160 199 220 160 199 220 160 199 220 160 199 220 160 199 220 160 199 220 160 199 220 160 199 220 160 199 220 160 199 220 160 163 164 153 102 98 153 102 98 153 102 98 153 102 98 153 102 98 153 102 98 153 102 98 153 102 98 153 102 98 153 102 98 153 102 98 153 102 98 153 102 98 153 102 98 153 102 98 153 102 98 153 102 98 153 102 98 153 102 98 153 102 98 153 102 98 153 102 98 153 102 98 153 102 98 153 102 98 153 102 98 153 102 98 153 102 98 153 102 98 153 102 98 153 102 98 153 102 98 153 102 98 153 102 98 153 102 98 153 102 98 153 102 98 153 102 98 153 102 98 153 102 98 153 102 98 153 102 98 153 102 98 153 102 98 153 102 98 160 163 164 161 197 219 161 197 219 161 197 219 161 197 219 161 197 219 161 197 219 161 197 219 161 197 219 161 197 219 161 197 219 161 197 219 161 197 219 161 197 219 161 197 219 161 197 219 161 197 219 161 197 219 161 197 219 161 197 219 161 197 219 161 197 219 161 197 219 161 197 219 161 197 219 161 197 219 161 197 219 161 197 219 161 197 219 161 197 219 161 197 219 161 197 219 161 197 219 161 197 219 161 197 219 161 197 219 161 197 219 161 197 219 161 197 219 161 197 219 161 197 219 161 197 219 161 197 219 161 197 219 161 197 219 161 197 219 161 197 219 161 197 219 161 197 219 161 197 219 161 197 219 161 197 219 160 196 220 160 196 220 160 196 220 160 196 220 160 196 220 160 196 220 160 196 220 160 196 220 160 196 220 160 196 220 160 196 220 160 196 220 160 196 220 160 196 220 160 196 220 160 196 220 160 196 220 160 196 220 160 196 220 160 196 220 160 196 220 160 196 220 160 196 220 160 196 220 160 196 220 160 196 220 160 196 220 160 196 220 160 196 220 160 196 220 160 196 220 160 196 220 160 196 220 160 196 220 160 196 220 160 196 220 160 196 220 160 196 220 160 196 220 160 196 220 160 196 220 160 196 220 160 196 220 160 196 220 160 196 220 160 196 220 160 196 220 160 196 220 160 196 220 159 197 222 159 197 222 159 197 222 159 197 222 159 197 222 159 197 222 159 197 222 159 197 222 159 197 222 159 197 222 159 197 222 159 197 222 159 197 222 159 197 222 159 197 222 159 197 222 159 197 222 159 197 222 159 197 222 159 197 222 159 197 222 159 197 222 159 197 222 159 197 222 159 197 222 159 197 222 159 197 222 159 197 222 159 197 222 159 197 222 159 197 222 159 197 222 159 197 222 159 197 222 159 197 222 159 197 222 159 197 222 159 197 222 159 197 222 159 197 222 159 197 222 159 197 222 159 197 222 155 197 221 155 197 221 155 197 221 155 197 221 155 197 221 155 197 221 155 197 221 155 197 221 155 197 221 155 197 221 155 197 221 155 197 221 155 197 221 155 197 221 155 197 221 155 197 221 155 197 221 155 197 221 155 197 221 155 197 221 155 197 221 155 197 221 155 196 222 155 196 222 155 196 222 155 196 222 155 196 222 155 196 222 155 196 222 155 196 222 155 196 222 155 196 222 155 196 222 155 196 222 155 196 222 155 196 222 155 196 222 155 196 222 155 196 222 155 196 222 155 196 222 155 196 222 155 196 222 155 196 222 155 196 222 155 196 222 160 199 220 160 199 220 160 199 220 160 199 220 160 199 220 160 199 220 160 199 220 160 199 220 160 199 220 160 199 220 160 199 220 160 199 220 160 199 220 160 199 220 160 199 220 160 199 220 160 199 220 160 199 220 160 199 220 160 199 220 160 163 164 153 102 98 153 102 98 153 102 98 153 102 98 153 102 98 153 102 98 153 102 98 153 102 98 153 102 98 153 102 98 153 102 98 153 102 98 153 102 98 153 102 98 153 102 98 153 102 98 153 102 98 153 102 98 153 102 98 153 102 98 153 102 98 153 102 98 153 102 98 153 102 98 153 102 98 153 102 98 153 102 98 153 102 98 153 102 98 153 102 98 153 102 98 153 102 98 153 102 98 153 102 98 153 102 98 153 102 98 153 102 98 153 102 98 153 102 98 153 102 98 153 102 98 153 102 98 153 102 98 153 102 98 153 102 98 160 163 164 161 197 219 161 197 219 161 197 219 161 197 219 161 197 219 161 197 219 161 197 219 161 197 219 161 197 219 161 197 219 161 197 219 161 197 219 161 197 219 161 197 219 161 197 219 161 197 219 161 197 219 161 197 219 161 197 219 161 197 219 161 197 219 161 197 219 161 197 219 161 197 219 161 197 219 161 197 219 161 197 219 161 197 219 161 197 219 161 197 219 161 197 219 161 197 219 161 197 219 161 197 219 161 197 219 161 197 219 161 197 219 161 197 219 161 197 219 161 197 219 161 197 219 161 197 219 161 197 219 161 197 219 161 197 219 161 197 219 161 197 219 161 197 219 161 197 219 161 197 219 161 197 219 160 196 220 160 196 220 160 196 220 160 196 220 160 196 220 160 196 220 160 196 220 160 196 220 160 196 220 160 196 220 160 196 220 160 196 220 160 196 220 160 196 220 160 196 220 160 196 220 160 196 220 160 196 220 160 196 220 160 196 220 160 196 220 160 196 220 160 196 220 160 196 220 160 196 220 160 196 220 160 196 220 160 196 220 160 196 220 160 196 220 160 196 220 160 196 220 160 196 220 160 196 220 160 196 220 160 196 220 160 196 220 160 196 220 160 196 220 160 196 220 160 196 220 160 196 220 160 196 220 160 196 220 160 196 220 160 196 220 160 196 220 160 196 220 160 196 220 159 197 222 159 197 222 159 197 222 159 197 222 159 197 222 159 197 222 159 197 222 159 197 222 159 197 222 159 197 222 159 197 222 159 197 222 159 197 222 159 197 222 159 197 222 159 197 222 159 197 222 159 197 222 159 197 222 159 197 222 159 197 222 159 197 222 159 197 222 159 197 222 159 197 222 159 197 222 159 197 222 159 197 222 159 197 222 159 197 222 159 197 222 159 197 222 159 197 222 159 197 222 159 197 222 159 197 222 159 197 222 159 197 222 159 197 222 159 197 222 159 197 222 159 197 222 159 197 222 155 197 221 155 197 221 155 197 221 155 197 221 155 197 221 155 197 221 155 197 221 155 197 221 155 197 221 155 197 221 155 197 221 155 197 221 155 197 221 155 197 221 155 197 221 155 197 221 155 197 221 155 197 221 155 197 221 155 197 221 155 197 221 155 197 221 155 196 222 155 196 222 155 196 222 155 196 222 155 196 222 155 196 222 155 196 222 155 196 222 155 196 222 155 196 222 155 196 222 155 196 222 155 196 222 155 196 222 155 196 222 155 196 222 155 196 222 155 196 222 155 196 222 155 196 222 155 196 222 155 196 222 155 196 222 155 196 222 160 199 220 160 199 220 160 199 220 160 199 220 160 199 220 160 199 220 160 199 220 160 199 220 160 199 220 160 199 220 160 199 220 160 199 220 160 199 220 160 199 220 160 199 220 160 199 220 160 199 220 160 199 220 160 199 220 160 199 220 160 163 164 153 102 98 153 102 98 153 102 98 153 102 98 153 102 98 153 102 98 153 102 98 153 102 98 153 102 98 153 102 98 153 102 98 153 102 98 153 102 98 153 102 98 153 102 98 153 102 98 153 102 98 153 102 98 153 102 98 153 102 98 153 102 98 153 102 98 153 102 98 153 102 98 153 102 98 153 102 98 153 102 98 153 102 98 153 102 98 153 102 98 153 102 98 153 102 98 153 102 98 153 102 98 153 102 98 153 102 98 153 102 98 153 102 98 153 102 98 153 102 98 153 102 98 153 102 98 153 102 98 153 102 98 160 163 164 160 163 164 161 197 219 161 197 219 161 197 219 161 197 219 161 197 219 161 197 219 161 197 219 161 197 219 161 197 219 161 197 219 161 197 219 161 197 219 161 197 219 161 197 219 161 197 219 161 197 219 161 197 219 161 197 219 161 197 219 161 197 219 161 197 219 161 197 219 161 197 219 161 197 219 161 197 219 161 197 219 161 197 219 161 197 219 161 197 219 161 197 219 161 197 219 161 197 219 161 197 219 161 197 219 161 197 219 161 197 219 161 197 219 161 197 219 161 197 219 161 197 219 161 197 219 161 197 219 161 197 219 161 197 219 161 197 219 161 197 219 161 197 219 161 197 219 161 197 219 161 197 219 161 197 219 160 196 220 160 196 220 160 196 220 160 196 220 160 196 220 160 196 220 160 196 220 160 196 220 160 196 220 160 196 220 160 196 220 160 196 220 160 196 220 160 196 220 160 196 220 160 196 220 160 196 220 160 196 220 160 196 220 160 196 220 160 196 220 160 196 220 160 196 220 160 196 220 160 196 220 160 196 220 160 196 220 160 196 220 160 196 220 160 196 220 160 196 220 160 196 220 160 196 220 160 196 220 160 196 220 160 196 220 160 196 220 160 196 220 160 196 220 160 196 220 160 196 220 160 196 220 160 196 220 160 196 220 160 196 220 160 196 220 160 196 220 160 196 220 160 196 220 159 197 222 159 197 222 159 197 222 159 197 222 159 197 222 159 197 222 159 197 222 159 197 222 159 197 222 159 197 222 159 197 222 159 197 222 159 197 222 159 197 222 159 197 222 159 197 222 159 197 222 159 197 222 159 197 222 159 197 222 159 197 222 159 197 222 159 197 222 159 197 222 159 197 222 159 197 222 159 197 222 159 197 222 159 197 222 159 197 222 159 197 222 159 197 222 159 197 222 159 197 222 159 197 222 159 197 222 159 197 222 159 197 222 159 197 222 159 197 222 159 197 222 159 197 222 159 197 222 155 197 221 155 197 221 155 197 221 155 197 221 155 197 221 155 197 221 155 197 221 155 197 221 155 197 221 155 197 221 155 197 221 155 197 221 155 197 221 155 197 221 155 197 221 155 197 221 155 197 221 155 197 221 155 197 221 155 197 221 155 197 221 155 197 221 155 196 222 155 196 222 155 196 222 155 196 222 155 196 222 155 196 222 155 196 222 155 196 222 155 196 222 155 196 222 155 196 222 155 196 222 155 196 222 155 196 222 155 196 222 155 196 222 155 196 222 155 196 222 155 196 222 155 196 222 155 196 222 155 196 222 155 196 222 155 196 222 160 199 220 160 199 220 160 199 220 160 199 220 160 199 220 160 199 220 160 199 220 160 199 220 160 199 220 160 199 220 160 199 220 160 199 220 160 199 220 160 199 220 160 199 220 160 199 220 160 199 220 160 199 220 160 199 220 160 199 220 160 163 164 153 102 98 162 105 100 153 102 98 153 102 98 153 102 98 153 102 98 153 102 98 153 102 98 153 102 98 153 102 98 153 102 98 153 102 98 153 102 98 153 102 98 153 102 98 153 102 98 153 102 98 153 102 98 153 102 98 153 102 98 153 102 98 153 102 98 153 102 98 153 102 98 153 102 98 153 102 98 153 102 98 153 102 98 153 102 98 153 102 98 153 102 98 153 102 98 153 102 98 153 102 98 153 102 98 153 102 98 153 102 98 153 102 98 153 102 98 153 102 98 153 102 98 153 102 98 153 102 98 117 98 108 117 98 108 161 197 219 161 197 219 161 197 219 161 197 219 161 197 219 161 197 219 161 197 219 161 197 219 161 197 219 161 197 219 161 197 219 161 197 219 161 197 219 161 197 219 161 197 219 161 197 219 161 197 219 161 197 219 161 197 219 161 197 219 161 197 219 161 197 219 161 197 219 161 197 219 161 197 219 161 197 219 161 197 219 161 197 219 161 197 219 161 197 219 161 197 219 161 197 219 161 197 219 161 197 219 161 197 219 161 197 219 161 197 219 161 197 219 161 197 219 161 197 219 161 197 219 161 197 219 161 197 219 161 197 219 161 197 219 161 197 219 161 197 219 161 197 219 161 197 219 161 197 219 161 197 219 161 197 219 160 196 220 160 196 220 160 196 220 160 196 220 160 196 220 160 196 220 160 196 220 160 196 220 160 196 220 160 196 220 160 196 220 160 196 220 160 196 220 160 196 220 160 196 220 160 196 220 160 196 220 160 196 220 160 196 220 160 196 220 160 196 220 160 196 220 160 196 220 160 196 220 160 196 220 160 196 220 160 196 220 160 196 220 160 196 220 160 196 220 160 196 220 160 196 220 160 196 220 160 196 220 160 196 220 160 196 220 160 196 220 160 196 220 160 196 220 160 196 220 160 196 220 160 196 220 160 196 220 160 196 220 160 196 220 160 196 220 160 196 220 160 196 220 160 196 220 159 197 222 159 197 222 159 197 222 159 197 222 159 197 222 159 197 222 159 197 222 159 197 222 159 197 222 159 197 222 159 197 222 159 197 222 159 197 222 159 197 222 159 197 222 159 197 222 159 197 222 159 197 222 159 197 222 159 197 222 159 197 222 159 197 222 159 197 222 159 197 222 159 197 222 159 197 222 159 197 222 159 197 222 159 197 222 159 197 222 159 197 222 159 197 222 159 197 222 159 197 222 159 197 222 159 197 222 159 197 222 159 197 222 159 197 222 159 197 222 159 197 222 159 197 222 159 197 222 155 197 221 155 197 221 155 197 221 155 197 221 155 197 221 155 197 221 155 197 221 155 197 221 155 197 221 155 197 221 155 197 221 155 197 221 155 197 221 155 197 221 155 197 221 155 197 221 155 197 221 155 197 221 155 197 221 155 197 221 155 197 221 155 197 221 155 196 222 155 196 222 155 196 222 155 196 222 155 196 222 155 196 222 155 196 222 155 196 222 155 196 222 155 196 222 155 196 222 155 196 222 155 196 222 155 196 222 155 196 222 155 196 222 155 196 222 155 196 222 155 196 222 155 196 222 155 196 222 155 196 222 155 196 222 155 196 222 160 199 220 160 199 220 160 199 220 160 199 220 160 199 220 160 199 220 160 199 220 160 199 220 160 199 220 160 199 220 160 199 220 160 199 220 160 199 220 160 199 220 160 199 220 160 199 220 160 199 220 160 199 220 160 199 220 160 199 220 160 163 164 153 102 98 153 102 98 153 102 98 153 102 98 153 102 98 153 102 98 153 102 98 153 102 98 162 105 100 162 105 100 153 102 98 153 102 98 153 102 98 153 102 98 153 102 98 153 102 98 153 102 98 162 105 100 153 102 98 153 102 98 153 102 98 153 102 98 153 102 98 162 105 100 153 102 98 162 105 100 162 105 100 153 102 98 162 105 100 153 102 98 153 102 98 153 102 98 117 98 108 117 98 108 117 98 108 117 98 108 153 102 98 153 102 98 153 102 98 153 102 98 153 102 98 117 98 108 117 98 108 117 98 108 117 98 108 160 163 164 161 197 219 161 197 219 161 197 219 161 197 219 161 197 219 161 197 219 161 197 219 161 197 219 161 197 219 161 197 219 161 197 219 161 197 219 161 197 219 161 197 219 161 197 219 161 197 219 161 197 219 161 197 219 161 197 219 161 197 219 161 197 219 161 197 219 161 197 219 161 197 219 161 197 219 161 197 219 161 197 219 161 197 219 161 197 219 161 197 219 161 197 219 161 197 219 161 197 219 161 197 219 161 197 219 161 197 219 161 197 219 161 197 219 161 197 219 161 197 219 161 197 219 161 197 219 161 197 219 161 197 219 161 197 219 161 197 219 161 197 219 161 197 219 161 197 219 161 197 219 161 197 219 160 196 220 160 196 220 160 196 220 160 196 220 160 196 220 160 196 220 160 196 220 160 196 220 160 196 220 160 196 220 160 196 220 160 196 220 160 196 220 160 196 220 160 196 220 160 196 220 160 196 220 160 196 220 160 196 220 160 196 220 160 196 220 160 196 220 160 196 220 160 196 220 160 196 220 160 196 220 160 196 220 160 196 220 160 196 220 160 196 220 160 196 220 160 196 220 160 196 220 160 196 220 160 196 220 160 196 220 160 196 220 160 196 220 160 196 220 160 196 220 160 196 220 160 196 220 160 196 220 160 196 220 160 196 220 160 196 220 160 196 220 160 196 220 160 196 220 159 197 222 159 197 222 159 197 222 159 197 222 159 197 222 159 197 222 159 197 222 159 197 222 159 197 222 159 197 222 159 197 222 159 197 222 159 197 222 159 197 222 159 197 222 159 197 222 159 197 222 159 197 222 159 197 222 159 197 222 159 197 222 159 197 222 159 197 222 159 197 222 159 197 222 159 197 222 159 197 222 159 197 222 159 197 222 159 197 222 159 197 222 159 197 222 159 197 222 159 197 222 159 197 222 159 197 222 159 197 222 159 197 222 159 197 222 159 197 222 159 197 222 159 197 222 159 197 222 155 197 221 155 197 221 155 197 221 155 197 221 155 197 221 155 197 221 155 197 221 155 197 221 155 197 221 155 197 221 155 197 221 155 197 221 155 197 221 155 197 221 155 197 221 155 197 221 155 197 221 155 197 221 155 197 221 155 197 221 155 197 221 155 197 221 155 197 221 155 196 222 155 196 222 155 196 222 155 196 222 155 196 222 155 196 222 155 196 222 155 196 222 155 196 222 155 196 222 155 196 222 155 196 222 155 196 222 155 196 222 155 196 222 155 196 222 155 196 222 155 196 222 155 196 222 155 196 222 155 196 222 155 196 222 155 196 222 160 199 220 160 199 220 160 199 220 160 199 220 160 199 220 160 199 220 160 199 220 160 199 220 160 199 220 160 199 220 160 199 220 160 199 220 160 199 220 160 199 220 160 199 220 160 199 220 160 199 220 160 199 220 160 199 220 160 199 220 162 105 100 153 102 98 153 102 98 153 102 98 153 102 98 153 102 98 162 105 100 162 105 100 153 102 98 153 102 98 162 105 100 162 105 100 162 105 100 162 105 100 162 105 100 153 102 98 153 102 98 153 102 98 153 102 98 153 102 98 153 102 98 162 105 100 162 105 100 153 102 98 153 102 98 153 102 98 162 105 100 162 105 100 162 105 100 162 105 100 153 102 98 153 102 98 153 102 98 117 98 108 117 98 108 117 98 108 117 98 108 117 98 108 117 98 108 117 98 108 117 98 108 117 98 108 117 98 108 117 98 108 117 98 108 117 98 108 160 163 164 161 197 219 161 197 219 161 197 219 161 197 219 161 197 219 161 197 219 161 197 219 161 197 219 161 197 219 161 197 219 161 197 219 161 197 219 161 197 219 161 197 219 161 197 219 161 197 219 161 197 219 161 197 219 161 197 219 161 197 219 161 197 219 161 197 219 161 197 219 161 197 219 161 197 219 161 197 219 161 197 219 161 197 219 161 197 219 161 197 219 161 197 219 161 197 219 161 197 219 161 197 219 161 197 219 161 197 219 161 197 219 161 197 219 161 197 219 161 197 219 161 197 219 161 197 219 161 197 219 161 197 219 161 197 219 161 197 219 161 197 219 161 197 219 161 197 219 161 197 219 161 197 219 160 196 220 160 196 220 160 196 220 160 196 220 160 196 220 160 196 220 160 196 220 160 196 220 160 196 220 160 196 220 160 196 220 160 196 220 160 196 220 160 196 220 160 196 220 160 196 220 160 196 220 160 196 220 160 196 220 160 196 220 160 196 220 160 196 220 160 196 220 160 196 220 160 196 220 160 196 220 160 196 220 160 196 220 160 196 220 160 196 220 160 196 220 160 196 220 160 196 220 160 196 220 160 196 220 160 196 220 160 196 220 160 196 220 160 196 220 160 196 220 160 196 220 160 196 220 160 196 220 160 196 220 160 196 220 160 196 220 160 196 220 160 196 220 159 197 222 159 197 222 159 197 222 159 197 222 159 197 222 159 197 222 159 197 222 159 197 222 159 197 222 159 197 222 159 197 222 159 197 222 159 197 222 159 197 222 159 197 222 159 197 222 159 197 222 159 197 222 159 197 222 159 197 222 159 197 222 159 197 222 159 197 222 159 197 222 159 197 222 159 197 222 159 197 222 159 197 222 159 197 222 159 197 222 159 197 222 159 197 222 159 197 222 159 197 222 159 197 222 159 197 222 159 197 222 159 197 222 159 197 222 159 197 222 159 197 222 159 197 222 159 197 222 159 197 222 155 197 221 155 197 221 155 197 221 155 197 221 155 197 221 155 197 221 155 197 221 155 197 221 155 197 221 155 197 221 155 197 221 155 197 221 155 197 221 155 197 221 155 197 221 155 197 221 155 197 221 155 197 221 155 197 221 155 197 221 155 197 221 155 197 221 155 197 221 155 196 222 155 196 222 155 196 222 155 196 222 155 196 222 155 196 222 155 196 222 155 196 222 155 196 222 155 196 222 155 196 222 155 196 222 155 196 222 155 196 222 155 196 222 155 196 222 155 196 222 155 196 222 155 196 222 155 196 222 155 196 222 155 196 222 155 196 222 160 199 220 160 199 220 160 199 220 160 199 220 160 199 220 160 199 220 160 199 220 160 199 220 160 199 220 160 199 220 160 199 220 160 199 220 160 199 220 160 199 220 160 199 220 160 199 220 160 199 220 160 199 220 160 199 220 160 199 220 162 105 100 162 105 100 162 105 100 162 105 100 162 105 100 162 105 100 162 105 100 162 105 100 162 105 100 162 105 100 162 105 100 162 105 100 162 105 100 153 102 98 153 102 98 162 105 100 162 105 100 162 105 100 162 105 100 153 102 98 153 102 98 162 105 100 162 105 100 153 102 98 153 102 98 153 102 98 162 105 100 162 105 100 162 105 100 162 105 100 153 102 98 153 102 98 153 102 98 153 102 98 117 98 108 117 98 108 117 98 108 117 98 108 117 98 108 117 98 108 117 98 108 117 98 108 117 98 108 117 98 108 117 98 108 117 98 108 160 163 164 161 197 219 161 197 219 161 197 219 161 197 219 161 197 219 161 197 219 161 197 219 161 197 219 161 197 219 161 197 219 161 197 219 161 197 219 161 197 219 161 197 219 161 197 219 161 197 219 161 197 219 161 197 219 161 197 219 161 197 219 161 197 219 161 197 219 161 197 219 161 197 219 161 197 219 161 197 219 161 197 219 161 197 219 161 197 219 161 197 219 161 197 219 161 197 219 161 197 219 161 197 219 161 197 219 161 197 219 161 197 219 161 197 219 161 197 219 161 197 219 161 197 219 161 197 219 161 197 219 161 197 219 161 197 219 161 197 219 161 197 219 161 197 219 161 197 219 161 197 219 160 196 220 160 196 220 160 196 220 160 196 220 160 196 220 160 196 220 160 196 220 160 196 220 160 196 220 160 196 220 160 196 220 160 196 220 160 196 220 160 196 220 160 196 220 160 196 220 160 196 220 160 196 220 160 196 220 160 196 220 160 196 220 160 196 220 160 196 220 160 196 220 160 196 220 160 196 220 160 196 220 160 196 220 160 196 220 160 196 220 160 196 220 160 196 220 160 196 220 160 196 220 160 196 220 160 196 220 160 196 220 160 196 220 160 196 220 160 196 220 160 196 220 160 196 220 160 196 220 160 196 220 160 196 220 160 196 220 160 196 220 160 196 220 160 196 220 159 197 222 159 197 222 159 197 222 159 197 222 159 197 222 159 197 222 159 197 222 159 197 222 159 197 222 159 197 222 159 197 222 159 197 222 159 197 222 159 197 222 159 197 222 159 197 222 159 197 222 159 197 222 159 197 222 159 197 222 159 197 222 159 197 222 159 197 222 159 197 222 159 197 222 159 197 222 159 197 222 159 197 222 159 197 222 159 197 222 159 197 222 159 197 222 159 197 222 159 197 222 159 197 222 159 197 222 159 197 222 159 197 222 159 197 222 159 197 222 159 197 222 159 197 222 159 197 222 159 197 222 155 197 221 155 197 221 155 197 221 155 197 221 155 197 221 155 197 221 155 197 221 155 197 221 155 197 221 155 197 221 155 197 221 155 197 221 155 197 221 155 197 221 155 197 221 155 197 221 155 197 221 155 197 221 155 197 221 155 197 221 155 197 221 155 197 221 155 197 221 155 196 222 155 196 222 155 196 222 155 196 222 155 196 222 155 196 222 155 196 222 155 196 222 155 196 222 155 196 222 155 196 222 155 196 222 155 196 222 155 196 222 155 196 222 155 196 222 155 196 222 155 196 222 155 196 222 155 196 222 155 196 222 155 196 222 155 196 222 160 199 220 160 199 220 160 199 220 160 199 220 160 199 220 160 199 220 160 199 220 160 199 220 160 199 220 160 199 220 160 199 220 160 199 220 160 199 220 160 199 220 160 199 220 160 199 220 160 199 220 160 199 220 160 199 220 160 199 220 162 105 100 162 105 100 162 105 100 162 105 100 162 105 100 153 102 98 162 105 100 162 105 100 162 105 100 153 102 98 162 105 100 162 105 100 162 105 100 153 102 98 162 105 100 162 105 100 162 105 100 162 105 100 162 105 100 162 105 100 162 105 100 162 105 100 162 105 100 162 105 100 162 105 100 153 102 98 162 105 100 162 105 100 162 105 100 162 105 100 162 105 100 153 102 98 153 102 98 153 102 98 153 102 98 117 98 108 117 98 108 117 98 108 117 98 108 117 98 108 117 98 108 117 98 108 117 98 108 117 98 108 117 98 108 117 98 108 160 163 164 161 197 219 161 197 219 161 197 219 161 197 219 161 197 219 161 197 219 161 197 219 161 197 219 161 197 219 161 197 219 161 197 219 161 197 219 161 197 219 161 197 219 161 197 219 161 197 219 161 197 219 161 197 219 161 197 219 161 197 219 161 197 219 161 197 219 161 197 219 161 197 219 161 197 219 161 197 219 161 197 219 161 197 219 161 197 219 161 197 219 161 197 219 161 197 219 161 197 219 161 197 219 161 197 219 161 197 219 161 197 219 161 197 219 161 197 219 161 197 219 161 197 219 161 197 219 161 197 219 161 197 219 161 197 219 161 197 219 161 197 219 161 197 219 161 197 219 161 197 219 160 196 220 160 196 220 160 196 220 160 196 220 160 196 220 160 196 220 160 196 220 160 196 220 160 196 220 160 196 220 160 196 220 160 196 220 160 196 220 160 196 220 160 196 220 160 196 220 160 196 220 160 196 220 160 196 220 160 196 220 160 196 220 160 196 220 160 196 220 160 196 220 160 196 220 160 196 220 160 196 220 160 196 220 160 196 220 160 196 220 160 196 220 160 196 220 160 196 220 160 196 220 160 196 220 160 196 220 160 196 220 160 196 220 160 196 220 160 196 220 160 196 220 160 196 220 160 196 220 160 196 220 160 196 220 160 196 220 160 196 220 160 196 220 160 196 220 159 197 222 159 197 222 159 197 222 159 197 222 159 197 222 159 197 222 159 197 222 159 197 222 159 197 222 159 197 222 159 197 222 159 197 222 159 197 222 159 197 222 159 197 222 159 197 222 159 197 222 159 197 222 159 197 222 159 197 222 159 197 222 159 197 222 159 197 222 159 197 222 159 197 222 159 197 222 159 197 222 159 197 222 159 197 222 159 197 222 159 197 222 159 197 222 159 197 222 159 197 222 159 197 222 159 197 222 159 197 222 159 197 222 159 197 222 159 197 222 159 197 222 159 197 222 159 197 222 159 197 222 155 197 221 155 197 221 155 197 221 155 197 221 155 197 221 155 197 221 155 197 221 155 197 221 155 197 221 155 197 221 155 197 221 155 197 221 155 197 221 155 197 221 155 197 221 155 197 221 155 197 221 155 197 221 155 197 221 155 197 221 155 197 221 155 197 221 155 197 221 155 196 222 155 196 222 155 196 222 155 196 222 155 196 222 155 196 222 155 196 222 155 196 222 155 196 222 155 196 222 155 196 222 155 196 222 155 196 222 155 196 222 155 196 222 155 196 222 155 196 222 155 196 222 155 196 222 155 196 222 155 196 222 155 196 222 155 196 222 160 199 220 160 199 220 160 199 220 160 199 220 160 199 220 160 199 220 160 199 220 160 199 220 160 199 220 160 199 220 160 199 220 160 199 220 160 199 220 160 199 220 160 199 220 160 199 220 160 199 220 160 199 220 160 199 220 160 199 220 162 105 100 162 105 100 162 105 100 162 105 100 162 105 100 162 105 100 162 105 100 162 105 100 162 105 100 162 105 100 162 105 100 162 105 100 162 105 100 162 105 100 162 105 100 162 105 100 162 105 100 162 105 100 162 105 100 162 105 100 162 105 100 162 105 100 162 105 100 162 105 100 162 105 100 153 102 98 162 105 100 162 105 100 162 105 100 162 105 100 162 105 100 162 105 100 160 163 164 160 163 164 160 163 164 160 163 164 160 163 164 117 98 108 117 98 108 117 98 108 117 98 108 117 98 108 117 98 108 117 98 108 117 98 108 117 98 108 160 163 164 160 163 164 160 163 164 160 163 164 160 163 164 160 163 164 161 197 219 161 197 219 161 197 219 161 197 219 161 197 219 161 197 219 161 197 219 161 197 219 161 197 219 161 197 219 161 197 219 161 197 219 161 197 219 161 197 219 161 197 219 161 197 219 161 197 219 161 197 219 161 197 219 161 197 219 161 197 219 161 197 219 161 197 219 161 197 219 161 197 219 161 197 219 161 197 219 161 197 219 161 197 219 161 197 219 161 197 219 161 197 219 161 197 219 161 197 219 161 197 219 161 197 219 161 197 219 161 197 219 161 197 219 161 197 219 161 197 219 161 197 219 161 197 219 161 197 219 161 197 219 160 196 220 160 196 220 160 196 220 160 196 220 160 196 220 160 196 220 160 196 220 160 196 220 160 196 220 160 196 220 160 196 220 160 196 220 160 196 220 160 196 220 160 196 220 160 196 220 160 196 220 160 196 220 160 196 220 160 196 220 160 196 220 160 196 220 160 196 220 160 196 220 160 196 220 160 196 220 160 196 220 160 196 220 160 196 220 160 196 220 160 196 220 160 196 220 160 196 220 160 196 220 160 196 220 160 196 220 160 196 220 160 196 220 160 196 220 160 196 220 160 196 220 160 196 220 160 196 220 160 196 220 160 196 220 160 196 220 160 196 220 160 196 220 160 196 220 159 197 222 159 197 222 159 197 222 159 197 222 159 197 222 159 197 222 159 197 222 159 197 222 159 197 222 159 197 222 159 197 222 159 197 222 159 197 222 159 197 222 159 197 222 159 197 222 159 197 222 159 197 222 159 197 222 159 197 222 159 197 222 159 197 222 159 197 222 159 197 222 159 197 222 159 197 222 159 197 222 159 197 222 159 197 222 159 197 222 159 197 222 159 197 222 159 197 222 159 197 222 159 197 222 159 197 222 159 197 222 159 197 222 159 197 222 159 197 222 159 197 222 159 197 222 159 197 222 159 197 222 155 197 221 155 197 221 155 197 221 155 197 221 155 197 221 155 197 221 155 197 221 155 197 221 155 197 221 155 197 221 155 197 221 155 197 221 155 197 221 155 197 221 155 197 221 155 197 221 155 197 221 155 197 221 155 197 221 155 197 221 155 197 221 155 197 221 155 197 221 155 196 222 155 196 222 155 196 222 155 196 222 155 196 222 155 196 222 155 196 222 155 196 222 155 196 222 155 196 222 155 196 222 155 196 222 155 196 222 155 196 222 155 196 222 155 196 222 155 196 222 155 196 222 155 196 222 155 196 222 155 196 222 155 196 222 155 196 222 160 199 220 160 199 220 160 199 220 160 199 220 160 199 220 160 199 220 160 199 220 160 199 220 160 199 220 160 199 220 160 199 220 160 199 220 160 199 220 160 199 220 160 199 220 160 199 220 160 199 220 160 199 220 160 199 220 160 199 220 162 105 100 162 105 100 162 105 100 162 105 100 162 105 100 162 105 100 162 105 100 162 105 100 162 105 100 162 105 100 162 105 100 162 105 100 162 105 100 162 105 100 162 105 100 162 105 100 162 105 100 162 105 100 162 105 100 162 105 100 162 105 100 162 105 100 153 102 98 153 102 98 162 105 100 162 105 100 162 105 100 162 105 100 162 105 100 162 105 100 162 105 100 162 105 100 160 163 164 160 163 164 161 197 219 160 163 164 160 163 164 160 163 164 117 98 108 117 98 108 117 98 108 117 98 108 117 98 108 117 98 108 117 98 108 117 98 108 117 98 108 117 98 108 117 98 108 117 98 108 117 98 108 160 163 164 160 163 164 160 163 164 160 163 164 160 163 164 161 197 219 161 197 219 161 197 219 161 197 219 161 197 219 161 197 219 161 197 219 161 197 219 161 197 219 161 197 219 161 197 219 161 197 219 161 197 219 161 197 219 161 197 219 161 197 219 161 197 219 161 197 219 161 197 219 161 197 219 161 197 219 161 197 219 161 197 219 161 197 219 161 197 219 161 197 219 161 197 219 161 197 219 161 197 219 161 197 219 161 197 219 161 197 219 161 197 219 161 197 219 161 197 219 161 197 219 161 197 219 161 197 219 161 197 219 161 197 219 161 197 219 160 196 220 160 196 220 160 196 220 160 196 220 160 196 220 160 196 220 160 196 220 160 196 220 160 196 220 160 196 220 160 196 220 160 196 220 160 196 220 160 196 220 160 196 220 160 196 220 160 196 220 160 196 220 160 196 220 160 196 220 160 196 220 160 196 220 160 196 220 160 196 220 160 196 220 160 196 220 160 196 220 160 196 220 160 196 220 160 196 220 160 196 220 160 196 220 160 196 220 160 196 220 160 196 220 160 196 220 160 196 220 160 196 220 160 196 220 160 196 220 160 196 220 160 196 220 160 196 220 160 196 220 160 196 220 160 196 220 160 196 220 160 196 220 160 196 220 159 197 222 159 197 222 159 197 222 159 197 222 159 197 222 159 197 222 159 197 222 159 197 222 159 197 222 159 197 222 159 197 222 159 197 222 159 197 222 159 197 222 159 197 222 159 197 222 159 197 222 159 197 222 159 197 222 159 197 222 159 197 222 159 197 222 159 197 222 159 197 222 159 197 222 159 197 222 159 197 222 159 197 222 159 197 222 159 197 222 159 197 222 159 197 222 159 197 222 159 197 222 159 197 222 159 197 222 159 197 222 159 197 222 159 197 222 159 197 222 159 197 222 159 197 222 159 197 222 159 197 222 155 197 221 155 197 221 155 197 221 155 197 221 155 197 221 155 197 221 155 197 221 155 197 221 155 197 221 155 197 221 155 197 221 155 197 221 155 197 221 155 197 221 155 197 221 155 197 221 155 197 221 155 197 221 155 197 221 155 197 221 155 197 221 155 197 221 155 197 221 155 196 222 155 196 222 155 196 222 155 196 222 155 196 222 155 196 222 155 196 222 155 196 222 155 196 222 155 196 222 155 196 222 155 196 222 155 196 222 155 196 222 155 196 222 155 196 222 155 196 222 155 196 222 155 196 222 155 196 222 155 196 222 155 196 222 155 196 222 160 199 220 160 199 220 160 199 220 160 199 220 160 199 220 160 199 220 160 199 220 160 199 220 160 199 220 160 199 220 160 199 220 160 199 220 160 199 220 160 199 220 160 199 220 160 199 220 160 199 220 160 199 220 160 199 220 160 199 220 162 105 100 153 102 98 162 105 100 162 105 100 162 105 100 162 105 100 162 105 100 162 105 100 162 105 100 162 105 100 162 105 100 162 105 100 162 105 100 162 105 100 162 105 100 162 105 100 162 105 100 162 105 100 162 105 100 162 105 100 162 105 100 162 105 100 162 105 100 162 105 100 162 105 100 162 105 100 162 105 100 162 105 100 162 105 100 162 105 100 162 105 100 162 105 100 160 163 164 160 163 164 216 223 223 161 197 219 161 197 219 161 197 219 160 163 164 160 163 164 160 163 164 117 98 108 117 98 108 117 98 108 117 98 108 117 98 108 117 98 108 117 98 108 117 98 108 117 98 108 117 98 108 117 98 108 117 98 108 117 98 108 117 98 108 117 98 108 160 163 164 160 163 164 160 163 164 160 163 164 160 163 164 160 163 164 161 197 219 161 197 219 161 197 219 161 197 219 161 197 219 161 197 219 161 197 219 161 197 219 161 197 219 161 197 219 161 197 219 161 197 219 161 197 219 161 197 219 161 197 219 161 197 219 161 197 219 161 197 219 161 197 219 161 197 219 161 197 219 161 197 219 161 197 219 161 197 219 161 197 219 161 197 219 161 197 219 161 197 219 161 197 219 161 197 219 161 197 219 161 197 219 161 197 219 161 197 219 161 197 219 160 196 220 160 196 220 160 196 220 160 196 220 160 196 220 160 196 220 160 196 220 160 196 220 160 196 220 160 196 220 160 196 220 160 196 220 160 196 220 160 196 220 160 196 220 160 196 220 160 196 220 160 196 220 160 196 220 160 196 220 160 196 220 160 196 220 160 196 220 160 196 220 160 196 220 160 196 220 160 196 220 160 196 220 160 196 220 160 196 220 160 196 220 160 196 220 160 196 220 160 196 220 160 196 220 160 196 220 160 196 220 160 196 220 160 196 220 160 196 220 160 196 220 160 196 220 160 196 220 160 196 220 160 196 220 160 196 220 160 196 220 160 196 220 160 196 220 159 197 222 159 197 222 159 197 222 159 197 222 159 197 222 159 197 222 159 197 222 159 197 222 159 197 222 159 197 222 159 197 222 159 197 222 159 197 222 159 197 222 159 197 222 159 197 222 159 197 222 159 197 222 159 197 222 159 197 222 159 197 222 159 197 222 159 197 222 159 197 222 159 197 222 159 197 222 159 197 222 159 197 222 159 197 222 159 197 222 159 197 222 159 197 222 159 197 222 159 197 222 159 197 222 159 197 222 159 197 222 159 197 222 159 197 222 159 197 222 159 197 222 159 197 222 159 197 222 159 197 222 155 197 221 155 197 221 155 197 221 155 197 221 155 197 221 155 197 221 155 197 221 155 197 221 155 197 221 155 197 221 155 197 221 155 197 221 155 197 221 155 197 221 155 197 221 155 197 221 155 197 221 155 197 221 155 197 221 155 197 221 155 197 221 155 197 221 155 197 221 155 196 222 155 196 222 155 196 222 155 196 222 155 196 222 155 196 222 155 196 222 155 196 222 155 196 222 155 196 222 155 196 222 155 196 222 155 196 222 155 196 222 155 196 222 155 196 222 155 196 222 155 196 222 155 196 222 155 196 222 155 196 222 155 196 222 155 196 222 160 199 220 160 199 220 160 199 220 160 199 220 160 199 220 160 199 220 160 199 220 160 199 220 160 199 220 160 199 220 160 199 220 160 199 220 160 199 220 160 199 220 160 199 220 160 199 220 160 199 220 160 199 220 160 199 220 160 199 220 162 105 100 162 105 100 162 105 100 162 105 100 162 105 100 162 105 100 162 105 100 162 105 100 162 105 100 162 105 100 162 105 100 162 105 100 162 105 100 162 105 100 162 105 100 162 105 100 162 105 100 162 105 100 162 105 100 162 105 100 162 105 100 162 105 100 162 105 100 153 102 98 162 105 100 162 105 100 162 105 100 162 105 100 162 105 100 162 105 100 162 105 100 162 105 100 162 105 100 160 163 164 216 223 223 216 223 223 161 197 219 161 197 219 161 197 219 160 163 164 160 163 164 160 163 164 117 98 108 117 98 108 117 98 108 117 98 108 117 98 108 117 98 108 117 98 108 117 98 108 117 98 108 117 98 108 117 98 108 117 98 108 117 98 108 117 98 108 117 98 108 117 98 108 117 98 108 117 98 108 117 98 108 160 163 164 160 163 164 160 163 164 160 163 164 160 163 164 161 197 219 161 197 219 161 197 219 161 197 219 161 197 219 161 197 219 161 197 219 161 197 219 161 197 219 161 197 219 161 197 219 161 197 219 161 197 219 161 197 219 161 197 219 161 197 219 161 197 219 161 197 219 161 197 219 161 197 219 161 197 219 161 197 219 161 197 219 161 197 219 160 163 164 160 163 164 160 163 164 160 163 164 161 197 219 161 197 219 161 197 219 160 196 220 160 196 220 160 196 220 160 196 220 160 196 220 160 196 220 160 196 220 160 196 220 160 196 220 160 196 220 160 196 220 160 196 220 160 196 220 160 196 220 160 196 220 160 196 220 160 196 220 160 196 220 160 196 220 160 196 220 160 196 220 160 196 220 160 196 220 160 196 220 160 196 220 160 196 220 160 196 220 160 196 220 160 196 220 160 196 220 160 196 220 160 196 220 160 196 220 160 196 220 160 196 220 160 196 220 160 196 220 160 196 220 160 196 220 160 196 220 160 196 220 160 196 220 160 196 220 160 196 220 160 196 220 160 196 220 160 196 220 160 196 220 160 196 220 159 197 222 159 197 222 159 197 222 159 197 222 159 197 222 159 197 222 159 197 222 159 197 222 159 197 222 159 197 222 159 197 222 159 197 222 159 197 222 159 197 222 159 197 222 159 197 222 159 197 222 159 197 222 159 197 222 159 197 222 159 197 222 159 197 222 159 197 222 159 197 222 159 197 222 159 197 222 159 197 222 159 197 222 159 197 222 159 197 222 159 197 222 159 197 222 159 197 222 159 197 222 159 197 222 159 197 222 159 197 222 159 197 222 159 197 222 159 197 222 159 197 222 159 197 222 159 197 222 159 197 222 155 197 221 155 197 221 155 197 221 155 197 221 155 197 221 155 197 221 155 197 221 155 197 221 155 197 221 155 197 221 155 197 221 155 197 221 155 197 221 155 197 221 155 197 221 155 197 221 155 197 221 155 197 221 155 197 221 155 197 221 155 197 221 155 197 221 155 197 221 155 196 222 155 196 222 155 196 222 155 196 222 155 196 222 155 196 222 155 196 222 155 196 222 155 196 222 155 196 222 155 196 222 155 196 222 155 196 222 155 196 222 155 196 222 155 196 222 155 196 222 155 196 222 155 196 222 155 196 222 155 196 222 155 196 222 155 196 222 160 199 220 160 199 220 160 199 220 160 199 220 160 199 220 160 199 220 160 199 220 160 199 220 160 199 220 160 199 220 160 199 220 160 199 220 160 199 220 160 199 220 160 199 220 160 199 220 160 199 220 160 199 220 160 199 220 160 199 220 162 105 100 162 105 100 162 105 100 162 105 100 162 105 100 162 105 100 162 105 100 162 105 100 162 105 100 162 105 100 162 105 100 162 105 100 162 105 100 162 105 100 162 105 100 162 105 100 162 105 100 162 105 100 162 105 100 162 105 100 162 105 100 162 105 100 162 105 100 162 105 100 162 105 100 162 105 100 162 105 100 162 105 100 162 105 100 162 105 100 162 105 100 162 105 100 162 105 100 160 163 164 216 223 223 216 223 223 216 223 223 216 223 223 161 197 219 161 197 219 161 197 219 161 197 219 160 163 164 160 163 164 160 163 164 117 98 108 117 98 108 117 98 108 117 98 108 117 98 108 117 98 108 117 98 108 117 98 108 117 98 108 117 98 108 117 98 108 117 98 108 117 98 108 117 98 108 117 98 108 117 98 108 117 98 108 117 98 108 117 98 108 117 98 108 117 98 108 160 163 164 160 163 164 160 163 164 160 163 164 160 163 164 161 197 219 161 197 219 161 197 219 161 197 219 161 197 219 161 197 219 161 197 219 161 197 219 161 197 219 161 197 219 161 197 219 161 197 219 161 197 219 161 197 219 161 197 219 161 197 219 161 197 219 161 197 219 160 163 164 121 96 107 76 43 64 121 96 107 121 96 107 121 96 107 161 197 219 161 197 219 160 196 220 160 196 220 160 196 220 160 196 220 160 196 220 160 196 220 160 196 220 160 196 220 160 196 220 160 196 220 160 196 220 160 196 220 160 196 220 160 196 220 160 196 220 160 196 220 160 196 220 160 196 220 160 196 220 160 196 220 160 196 220 160 196 220 160 196 220 160 196 220 160 196 220 160 196 220 160 196 220 160 196 220 160 196 220 160 196 220 160 196 220 160 196 220 160 196 220 160 196 220 160 196 220 160 196 220 160 196 220 160 196 220 160 196 220 160 196 220 160 196 220 160 196 220 160 196 220 160 196 220 160 196 220 160 196 220 160 196 220 160 196 220 159 197 222 159 197 222 159 197 222 159 197 222 159 197 222 159 197 222 159 197 222 159 197 222 159 197 222 159 197 222 159 197 222 159 197 222 159 197 222 159 197 222 159 197 222 159 197 222 159 197 222 159 197 222 159 197 222 159 197 222 159 197 222 159 197 222 159 197 222 159 197 222 159 197 222 159 197 222 159 197 222 159 197 222 159 197 222 159 197 222 159 197 222 159 197 222 159 197 222 159 197 222 159 197 222 159 197 222 159 197 222 159 197 222 159 197 222 159 197 222 159 197 222 159 197 222 159 197 222 159 197 222 159 197 222 155 197 221 155 197 221 155 197 221 155 197 221 155 197 221 155 197 221 155 197 221 155 197 221 155 197 221 155 197 221 155 197 221 155 197 221 155 197 221 155 197 221 155 197 221 155 197 221 155 197 221 155 197 221 155 197 221 155 197 221 155 197 221 155 197 221 155 197 221 155 196 222 155 196 222 155 196 222 155 196 222 155 196 222 155 196 222 155 196 222 155 196 222 155 196 222 155 196 222 155 196 222 155 196 222 155 196 222 155 196 222 155 196 222 155 196 222 155 196 222 155 196 222 155 196 222 155 196 222 155 196 222 155 196 222 155 196 222 160 199 220 160 199 220 160 199 220 160 199 220 160 199 220 160 199 220 160 199 220 160 199 220 160 199 220 160 199 220 160 199 220 160 199 220 160 199 220 160 199 220 160 199 220 160 199 220 160 199 220 160 199 220 160 199 220 160 199 220 162 105 100 162 105 100 162 105 100 162 105 100 162 105 100 162 105 100 162 105 100 162 105 100 162 105 100 162 105 100 162 105 100 162 105 100 162 105 100 162 105 100 162 105 100 162 105 100 162 105 100 162 105 100 162 105 100 162 105 100 162 105 100 162 105 100 162 105 100 162 105 100 162 105 100 162 105 100 162 105 100 162 105 100 162 105 100 162 105 100 162 105 100 162 105 100 160 163 164 160 163 164 216 223 223 216 223 223 216 223 223 216 223 223 216 223 223 216 223 223 216 223 223 161 197 219 161 197 219 161 197 219 161 197 219 160 163 164 160 163 164 117 98 108 117 98 108 117 98 108 117 98 108 117 98 108 117 98 108 117 98 108 117 98 108 117 98 108 117 98 108 117 98 108 117 98 108 117 98 108 117 98 108 117 98 108 117 98 108 117 98 108 117 98 108 117 98 108 117 98 108 117 98 108 117 98 108 117 98 108 117 98 108 117 98 108 117 98 108 117 98 108 117 98 108 160 163 164 160 163 164 160 163 164 160 163 164 161 197 219 161 197 219 161 197 219 161 197 219 161 197 219 161 197 219 161 197 219 161 197 219 161 197 219 161 197 219 160 163 164 121 96 107 76 43 64 121 96 107 121 96 107 121 96 107 161 197 219 161 197 219 160 196 220 160 196 220 160 196 220 160 196 220 160 196 220 160 196 220 160 196 220 160 196 220 160 196 220 160 196 220 160 196 220 160 196 220 160 196 220 160 196 220 160 196 220 160 196 220 160 196 220 160 196 220 160 196 220 160 196 220 160 196 220 160 196 220 160 196 220 160 196 220 160 196 220 160 196 220 160 196 220 160 196 220 160 196 220 160 196 220 160 196 220 160 196 220 160 196 220 160 196 220 160 196 220 160 196 220 160 196 220 160 196 220 160 196 220 160 196 220 160 196 220 160 196 220 160 196 220 160 196 220 160 196 220 160 196 220 160 196 220 160 196 220 159 197 222 159 197 222 159 197 222 159 197 222 159 197 222 159 197 222 159 197 222 159 197 222 159 197 222 159 197 222 159 197 222 159 197 222 159 197 222 159 197 222 159 197 222 159 197 222 159 197 222 159 197 222 159 197 222 159 197 222 159 197 222 159 197 222 159 197 222 159 197 222 159 197 222 159 197 222 159 197 222 159 197 222 159 197 222 159 197 222 159 197 222 159 197 222 159 197 222 159 197 222 159 197 222 159 197 222 159 197 222 159 197 222 159 197 222 159 197 222 159 197 222 159 197 222 159 197 222 159 197 222 159 197 222 155 197 221 155 197 221 155 197 221 155 197 221 155 197 221 155 197 221 155 197 221 155 197 221 155 197 221 155 197 221 155 197 221 155 197 221 155 197 221 155 197 221 155 197 221 155 197 221 155 197 221 155 197 221 155 197 221 155 197 221 155 197 221 155 197 221 155 197 221 155 196 222 155 196 222 155 196 222 155 196 222 155 196 222 155 196 222 155 196 222 155 196 222 155 196 222 155 196 222 155 196 222 155 196 222 155 196 222 155 196 222 155 196 222 155 196 222 155 196 222 155 196 222 155 196 222 155 196 222 155 196 222 155 196 222 155 196 222 160 199 220 160 199 220 160 199 220 160 199 220 160 199 220 160 199 220 160 199 220 160 199 220 160 199 220 160 199 220 160 199 220 160 199 220 160 199 220 160 199 220 160 199 220 160 199 220 160 199 220 160 199 220 160 199 220 160 199 220 162 105 100 162 105 100 162 105 100 162 105 100 162 105 100 162 105 100 162 105 100 162 105 100 162 105 100 162 105 100 162 105 100 162 105 100 162 105 100 162 105 100 162 105 100 162 105 100 162 105 100 162 105 100 162 105 100 162 105 100 162 105 100 162 105 100 162 105 100 162 105 100 162 105 100 162 105 100 162 105 100 162 105 100 162 105 100 162 105 100 162 105 100 162 105 100 160 163 164 160 163 164 216 223 223 216 223 223 216 223 223 216 223 223 216 223 223 216 223 223 216 223 223 216 223 223 216 223 223 161 197 219 161 197 219 161 197 219 161 197 219 160 163 164 160 163 164 117 98 108 117 98 108 117 98 108 117 98 108 117 98 108 117 98 108 117 98 108 117 98 108 117 98 108 117 98 108 117 98 108 117 98 108 117 98 108 117 98 108 117 98 108 117 98 108 117 98 108 117 98 108 117 98 108 117 98 108 117 98 108 117 98 108 117 98 108 117 98 108 117 98 108 117 98 108 117 98 108 117 98 108 117 98 108 117 98 108 117 98 108 117 98 108 160 163 164 160 163 164 160 163 164 161 197 219 161 197 219 161 197 219 161 197 219 161 197 219 160 163 164 76 43 64 76 43 64 76 43 64 121 96 107 121 96 107 161 197 219 161 197 219 160 196 220 160 196 220 160 196 220 160 196 220 160 196 220 160 196 220 160 196 220 160 196 220 160 196 220 160 196 220 160 196 220 160 196 220 160 196 220 160 196 220 160 196 220 160 196 220 160 196 220 160 196 220 160 196 220 160 196 220 160 196 220 160 196 220 160 196 220 160 196 220 160 196 220 160 196 220 160 196 220 160 196 220 160 196 220 160 196 220 160 196 220 160 196 220 160 196 220 160 196 220 160 196 220 160 196 220 160 196 220 160 196 220 160 196 220 160 196 220 160 196 220 160 196 220 160 196 220 160 196 220 160 196 220 160 196 220 160 196 220 160 196 220 159 197 222 159 197 222 159 197 222 159 197 222 159 197 222 159 197 222 159 197 222 159 197 222 159 197 222 159 197 222 159 197 222 159 197 222 159 197 222 159 197 222 159 197 222 159 197 222 159 197 222 159 197 222 159 197 222 159 197 222 159 197 222 159 197 222 159 197 222 159 197 222 159 197 222 159 197 222 159 197 222 159 197 222 159 197 222 159 197 222 159 197 222 159 197 222 159 197 222 159 197 222 159 197 222 159 197 222 159 197 222 159 197 222 159 197 222 159 197 222 159 197 222 159 197 222 159 197 222 159 197 222 159 197 222 155 197 221 155 197 221 155 197 221 155 197 221 155 197 221 155 197 221 155 197 221 155 197 221 155 197 221 155 197 221 155 197 221 155 197 221 155 197 221 155 197 221 155 197 221 155 197 221 155 197 221 155 197 221 155 197 221 155 197 221 155 197 221 155 197 221 155 197 221 155 196 222 155 196 222 155 196 222 155 196 222 155 196 222 155 196 222 155 196 222 155 196 222 155 196 222 155 196 222 155 196 222 155 196 222 155 196 222 155 196 222 155 196 222 155 196 222 155 196 222 155 196 222 155 196 222 155 196 222 155 196 222 155 196 222 155 196 222 160 199 220 160 199 220 160 199 220 160 199 220 160 199 220 160 199 220 160 199 220 160 199 220 160 199 220 160 199 220 160 199 220 160 199 220 160 199 220 160 199 220 160 199 220 160 199 220 160 199 220 160 199 220 160 199 220 160 199 220 162 105 100 162 105 100 162 105 100 162 105 100 162 105 100 162 105 100 162 105 100 162 105 100 162 105 100 162 105 100 162 105 100 162 105 100 162 105 100 162 105 100 162 105 100 162 105 100 162 105 100 162 105 100 162 105 100 162 105 100 162 105 100 162 105 100 162 105 100 162 105 100 162 105 100 162 105 100 162 105 100 162 105 100 162 105 100 162 105 100 162 105 100 162 105 100 162 105 100 153 102 98 160 163 164 161 197 219 216 223 223 216 223 223 216 223 223 216 223 223 216 223 223 216 223 223 216 223 223 216 223 223 216 223 223 161 197 219 161 197 219 161 197 219 160 163 164 160 163 164 160 163 164 117 98 108 117 98 108 117 98 108 117 98 108 117 98 108 117 98 108 117 98 108 117 98 108 117 98 108 117 98 108 117 98 108 117 98 108 117 98 108 117 98 108 117 98 108 117 98 108 117 98 108 117 98 108 117 98 108 117 98 108 117 98 108 117 98 108 117 98 108 117 98 108 117 98 108 117 98 108 117 98 108 117 98 108 117 98 108 117 98 108 117 98 108 117 98 108 117 98 108 117 98 108 121 96 107 121 96 107 160 163 164 160 163 164 121 96 107 76 43 64 76 43 64 76 43 64 76 43 64 121 96 107 161 197 219 161 197 219 160 196 220 160 196 220 160 196 220 160 196 220 160 196 220 160 196 220 160 196 220 160 196 220 160 196 220 160 196 220 160 196 220 160 196 220 160 196 220 160 196 220 160 196 220 160 196 220 160 196 220 160 196 220 160 196 220 160 196 220 160 196 220 160 196 220 160 196 220 160 196 220 160 196 220 160 196 220 160 196 220 160 196 220 160 196 220 160 196 220 160 196 220 160 196 220 160 196 220 160 196 220 160 196 220 160 196 220 160 196 220 160 196 220 160 196 220 160 196 220 160 196 220 160 196 220 160 196 220 160 196 220 160 196 220 160 196 220 160 196 220 160 196 220 159 197 222 159 197 222 159 197 222 159 197 222 159 197 222 159 197 222 159 197 222 159 197 222 159 197 222 159 197 222 159 197 222 159 197 222 159 197 222 159 197 222 159 197 222 159 197 222 159 197 222 159 197 222 159 197 222 159 197 222 159 197 222 159 197 222 159 197 222 159 197 222 159 197 222 159 197 222 159 197 222 159 197 222 159 197 222 159 197 222 159 197 222 159 197 222 159 197 222 159 197 222 159 197 222 159 197 222 159 197 222 159 197 222 159 197 222 159 197 222 159 197 222 159 197 222 159 197 222 159 197 222 159 197 222 155 197 221 155 197 221 155 197 221 155 197 221 155 197 221 155 197 221 155 197 221 155 197 221 155 197 221 155 197 221 155 197 221 155 197 221 155 197 221 155 197 221 155 197 221 155 197 221 155 197 221 155 197 221 155 197 221 155 197 221 155 197 221 155 197 221 155 197 221 155 196 222 155 196 222 155 196 222 155 196 222 155 196 222 155 196 222 155 196 222 155 196 222 155 196 222 155 196 222 155 196 222 155 196 222 155 196 222 155 196 222 155 196 222 155 196 222 155 196 222 155 196 222 155 196 222 155 196 222 155 196 222 155 196 222 155 196 222 160 199 220 160 199 220 160 199 220 160 199 220 160 199 220 160 199 220 160 199 220 160 199 220 160 199 220 160 199 220 160 199 220 160 199 220 160 199 220 160 199 220 160 199 220 160 199 220 160 199 220 160 199 220 160 199 220 160 199 220 162 105 100 162 105 100 162 105 100 162 105 100 162 105 100 162 105 100 162 105 100 162 105 100 162 105 100 162 105 100 162 105 100 162 105 100 162 105 100 162 105 100 162 105 100 162 105 100 162 105 100 162 105 100 162 105 100 162 105 100 162 105 100 162 105 100 162 105 100 162 105 100 162 105 100 162 105 100 162 105 100 162 105 100 162 105 100 162 105 100 162 105 100 162 105 100 162 105 100 117 98 108 76 43 64 117 98 108 160 163 164 161 197 219 216 223 223 216 223 223 216 223 223 216 223 223 216 223 223 216 223 223 216 223 223 216 223 223 216 223 223 161 197 219 161 197 219 161 197 219 160 163 164 160 163 164 117 98 108 117 98 108 117 98 108 117 98 108 117 98 108 117 98 108 117 98 108 117 98 108 117 98 108 117 98 108 117 98 108 117 98 108 117 98 108 117 98 108 117 98 108 117 98 108 117 98 108 117 98 108 117 98 108 117 98 108 117 98 108 117 98 108 117 98 108 117 98 108 117 98 108 117 98 108 117 98 108 117 98 108 117 98 108 117 98 108 121 96 107 121 96 107 121 96 107 121 96 107 121 96 107 121 96 107 121 96 107 121 96 107 76 43 64 76 43 64 76 43 64 76 43 64 121 96 107 160 163 164 161 197 219 160 196 220 160 196 220 160 196 220 160 196 220 160 196 220 160 196 220 160 196 220 160 196 220 160 196 220 160 196 220 160 196 220 160 196 220 160 196 220 160 196 220 160 196 220 160 196 220 160 196 220 160 196 220 160 196 220 160 196 220 160 196 220 160 196 220 160 196 220 160 196 220 160 196 220 160 196 220 160 196 220 160 196 220 160 196 220 160 196 220 160 196 220 160 196 220 160 196 220 160 196 220 160 196 220 160 196 220 160 196 220 160 196 220 160 196 220 160 196 220 160 196 220 160 196 220 160 196 220 160 196 220 160 196 220 160 196 220 160 196 220 160 196 220 159 197 222 159 197 222 159 197 222 159 197 222 159 197 222 159 197 222 159 197 222 159 197 222 159 197 222 159 197 222 159 197 222 159 197 222 159 197 222 159 197 222 159 197 222 159 197 222 159 197 222 159 197 222 159 197 222 159 197 222 159 197 222 159 197 222 159 197 222 159 197 222 159 197 222 159 197 222 159 197 222 159 197 222 159 197 222 159 197 222 159 197 222 159 197 222 159 197 222 159 197 222 159 197 222 159 197 222 159 197 222 159 197 222 159 197 222 159 197 222 159 197 222 159 197 222 159 197 222 159 197 222 159 197 222 155 197 221 155 197 221 155 197 221 155 197 221 155 197 221 155 197 221 155 197 221 155 197 221 155 197 221 155 197 221 155 197 221 155 197 221 155 197 221 155 197 221 155 197 221 155 197 221 155 197 221 155 197 221 155 197 221 155 197 221 155 197 221 155 197 221 155 197 221 155 196 222 155 196 222 155 196 222 155 196 222 155 196 222 155 196 222 155 196 222 155 196 222 155 196 222 155 196 222 155 196 222 155 196 222 155 196 222 155 196 222 155 196 222 155 196 222 155 196 222 155 196 222 155 196 222 155 196 222 155 196 222 155 196 222 159 197 219 159 197 219 159 197 219 159 197 219 160 199 220 160 199 220 160 199 220 160 199 220 160 199 220 160 199 220 160 199 220 160 199 220 160 199 220 160 199 220 160 199 220 160 199 220 160 199 220 160 199 220 160 199 220 160 199 220 160 199 220 162 105 100 162 105 100 162 105 100 162 105 100 162 105 100 162 105 100 162 105 100 162 105 100 162 105 100 162 105 100 162 105 100 162 105 100 162 105 100 162 105 100 162 105 100 162 105 100 162 105 100 162 105 100 162 105 100 162 105 100 162 105 100 162 105 100 162 105 100 162 105 100 162 105 100 162 105 100 162 105 100 162 105 100 162 105 100 162 105 100 162 105 100 162 105 100 162 105 100 117 98 108 76 43 64 76 43 64 76 43 64 117 98 108 160 163 164 216 223 223 216 223 223 216 223 223 216 223 223 216 223 223 216 223 223 216 223 223 216 223 223 216 223 223 216 223 223 161 197 219 161 197 219 161 197 219 160 163 164 160 163 164 160 163 164 117 98 108 117 98 108 117 98 108 117 98 108 117 98 108 117 98 108 117 98 108 117 98 108 117 98 108 117 98 108 117 98 108 117 98 108 117 98 108 117 98 108 117 98 108 117 98 108 117 98 108 117 98 108 117 98 108 117 98 108 117 98 108 117 98 108 117 98 108 117 98 108 117 98 108 117 98 108 117 98 108 121 96 107 121 96 107 121 96 107 121 96 107 121 96 107 121 96 107 121 96 107 121 96 107 121 96 107 121 96 107 121 96 107 121 96 107 121 96 107 121 96 107 121 96 107 121 96 107 160 163 164 160 163 164 160 196 220 160 196 220 160 196 220 160 196 220 160 196 220 160 196 220 160 196 220 160 196 220 160 196 220 160 196 220 160 196 220 160 196 220 160 196 220 160 196 220 160 196 220 160 196 220 160 196 220 160 196 220 160 196 220 160 196 220 160 196 220 160 196 220 160 196 220 160 196 220 160 196 220 160 196 220 160 196 220 160 196 220 160 196 220 160 196 220 160 196 220 160 196 220 160 196 220 160 196 220 160 196 220 160 196 220 160 196 220 160 196 220 160 196 220 160 196 220 160 196 220 160 196 220 160 196 220 160 196 220 160 196 220 159 197 222 159 197 222 159 197 222 159 197 222 159 197 222 159 197 222 159 197 222 159 197 222 159 197 222 159 197 222 159 197 222 159 197 222 159 197 222 159 197 222 159 197 222 159 197 222 159 197 222 159 197 222 159 197 222 159 197 222 159 197 222 159 197 222 159 197 222 159 197 222 159 197 222 159 197 222 159 197 222 159 197 222 159 197 222 159 197 222 159 197 222 159 197 222 159 197 222 159 197 222 159 197 222 159 197 222 159 197 222 159 197 222 159 197 222 159 197 222 159 197 222 159 197 222 159 197 222 159 197 222 159 197 222 155 197 221 155 197 221 155 197 221 155 197 221 155 197 221 155 197 221 155 197 221 155 197 221 155 197 221 155 197 221 155 197 221 155 197 221 155 197 221 155 197 221 155 197 221 155 197 221 155 197 221 155 197 221 155 197 221 155 197 221 155 197 221 155 197 221 155 197 221 155 197 221 155 196 222 155 196 222 155 196 222 155 196 222 155 196 222 155 196 222 155 196 222 155 196 222 155 196 222 155 196 222 155 196 222 155 196 222 155 196 222 155 196 222 155 196 222 155 196 222 155 196 222 155 196 222 155 196 222 159 197 219 159 197 219 159 197 219 159 197 219 159 197 219 159 197 219 159 197 219 159 197 219 159 197 219 159 197 219 160 199 220 160 199 220 160 199 220 160 199 220 160 199 220 160 199 220 160 199 220 160 199 220 160 199 220 160 199 220 160 199 220 160 199 220 160 199 220 162 105 100 162 105 100 162 105 100 162 105 100 162 105 100 162 105 100 162 105 100 162 105 100 162 105 100 162 105 100 162 105 100 162 105 100 162 105 100 162 105 100 162 105 100 162 105 100 162 105 100 162 105 100 162 105 100 162 105 100 162 105 100 162 105 100 162 105 100 162 105 100 162 105 100 162 105 100 162 105 100 162 105 100 162 105 100 162 105 100 162 105 100 162 105 100 162 105 100 153 102 98 76 43 64 76 43 64 76 43 64 76 43 64 76 43 64 117 98 108 160 163 164 216 223 223 216 223 223 216 223 223 216 223 223 216 223 223 216 223 223 216 223 223 216 223 223 216 223 223 216 223 223 161 197 219 161 197 219 161 197 219 160 163 164 160 163 164 117 98 108 117 98 108 117 98 108 117 98 108 117 98 108 117 98 108 117 98 108 117 98 108 117 98 108 117 98 108 117 98 108 117 98 108 117 98 108 117 98 108 117 98 108 117 98 108 117 98 108 117 98 108 117 98 108 117 98 108 117 98 108 117 98 108 117 98 108 117 98 108 117 98 108 117 98 108 121 96 107 121 96 107 121 96 107 121 96 107 121 96 107 121 96 107 121 96 107 121 96 107 121 96 107 121 96 107 121 96 107 121 96 107 121 96 107 121 96 107 121 96 107 121 96 107 121 96 107 121 96 107 121 96 107 121 96 107 121 96 107 121 96 107 160 163 164 160 196 220 160 196 220 160 196 220 160 196 220 160 196 220 160 196 220 160 196 220 160 196 220 160 196 220 160 196 220 160 196 220 160 196 220 160 196 220 160 196 220 160 196 220 160 196 220 160 196 220 160 196 220 160 196 220 160 196 220 160 196 220 160 196 220 160 196 220 160 196 220 160 196 220 160 196 220 160 196 220 160 196 220 160 196 220 160 196 220 160 196 220 160 196 220 160 196 220 160 196 220 160 196 220 160 196 220 160 196 220 160 196 220 160 196 220 160 196 220 159 197 222 159 197 222 159 197 222 159 197 222 159 197 222 159 197 222 159 197 222 159 197 222 159 197 222 159 197 222 159 197 222 159 197 222 159 197 222 159 197 222 159 197 222 159 197 222 159 197 222 159 197 222 159 197 222 159 197 222 159 197 222 159 197 222 159 197 222 159 197 222 159 197 222 159 197 222 159 197 222 159 197 222 159 197 222 159 197 222 159 197 222 159 197 222 159 197 222 159 197 222 159 197 222 159 197 222 159 197 222 159 197 222 159 197 222 159 197 222 159 197 222 159 197 222 159 197 222 159 197 222 159 197 222 155 197 221 155 197 221 155 197 221 155 197 221 155 197 221 155 197 221 155 197 221 155 197 221 155 197 221 155 197 221 155 197 221 155 197 221 155 197 221 155 197 221 155 197 221 155 197 221 155 197 221 155 197 221 155 197 221 155 197 221 155 197 221 155 197 221 155 197 221 155 197 221 155 196 222 155 196 222 155 196 222 155 196 222 155 196 222 155 196 222 155 196 222 155 196 222 155 196 222 155 196 222 155 196 222 155 196 222 155 196 222 155 196 222 155 196 222 155 196 222 155 196 222 159 197 219 159 197 219 159 197 219 159 197 219 159 197 219 159 197 219 159 197 219 159 197 219 159 197 219 159 197 219 159 197 219 159 197 219 159 197 219 159 197 219 159 197 219 159 197 219 160 199 220 160 199 220 160 199 220 160 199 220 160 199 220 160 199 220 160 199 220 160 199 220 160 199 220 162 105 100 162 105 100 162 105 100 162 105 100 162 105 100 162 105 100 162 105 100 162 105 100 162 105 100 162 105 100 162 105 100 162 105 100 162 105 100 162 105 100 162 105 100 162 105 100 162 105 100 162 105 100 162 105 100 162 105 100 162 105 100 162 105 100 162 105 100 162 105 100 162 105 100 162 105 100 162 105 100 162 105 100 162 105 100 162 105 100 162 105 100 162 105 100 162 105 100 153 102 98 107 64 79 76 43 64 76 43 64 76 43 64 76 43 64 76 43 64 107 64 79 160 163 164 160 163 164 216 223 223 216 223 223 216 223 223 216 223 223 216 223 223 216 223 223 216 223 223 216 223 223 216 223 223 216 223 223 161 197 219 161 197 219 161 197 219 160 163 164 160 163 164 117 98 108 117 98 108 117 98 108 117 98 108 117 98 108 117 98 108 117 98 108 117 98 108 117 98 108 117 98 108 117 98 108 117 98 108 117 98 108 117 98 108 117 98 108 117 98 108 117 98 108 117 98 108 117 98 108 117 98 108 117 98 108 117 98 108 117 98 108 117 98 108 121 96 107 121 96 107 121 96 107 121 96 107 121 96 107 121 96 107 121 96 107 121 96 107 121 96 107 160 163 164 121 96 107 121 96 107 121 96 107 121 96 107 121 96 107 121 96 107 121 96 107 121 96 107 121 96 107 121 96 107 121 96 107 121 96 107 121 96 107 121 96 107 121 96 107 121 96 107 158 158 161 158 158 161 160 196 220 160 196 220 160 196 220 160 196 220 160 196 220 160 196 220 160 196 220 160 196 220 160 196 220 160 196 220 160 196 220 160 196 220 160 196 220 160 196 220 160 196 220 160 196 220 160 196 220 160 196 220 160 196 220 160 196 220 160 196 220 160 196 220 160 196 220 160 196 220 160 196 220 160 196 220 160 196 220 160 196 220 160 196 220 160 196 220 160 196 220 160 196 220 160 196 220 160 196 220 159 197 222 159 197 222 159 197 222 159 197 222 159 197 222 159 197 222 159 197 222 159 197 222 159 197 222 159 197 222 159 197 222 159 197 222 159 197 222 159 197 222 159 197 222 159 197 222 159 197 222 159 197 222 159 197 222 159 197 222 159 197 222 159 197 222 159 197 222 159 197 222 159 197 222 159 197 222 159 197 222 159 197 222 159 197 222 159 197 222 159 197 222 159 197 222 159 197 222 159 197 222 159 197 222 159 197 222 159 197 222 159 197 222 159 197 222 159 197 222 159 197 222 159 197 222 159 197 222 159 197 222 159 197 222 159 197 222 155 197 221 155 197 221 155 197 221 155 197 221 155 197 221 155 197 221 155 197 221 155 197 221 155 197 221 155 197 221 155 197 221 155 197 221 155 197 221 155 197 221 155 197 221 155 197 221 155 197 221 155 197 221 155 197 221 155 195 221 155 195 221 155 195 221 155 195 221 155 195 221 155 196 222 155 196 222 155 196 222 155 196 222 155 196 222 155 196 222 155 196 222 155 196 222 155 196 222 155 196 222 155 196 222 155 196 222 155 196 222 155 196 222 155 196 222 159 197 219 159 197 219 159 197 219 159 197 219 159 197 219 159 197 219 159 197 219 159 197 219 159 197 219 159 197 219 159 197 219 159 197 219 159 197 219 159 197 219 159 197 219 159 197 219 159 197 219 159 197 219 159 197 219 159 197 219 159 197 219 159 197 219 160 199 220 160 199 220 160 199 220 160 199 220 159 197 219 162 105 100 162 105 100 162 105 100 162 105 100 162 105 100 162 105 100 162 105 100 162 105 100 162 105 100 162 105 100 162 105 100 162 105 100 162 105 100 162 105 100 162 105 100 162 105 100 162 105 100 162 105 100 162 105 100 162 105 100 162 105 100 162 105 100 162 105 100 162 105 100 162 105 100 162 105 100 162 105 100 162 105 100 162 105 100 162 105 100 162 105 100 162 105 100 162 105 100 162 105 100 153 102 98 76 43 64 76 43 64 76 43 64 76 43 64 76 43 64 76 43 64 76 43 64 117 98 108 160 163 164 161 197 219 216 223 223 216 223 223 216 223 223 216 223 223 216 223 223 216 223 223 216 223 223 216 223 223 216 223 223 161 197 219 161 197 219 161 197 219 161 197 219 160 163 164 160 163 164 117 98 108 117 98 108 117 98 108 117 98 108 117 98 108 117 98 108 117 98 108 117 98 108 117 98 108 117 98 108 117 98 108 117 98 108 117 98 108 117 98 108 117 98 108 117 98 108 117 98 108 117 98 108 117 98 108 117 98 108 117 98 108 121 96 107 121 96 107 121 96 107 121 96 107 121 96 107 121 96 107 121 96 107 121 96 107 121 96 107 121 96 107 121 96 107 121 96 107 121 96 107 121 96 107 121 96 107 121 96 107 121 96 107 121 96 107 121 96 107 121 96 107 121 96 107 121 96 107 121 96 107 121 96 107 121 96 107 121 96 107 121 96 107 121 96 107 121 96 107 121 96 107 121 96 107 158 158 161 158 158 161 158 158 161 160 196 220 160 196 220 160 196 220 160 196 220 160 196 220 160 196 220 160 196 220 160 196 220 160 196 220 160 196 220 160 196 220 160 196 220 160 196 220 160 196 220 160 196 220 160 196 220 160 196 220 160 196 220 160 196 220 160 196 220 160 196 220 160 196 220 160 196 220 160 196 220 160 196 220 160 196 220 160 196 220 160 196 220 160 196 220 159 197 222 159 197 222 159 197 222 159 197 222 159 197 222 159 197 222 159 197 222 159 197 222 159 197 222 159 197 222 159 197 222 159 197 222 159 197 222 159 197 222 159 197 222 159 197 222 159 197 222 159 197 222 159 197 222 159 197 222 159 197 222 159 197 222 159 197 222 159 197 222 159 197 222 159 197 222 159 197 222 159 197 222 159 197 222 159 197 222 159 197 222 159 197 222 159 197 222 159 197 222 159 197 222 159 197 222 159 197 222 159 197 222 159 197 222 159 197 222 159 197 222 159 197 222 159 197 222 159 197 222 159 197 222 159 197 222 155 197 221 155 197 221 155 197 221 155 197 221 155 197 221 155 197 221 155 197 221 155 197 221 155 197 221 155 197 221 155 197 221 155 195 221 155 195 221 155 195 221 155 195 221 155 195 221 155 195 221 155 195 221 155 195 221 155 195 221 155 195 221 155 195 221 155 195 221 155 195 221 155 195 221 155 195 221 155 196 222 155 196 222 155 196 222 155 196 222 155 196 222 155 196 222 155 196 222 155 196 222 155 196 222 155 196 222 155 196 222 159 197 219 159 197 219 159 197 219 159 197 219 159 197 219 159 197 219 159 197 219 159 197 219 159 197 219 159 197 219 159 197 219 159 197 219 159 197 219 159 197 219 159 197 219 159 197 219 159 197 219 159 197 219 159 197 219 159 197 219 159 197 219 159 197 219 159 197 219 159 197 219 159 197 219 159 197 219 159 197 219 159 197 219 159 197 219 162 105 100 162 105 100 162 105 100 162 105 100 162 105 100 162 105 100 162 105 100 162 105 100 162 105 100 162 105 100 162 105 100 162 105 100 162 105 100 162 105 100 162 105 100 162 105 100 162 105 100 162 105 100 162 105 100 162 105 100 162 105 100 162 105 100 162 105 100 162 105 100 162 105 100 162 105 100 162 105 100 162 105 100 162 105 100 162 105 100 162 105 100 162 105 100 162 105 100 162 105 100 162 105 100 76 43 64 76 43 64 76 43 64 76 43 64 76 43 64 76 43 64 76 43 64 76 43 64 117 98 108 117 98 108 160 163 164 161 197 219 216 223 223 216 223 223 216 223 223 216 223 223 216 223 223 216 223 223 216 223 223 216 223 223 216 223 223 161 197 219 161 197 219 161 197 219 161 197 219 160 163 164 160 163 164 117 98 108 117 98 108 117 98 108 117 98 108 117 98 108 117 98 108 117 98 108 117 98 108 117 98 108 117 98 108 117 98 108 117 98 108 117 98 108 117 98 108 117 98 108 117 98 108 117 98 108 117 98 108 121 96 107 121 96 107 121 96 107 121 96 107 121 96 107 121 96 107 121 96 107 121 96 107 121 96 107 121 96 107 121 96 107 121 96 107 121 96 107 121 96 107 121 96 107 121 96 107 121 96 107 121 96 107 121 96 107 121 96 107 121 96 107 121 96 107 121 96 107 121 96 107 121 96 107 121 96 107 121 96 107 121 96 107 121 96 107 121 96 107 121 96 107 121 96 107 121 96 107 121 96 107 121 96 107 121 96 107 121 96 107 121 96 107 158 158 161 158 158 161 160 196 220 160 196 220 160 196 220 160 196 220 160 196 220 160 196 220 160 196 220 160 196 220 160 196 220 160 196 220 160 196 220 160 196 220 160 196 220 160 196 220 160 196 220 160 196 220 160 196 220 160 196 220 160 196 220 160 196 220 160 196 220 160 196 220 160 196 220 160 196 220 159 197 222 159 197 222 159 197 222 159 197 222 159 197 222 159 197 222 159 197 222 159 197 222 159 197 222 159 197 222 159 197 222 159 197 222 159 197 222 159 197 222 159 197 222 159 197 222 159 197 222 159 197 222 159 197 222 159 197 222 159 197 222 159 197 222 159 197 222 159 197 222 159 197 222 159 197 222 159 197 222 159 197 222 159 197 222 159 197 222 159 197 222 159 197 222 159 197 222 159 197 222 159 197 222 159 197 222 159 197 222 159 197 222 159 197 222 159 197 222 159 197 222 159 197 222 159 197 222 159 197 222 159 197 222 159 197 222 155 197 221 155 197 221 155 195 221 155 195 221 155 195 221 155 195 221 155 195 221 155 195 221 155 195 221 155 195 221 155 195 221 155 195 221 155 195 221 155 195 221 155 195 221 155 195 221 155 195 221 155 195 221 155 195 221 155 195 221 155 195 221 155 195 221 155 195 221 155 195 221 155 195 221 155 195 221 155 195 221 155 195 221 155 196 222 155 196 222 155 196 222 155 196 222 155 196 222 155 196 222 155 196 222 159 197 219 159 197 219 159 197 219 159 197 219 159 197 219 159 197 219 159 197 219 159 197 219 159 197 219 159 197 219 159 197 219 159 197 219 159 197 219 159 197 219 159 197 219 159 197 219 159 197 219 159 197 219 159 197 219 159 197 219 159 197 219 159 197 219 159 197 219 159 197 219 159 197 219 159 197 219 159 197 219 159 197 219 159 197 219 159 197 219 159 197 219 162 105 100 162 105 100 162 105 100 162 105 100 162 105 100 162 105 100 162 105 100 162 105 100 162 105 100 162 105 100 162 105 100 162 105 100 162 105 100 162 105 100 162 105 100 162 105 100 162 105 100 162 105 100 162 105 100 162 105 100 162 105 100 162 105 100 162 105 100 162 105 100 162 105 100 162 105 100 162 105 100 162 105 100 162 105 100 162 105 100 162 105 100 162 105 100 162 105 100 162 105 100 162 105 100 107 64 79 76 43 64 76 43 64 76 43 64 76 43 64 76 43 64 76 43 64 76 43 64 117 98 108 76 43 64 76 43 64 117 98 108 160 163 164 216 223 223 216 223 223 216 223 223 216 223 223 216 223 223 216 223 223 216 223 223 216 223 223 216 223 223 216 223 223 161 197 219 161 197 219 161 197 219 161 197 219 160 163 164 160 163 164 117 98 108 117 98 108 117 98 108 117 98 108 117 98 108 117 98 108 117 98 108 117 98 108 117 98 108 117 98 108 117 98 108 117 98 108 117 98 108 117 98 108 117 98 108 117 98 108 117 98 108 121 96 107 121 96 107 121 96 107 121 96 107 121 96 107 121 96 107 121 96 107 121 96 107 121 96 107 121 96 107 121 96 107 121 96 107 121 96 107 121 96 107 121 96 107 121 96 107 121 96 107 121 96 107 121 96 107 121 96 107 121 96 107 121 96 107 121 96 107 121 96 107 121 96 107 121 96 107 121 96 107 121 96 107 121 96 107 121 96 107 121 96 107 121 96 107 121 96 107 121 96 107 121 96 107 121 96 107 121 96 107 121 96 107 121 96 107 121 96 107 121 96 107 121 96 107 158 158 161 158 158 161 158 158 161 160 196 220 160 196 220 160 196 220 160 196 220 160 196 220 160 196 220 160 196 220 160 196 220 160 196 220 160 196 220 160 196 220 160 196 220 160 196 220 160 196 220 160 196 220 160 196 220 160 196 220 160 196 220 159 197 222 159 197 222 159 197 222 159 197 222 159 197 222 159 197 222 159 197 222 159 197 222 159 197 222 159 197 222 159 197 222 159 197 222 159 197 222 159 197 222 159 197 222 159 197 222 159 197 222 159 197 222 159 197 222 159 197 222 159 197 222 159 197 222 159 197 222 159 197 222 159 197 222 159 197 222 159 197 222 159 197 222 159 197 222 159 197 222 159 197 222 159 197 222 159 197 222 159 197 222 159 197 222 159 197 222 159 197 222 159 197 222 159 197 222 159 197 222 159 197 222 159 197 222 159 197 222 159 197 222 159 197 222 159 197 222 155 195 221 155 195 221 155 195 221 155 195 221 155 195 221 155 195 221 155 195 221 155 195 221 155 195 221 155 195 221 155 195 221 155 195 221 155 195 221 155 195 221 155 195 221 155 195 221 155 195 221 155 195 221 155 195 221 155 195 221 155 195 221 155 195 221 155 195 221 155 195 221 155 195 221 155 195 221 155 195 221 155 195 221 155 195 221 155 195 221 155 196 222 155 196 222 155 196 222 159 197 219 159 197 219 159 197 219 159 197 219 159 197 219 159 197 219 159 197 219 159 197 219 159 197 219 159 197 219 159 197 219 159 197 219 159 197 219 159 197 219 159 197 219 159 197 219 159 197 219 159 197 219 159 197 219 159 197 219 159 197 219 159 197 219 159 197 219 159 197 219 159 197 219 159 197 219 159 197 219 159 197 219 159 197 219 159 197 219 159 197 219 159 197 219 159 197 219 162 105 100 162 105 100 162 105 100 162 105 100 162 105 100 162 105 100 162 105 100 162 105 100 162 105 100 162 105 100 162 105 100 162 105 100 162 105 100 162 105 100 162 105 100 162 105 100 162 105 100 162 105 100 162 105 100 162 105 100 162 105 100 162 105 100 162 105 100 162 105 100 162 105 100 162 105 100 162 105 100 162 105 100 162 105 100 162 105 100 162 105 100 162 105 100 162 105 100 162 105 100 162 105 100 117 98 108 76 43 64 76 43 64 76 43 64 76 43 64 76 43 64 76 43 64 76 43 64 117 98 108 76 43 64 76 43 64 76 43 64 107 64 79 117 98 108 160 163 164 216 223 223 216 223 223 216 223 223 216 223 223 216 223 223 216 223 223 216 223 223 216 223 223 216 223 223 216 223 223 161 197 219 161 197 219 161 197 219 161 197 219 160 163 164 160 163 164 117 98 108 117 98 108 117 98 108 117 98 108 117 98 108 117 98 108 117 98 108 117 98 108 117 98 108 117 98 108 117 98 108 117 98 108 117 98 108 117 98 108 117 98 108 121 96 107 121 96 107 121 96 107 121 96 107 121 96 107 121 96 107 121 96 107 121 96 107 121 96 107 121 96 107 121 96 107 121 96 107 121 96 107 121 96 107 121 96 107 121 96 107 121 96 107 121 96 107 121 96 107 121 96 107 121 96 107 121 96 107 121 96 107 121 96 107 121 96 107 121 96 107 121 96 107 121 96 107 121 96 107 121 96 107 121 96 107 121 96 107 121 96 107 121 96 107 121 96 107 121 96 107 121 96 107 121 96 107 121 96 107 121 96 107 121 96 107 121 96 107 121 96 107 121 96 107 122 97 106 122 97 106 122 97 106 158 158 161 158 158 161 158 158 161 158 158 161 160 196 220 160 196 220 160 196 220 160 196 220 160 196 220 160 196 220 160 196 220 160 196 220 160 196 220 160 196 220 160 196 220 160 196 220 159 197 222 159 197 222 159 197 222 159 197 222 159 197 222 159 197 222 159 197 222 159 197 222 159 197 222 159 197 222 159 197 222 159 197 222 159 197 222 159 197 222 159 197 222 159 197 222 159 197 222 159 197 222 159 197 222 159 197 222 159 197 222 159 197 222 159 197 222 159 197 222 159 197 222 159 197 222 159 197 222 159 197 222 159 197 222 159 197 222 159 197 222 159 197 222 159 197 222 159 197 222 159 197 222 159 197 222 159 197 222 159 197 222 159 197 222 159 197 222 159 197 222 159 197 222 159 197 222 159 197 222 159 197 222 159 197 222 155 195 221 155 195 221 155 195 221 155 195 221 155 195 221 155 195 221 155 195 221 155 195 221 155 195 221 155 195 221 155 195 221 155 195 221 155 195 221 155 195 221 155 195 221 155 195 221 155 195 221 155 195 221 155 195 221 155 195 221 155 195 221 155 195 221 155 195 221 155 195 221 155 195 221 155 195 221 155 195 221 155 195 221 155 195 221 155 195 221 155 195 221 159 197 219 159 197 219 159 197 219 159 197 219 159 197 219 159 197 219 159 197 219 159 197 219 159 197 219 159 197 219 159 197 219 159 197 219 159 197 219 159 197 219 159 197 219 159 197 219 159 197 219 159 197 219 159 197 219 159 197 219 159 197 219 159 197 219 159 197 219 159 197 219 159 197 219 159 197 219 159 197 219 159 197 219 159 197 219 159 197 219 159 197 219 159 197 219 159 197 219 159 197 219 159 197 219 162 105 100 162 105 100 162 105 100 162 105 100 162 105 100 162 105 100 162 105 100 162 105 100 162 105 100 162 105 100 162 105 100 162 105 100 162 105 100 162 105 100 162 105 100 162 105 100 162 105 100 162 105 100 162 105 100 162 105 100 162 105 100 162 105 100 162 105 100 162 105 100 162 105 100 162 105 100 162 105 100 162 105 100 162 105 100 162 105 100 162 105 100 162 105 100 162 105 100 162 105 100 162 105 100 117 98 108 76 43 64 76 43 64 76 43 64 76 43 64 76 43 64 76 43 64 76 43 64 117 98 108 76 43 64 76 43 64 76 43 64 107 64 79 117 98 108 117 98 108 160 163 164 160 163 164 216 223 223 216 223 223 216 223 223 216 223 223 216 223 223 216 223 223 216 223 223 216 223 223 216 223 223 216 223 223 216 223 223 216 223 223 161 197 219 161 197 219 160 163 164 160 163 164 117 98 108 117 98 108 117 98 108 117 98 108 117 98 108 117 98 108 117 98 108 117 98 108 117 98 108 117 98 108 117 98 108 117 98 108 121 96 107 121 96 107 121 96 107 121 96 107 121 96 107 121 96 107 121 96 107 121 96 107 121 96 107 121 96 107 121 96 107 121 96 107 121 96 107 121 96 107 121 96 107 121 96 107 121 96 107 121 96 107 121 96 107 121 96 107 121 96 107 121 96 107 121 96 107 121 96 107 121 96 107 121 96 107 121 96 107 121 96 107 121 96 107 121 96 107 121 96 107 121 96 107 121 96 107 121 96 107 121 96 107 121 96 107 121 96 107 121 96 107 121 96 107 121 96 107 121 96 107 121 96 107 121 96 107 121 96 107 122 97 106 122 97 106 122 97 106 122 97 106 122 97 106 122 97 106 122 97 106 122 97 106 122 97 106 122 97 106 158 158 161 158 158 161 158 158 161 160 196 220 160 196 220 160 196 220 160 196 220 160 196 220 160 196 220 160 196 220 159 197 222 159 197 222 159 197 222 159 197 222 159 197 222 159 197 222 159 197 222 159 197 222 159 197 222 159 197 222 159 197 222 159 197 222 159 197 222 159 197 222 159 197 222 159 197 222 159 197 222 159 197 222 159 197 222 159 197 222 159 197 222 159 197 222 159 197 222 159 197 222 159 197 222 159 197 222 159 197 222 159 197 222 159 197 222 159 197 222 159 197 222 159 197 222 159 197 222 159 197 222 159 197 222 159 197 222 159 197 222 159 197 222 159 197 222 159 197 222 159 197 222 159 197 222 159 197 222 159 197 222 159 197 222 159 197 222 155 195 221 155 195 221 155 195 221 155 195 221 155 195 221 155 195 221 155 195 221 155 195 221 155 195 221 155 195 221 155 195 221 155 195 221 155 195 221 155 195 221 155 195 221 155 195 221 155 195 221 155 195 221 155 195 221 155 195 221 155 195 221 155 195 221 155 195 221 155 195 221 155 195 221 155 195 221 155 195 221 155 195 221 155 195 221 155 195 221 155 195 221 159 197 219 159 197 219 159 197 219 159 197 219 159 197 219 159 197 219 159 197 219 159 197 219 159 197 219 159 197 219 159 197 219 159 197 219 159 197 219 159 197 219 159 197 219 159 197 219 159 197 219 159 197 219 159 197 219 159 197 219 159 197 219 159 197 219 159 197 219 159 197 219 159 197 219 159 197 219 159 197 219 159 197 219 159 197 219 159 197 219 159 197 219 159 197 219 159 197 219 159 197 219 160 163 164 162 105 100 162 105 100 162 105 100 162 105 100 162 105 100 162 105 100 162 105 100 162 105 100 162 105 100 162 105 100 162 105 100 162 105 100 162 105 100 162 105 100 162 105 100 162 105 100 162 105 100 162 105 100 162 105 100 162 105 100 162 105 100 162 105 100 162 105 100 162 105 100 162 105 100 162 105 100 162 105 100 162 105 100 162 105 100 162 105 100 162 105 100 162 105 100 162 105 100 162 105 100 162 105 100 162 105 100 107 64 79 76 43 64 76 43 64 76 43 64 76 43 64 76 43 64 107 64 79 117 98 108 117 98 108 117 98 108 117 98 108 117 98 108 117 98 108 117 98 108 117 98 108 117 98 108 160 163 164 160 163 164 216 223 223 216 223 223 216 223 223 216 223 223 216 223 223 216 223 223 216 223 223 216 223 223 216 223 223 216 223 223 216 223 223 161 197 219 161 197 219 161 197 219 160 163 164 160 163 164 117 98 108 117 98 108 117 98 108 117 98 108 117 98 108 117 98 108 117 98 108 117 98 108 117 98 108 117 98 108 121 96 107 121 96 107 121 96 107 121 96 107 121 96 107 121 96 107 121 96 107 121 96 107 121 96 107 121 96 107 121 96 107 121 96 107 121 96 107 121 96 107 121 96 107 121 96 107 121 96 107 121 96 107 121 96 107 121 96 107 121 96 107 121 96 107 121 96 107 121 96 107 121 96 107 121 96 107 121 96 107 121 96 107 121 96 107 121 96 107 121 96 107 121 96 107 121 96 107 121 96 107 121 96 107 121 96 107 121 96 107 121 96 107 121 96 107 121 96 107 121 96 107 121 96 107 121 96 107 122 97 106 122 97 106 122 97 106 122 97 106 122 97 106 122 97 106 122 97 106 122 97 106 122 97 106 122 97 106 122 97 106 122 97 106 122 97 106 122 97 106 122 97 106 122 97 106 122 97 106 158 158 161 158 158 161 160 196 220 160 196 220 159 197 222 159 197 222 159 197 222 159 197 222 159 197 222 159 197 222 159 197 222 159 197 222 159 197 222 159 197 222 159 197 222 159 197 222 159 197 222 159 197 222 159 197 222 159 197 222 159 197 222 159 197 222 159 197 222 159 197 222 159 197 222 159 197 222 159 197 222 159 197 222 159 197 222 159 197 222 159 197 222 159 197 222 159 197 222 159 197 222 159 197 222 159 197 222 159 197 222 159 197 222 159 197 222 159 197 222 159 197 222 159 197 222 159 197 222 159 197 222 159 197 222 159 197 222 159 197 222 159 197 222 159 197 222 159 197 222 155 195 221 155 195 221 155 195 221 155 195 221 155 195 221 155 195 221 155 195 221 155 195 221 155 195 221 155 195 221 155 195 221 155 195 221 155 195 221 155 195 221 155 195 221 155 195 221 155 195 221 155 195 221 155 195 221 155 195 221 155 195 221 155 195 221 155 195 221 155 195 221 155 195 221 155 195 221 155 195 221 155 195 221 155 195 221 155 195 221 155 195 221 159 197 219 159 197 219 159 197 219 159 197 219 159 197 219 159 197 219 159 197 219 159 197 219 159 197 219 159 197 219 159 197 219 159 197 219 159 197 219 159 197 219 159 197 219 159 197 219 159 197 219 159 197 219 159 197 219 159 197 219 159 197 219 159 197 219 159 197 219 159 197 219 159 197 219 159 197 219 159 197 219 159 197 219 159 197 219 159 197 219 159 197 219 159 197 219 159 197 219 159 197 219 160 163 164 162 105 100 162 105 100 162 105 100 162 105 100 162 105 100 162 105 100 162 105 100 162 105 100 162 105 100 162 105 100 162 105 100 162 105 100 162 105 100 162 105 100 162 105 100 162 105 100 162 105 100 162 105 100 162 105 100 162 105 100 162 105 100 162 105 100 162 105 100 162 105 100 162 105 100 162 105 100 162 105 100 162 105 100 162 105 100 162 105 100 162 105 100 162 105 100 162 105 100 162 105 100 162 105 100 162 105 100 107 64 79 76 43 64 76 43 64 76 43 64 76 43 64 76 43 64 117 98 108 117 98 108 117 98 108 117 98 108 117 98 108 117 98 108 117 98 108 117 98 108 117 98 108 117 98 108 117 98 108 117 98 108 160 163 164 160 163 164 216 223 223 216 223 223 216 223 223 216 223 223 216 223 223 216 223 223 216 223 223 216 223 223 216 223 223 216 223 223 161 197 219 161 197 219 161 197 219 161 197 219 160 163 164 160 163 164 117 98 108 117 98 108 117 98 108 117 98 108 117 98 108 117 98 108 117 98 108 121 96 107 121 96 107 121 96 107 121 96 107 121 96 107 121 96 107 121 96 107 121 96 107 121 96 107 121 96 107 121 96 107 121 96 107 121 96 107 121 96 107 121 96 107 121 96 107 121 96 107 121 96 107 121 96 107 121 96 107 121 96 107 121 96 107 121 96 107 121 96 107 121 96 107 121 96 107 121 96 107 121 96 107 121 96 107 121 96 107 121 96 107 121 96 107 121 96 107 121 96 107 121 96 107 121 96 107 121 96 107 121 96 107 121 96 107 121 96 107 121 96 107 121 96 107 121 96 107 121 96 107 122 97 106 122 97 106 122 97 106 122 97 106 122 97 106 122 97 106 122 97 106 122 97 106 122 97 106 122 97 106 122 97 106 122 97 106 122 97 106 122 97 106 122 97 106 122 97 106 122 97 106 122 97 106 122 97 106 122 97 106 122 97 106 122 97 106 158 158 161 158 158 161 158 158 161 158 158 161 159 197 222 159 197 222 159 197 222 159 197 222 159 197 222 159 197 222 159 197 222 159 197 222 159 197 222 159 197 222 159 197 222 159 197 222 159 197 222 159 197 222 159 197 222 159 197 222 159 197 222 159 197 222 159 197 222 159 197 222 159 197 222 159 197 222 159 197 222 159 197 222 159 197 222 159 197 222 159 197 222 159 197 222 159 197 222 159 197 222 159 197 222 159 197 222 159 197 222 159 197 222 159 197 222 159 197 222 159 197 222 159 197 222 159 197 222 159 197 222 159 197 222 155 195 221 155 195 221 155 195 221 155 195 221 155 195 221 155 195 221 155 195 221 155 195 221 155 195 221 155 195 221 155 195 221 155 195 221 155 195 221 155 195 221 155 195 221 155 195 221 155 195 221 155 195 221 155 195 221 155 195 221 155 195 221 155 195 221 155 195 221 155 195 221 155 195 221 155 195 221 155 195 221 155 195 221 155 195 221 155 195 221 155 195 221 155 195 221 159 197 219 159 197 219 159 197 219 159 197 219 159 197 219 159 197 219 159 197 219 159 197 219 159 197 219 159 197 219 159 197 219 159 197 219 159 197 219 159 197 219 159 197 219 159 197 219 159 197 219 159 197 219 159 197 219 159 197 219 159 197 219 159 197 219 159 197 219 159 197 219 159 197 219 159 197 219 159 197 219 159 197 219 159 197 219 159 197 219 159 197 219 159 197 219 159 197 219 160 163 164 162 105 100 162 105 100 162 105 100 162 105 100 162 105 100 162 105 100 162 105 100 162 105 100 162 105 100 162 105 100 162 105 100 162 105 100 162 105 100 162 105 100 162 105 100 162 105 100 162 105 100 162 105 100 162 105 100 162 105 100 162 105 100 162 105 100 162 105 100 162 105 100 162 105 100 162 105 100 162 105 100 162 105 100 162 105 100 162 105 100 162 105 100 162 105 100 162 105 100 162 105 100 162 105 100 162 105 100 107 64 79 76 43 64 76 43 64 76 43 64 76 43 64 107 64 79 117 98 108 117 98 108 117 98 108 117 98 108 117 98 108 117 98 108 117 98 108 117 98 108 117 98 108 107 64 79 76 43 64 76 43 64 76 43 64 117 98 108 160 163 164 161 197 219 216 223 223 216 223 223 216 223 223 216 223 223 216 223 223 216 223 223 216 223 223 216 223 223 216 223 223 216 223 223 216 223 223 161 197 219 161 197 219 161 197 219 160 163 164 160 163 164 117 98 108 117 98 108 117 98 108 117 98 108 117 98 108 121 96 107 121 96 107 121 96 107 121 96 107 121 96 107 121 96 107 121 96 107 121 96 107 121 96 107 121 96 107 121 96 107 121 96 107 121 96 107 121 96 107 121 96 107 121 96 107 121 96 107 121 96 107 121 96 107 121 96 107 121 96 107 121 96 107 121 96 107 121 96 107 121 96 107 121 96 107 121 96 107 121 96 107 121 96 107 121 96 107 121 96 107 121 96 107 121 96 107 121 96 107 121 96 107 121 96 107 121 96 107 121 96 107 121 96 107 121 96 107 121 96 107 121 96 107 121 96 107 121 96 107 122 97 106 122 97 106 122 97 106 122 97 106 122 97 106 122 97 106 122 97 106 122 97 106 122 97 106 122 97 106 122 97 106 122 97 106 122 97 106 122 97 106 122 97 106 122 97 106 122 97 106 122 97 106 122 97 106 122 97 106 122 97 106 122 97 106 122 97 106 122 97 106 122 97 106 122 97 106 122 97 106 122 97 106 158 158 161 158 158 161 158 158 161 159 197 222 159 197 222 159 197 222 159 197 222 159 197 222 159 197 222 159 197 222 159 197 222 159 197 222 159 197 222 159 197 222 159 197 222 159 197 222 159 197 222 159 197 222 159 197 222 159 197 222 159 197 222 159 197 222 159 197 222 159 197 222 159 197 222 159 197 222 159 197 222 159 197 222 159 197 222 159 197 222 159 197 222 159 197 222 159 197 222 159 197 222 159 197 222 159 197 222 159 197 222 159 197 222 159 197 222 155 195 221 155 195 221 155 195 221 155 195 221 155 195 221 155 195 221 155 195 221 155 195 221 155 195 221 155 195 221 155 195 221 155 195 221 155 195 221 155 195 221 155 195 221 155 195 221 155 195 221 155 195 221 155 195 221 155 195 221 155 195 221 155 195 221 155 195 221 155 195 221 155 195 221 155 195 221 155 195 221 155 195 221 155 195 221 155 195 221 155 195 221 159 197 219 159 197 219 159 197 219 159 197 219 159 197 219 159 197 219 159 197 219 159 197 219 159 197 219 159 197 219 159 197 219 159 197 219 159 197 219 159 197 219 159 197 219 159 197 219 159 197 219 159 197 219 159 197 219 159 197 219 159 197 219 159 197 219 159 197 219 159 197 219 159 197 219 159 197 219 159 197 219 159 197 219 159 197 219 159 197 219 159 197 219 159 197 219 159 197 219 159 197 219 160 163 164 162 105 100 162 105 100 162 105 100 162 105 100 162 105 100 162 105 100 162 105 100 162 105 100 162 105 100 162 105 100 162 105 100 162 105 100 162 105 100 162 105 100 162 105 100 162 105 100 162 105 100 162 105 100 162 105 100 162 105 100 162 105 100 162 105 100 162 105 100 162 105 100 162 105 100 162 105 100 162 105 100 162 105 100 162 105 100 162 105 100 162 105 100 162 105 100 162 105 100 162 105 100 162 105 100 162 105 100 162 105 100 76 43 64 76 43 64 76 43 64 76 43 64 117 98 108 117 98 108 117 98 108 117 98 108 117 98 108 117 98 108 117 98 108 107 64 79 107 64 79 76 43 64 76 43 64 76 43 64 76 43 64 76 43 64 76 43 64 76 43 64 117 98 108 160 163 164 216 223 223 216 223 223 216 223 223 216 223 223 216 223 223 216 223 223 216 223 223 216 223 223 216 223 223 216 223 223 216 223 223 161 197 219 161 197 219 161 197 219 161 197 219 160 163 164 160 163 164 117 98 108 117 98 108 117 98 108 121 96 107 121 96 107 121 96 107 121 96 107 121 96 107 121 96 107 121 96 107 121 96 107 121 96 107 121 96 107 121 96 107 121 96 107 121 96 107 121 96 107 121 96 107 121 96 107 121 96 107 121 96 107 121 96 107 121 96 107 121 96 107 121 96 107 121 96 107 121 96 107 121 96 107 121 96 107 121 96 107 121 96 107 121 96 107 121 96 107 121 96 107 121 96 107 121 96 107 121 96 107 121 96 107 121 96 107 121 96 107 121 96 107 121 96 107 121 96 107 121 96 107 121 96 107 121 96 107 122 97 106 122 97 106 122 97 106 122 97 106 122 97 106 122 97 106 122 97 106 122 97 106 122 97 106 122 97 106 122 97 106 122 97 106 122 97 106 122 97 106 122 97 106 122 97 106 122 97 106 122 97 106 122 97 106 122 97 106 122 97 106 122 97 106 122 97 106 122 97 106 122 97 106 122 97 106 122 97 106 122 97 106 122 97 106 122 97 106 122 97 106 122 97 106 122 97 106 121 98 109 158 158 161 158 158 161 158 158 161 159 197 222 159 197 222 159 197 222 159 197 222 159 197 222 159 197 222 159 197 222 159 197 222 159 197 222 159 197 222 159 197 222 159 197 222 159 197 222 159 197 222 159 197 222 159 197 222 159 197 222 159 197 222 159 197 222 159 197 222 159 197 222 159 197 222 159 197 222 159 197 222 159 197 222 159 197 222 159 197 222 159 197 222 159 197 222 159 197 222 159 197 222 155 195 221 155 195 221 155 195 221 155 195 221 155 195 221 155 195 221 155 195 221 155 195 221 155 195 221 155 195 221 155 195 221 155 195 221 155 195 221 155 195 221 155 195 221 155 195 221 155 195 221 155 195 221 155 195 221 155 195 221 155 195 221 155 195 221 155 195 221 155 195 221 155 195 221 155 195 221 155 195 221 155 195 221 155 195 221 155 195 221 155 195 221 155 195 221 159 197 219 159 197 219 159 197 219 159 197 219 159 197 219 159 197 219 159 197 219 159 197 219 159 197 219 159 197 219 159 197 219 159 197 219 159 197 219 159 197 219 159 197 219 159 197 219 159 197 219 159 197 219 159 197 219 159 197 219 159 197 219 159 197 219 159 197 219 159 197 219 159 197 219 159 197 219 159 197 219 159 197 219 159 197 219 159 197 219 159 197 219 159 197 219 159 197 219 160 163 164 162 105 100 162 105 100 162 105 100 162 105 100 162 105 100 162 105 100 162 105 100 162 105 100 162 105 100 162 105 100 162 105 100 162 105 100 162 105 100 162 105 100 162 105 100 162 105 100 162 105 100 162 105 100 162 105 100 162 105 100 162 105 100 162 105 100 162 105 100 162 105 100 162 105 100 162 105 100 162 105 100 162 105 100 162 105 100 162 105 100 162 105 100 162 105 100 162 105 100 162 105 100 162 105 100 162 105 100 162 105 100 107 64 79 76 43 64 76 43 64 76 43 64 117 98 108 117 98 108 117 98 108 117 98 108 117 98 108 107 64 79 76 43 64 76 43 64 76 43 64 76 43 64 76 43 64 76 43 64 76 43 64 76 43 64 76 43 64 76 43 64 76 43 64 76 43 64 117 98 108 160 163 164 216 223 223 216 223 223 216 223 223 216 223 223 216 223 223 216 223 223 216 223 223 216 223 223 216 223 223 216 223 223 216 223 223 161 197 219 161 197 219 161 197 219 161 197 219 160 163 164 160 163 164 117 98 108 121 96 107 121 96 107 121 96 107 121 96 107 121 96 107 121 96 107 121 96 107 121 96 107 121 96 107 121 96 107 121 96 107 121 96 107 121 96 107 121 96 107 121 96 107 121 96 107 121 96 107 121 96 107 121 96 107 121 96 107 121 96 107 121 96 107 121 96 107 121 96 107 121 96 107 121 96 107 121 96 107 121 96 107 121 96 107 121 96 107 121 96 107 121 96 107 121 96 107 121 96 107 121 96 107 121 96 107 121 96 107 121 96 107 121 96 107 121 96 107 121 96 107 121 96 107 121 96 107 122 97 106 122 97 106 122 97 106 122 97 106 122 97 106 122 97 106 122 97 106 122 97 106 122 97 106 122 97 106 122 97 106 122 97 106 122 97 106 122 97 106 122 97 106 122 97 106 122 97 106 122 97 106 122 97 106 122 97 106 122 97 106 122 97 106 122 97 106 122 97 106 122 97 106 122 97 106 122 97 106 122 97 106 122 97 106 122 97 106 122 97 106 122 97 106 122 97 106 122 97 106 122 97 106 121 98 109 121 98 109 121 98 109 121 98 109 158 158 161 158 158 161 158 158 161 159 197 222 159 197 222 159 197 222 159 197 222 159 197 222 159 197 222 159 197 222 159 197 222 159 197 222 159 197 222 159 197 222 159 197 222 159 197 222 159 197 222 159 197 222 159 197 222 159 197 222 159 197 222 159 197 222 159 197 222 159 197 222 159 197 222 159 197 222 159 197 222 159 197 222 159 197 222 155 195 221 155 195 221 155 195 221 155 195 221 155 195 221 155 195 221 155 195 221 155 195 221 155 195 221 155 195 221 155 195 221 155 195 221 155 195 221 155 195 221 155 195 221 155 195 221 155 195 221 155 195 221 155 195 221 155 195 221 155 195 221 155 195 221 155 195 221 155 195 221 155 195 221 155 195 221 155 195 221 155 195 221 155 195 221 155 195 221 155 195 221 155 195 221 159 197 219 159 197 219 159 197 219 159 197 219 159 197 219 159 197 219 159 197 219 159 197 219 159 197 219 159 197 219 159 197 219 159 197 219 159 197 219 159 197 219 159 197 219 159 197 219 159 197 219 159 197 219 159 197 219 159 197 219 159 197 219 159 197 219 159 197 219 159 197 219 159 197 219 159 197 219 159 197 219 159 197 219 159 197 219 159 197 219 159 197 219 159 197 219 159 197 219 160 163 164 162 105 100 162 105 100 162 105 100 162 105 100 162 105 100 162 105 100 162 105 100 162 105 100 162 105 100 162 105 100 162 105 100 162 105 100 162 105 100 162 105 100 162 105 100 162 105 100 162 105 100 162 105 100 162 105 100 162 105 100 162 105 100 162 105 100 162 105 100 162 105 100 162 105 100 162 105 100 162 105 100 162 105 100 162 105 100 162 105 100 162 105 100 162 105 100 162 105 100 162 105 100 162 105 100 162 105 100 162 105 100 107 64 79 76 43 64 76 43 64 76 43 64 107 64 79 107 64 79 76 43 64 76 43 64 76 43 64 76 43 64 76 43 64 76 43 64 76 43 64 76 43 64 76 43 64 76 43 64 76 43 64 76 43 64 76 43 64 76 43 64 76 43 64 76 43 64 76 43 64 107 64 79 117 98 108 160 163 164 216 223 223 216 223 223 216 223 223 216 223 223 216 223 223 216 223 223 216 223 223 216 223 223 216 223 223 216 223 223 216 223 223 216 223 223 161 197 219 161 197 219 161 197 219 160 163 164 160 163 164 121 96 107 121 96 107 121 96 107 121 96 107 121 96 107 121 96 107 121 96 107 121 96 107 121 96 107 121 96 107 121 96 107 121 96 107 121 96 107 121 96 107 121 96 107 121 96 107 121 96 107 121 96 107 121 96 107 121 96 107 121 96 107 121 96 107 121 96 107 121 96 107 121 96 107 121 96 107 121 96 107 121 96 107 121 96 107 121 96 107 121 96 107 121 96 107 121 96 107 121 96 107 121 96 107 121 96 107 121 96 107 121 96 107 121 96 107 158 158 161 121 96 107 121 96 107 122 97 106 122 97 106 122 97 106 122 97 106 122 97 106 122 97 106 122 97 106 122 97 106 122 97 106 122 97 106 122 97 106 122 97 106 122 97 106 122 97 106 122 97 106 122 97 106 122 97 106 122 97 106 122 97 106 122 97 106 122 97 106 122 97 106 122 97 106 122 97 106 122 97 106 122 97 106 122 97 106 122 97 106 122 97 106 122 97 106 122 97 106 122 97 106 122 97 106 122 97 106 122 97 106 121 98 109 121 98 109 121 98 109 121 98 109 121 98 109 121 98 109 121 98 109 121 98 109 121 98 109 158 158 161 158 158 161 158 158 161 158 158 161 159 197 222 159 197 222 159 197 222 159 197 222 159 197 222 159 197 222 159 197 222 159 197 222 159 197 222 159 197 222 159 197 222 159 197 222 159 197 222 159 197 222 159 197 222 159 197 222 159 197 222 159 197 222 159 197 222 159 197 222 155 195 221 155 195 221 155 195 221 155 195 221 155 195 221 155 195 221 155 195 221 155 195 221 155 195 221 155 195 221 155 195 221 155 195 221 155 195 221 155 195 221 155 195 221 155 195 221 155 195 221 155 195 221 155 195 221 155 195 221 155 195 221 155 195 221 155 195 221 155 195 221 155 195 221 155 195 221 155 195 221 155 195 221 155 195 221 155 195 221 155 195 221 155 195 221 159 197 219 159 197 219 159 197 219 159 197 219 159 197 219 159 197 219 159 197 219 159 197 219 159 197 219 159 197 219 159 197 219 159 197 219 159 197 219 159 197 219 159 197 219 159 197 219 159 197 219 159 197 219 159 197 219 159 197 219 159 197 219 159 197 219 159 197 219 159 197 219 159 197 219 159 197 219 159 197 219 159 197 219 159 197 219 159 197 219 159 197 219 159 197 219 159 197 219 160 163 164 162 105 100 162 105 100 162 105 100 162 105 100 162 105 100 162 105 100 162 105 100 162 105 100 162 105 100 162 105 100 162 105 100 162 105 100 162 105 100 162 105 100 162 105 100 162 105 100 162 105 100 162 105 100 162 105 100 162 105 100 162 105 100 162 105 100 162 105 100 162 105 100 162 105 100 162 105 100 162 105 100 162 105 100 162 105 100 162 105 100 162 105 100 162 105 100 162 105 100 162 105 100 162 105 100 162 105 100 162 105 100 117 98 108 76 43 64 76 43 64 76 43 64 76 43 64 76 43 64 76 43 64 76 43 64 76 43 64 76 43 64 76 43 64 76 43 64 76 43 64 76 43 64 76 43 64 76 43 64 76 43 64 76 43 64 76 43 64 76 43 64 76 43 64 76 43 64 76 43 64 76 43 64 76 43 64 107 64 79 117 98 108 160 163 164 216 223 223 216 223 223 216 223 223 216 223 223 216 223 223 216 223 223 216 223 223 216 223 223 216 223 223 216 223 223 216 223 223 216 223 223 161 197 219 161 197 219 161 197 219 160 163 164 121 96 107 121 96 107 121 96 107 121 96 107 121 96 107 121 96 107 121 96 107 121 96 107 121 96 107 121 96 107 121 96 107 121 96 107 121 96 107 121 96 107 121 96 107 121 96 107 121 96 107 121 96 107 121 96 107 121 96 107 121 96 107 121 96 107 121 96 107 121 96 107 121 96 107 121 96 107 121 96 107 121 96 107 121 96 107 121 96 107 121 96 107 121 96 107 121 96 107 121 96 107 121 96 107 121 96 107 121 96 107 121 96 107 158 158 161 121 96 107 122 97 106 122 97 106 122 97 106 122 97 106 122 97 106 122 97 106 122 97 106 122 97 106 122 97 106 122 97 106 122 97 106 122 97 106 122 97 106 122 97 106 122 97 106 122 97 106 122 97 106 122 97 106 122 97 106 122 97 106 122 97 106 122 97 106 122 97 106 122 97 106 122 97 106 122 97 106 122 97 106 122 97 106 122 97 106 122 97 106 122 97 106 122 97 106 122 97 106 122 97 106 122 97 106 122 97 106 121 98 109 121 98 109 121 98 109 121 98 109 121 98 109 121 98 109 121 98 109 121 98 109 121 98 109 121 98 109 121 98 109 121 98 109 121 98 109 121 98 109 121 98 109 158 158 161 158 158 161 159 197 222 159 197 222 159 197 222 159 197 222 159 197 222 159 197 222 159 197 222 159 197 222 159 197 222 159 197 222 159 197 222 159 197 222 159 197 222 159 197 222 159 197 222 159 197 222 155 195 221 155 195 221 155 195 221 155 195 221 155 195 221 155 195 221 155 195 221 155 195 221 155 195 221 155 195 221 155 195 221 155 195 221 155 195 221 155 195 221 155 195 221 155 195 221 155 195 221 155 195 221 155 195 221 155 195 221 155 195 221 155 195 221 155 195 221 155 195 221 155 195 221 155 195 221 155 195 221 155 195 221 155 195 221 155 195 221 155 195 221 155 195 221 159 197 219 159 197 219 159 197 219 159 197 219 159 197 219 159 197 219 159 197 219 159 197 219 159 197 219 159 197 219 159 197 219 159 197 219 159 197 219 159 197 219 159 197 219 159 197 219 159 197 219 159 197 219 159 197 219 159 197 219 159 197 219 159 197 219 159 197 219 159 197 219 159 197 219 159 197 219 159 197 219 159 197 219 159 197 219 159 197 219 159 197 219 159 197 219 159 197 219 160 163 164 162 105 100 162 105 100 162 105 100 162 105 100 162 105 100 162 105 100 162 105 100 162 105 100 162 105 100 162 105 100 162 105 100 162 105 100 162 105 100 162 105 100 162 105 100 162 105 100 162 105 100 162 105 100 162 105 100 162 105 100 162 105 100 162 105 100 162 105 100 162 105 100 162 105 100 162 105 100 162 105 100 162 105 100 162 105 100 162 105 100 162 105 100 162 105 100 162 105 100 162 105 100 162 105 100 162 105 100 162 105 100 162 105 100 76 43 64 76 43 64 76 43 64 76 43 64 76 43 64 76 43 64 107 64 79 76 43 64 107 64 79 76 43 64 76 43 64 76 43 64 76 43 64 76 43 64 76 43 64 76 43 64 76 43 64 76 43 64 76 43 64 76 43 64 76 43 64 76 43 64 76 43 64 76 43 64 76 43 64 76 43 64 107 64 79 117 98 108 160 163 164 216 223 223 216 223 223 216 223 223 216 223 223 216 223 223 216 223 223 216 223 223 216 223 223 216 223 223 216 223 223 216 223 223 216 223 223 216 223 223 161 197 219 160 163 164 160 163 164 121 96 107 121 96 107 121 96 107 121 96 107 121 96 107 121 96 107 121 96 107 121 96 107 121 96 107 121 96 107 121 96 107 121 96 107 121 96 107 121 96 107 121 96 107 121 96 107 121 96 107 121 96 107 121 96 107 121 96 107 121 96 107 121 96 107 121 96 107 121 96 107 121 96 107 121 96 107 121 96 107 121 96 107 121 96 107 121 96 107 121 96 107 121 96 107 121 96 107 121 96 107 121 96 107 121 96 107 121 96 107 121 96 107 122 97 106 122 97 106 122 97 106 122 97 106 122 97 106 122 97 106 122 97 106 122 97 106 122 97 106 122 97 106 122 97 106 122 97 106 122 97 106 122 97 106 122 97 106 122 97 106 122 97 106 122 97 106 122 97 106 122 97 106 122 97 106 122 97 106 122 97 106 122 97 106 122 97 106 122 97 106 122 97 106 122 97 106 122 97 106 122 97 106 122 97 106 122 97 106 122 97 106 122 97 106 122 97 106 122 97 106 121 98 109 121 98 109 121 98 109 121 98 109 121 98 109 121 98 109 121 98 109 121 98 109 121 98 109 121 98 109 121 98 109 121 98 109 121 98 109 121 98 109 121 98 109 121 98 109 121 98 109 121 98 109 121 98 109 121 98 109 121 98 109 158 158 161 158 158 161 158 158 161 159 197 222 159 197 222 159 197 222 159 197 222 159 197 222 159 197 222 159 197 222 159 197 222 159 197 222 155 195 221 155 195 221 155 195 221 155 195 221 155 195 221 155 195 221 155 195 221 155 195 221 155 195 221 155 195 221 155 195 221 155 195 221 155 195 221 155 195 221 155 195 221 155 195 221 155 195 221 155 195 221 155 195 221 155 195 221 155 195 221 155 195 221 155 195 221 155 195 221 155 195 221 155 195 221 155 195 221 155 195 221 155 195 221 155 195 221 155 195 221 155 195 221 159 197 219 159 197 219 159 197 219 159 197 219 159 197 219 159 197 219 159 197 219 159 197 219 159 197 219 159 197 219 159 197 219 159 197 219 159 197 219 159 197 219 159 197 219 159 197 219 159 197 219 159 197 219 159 197 219 159 197 219 159 197 219 159 197 219 159 197 219 159 197 219 159 197 219 159 197 219 159 197 219 159 197 219 159 197 219 159 197 219 159 197 219 159 197 219 159 197 219 160 163 164 162 105 100 162 105 100 162 105 100 162 105 100 162 105 100 162 105 100 162 105 100 162 105 100 162 105 100 162 105 100 162 105 100 162 105 100 162 105 100 162 105 100 162 105 100 162 105 100 162 105 100 162 105 100 162 105 100 162 105 100 162 105 100 162 105 100 162 105 100 162 105 100 162 105 100 164 104 96 162 105 100 162 105 100 162 105 100 162 105 100 162 105 100 162 105 100 162 105 100 164 104 96 164 104 96 164 104 96 164 104 96 164 104 96 107 64 79 76 43 64 76 43 64 76 43 64 76 43 64 76 43 64 107 64 79 76 43 64 107 64 79 107 64 79 76 43 64 76 43 64 107 64 79 107 64 79 76 43 64 76 43 64 76 43 64 76 43 64 76 43 64 76 43 64 76 43 64 76 43 64 76 43 64 76 43 64 76 43 64 76 43 64 76 43 64 76 43 64 107 64 79 117 98 108 161 197 219 216 223 223 216 223 223 216 223 223 216 223 223 216 223 223 216 223 223 216 223 223 216 223 223 216 223 223 216 223 223 216 223 223 216 223 223 161 197 219 161 197 219 160 163 164 160 163 164 121 96 107 121 96 107 121 96 107 121 96 107 121 96 107 121 96 107 121 96 107 121 96 107 121 96 107 121 96 107 121 96 107 121 96 107 121 96 107 121 96 107 121 96 107 121 96 107 121 96 107 121 96 107 121 96 107 121 96 107 121 96 107 121 96 107 121 96 107 121 96 107 121 96 107 121 96 107 121 96 107 121 96 107 121 96 107 121 96 107 121 96 107 121 96 107 121 96 107 121 96 107 121 96 107 122 97 106 122 97 106 122 97 106 122 97 106 122 97 106 122 97 106 122 97 106 122 97 106 122 97 106 122 97 106 122 97 106 122 97 106 122 97 106 122 97 106 122 97 106 122 97 106 122 97 106 122 97 106 122 97 106 122 97 106 122 97 106 122 97 106 122 97 106 122 97 106 122 97 106 122 97 106 122 97 106 122 97 106 122 97 106 122 97 106 122 97 106 122 97 106 122 97 106 122 97 106 122 97 106 122 97 106 121 98 109 121 98 109 121 98 109 121 98 109 121 98 109 121 98 109 121 98 109 121 98 109 121 98 109 121 98 109 121 98 109 121 98 109 121 98 109 121 98 109 121 98 109 121 98 109 121 98 109 121 98 109 121 98 109 121 98 109 121 98 109 121 98 109 121 98 109 121 98 109 121 98 109 121 98 109 121 98 109 121 98 109 121 98 109 158 158 161 158 158 161 159 197 222 159 197 222 159 197 222 155 195 221 155 195 221 155 195 221 155 195 221 155 195 221 155 195 221 155 195 221 155 195 221 155 195 221 155 195 221 155 195 221 155 195 221 155 195 221 155 195 221 155 195 221 155 195 221 155 195 221 155 195 221 155 195 221 155 195 221 155 195 221 155 195 221 155 195 221 155 195 221 155 195 221 155 195 221 155 195 221 155 195 221 155 195 221 155 195 221 155 195 221 155 195 221 159 197 219 159 197 219 159 197 219 159 197 219 159 197 219 159 197 219 159 197 219 159 197 219 159 197 219 159 197 219 159 197 219 159 197 219 159 197 219 159 197 219 159 197 219 159 197 219 159 197 219 159 197 219 159 197 219 159 197 219 159 197 219 159 197 219 159 197 219 159 197 219 159 197 219 159 197 219 159 197 219 159 197 219 159 197 219 159 197 219 159 197 219 159 197 219 159 197 219 160 163 164 162 105 100 162 105 100 162 105 100 162 105 100 162 105 100 162 105 100 162 105 100 162 105 100 162 105 100 162 105 100 162 105 100 162 105 100 162 105 100 162 105 100 162 105 100 162 105 100 162 105 100 162 105 100 162 105 100 162 105 100 164 104 96 162 105 100 162 105 100 162 105 100 162 105 100 162 105 100 162 105 100 162 105 100 162 105 100 164 104 96 164 104 96 164 104 96 164 104 96 164 104 96 164 104 96 164 104 96 164 104 96 164 104 96 107 64 79 76 43 64 76 43 64 76 43 64 76 43 64 107 64 79 107 64 79 107 64 79 107 64 79 107 64 79 76 43 64 76 43 64 76 43 64 107 64 79 107 64 79 107 64 79 107 64 79 76 43 64 76 43 64 76 43 64 76 43 64 76 43 64 76 43 64 76 43 64 76 43 64 76 43 64 76 43 64 76 43 64 76 43 64 76 43 64 117 98 108 117 98 108 216 223 223 216 223 223 216 223 223 216 223 223 216 223 223 216 223 223 216 223 223 216 223 223 216 223 223 216 223 223 216 223 223 216 223 223 216 223 223 216 223 223 161 197 219 160 163 164 160 163 164 121 96 107 121 96 107 121 96 107 121 96 107 121 96 107 121 96 107 121 96 107 121 96 107 121 96 107 121 96 107 121 96 107 121 96 107 121 96 107 121 96 107 121 96 107 121 96 107 121 96 107 121 96 107 121 96 107 121 96 107 121 96 107 121 96 107 121 96 107 121 96 107 121 96 107 121 96 107 121 96 107 121 96 107 121 96 107 121 96 107 121 96 107 121 96 107 121 96 107 122 97 106 122 97 106 122 97 106 122 97 106 122 97 106 122 97 106 122 97 106 122 97 106 122 97 106 122 97 106 122 97 106 122 97 106 122 97 106 122 97 106 122 97 106 122 97 106 122 97 106 122 97 106 122 97 106 122 97 106 122 97 106 122 97 106 122 97 106 122 97 106 122 97 106 122 97 106 122 97 106 122 97 106 122 97 106 122 97 106 122 97 106 122 97 106 122 97 106 122 97 106 122 97 106 122 97 106 121 98 109 121 98 109 121 98 109 121 98 109 121 98 109 121 98 109 121 98 109 121 98 109 121 98 109 121 98 109 121 98 109 121 98 109 121 98 109 121 98 109 121 98 109 121 98 109 121 98 109 121 98 109 121 98 109 121 98 109 121 98 109 121 98 109 121 98 109 121 98 109 121 98 109 121 98 109 121 98 109 121 98 109 121 98 109 121 98 109 121 98 109 121 98 109 121 98 109 121 98 109 155 195 221 155 195 221 155 195 221 155 195 221 155 195 221 155 195 221 155 195 221 155 195 221 155 195 221 155 195 221 155 195 221 155 195 221 155 195 221 155 195 221 155 195 221 155 195 221 155 195 221 155 195 221 155 195 221 155 195 221 155 195 221 155 195 221 155 195 221 155 195 221 155 195 221 155 195 221 155 195 221 155 195 221 155 195 221 155 195 221 155 195 221 155 195 221 159 197 219 159 197 219 159 197 219 159 197 219 159 197 219 159 197 219 159 197 219 159 197 219 159 197 219 159 197 219 159 197 219 159 197 219 159 197 219 159 197 219 159 197 219 159 197 219 159 197 219 159 197 219 159 197 219 159 197 219 159 197 219 159 197 219 159 197 219 159 197 219 159 197 219 159 197 219 159 197 219 159 197 219 159 197 219 159 197 219 159 197 219 159 197 219 159 197 219 131 142 144 162 105 100 162 105 100 162 105 100 162 105 100 162 105 100 162 105 100 162 105 100 162 105 100 162 105 100 162 105 100 162 105 100 162 105 100 162 105 100 162 105 100 162 105 100 162 105 100 164 104 96 162 105 100 162 105 100 162 105 100 162 105 100 162 105 100 162 105 100 164 104 96 164 104 96 164 104 96 164 104 96 162 105 100 162 105 100 164 104 96 164 104 96 164 104 96 164 104 96 164 104 96 164 104 96 164 104 96 164 104 96 164 104 96 117 98 108 107 64 79 76 43 64 76 43 64 76 43 64 107 64 79 107 64 79 107 64 79 107 64 79 107 64 79 107 64 79 107 64 79 107 64 79 107 64 79 107 64 79 76 43 64 76 43 64 76 43 64 76 43 64 76 43 64 76 43 64 76 43 64 76 43 64 76 43 64 76 43 64 76 43 64 76 43 64 76 43 64 76 43 64 76 43 64 76 43 64 76 43 64 107 64 79 160 163 164 216 223 223 216 223 223 216 223 223 216 223 223 216 223 223 216 223 223 216 223 223 216 223 223 216 223 223 216 223 223 216 223 223 216 223 223 216 223 223 161 197 219 161 197 219 160 163 164 160 163 164 121 96 107 121 96 107 121 96 107 121 96 107 121 96 107 121 96 107 121 96 107 121 96 107 121 96 107 121 96 107 121 96 107 121 96 107 121 96 107 121 96 107 121 96 107 121 96 107 121 96 107 121 96 107 121 96 107 121 96 107 121 96 107 121 96 107 121 96 107 121 96 107 121 96 107 121 96 107 121 96 107 121 96 107 121 96 107 121 96 107 122 97 106 122 97 106 122 97 106 122 97 106 122 97 106 122 97 106 122 97 106 122 97 106 122 97 106 122 97 106 122 97 106 122 97 106 122 97 106 122 97 106 122 97 106 122 97 106 122 97 106 122 97 106 122 97 106 122 97 106 122 97 106 122 97 106 122 97 106 122 97 106 122 97 106 122 97 106 122 97 106 122 97 106 122 97 106 122 97 106 122 97 106 122 97 106 122 97 106 122 97 106 122 97 106 122 97 106 122 97 106 121 98 109 121 98 109 121 98 109 121 98 109 121 98 109 121 98 109 121 98 109 121 98 109 121 98 109 121 98 109 121 98 109 121 98 109 121 98 109 121 98 109 121 98 109 121 98 109 121 98 109 121 98 109 121 98 109 121 98 109 121 98 109 121 98 109 121 98 109 121 98 109 121 98 109 121 98 109 121 98 109 121 98 109 121 98 109 121 98 109 121 98 109 121 98 109 121 98 109 121 98 109 155 195 221 155 195 221 155 195 221 155 195 221 155 195 221 155 195 221 155 195 221 155 195 221 155 195 221 155 195 221 155 195 221 155 195 221 155 195 221 155 195 221 155 195 221 155 195 221 155 195 221 155 195 221 155 195 221 155 195 221 155 195 221 155 195 221 155 195 221 155 195 221 155 195 221 155 195 221 155 195 221 155 195 221 155 195 221 155 195 221 155 195 221 155 195 221 159 197 219 159 197 219 159 197 219 159 197 219 159 197 219 159 197 219 159 197 219 159 197 219 159 197 219 159 197 219 159 197 219 159 197 219 159 197 219 159 197 219 159 197 219 159 197 219 159 197 219 159 197 219 159 197 219 159 197 219 159 197 219 159 197 219 159 197 219 159 197 219 159 197 219 159 197 219 159 197 219 159 197 219 159 197 219 159 197 219 159 197 219 159 197 219 159 197 219 131 142 144 162 105 100 162 105 100 162 105 100 162 105 100 162 105 100 162 105 100 162 105 100 162 105 100 162 105 100 162 105 100 162 105 100 162 105 100 164 104 96 164 104 96 164 104 96 164 104 96 164 104 96 164 104 96 162 105 100 164 104 96 164 104 96 164 104 96 164 104 96 164 104 96 164 104 96 164 104 96 164 104 96 164 104 96 164 104 96 164 104 96 164 104 96 164 104 96 164 104 96 164 104 96 164 104 96 162 105 100 164 104 96 164 104 96 164 104 96 107 64 79 76 43 64 76 43 64 76 43 64 76 43 64 107 64 79 107 64 79 107 64 79 107 64 79 107 64 79 107 64 79 107 64 79 107 64 79 107 64 79 107 64 79 107 64 79 107 64 79 107 64 79 107 64 79 107 64 79 76 43 64 76 43 64 76 43 64 76 43 64 76 43 64 76 43 64 76 43 64 76 43 64 76 43 64 76 43 64 76 43 64 76 43 64 76 43 64 117 98 108 160 163 164 216 223 223 216 223 223 216 223 223 216 223 223 216 223 223 216 223 223 216 223 223 216 223 223 216 223 223 216 223 223 216 223 223 216 223 223 161 197 219 161 197 219 161 197 219 160 163 164 160 163 164 121 96 107 121 96 107 121 96 107 121 96 107 121 96 107 121 96 107 121 96 107 121 96 107 121 96 107 121 96 107 121 96 107 121 96 107 121 96 107 121 96 107 121 96 107 121 96 107 121 96 107 121 96 107 121 96 107 121 96 107 121 96 107 121 96 107 121 96 107 121 96 107 121 96 107 121 96 107 121 96 107 121 96 107 122 97 106 122 97 106 122 97 106 122 97 106 122 97 106 122 97 106 122 97 106 122 97 106 122 97 106 122 97 106 122 97 106 122 97 106 122 97 106 122 97 106 122 97 106 122 97 106 122 97 106 122 97 106 122 97 106 122 97 106 122 97 106 122 97 106 122 97 106 122 97 106 122 97 106 122 97 106 122 97 106 122 97 106 122 97 106 122 97 106 122 97 106 122 97 106 122 97 106 122 97 106 122 97 106 122 97 106 122 97 106 121 98 109 121 98 109 121 98 109 121 98 109 121 98 109 121 98 109 121 98 109 121 98 109 121 98 109 121 98 109 121 98 109 121 98 109 121 98 109 121 98 109 121 98 109 121 98 109 121 98 109 121 98 109 121 98 109 121 98 109 121 98 109 121 98 109 121 98 109 121 98 109 121 98 109 121 98 109 121 98 109 121 98 109 121 98 109 121 98 109 121 98 109 121 98 109 121 98 109 121 98 109 155 195 221 155 195 221 155 195 221 155 195 221 155 195 221 155 195 221 155 195 221 155 195 221 155 195 221 155 195 221 155 195 221 155 195 221 155 195 221 155 195 221 155 195 221 155 195 221 155 195 221 155 195 221 155 195 221 155 195 221 155 195 221 155 195 221 155 195 221 155 195 221 155 195 221 155 195 221 155 195 221 155 195 221 155 195 221 155 195 221 155 195 221 155 195 221 159 197 219 159 197 219 159 197 219 159 197 219 159 197 219 159 197 219 159 197 219 159 197 219 159 197 219 159 197 219 159 197 219 159 197 219 159 197 219 159 197 219 159 197 219 159 197 219 159 197 219 159 197 219 159 197 219 159 197 219 159 197 219 159 197 219 159 197 219 159 197 219 159 197 219 159 197 219 159 197 219 159 197 219 159 197 219 159 197 219 159 197 219 159 197 219 159 197 219 162 105 100 162 105 100 162 105 100 162 105 100 162 105 100 162 105 100 162 105 100 162 105 100 162 105 100 164 104 96 164 104 96 164 104 96 164 104 96 164 104 96 164 104 96 164 104 96 164 104 96 164 104 96 164 104 96 164 104 96 164 104 96 164 104 96 164 104 96 164 104 96 164 104 96 164 104 96 164 104 96 164 104 96 164 104 96 164 104 96 164 104 96 164 104 96 164 104 96 164 104 96 164 104 96 164 104 96 164 104 96 164 104 96 164 104 96 164 104 96 107 64 79 76 43 64 76 43 64 76 43 64 107 64 79 107 64 79 107 64 79 107 64 79 107 64 79 107 64 79 107 64 79 107 64 79 107 64 79 107 64 79 107 64 79 107 64 79 107 64 79 107 64 79 107 64 79 76 43 64 76 43 64 76 43 64 107 64 79 76 43 64 76 43 64 76 43 64 76 43 64 76 43 64 76 43 64 76 43 64 76 43 64 76 43 64 76 43 64 76 43 64 107 64 79 117 98 108 160 163 164 216 223 223 216 223 223 216 223 223 216 223 223 216 223 223 216 223 223 216 223 223 216 223 223 216 223 223 216 223 223 216 223 223 216 223 223 161 197 219 161 197 219 161 197 219 160 163 164 126 139 153 121 96 107 121 96 107 121 96 107 121 96 107 121 96 107 121 96 107 121 96 107 121 96 107 121 96 107 121 96 107 121 96 107 121 96 107 121 96 107 121 96 107 121 96 107 121 96 107 121 96 107 121 96 107 121 96 107 121 96 107 121 96 107 121 96 107 121 96 107 121 96 107 121 96 107 122 97 106 122 97 106 122 97 106 122 97 106 122 97 106 122 97 106 122 97 106 122 97 106 122 97 106 122 97 106 122 97 106 122 97 106 122 97 106 122 97 106 122 97 106 122 97 106 122 97 106 122 97 106 122 97 106 122 97 106 122 97 106 122 97 106 122 97 106 122 97 106 122 97 106 122 97 106 122 97 106 122 97 106 122 97 106 122 97 106 122 97 106 122 97 106 122 97 106 122 97 106 122 97 106 122 97 106 122 97 106 122 97 106 121 98 109 121 98 109 121 98 109 121 98 109 121 98 109 121 98 109 121 98 109 121 98 109 121 98 109 121 98 109 121 98 109 121 98 109 121 98 109 121 98 109 121 98 109 121 98 109 121 98 109 121 98 109 121 98 109 121 98 109 121 98 109 121 98 109 121 98 109 121 98 109 121 98 109 121 98 109 121 98 109 121 98 109 121 98 109 121 98 109 121 98 109 121 98 109 121 98 109 121 98 109 155 195 221 155 195 221 155 195 221 155 195 221 155 195 221 155 195 221 155 195 221 155 195 221 155 195 221 155 195 221 155 195 221 155 195 221 155 195 221 155 195 221 155 195 221 155 195 221 155 195 221 155 195 221 155 195 221 155 195 221 155 195 221 155 195 221 155 195 221 155 195 221 155 195 221 155 195 221 155 195 221 155 195 221 155 195 221 155 195 221 155 195 221 155 195 221 155 195 221 159 197 219 159 197 219 159 197 219 159 197 219 159 197 219 159 197 219 159 197 219 159 197 219 159 197 219 159 197 219 159 197 219 159 197 219 159 197 219 159 197 219 159 197 219 159 197 219 159 197 219 159 197 219 159 197 219 159 197 219 159 197 219 159 197 219 159 197 219 159 197 219 159 197 219 159 197 219 159 197 219 159 197 219 159 197 219 159 197 219 159 197 219 159 197 219 131 142 144 162 105 100 162 105 100 162 105 100 164 104 96 164 104 96 164 104 96 164 104 96 164 104 96 164 104 96 164 104 96 164 104 96 164 104 96 164 104 96 164 104 96 164 104 96 164 104 96 164 104 96 164 104 96 164 104 96 164 104 96 164 104 96 164 104 96 164 104 96 164 104 96 164 104 96 164 104 96 164 104 96 164 104 96 164 104 96 164 104 96 164 104 96 164 104 96 164 104 96 164 104 96 164 104 96 164 104 96 164 104 96 164 104 96 164 104 96 107 64 79 76 43 64 76 43 64 76 43 64 107 64 79 107 64 79 107 64 79 107 64 79 107 64 79 107 64 79 107 64 79 107 64 79 107 64 79 107 64 79 107 64 79 107 64 79 107 64 79 107 64 79 107 64 79 107 64 79 107 64 79 76 43 64 76 43 64 76 43 64 76 43 64 76 43 64 76 43 64 76 43 64 76 43 64 76 43 64 76 43 64 76 43 64 76 43 64 76 43 64 76 43 64 76 43 64 76 43 64 117 98 108 160 163 164 216 223 223 216 223 223 216 223 223 216 223 223 216 223 223 216 223 223 216 223 223 216 223 223 216 223 223 216 223 223 216 223 223 216 223 223 216 223 223 216 223 223 161 197 219 160 163 164 121 96 107 121 96 107 121 96 107 121 96 107 121 96 107 121 96 107 121 96 107 121 96 107 121 96 107 121 96 107 121 96 107 121 96 107 121 96 107 121 96 107 121 96 107 121 96 107 121 96 107 121 96 107 121 96 107 121 96 107 121 96 107 121 96 107 121 96 107 121 96 107 122 97 106 122 97 106 122 97 106 122 97 106 122 97 106 122 97 106 122 97 106 122 97 106 122 97 106 122 97 106 122 97 106 122 97 106 122 97 106 122 97 106 122 97 106 122 97 106 122 97 106 122 97 106 122 97 106 122 97 106 122 97 106 122 97 106 122 97 106 122 97 106 122 97 106 122 97 106 122 97 106 122 97 106 122 97 106 122 97 106 122 97 106 122 97 106 122 97 106 122 97 106 122 97 106 122 97 106 122 97 106 121 98 109 121 98 109 121 98 109 121 98 109 121 98 109 121 98 109 121 98 109 121 98 109 121 98 109 121 98 109 121 98 109 121 98 109 121 98 109 121 98 109 121 98 109 121 98 109 121 98 109 121 98 109 121 98 109 121 98 109 121 98 109 121 98 109 121 98 109 121 98 109 121 98 109 121 98 109 121 98 109 121 98 109 121 98 109 121 98 109 121 98 109 121 98 109 121 98 109 121 98 109 121 98 109 155 195 221 155 195 221 155 195 221 155 195 221 155 195 221 155 195 221 155 195 221 155 195 221 155 195 221 155 195 221 155 195 221 155 195 221 155 195 221 155 195 221 155 195 221 155 195 221 155 195 221 155 195 221 155 195 221 155 195 221 155 195 221 155 195 221 155 195 221 155 195 221 155 195 221 155 195 221 155 195 221 155 195 221 155 195 221 155 195 221 155 195 221 155 195 221 155 195 221 159 197 219 159 197 219 159 197 219 159 197 219 159 197 219 159 197 219 159 197 219 159 197 219 159 197 219 159 197 219 159 197 219 159 197 219 159 197 219 159 197 219 159 197 219 159 197 219 159 197 219 159 197 219 159 197 219 159 197 219 159 197 219 159 197 219 159 197 219 159 197 219 159 197 219 159 197 219 159 197 219 159 197 219 159 197 219 159 197 219 159 197 219 159 197 219 162 105 100 162 105 100 162 105 100 164 104 96 164 104 96 164 104 96 164 104 96 164 104 96 164 104 96 164 104 96 164 104 96 164 104 96 164 104 96 164 104 96 164 104 96 164 104 96 164 104 96 164 104 96 164 104 96 164 104 96 164 104 96 164 104 96 164 104 96 164 104 96 164 104 96 164 104 96 164 104 96 164 104 96 164 104 96 164 104 96 164 104 96 164 104 96 164 104 96 164 104 96 164 104 96 164 104 96 164 104 96 164 104 96 164 104 96 164 104 96 164 104 96 107 64 79 76 43 64 76 43 64 107 64 79 107 64 79 107 64 79 107 64 79 107 64 79 107 64 79 107 64 79 107 64 79 107 64 79 107 64 79 107 64 79 107 64 79 107 64 79 107 64 79 107 64 79 107 64 79 107 64 79 107 64 79 76 43 64 107 64 79 76 43 64 76 43 64 76 43 64 76 43 64 76 43 64 76 43 64 76 43 64 76 43 64 76 43 64 76 43 64 76 43 64 76 43 64 76 43 64 76 43 64 76 43 64 121 96 107 160 163 164 216 223 223 216 223 223 216 223 223 216 223 223 216 223 223 216 223 223 216 223 223 216 223 223 216 223 223 216 223 223 216 223 223 216 223 223 216 223 223 216 223 223 216 223 223 160 163 164 121 96 107 121 96 107 121 96 107 121 96 107 121 96 107 121 96 107 121 96 107 121 96 107 121 96 107 121 96 107 121 96 107 121 96 107 121 96 107 121 96 107 121 96 107 121 96 107 121 96 107 121 96 107 121 96 107 121 96 107 121 96 107 122 97 106 122 97 106 122 97 106 122 97 106 122 97 106 122 97 106 122 97 106 122 97 106 122 97 106 122 97 106 122 97 106 122 97 106 122 97 106 122 97 106 122 97 106 122 97 106 122 97 106 122 97 106 122 97 106 122 97 106 122 97 106 122 97 106 122 97 106 122 97 106 122 97 106 122 97 106 122 97 106 122 97 106 122 97 106 122 97 106 122 97 106 122 97 106 122 97 106 122 97 106 122 97 106 122 97 106 122 97 106 122 97 106 121 98 109 121 98 109 121 98 109 121 98 109 121 98 109 121 98 109 121 98 109 121 98 109 121 98 109 121 98 109 121 98 109 121 98 109 121 98 109 121 98 109 121 98 109 121 98 109 121 98 109 121 98 109 121 98 109 121 98 109 121 98 109 121 98 109 121 98 109 121 98 109 121 98 109 121 98 109 121 98 109 121 98 109 121 98 109 121 98 109 121 98 109 121 98 109 121 98 109 121 98 109 121 98 109 155 195 221 155 195 221 155 195 221 155 195 221 155 195 221 155 195 221 155 195 221 155 195 221 155 195 221 155 195 221 155 195 221 155 195 221 155 195 221 155 195 221 155 195 221 155 195 221 155 195 221 155 195 221 155 195 221 155 195 221 155 195 221 155 195 221 155 195 221 155 195 221 155 195 221 155 195 221 155 195 221 155 195 221 155 195 221 155 195 221 155 195 221 155 195 221 157 195 219 157 195 219 159 197 219 159 197 219 159 197 219 159 197 219 159 197 219 159 197 219 159 197 219 159 197 219 159 197 219 159 197 219 159 197 219 159 197 219 159 197 219 159 197 219 159 197 219 159 197 219 159 197 219 159 197 219 159 197 219 159 197 219 159 197 219 159 197 219 159 197 219 159 197 219 159 197 219 159 197 219 159 197 219 159 197 219 159 197 219 159 197 219 159 197 219 162 105 100 164 104 96 164 104 96 164 104 96 164 104 96 164 104 96 164 104 96 164 104 96 164 104 96 164 104 96 164 104 96 164 104 96 164 104 96 164 104 96 164 104 96 164 104 96 164 104 96 164 104 96 164 104 96 164 104 96 164 104 96 164 104 96 164 104 96 164 104 96 164 104 96 164 104 96 164 104 96 164 104 96 164 104 96 164 104 96 164 104 96 164 104 96 164 104 96 164 104 96 164 104 96 164 104 96 164 104 96 164 104 96 164 104 96 164 104 96 164 104 96 107 64 79 76 43 64 107 64 79 107 64 79 107 64 79 107 64 79 107 64 79 107 64 79 107 64 79 107 64 79 107 64 79 107 64 79 107 64 79 107 64 79 107 64 79 107 64 79 107 64 79 107 64 79 107 64 79 107 64 79 107 64 79 107 64 79 107 64 79 76 43 64 76 43 64 107 64 79 107 64 79 76 43 64 76 43 64 76 43 64 76 43 64 76 43 64 76 43 64 76 43 64 76 43 64 76 43 64 76 43 64 76 43 64 76 43 64 107 64 79 121 96 107 160 163 164 216 223 223 216 223 223 216 223 223 216 223 223 216 223 223 216 223 223 216 223 223 216 223 223 216 223 223 216 223 223 216 223 223 216 223 223 216 223 223 216 223 223 216 223 223 158 158 161 121 96 107 121 96 107 121 96 107 121 96 107 121 96 107 121 96 107 121 96 107 121 96 107 121 96 107 121 96 107 121 96 107 121 96 107 121 96 107 121 96 107 121 96 107 121 96 107 121 96 107 121 96 107 121 96 107 122 97 106 122 97 106 122 97 106 122 97 106 122 97 106 122 97 106 122 97 106 122 97 106 122 97 106 122 97 106 122 97 106 122 97 106 122 97 106 122 97 106 122 97 106 122 97 106 122 97 106 122 97 106 122 97 106 122 97 106 122 97 106 122 97 106 122 97 106 122 97 106 122 97 106 122 97 106 122 97 106 122 97 106 122 97 106 122 97 106 122 97 106 122 97 106 122 97 106 122 97 106 122 97 106 122 97 106 122 97 106 122 97 106 121 98 109 121 98 109 121 98 109 121 98 109 121 98 109 121 98 109 121 98 109 121 98 109 121 98 109 121 98 109 121 98 109 121 98 109 121 98 109 121 98 109 121 98 109 121 98 109 121 98 109 121 98 109 121 98 109 121 98 109 121 98 109 121 98 109 121 98 109 121 98 109 121 98 109 121 98 109 121 98 109 121 98 109 121 98 109 121 98 109 121 98 109 121 98 109 121 98 109 121 98 109 121 98 109 155 195 221 155 195 221 155 195 221 155 195 221 155 195 221 155 195 221 155 195 221 155 195 221 155 195 221 155 195 221 155 195 221 155 195 221 155 195 221 155 195 221 155 195 221 155 195 221 155 195 221 155 195 221 155 195 221 155 195 221 155 195 221 155 195 221 155 195 221 155 195 221 155 195 221 155 195 221 155 195 221 155 195 221 155 195 221 155 195 221 155 195 221 157 195 219 157 195 219 157 195 219 157 195 219 159 197 219 159 197 219 159 197 219 159 197 219 159 197 219 159 197 219 159 197 219 159 197 219 159 197 219 159 197 219 159 197 219 159 197 219 159 197 219 159 197 219 159 197 219 159 197 219 159 197 219 159 197 219 159 197 219 159 197 219 159 197 219 159 197 219 159 197 219 159 197 219 159 197 219 159 197 219 159 197 219 159 197 219 159 197 219 160 163 164 162 105 100 164 104 96 164 104 96 164 104 96 164 104 96 164 104 96 164 104 96 164 104 96 164 104 96 164 104 96 164 104 96 164 104 96 164 104 96 164 104 96 164 104 96 164 104 96 164 104 96 164 104 96 164 104 96 164 104 96 164 104 96 164 104 96 164 104 96 164 104 96 164 104 96 164 104 96 164 104 96 164 104 96 164 104 96 164 104 96 164 104 96 164 104 96 164 104 96 164 104 96 164 104 96 164 104 96 164 104 96 164 104 96 164 104 96 164 104 96 164 104 96 107 64 79 76 43 64 107 64 79 107 64 79 107 64 79 107 64 79 107 64 79 107 64 79 107 64 79 107 64 79 107 64 79 107 64 79 107 64 79 107 64 79 107 64 79 107 64 79 107 64 79 107 64 79 107 64 79 107 64 79 107 64 79 107 64 79 107 64 79 107 64 79 107 64 79 117 98 108 107 64 79 107 64 79 76 43 64 76 43 64 76 43 64 76 43 64 76 43 64 76 43 64 76 43 64 76 43 64 76 43 64 76 43 64 76 43 64 76 43 64 76 43 64 99 60 75 121 96 107 216 223 223 216 223 223 216 223 223 216 223 223 216 223 223 216 223 223 216 223 223 216 223 223 216 223 223 216 223 223 216 223 223 216 223 223 216 223 223 216 223 223 216 223 223 160 196 220 158 158 161 121 96 107 121 96 107 121 96 107 121 96 107 121 96 107 121 96 107 121 96 107 121 96 107 121 96 107 121 96 107 121 96 107 121 96 107 121 96 107 121 96 107 121 96 107 121 96 107 121 96 107 122 97 106 122 97 106 122 97 106 122 97 106 122 97 106 122 97 106 122 97 106 122 97 106 122 97 106 122 97 106 122 97 106 122 97 106 122 97 106 122 97 106 122 97 106 122 97 106 122 97 106 122 97 106 122 97 106 122 97 106 122 97 106 122 97 106 122 97 106 122 97 106 122 97 106 122 97 106 122 97 106 122 97 106 122 97 106 122 97 106 122 97 106 122 97 106 122 97 106 122 97 106 122 97 106 122 97 106 122 97 106 122 97 106 121 98 109 121 98 109 121 98 109 121 98 109 121 98 109 121 98 109 121 98 109 121 98 109 121 98 109 121 98 109 121 98 109 121 98 109 121 98 109 121 98 109 121 98 109 121 98 109 121 98 109 121 98 109 121 98 109 121 98 109 121 98 109 121 98 109 121 98 109 121 98 109 121 98 109 121 98 109 121 98 109 121 98 109 121 98 109 121 98 109 121 98 109 121 98 109 121 98 109 121 98 109 121 98 109 155 195 221 155 195 221 155 195 221 155 195 221 155 195 221 155 195 221 155 195 221 155 195 221 155 195 221 155 195 221 155 195 221 155 195 221 155 195 221 155 195 221 155 195 221 155 195 221 155 195 221 155 195 221 155 195 221 155 195 221 155 195 221 155 195 221 155 195 221 155 195 221 155 195 221 155 195 221 155 195 221 155 195 221 155 195 221 155 195 221 157 195 219 157 195 219 157 195 219 157 195 219 157 195 219 157 195 219 157 195 219 159 197 219 159 197 219 159 197 219 159 197 219 159 197 219 159 197 219 159 197 219 159 197 219 159 197 219 159 197 219 159 197 219 159 197 219 159 197 219 159 197 219 159 197 219 159 197 219 159 197 219 159 197 219 159 197 219 159 197 219 159 197 219 159 197 219 159 197 219 159 197 219 159 197 219 159 197 219 159 197 219 162 105 100 164 104 96 164 104 96 164 104 96 164 104 96 164 104 96 164 104 96 164 104 96 164 104 96 164 104 96 164 104 96 164 104 96 164 104 96 164 104 96 164 104 96 164 104 96 164 104 96 164 104 96 164 104 96 164 104 96 164 104 96 164 104 96 164 104 96 164 104 96 164 104 96 164 104 96 164 104 96 164 104 96 164 104 96 164 104 96 164 104 96 164 104 96 164 104 96 164 104 96 164 104 96 164 104 96 164 104 96 164 104 96 164 104 96 164 104 96 164 104 96 164 104 96 107 64 79 107 64 79 107 64 79 107 64 79 107 64 79 107 64 79 107 64 79 107 64 79 107 64 79 107 64 79 107 64 79 107 64 79 107 64 79 107 64 79 107 64 79 107 64 79 107 64 79 107 64 79 107 64 79 107 64 79 107 64 79 107 64 79 107 64 79 107 64 79 76 43 64 107 64 79 107 64 79 76 43 64 76 43 64 76 43 64 76 43 64 76 43 64 76 43 64 76 43 64 76 43 64 76 43 64 76 43 64 76 43 64 76 43 64 76 43 64 76 43 64 76 43 64 76 43 64 99 60 75 121 96 107 216 223 223 216 223 223 216 223 223 216 223 223 216 223 223 216 223 223 216 223 223 216 223 223 216 223 223 216 223 223 216 223 223 216 223 223 216 223 223 216 223 223 216 223 223 158 158 161 158 158 161 121 96 107 121 96 107 121 96 107 121 96 107 121 96 107 121 96 107 121 96 107 121 96 107 121 96 107 121 96 107 121 96 107 121 96 107 121 96 107 121 96 107 122 97 106 122 97 106 122 97 106 122 97 106 122 97 106 122 97 106 122 97 106 122 97 106 122 97 106 122 97 106 122 97 106 122 97 106 122 97 106 122 97 106 122 97 106 122 97 106 122 97 106 122 97 106 122 97 106 122 97 106 122 97 106 122 97 106 122 97 106 122 97 106 122 97 106 122 97 106 122 97 106 122 97 106 122 97 106 122 97 106 122 97 106 122 97 106 122 97 106 122 97 106 122 97 106 122 97 106 122 97 106 122 97 106 122 97 106 121 98 109 121 98 109 121 98 109 121 98 109 121 98 109 121 98 109 121 98 109 121 98 109 121 98 109 121 98 109 121 98 109 121 98 109 121 98 109 121 98 109 121 98 109 121 98 109 121 98 109 121 98 109 121 98 109 121 98 109 121 98 109 121 98 109 121 98 109 121 98 109 121 98 109 121 98 109 121 98 109 121 98 109 121 98 109 121 98 109 121 98 109 121 98 109 121 98 109 121 98 109 121 98 109 155 195 221 155 195 221 155 195 221 155 195 221 155 195 221 155 195 221 155 195 221 155 195 221 155 195 221 155 195 221 155 195 221 155 195 221 155 195 221 155 195 221 155 195 221 155 195 221 155 195 221 155 195 221 155 195 221 155 195 221 155 195 221 155 195 221 155 195 221 155 195 221 155 195 221 155 195 221 155 195 221 155 195 221 155 195 221 157 195 219 157 195 219 157 195 219 157 195 219 157 195 219 157 195 219 157 195 219 157 195 219 157 195 219 159 197 219 159 197 219 159 197 219 159 197 219 159 197 219 159 197 219 159 197 219 159 197 219 159 197 219 159 197 219 159 197 219 159 197 219 159 197 219 159 197 219 159 197 219 159 197 219 159 197 219 159 197 219 159 197 219 159 197 219 159 197 219 159 197 219 159 197 219 159 197 219 159 197 219 131 142 144 162 105 100 164 104 96 164 104 96 164 104 96 164 104 96 164 104 96 164 104 96 164 104 96 164 104 96 164 104 96 164 104 96 164 104 96 164 104 96 164 104 96 164 104 96 164 104 96 164 104 96 164 104 96 164 104 96 164 104 96 164 104 96 164 104 96 164 104 96 164 104 96 164 104 96 164 104 96 164 104 96 164 104 96 164 104 96 164 104 96 164 104 96 164 104 96 164 104 96 164 104 96 164 104 96 164 104 96 164 104 96 164 104 96 164 104 96 164 104 96 164 104 96 164 104 96 107 64 79 107 64 79 107 64 79 107 64 79 107 64 79 107 64 79 107 64 79 107 64 79 107 64 79 107 64 79 107 64 79 107 64 79 107 64 79 107 64 79 107 64 79 107 64 79 107 64 79 107 64 79 107 64 79 107 64 79 107 64 79 107 64 79 107 64 79 107 64 79 107 64 79 76 43 64 107 64 79 76 43 64 107 64 79 107 64 79 107 64 79 76 43 64 76 43 64 76 43 64 76 43 64 76 43 64 76 43 64 76 43 64 76 43 64 76 43 64 76 43 64 76 43 64 76 43 64 76 43 64 99 60 75 107 64 79 126 139 153 216 223 223 216 223 223 216 223 223 216 223 223 216 223 223 216 223 223 216 223 223 216 223 223 216 223 223 216 223 223 216 223 223 216 223 223 216 223 223 216 223 223 160 196 220 158 158 161 158 158 161 121 96 107 121 96 107 121 96 107 121 96 107 121 96 107 121 96 107 121 96 107 121 96 107 121 96 107 121 96 107 121 96 107 121 96 107 122 97 106 122 97 106 122 97 106 122 97 106 122 97 106 122 97 106 122 97 106 122 97 106 122 97 106 122 97 106 122 97 106 122 97 106 122 97 106 122 97 106 122 97 106 122 97 106 122 97 106 122 97 106 122 97 106 122 97 106 122 97 106 122 97 106 122 97 106 122 97 106 122 97 106 122 97 106 122 97 106 122 97 106 122 97 106 122 97 106 122 97 106 122 97 106 122 97 106 122 97 106 122 97 106 122 97 106 122 97 106 122 97 106 122 97 106 121 98 109 121 98 109 121 98 109 121 98 109 121 98 109 121 98 109 121 98 109 121 98 109 121 98 109 121 98 109 121 98 109 121 98 109 121 98 109 121 98 109 121 98 109 121 98 109 121 98 109 121 98 109 121 98 109 121 98 109 121 98 109 121 98 109 121 98 109 121 98 109 121 98 109 121 98 109 121 98 109 121 98 109 121 98 109 121 98 109 121 98 109 121 98 109 121 98 109 121 98 109 121 98 109 155 195 221 155 195 221 155 195 221 155 195 221 155 195 221 155 195 221 155 195 221 155 195 221 155 195 221 155 195 221 155 195 221 155 195 221 155 195 221 155 195 221 155 195 221 155 195 221 155 195 221 155 195 221 155 195 221 155 195 221 155 195 221 155 195 221 155 195 221 155 195 221 155 195 221 155 195 221 155 195 221 155 195 221 157 195 219 157 195 219 157 195 219 157 195 219 157 195 219 157 195 219 157 195 219 157 195 219 157 195 219 157 195 219 157 195 219 157 195 219 159 197 219 159 197 219 159 197 219 159 197 219 159 197 219 159 197 219 159 197 219 159 197 219 159 197 219 159 197 219 159 197 219 159 197 219 159 197 219 159 197 219 159 197 219 159 197 219 159 197 219 159 197 219 159 197 219 159 197 219 159 197 219 159 197 219 131 142 144 131 142 144 159 197 219 164 104 96 164 104 96 164 104 96 164 104 96 164 104 96 164 104 96 164 104 96 164 104 96 164 104 96 164 104 96 164 104 96 164 104 96 164 104 96 164 104 96 164 104 96 164 104 96 164 104 96 164 104 96 164 104 96 164 104 96 164 104 96 164 104 96 164 104 96 164 104 96 164 104 96 164 104 96 164 104 96 164 104 96 164 104 96 164 104 96 164 104 96 164 104 96 164 104 96 164 104 96 164 104 96 164 104 96 164 104 96 164 104 96 164 104 96 164 104 96 164 104 96 164 104 96 107 64 79 107 64 79 107 64 79 107 64 79 107 64 79 107 64 79 107 64 79 107 64 79 107 64 79 107 64 79 107 64 79 107 64 79 107 64 79 107 64 79 107 64 79 107 64 79 107 64 79 107 64 79 107 64 79 107 64 79 107 64 79 107 64 79 107 64 79 107 64 79 107 64 79 107 64 79 107 64 79 107 64 79 107 64 79 76 43 64 76 43 64 107 64 79 76 43 64 76 43 64 76 43 64 107 64 79 76 43 64 76 43 64 76 43 64 76 43 64 76 43 64 76 43 64 76 43 64 76 43 64 76 43 64 99 60 75 121 96 107 160 163 164 216 223 223 216 223 223 216 223 223 216 223 223 216 223 223 216 223 223 216 223 223 216 223 223 216 223 223 216 223 223 216 223 223 216 223 223 216 223 223 216 223 223 216 223 223 158 158 161 158 158 161 121 96 107 121 96 107 121 96 107 121 96 107 121 96 107 121 96 107 121 96 107 121 96 107 121 96 107 121 96 107 122 97 106 122 97 106 122 97 106 122 97 106 122 97 106 122 97 106 122 97 106 122 97 106 122 97 106 122 97 106 122 97 106 122 97 106 122 97 106 122 97 106 122 97 106 122 97 106 122 97 106 122 97 106 122 97 106 122 97 106 122 97 106 122 97 106 122 97 106 122 97 106 122 97 106 122 97 106 122 97 106 122 97 106 122 97 106 122 97 106 122 97 106 122 97 106 122 97 106 122 97 106 122 97 106 122 97 106 122 97 106 122 97 106 121 98 109 121 98 109 121 98 109 121 98 109 121 98 109 121 98 109 121 98 109 121 98 109 121 98 109 121 98 109 121 98 109 121 98 109 121 98 109 121 98 109 121 98 109 121 98 109 121 98 109 121 98 109 121 98 109 121 98 109 121 98 109 121 98 109 121 98 109 121 98 109 121 98 109 121 98 109 121 98 109 121 98 109 121 98 109 121 98 109 121 98 109 121 98 109 121 98 109 121 98 109 121 98 109 121 98 109 155 195 221 155 195 221 155 195 221 155 195 221 155 195 221 155 195 221 155 195 221 155 195 221 155 195 221 155 195 221 155 195 221 155 195 221 155 195 221 155 195 221 155 195 221 155 195 221 155 195 221 155 195 221 155 195 221 155 195 221 155 195 221 155 195 221 155 195 221 155 195 221 155 195 221 155 195 221 155 195 221 157 195 219 157 195 219 157 195 219 157 195 219 157 195 219 157 195 219 157 195 219 157 195 219 157 195 219 157 195 219 157 195 219 157 195 219 157 195 219 157 195 219 159 197 219 159 197 219 159 197 219 159 197 219 159 197 219 159 197 219 159 197 219 159 197 219 159 197 219 159 197 219 159 197 219 159 197 219 159 197 219 159 197 219 159 197 219 159 197 219 159 197 219 159 197 219 159 197 219 159 197 219 131 142 144 131 142 144 159 197 219 159 197 219 164 104 96 164 104 96 164 104 96 164 104 96 164 104 96 164 104 96 164 104 96 164 104 96 164 104 96 164 104 96 164 104 96 164 104 96 164 104 96 164 104 96 164 104 96 164 104 96 164 104 96 164 104 96 164 104 96 164 104 96 164 104 96 164 104 96 164 104 96 164 104 96 164 104 96 164 104 96 164 104 96 164 104 96 164 104 96 164 104 96 164 104 96 164 104 96 164 104 96 164 104 96 164 104 96 164 104 96 164 104 96 164 104 96 164 104 96 164 104 96 164 104 96 164 104 96 107 64 79 107 64 79 107 64 79 107 64 79 107 64 79 107 64 79 107 64 79 107 64 79 107 64 79 107 64 79 107 64 79 107 64 79 107 64 79 107 64 79 107 64 79 107 64 79 107 64 79 107 64 79 107 64 79 107 64 79 107 64 79 107 64 79 107 64 79 107 64 79 107 64 79 107 64 79 107 64 79 107 64 79 107 64 79 107 64 79 107 64 79 107 64 79 107 64 79 76 43 64 76 43 64 76 43 64 76 43 64 76 43 64 76 43 64 76 43 64 76 43 64 76 43 64 76 43 64 76 43 64 76 43 64 76 43 64 76 43 64 99 60 75 121 96 107 160 163 164 216 223 223 216 223 223 216 223 223 216 223 223 216 223 223 216 223 223 216 223 223 216 223 223 216 223 223 216 223 223 216 223 223 216 223 223 216 223 223 216 223 223 160 196 220 158 158 161 158 158 161 121 96 107 121 96 107 121 96 107 121 96 107 121 96 107 121 96 107 121 96 107 122 97 106 122 97 106 122 97 106 122 97 106 122 97 106 122 97 106 122 97 106 122 97 106 122 97 106 122 97 106 122 97 106 122 97 106 122 97 106 122 97 106 122 97 106 122 97 106 122 97 106 122 97 106 122 97 106 122 97 106 122 97 106 122 97 106 122 97 106 122 97 106 122 97 106 122 97 106 122 97 106 122 97 106 122 97 106 122 97 106 122 97 106 122 97 106 122 97 106 122 97 106 122 97 106 122 97 106 122 97 106 122 97 106 122 97 106 121 98 109 121 98 109 121 98 109 121 98 109 121 98 109 121 98 109 121 98 109 121 98 109 121 98 109 121 98 109 121 98 109 121 98 109 121 98 109 121 98 109 121 98 109 121 98 109 121 98 109 121 98 109 121 98 109 121 98 109 121 98 109 121 98 109 121 98 109 121 98 109 121 98 109 121 98 109 121 98 109 121 98 109 121 98 109 121 98 109 121 98 109 121 98 109 121 98 109 121 98 109 121 98 109 121 98 109 155 195 221 155 195 221 155 195 221 155 195 221 155 195 221 155 195 221 155 195 221 155 195 221 155 195 221 155 195 221 155 195 221 155 195 221 155 195 221 155 195 221 155 195 221 155 195 221 155 195 221 155 195 221 155 195 221 155 195 221 155 195 221 155 195 221 155 195 221 155 195 221 155 195 221 155 195 221 157 195 219 157 195 219 157 195 219 157 195 219 157 195 219 157 195 219 157 195 219 157 195 219 157 195 219 157 195 219 157 195 219 157 195 219 157 195 219 157 195 219 157 195 219 157 195 219 157 195 219 159 197 219 159 197 219 159 197 219 159 197 219 159 197 219 159 197 219 159 197 219 159 197 219 159 197 219 159 197 219 159 197 219 159 197 219 159 197 219 159 197 219 159 197 219 159 197 219 159 197 219 131 142 144 131 142 144 159 197 219 214 223 216 159 197 219 164 104 96 164 104 96 164 104 96 164 104 96 164 104 96 164 104 96 164 104 96 164 104 96 164 104 96 164 104 96 164 104 96 164 104 96 164 104 96 164 104 96 164 104 96 164 104 96 164 104 96 164 104 96 164 104 96 164 104 96 164 104 96 164 104 96 164 104 96 164 104 96 164 104 96 164 104 96 164 104 96 164 104 96 164 104 96 164 104 96 164 104 96 164 104 96 164 104 96 164 104 96 164 104 96 164 104 96 164 104 96 164 104 96 164 104 96 164 104 96 164 104 96 164 104 96 164 104 96 107 64 79 107 64 79 107 64 79 107 64 79 107 64 79 107 64 79 107 64 79 107 64 79 107 64 79 107 64 79 107 64 79 107 64 79 107 64 79 107 64 79 107 64 79 107 64 79 107 64 79 107 64 79 107 64 79 107 64 79 107 64 79 107 64 79 107 64 79 107 64 79 107 64 79 107 64 79 107 64 79 107 64 79 107 64 79 107 64 79 76 43 64 76 43 64 76 43 64 76 43 64 76 43 64 99 60 75 76 43 64 76 43 64 76 43 64 76 43 64 76 43 64 76 43 64 76 43 64 76 43 64 76 43 64 76 43 64 76 43 64 76 43 64 99 60 75 121 96 107 160 163 164 216 223 223 216 223 223 216 223 223 216 223 223 216 223 223 216 223 223 216 223 223 216 223 223 216 223 223 216 223 223 216 223 223 216 223 223 216 223 223 216 223 223 216 223 223 158 158 161 158 158 161 121 96 107 121 96 107 121 96 107 121 96 107 121 96 107 122 97 106 122 97 106 122 97 106 122 97 106 122 97 106 122 97 106 122 97 106 122 97 106 122 97 106 122 97 106 122 97 106 122 97 106 122 97 106 122 97 106 122 97 106 122 97 106 122 97 106 122 97 106 122 97 106 122 97 106 122 97 106 122 97 106 122 97 106 122 97 106 122 97 106 122 97 106 122 97 106 122 97 106 122 97 106 122 97 106 122 97 106 122 97 106 122 97 106 122 97 106 122 97 106 122 97 106 122 97 106 122 97 106 122 97 106 121 98 109 121 98 109 121 98 109 121 98 109 121 98 109 121 98 109 121 98 109 121 98 109 121 98 109 121 98 109 121 98 109 121 98 109 121 98 109 121 98 109 121 98 109 121 98 109 121 98 109 121 98 109 121 98 109 121 98 109 121 98 109 121 98 109 121 98 109 121 98 109 121 98 109 121 98 109 121 98 109 121 98 109 121 98 109 121 98 109 121 98 109 121 98 109 121 98 109 121 98 109 121 98 109 121 98 109 155 195 221 155 195 221 155 195 221 155 195 221 155 195 221 155 195 221 155 195 221 155 195 221 155 195 221 155 195 221 155 195 221 155 195 221 155 195 221 155 195 221 155 195 221 155 195 221 155 195 221 155 195 221 155 195 221 155 195 221 155 195 221 155 195 221 155 195 221 155 195 221 155 195 221 157 195 219 157 195 219 157 195 219 157 195 219 157 195 219 157 195 219 157 195 219 157 195 219 157 195 219 157 195 219 157 195 219 157 195 219 157 195 219 157 195 219 157 195 219 157 195 219 157 195 219 157 195 219 157 195 219 157 195 219 159 197 219 159 197 219 159 197 219 159 197 219 159 197 219 159 197 219 159 197 219 159 197 219 159 197 219 159 197 219 159 197 219 159 197 219 159 197 219 159 197 219 131 142 144 131 142 144 159 197 219 159 197 219 214 223 216 214 223 216 164 104 96 164 104 96 164 104 96 164 104 96 164 104 96 164 104 96 164 104 96 164 104 96 164 104 96 164 104 96 164 104 96 164 104 96 164 104 96 164 104 96 164 104 96 164 104 96 164 104 96 164 104 96 164 104 96 164 104 96 164 104 96 164 104 96 164 104 96 164 104 96 164 104 96 164 104 96 164 104 96 164 104 96 164 104 96 164 104 96 164 104 96 164 104 96 164 104 96 164 104 96 164 104 96 164 104 96 164 104 96 164 104 96 164 104 96 164 104 96 164 104 96 164 104 96 164 104 96 107 64 79 107 64 79 107 64 79 107 64 79 107 64 79 107 64 79 107 64 79 107 64 79 107 64 79 107 64 79 107 64 79 107 64 79 107 64 79 107 64 79 107 64 79 107 64 79 107 64 79 107 64 79 107 64 79 107 64 79 107 64 79 107 64 79 107 64 79 107 64 79 107 64 79 107 64 79 107 64 79 107 64 79 107 64 79 107 64 79 107 64 79 107 64 79 107 64 79 107 64 79 76 43 64 76 43 64 99 60 75 76 43 64 76 43 64 76 43 64 76 43 64 76 43 64 76 43 64 76 43 64 76 43 64 76 43 64 76 43 64 76 43 64 76 43 64 76 43 64 99 60 75 121 96 107 158 158 161 216 223 223 216 223 223 216 223 223 216 223 223 216 223 223 216 223 223 216 223 223 216 223 223 216 223 223 216 223 223 216 223 223 216 223 223 216 223 223 216 223 223 160 196 220 158 158 161 121 96 107 121 96 107 121 96 107 121 96 107 122 97 106 122 97 106 122 97 106 122 97 106 122 97 106 122 97 106 122 97 106 122 97 106 122 97 106 122 97 106 122 97 106 122 97 106 122 97 106 122 97 106 122 97 106 122 97 106 122 97 106 122 97 106 122 97 106 122 97 106 122 97 106 122 97 106 122 97 106 122 97 106 122 97 106 122 97 106 122 97 106 122 97 106 122 97 106 122 97 106 122 97 106 122 97 106 122 97 106 122 97 106 122 97 106 122 97 106 122 97 106 122 97 106 122 97 106 122 97 106 121 98 109 121 98 109 121 98 109 121 98 109 121 98 109 121 98 109 121 98 109 121 98 109 121 98 109 121 98 109 121 98 109 121 98 109 121 98 109 121 98 109 121 98 109 121 98 109 121 98 109 121 98 109 121 98 109 121 98 109 121 98 109 121 98 109 121 98 109 121 98 109 121 98 109 121 98 109 121 98 109 121 98 109 121 98 109 121 98 109 121 98 109 121 98 109 121 98 109 121 98 109 121 98 109 155 195 221 155 195 221 155 195 221 155 195 221 155 195 221 155 195 221 155 195 221 155 195 221 155 195 221 155 195 221 155 195 221 155 195 221 155 195 221 155 195 221 155 195 221 155 195 221 155 195 221 155 195 221 155 195 221 155 195 221 155 195 221 155 195 221 155 195 221 157 195 219 157 195 219 157 195 219 157 195 219 157 195 219 157 195 219 157 195 219 157 195 219 157 195 219 157 195 219 157 195 219 157 195 219 157 195 219 157 195 219 157 195 219 157 195 219 157 195 219 157 195 219 157 195 219 157 195 219 157 195 219 157 195 219 157 195 219 159 197 219 159 197 219 159 197 219 159 197 219 159 197 219 159 197 219 159 197 219 159 197 219 159 197 219 159 197 219 159 197 219 159 197 219 131 142 144 131 142 144 159 197 219 159 197 219 214 223 216 214 223 216 214 223 216 164 104 96 164 104 96 164 104 96 164 104 96 164 104 96 164 104 96 164 104 96 164 104 96 164 104 96 164 104 96 164 104 96 164 104 96 164 104 96 164 104 96 164 104 96 164 104 96 164 104 96 164 104 96 164 104 96 164 104 96 164 104 96 164 104 96 164 104 96 164 104 96 164 104 96 164 104 96 164 104 96 164 104 96 164 104 96 164 104 96 164 104 96 164 104 96 164 104 96 164 104 96 164 104 96 164 104 96 164 104 96 164 104 96 164 104 96 164 104 96 164 104 96 164 104 96 164 104 96 164 104 96 107 64 79 107 64 79 107 64 79 107 64 79 107 64 79 107 64 79 107 64 79 107 64 79 107 64 79 107 64 79 107 64 79 107 64 79 107 64 79 107 64 79 107 64 79 107 64 79 107 64 79 107 64 79 107 64 79 107 64 79 107 64 79 107 64 79 107 64 79 107 64 79 107 64 79 107 64 79 107 64 79 107 64 79 107 64 79 107 64 79 76 43 64 107 64 79 107 64 79 99 60 75 99 60 75 99 60 75 76 43 64 99 60 75 99 60 75 76 43 64 76 43 64 76 43 64 76 43 64 76 43 64 76 43 64 76 43 64 76 43 64 76 43 64 76 43 64 76 43 64 76 43 64 99 60 75 126 139 153 216 223 223 216 223 223 216 223 223 216 223 223 216 223 223 216 223 223 216 223 223 216 223 223 216 223 223 216 223 223 216 223 223 216 223 223 216 223 223 216 223 223 216 223 223 158 158 161 158 158 161 121 96 107 122 97 106 122 97 106 122 97 106 122 97 106 122 97 106 122 97 106 122 97 106 122 97 106 122 97 106 122 97 106 122 97 106 122 97 106 122 97 106 122 97 106 122 97 106 122 97 106 122 97 106 122 97 106 122 97 106 122 97 106 122 97 106 122 97 106 122 97 106 122 97 106 122 97 106 122 97 106 122 97 106 122 97 106 122 97 106 122 97 106 122 97 106 122 97 106 122 97 106 122 97 106 122 97 106 122 97 106 122 97 106 122 97 106 122 97 106 122 97 106 121 98 109 121 98 109 121 98 109 121 98 109 121 98 109 121 98 109 121 98 109 121 98 109 121 98 109 121 98 109 121 98 109 121 98 109 121 98 109 121 98 109 121 98 109 121 98 109 121 98 109 121 98 109 121 98 109 121 98 109 121 98 109 121 98 109 121 98 109 121 98 109 121 98 109 121 98 109 121 98 109 121 98 109 121 98 109 121 98 109 121 98 109 121 98 109 121 98 109 121 98 109 121 98 109 121 98 109 155 195 221 155 195 221 155 195 221 155 195 221 155 195 221 155 195 221 155 195 221 155 195 221 155 195 221 155 195 221 155 195 221 155 195 221 155 195 221 155 195 221 155 195 221 155 195 221 155 195 221 155 195 221 155 195 221 155 195 221 155 195 221 155 195 221 157 195 219 157 195 219 157 195 219 157 195 219 157 195 219 157 195 219 157 195 219 157 195 219 157 195 219 157 195 219 157 195 219 157 195 219 157 195 219 157 195 219 157 195 219 157 195 219 157 195 219 157 195 219 157 195 219 157 195 219 157 195 219 157 195 219 157 195 219 157 195 219 157 195 219 157 195 219 159 197 219 159 197 219 159 197 219 159 197 219 159 197 219 159 197 219 159 197 219 159 197 219 159 197 219 131 142 144 131 142 144 159 197 219 159 197 219 214 223 216 214 223 216 214 223 216 214 223 216 164 104 96 164 104 96 164 104 96 164 104 96 164 104 96 164 104 96 164 104 96 164 104 96 164 104 96 164 104 96 164 104 96 164 104 96 164 104 96 164 104 96 164 104 96 164 104 96 164 104 96 164 104 96 164 104 96 164 104 96 164 104 96 164 104 96 164 104 96 164 104 96 164 104 96 164 104 96 164 104 96 164 104 96 164 104 96 164 104 96 164 104 96 164 104 96 164 104 96 164 104 96 164 104 96 164 104 96 164 104 96 164 104 96 164 104 96 164 104 96 164 104 96 164 104 96 164 104 96 168 109 100 168 109 100 164 104 96 107 64 79 107 64 79 107 64 79 107 64 79 107 64 79 107 64 79 107 64 79 107 64 79 107 64 79 107 64 79 107 64 79 107 64 79 107 64 79 107 64 79 107 64 79 107 64 79 107 64 79 107 64 79 107 64 79 107 64 79 107 64 79 107 64 79 107 64 79 107 64 79 107 64 79 107 64 79 107 64 79 107 64 79 76 43 64 76 43 64 99 60 75 107 64 79 107 64 79 99 60 75 99 60 75 99 60 75 99 60 75 99 60 75 99 60 75 99 60 75 99 60 75 76 43 64 99 60 75 99 60 75 76 43 64 76 43 64 76 43 64 76 43 64 76 43 64 76 43 64 99 60 75 99 60 75 126 139 153 216 223 223 216 223 223 216 223 223 216 223 223 216 223 223 216 223 223 216 223 223 216 223 223 216 223 223 216 223 223 216 223 223 216 223 223 216 223 223 216 223 223 216 223 223 158 158 161 158 158 161 122 97 106 122 97 106 122 97 106 122 97 106 122 97 106 122 97 106 122 97 106 122 97 106 122 97 106 122 97 106 122 97 106 122 97 106 122 97 106 122 97 106 122 97 106 122 97 106 122 97 106 122 97 106 122 97 106 122 97 106 122 97 106 122 97 106 122 97 106 122 97 106 122 97 106 122 97 106 122 97 106 122 97 106 122 97 106 122 97 106 122 97 106 122 97 106 122 97 106 122 97 106 122 97 106 122 97 106 122 97 106 122 97 106 122 97 106 121 98 109 121 98 109 121 98 109 121 98 109 121 98 109 121 98 109 121 98 109 121 98 109 121 98 109 121 98 109 121 98 109 121 98 109 121 98 109 121 98 109 121 98 109 121 98 109 121 98 109 121 98 109 121 98 109 121 98 109 121 98 109 121 98 109 121 98 109 121 98 109 121 98 109 121 98 109 121 98 109 121 98 109 121 98 109 121 98 109 121 98 109 121 98 109 121 98 109 121 98 109 121 98 109 121 98 109 155 195 221 155 195 221 155 195 221 155 195 221 155 195 221 155 195 221 155 195 221 155 195 221 155 195 221 155 195 221 155 195 221 155 195 221 155 195 221 155 195 221 155 195 221 155 195 221 155 195 221 155 195 221 155 195 221 155 195 221 155 195 221 155 195 221 157 195 219 157 195 219 157 195 219 157 195 219 157 195 219 157 195 219 157 195 219 157 195 219 157 195 219 157 195 219 157 195 219 157 195 219 157 195 219 157 195 219 157 195 219 157 195 219 157 195 219 157 195 219 157 195 219 157 195 219 157 195 219 157 195 219 157 195 219 157 195 219 157 195 219 157 195 219 157 195 219 159 197 219 159 197 219 159 197 219 159 197 219 159 197 219 159 197 219 159 197 219 159 197 219 131 142 144 159 197 219 159 197 219 214 223 216 214 223 216 214 223 216 214 223 216 214 223 216 164 104 96 164 104 96 164 104 96 164 104 96 164 104 96 164 104 96 164 104 96 164 104 96 164 104 96 164 104 96 164 104 96 164 104 96 164 104 96 164 104 96 164 104 96 164 104 96 164 104 96 164 104 96 164 104 96 164 104 96 164 104 96 164 104 96 164 104 96 164 104 96 164 104 96 164 104 96 164 104 96 164 104 96 164 104 96 164 104 96 164 104 96 164 104 96 164 104 96 164 104 96 164 104 96 164 104 96 164 104 96 164 104 96 164 104 96 164 104 96 164 104 96 164 104 96 168 109 100 168 109 100 168 109 100 168 109 100 164 104 96 107 64 79 107 64 79 107 64 79 107 64 79 107 64 79 107 64 79 107 64 79 107 64 79 107 64 79 107 64 79 107 64 79 107 64 79 107 64 79 107 64 79 107 64 79 107 64 79 107 64 79 107 64 79 107 64 79 107 64 79 107 64 79 107 64 79 107 64 79 107 64 79 107 64 79 107 64 79 107 64 79 107 64 79 107 64 79 107 64 79 107 64 79 99 60 75 99 60 75 99 60 75 99 60 75 99 60 75 99 60 75 99 60 75 99 60 75 99 60 75 99 60 75 76 43 64 76 43 64 99 60 75 99 60 75 76 43 64 76 43 64 76 43 64 76 43 64 76 43 64 99 60 75 99 60 75 121 96 107 158 158 161 216 223 223 216 223 223 216 223 223 216 223 223 216 223 223 216 223 223 216 223 223 216 223 223 216 223 223 216 223 223 216 223 223 216 223 223 216 223 223 216 223 223 160 196 220 158 158 161 158 158 161 122 97 106 122 97 106 122 97 106 122 97 106 122 97 106 122 97 106 122 97 106 122 97 106 122 97 106 122 97 106 122 97 106 122 97 106 122 97 106 122 97 106 122 97 106 122 97 106 122 97 106 122 97 106 122 97 106 122 97 106 122 97 106 122 97 106 122 97 106 122 97 106 122 97 106 122 97 106 122 97 106 122 97 106 122 97 106 122 97 106 122 97 106 122 97 106 122 97 106 122 97 106 122 97 106 122 97 106 122 97 106 121 98 109 121 98 109 121 98 109 121 98 109 121 98 109 121 98 109 121 98 109 121 98 109 121 98 109 121 98 109 121 98 109 121 98 109 121 98 109 121 98 109 121 98 109 121 98 109 121 98 109 121 98 109 121 98 109 121 98 109 121 98 109 121 98 109 121 98 109 121 98 109 121 98 109 121 98 109 121 98 109 121 98 109 121 98 109 121 98 109 121 98 109 121 98 109 121 98 109 121 98 109 121 98 109 121 98 109 155 195 221 155 195 221 155 195 221 155 195 221 155 195 221 155 195 221 155 195 221 155 195 221 155 195 221 155 195 221 155 195 221 155 195 221 155 195 221 155 195 221 155 195 221 155 195 221 155 195 221 155 195 221 155 195 221 155 195 221 155 195 221 157 195 219 157 195 219 157 195 219 157 195 219 157 195 219 157 195 219 157 195 219 157 195 219 157 195 219 157 195 219 157 195 219 157 195 219 157 195 219 157 195 219 157 195 219 157 195 219 157 195 219 157 195 219 157 195 219 157 195 219 157 195 219 157 195 219 157 195 219 157 195 219 157 195 219 157 195 219 157 195 219 157 195 219 157 195 219 157 195 219 159 197 219 159 197 219 159 197 219 159 197 219 159 197 219 131 142 144 159 197 219 159 197 219 159 197 219 214 223 216 214 223 216 214 223 216 214 223 216 214 223 216 164 104 96 164 104 96 164 104 96 164 104 96 164 104 96 164 104 96 164 104 96 164 104 96 164 104 96 164 104 96 164 104 96 164 104 96 164 104 96 164 104 96 164 104 96 164 104 96 164 104 96 164 104 96 164 104 96 164 104 96 164 104 96 164 104 96 164 104 96 164 104 96 164 104 96 164 104 96 164 104 96 164 104 96 164 104 96 164 104 96 164 104 96 164 104 96 164 104 96 164 104 96 164 104 96 164 104 96 164 104 96 164 104 96 164 104 96 164 104 96 164 104 96 164 104 96 164 104 96 168 109 100 164 104 96 168 109 100 168 109 100 168 109 100 168 109 100 107 64 79 107 64 79 107 64 79 107 64 79 107 64 79 107 64 79 107 64 79 107 64 79 107 64 79 107 64 79 107 64 79 107 64 79 107 64 79 107 64 79 107 64 79 107 64 79 107 64 79 107 64 79 107 64 79 107 64 79 107 64 79 107 64 79 107 64 79 107 64 79 107 64 79 107 64 79 107 64 79 107 64 79 107 64 79 99 60 75 99 60 75 107 64 79 99 60 75 99 60 75 99 60 75 99 60 75 99 60 75 99 60 75 99 60 75 99 60 75 99 60 75 99 60 75 99 60 75 76 43 64 76 43 64 76 43 64 76 43 64 76 43 64 74 40 65 74 40 65 74 40 65 99 60 75 121 96 107 158 158 161 216 223 223 216 223 223 216 223 223 216 223 223 216 223 223 216 223 223 216 223 223 216 223 223 216 223 223 216 223 223 216 223 223 216 223 223 160 196 220 160 196 220 160 196 220 158 158 161 158 158 161 122 97 106 122 97 106 122 97 106 122 97 106 122 97 106 122 97 106 122 97 106 122 97 106 122 97 106 122 97 106 122 97 106 122 97 106 122 97 106 122 97 106 122 97 106 122 97 106 122 97 106 122 97 106 122 97 106 122 97 106 122 97 106 122 97 106 122 97 106 122 97 106 122 97 106 122 97 106 122 97 106 122 97 106 122 97 106 122 97 106 122 97 106 122 97 106 122 97 106 122 97 106 121 98 109 121 98 109 121 98 109 121 98 109 121 98 109 121 98 109 121 98 109 121 98 109 121 98 109 121 98 109 121 98 109 121 98 109 121 98 109 121 98 109 121 98 109 121 98 109 121 98 109 121 98 109 121 98 109 121 98 109 121 98 109 121 98 109 121 98 109 121 98 109 121 98 109 121 98 109 121 98 109 121 98 109 121 98 109 121 98 109 121 98 109 121 98 109 121 98 109 121 98 109 121 98 109 121 98 109 121 98 109 155 195 221 155 195 221 155 195 221 155 195 221 155 195 221 155 195 221 155 195 221 155 195 221 155 195 221 155 195 221 155 195 221 155 195 221 155 195 221 155 195 221 155 195 221 155 195 221 155 195 221 155 195 221 155 195 221 157 195 219 157 195 219 157 195 219 157 195 219 157 195 219 157 195 219 157 195 219 157 195 219 157 195 219 157 195 219 157 195 219 157 195 219 157 195 219 157 195 219 157 195 219 157 195 219 157 195 219 157 195 219 157 195 219 157 195 219 157 195 219 157 195 219 157 195 219 157 195 219 157 195 219 157 195 219 157 195 219 157 195 219 157 195 219 157 195 219 157 195 219 157 195 219 157 195 219 159 197 219 159 197 219 159 197 219 131 142 144 157 195 219 159 197 219 214 223 216 214 223 216 214 223 216 214 223 216 214 223 216 159 197 219 164 104 96 164 104 96 164 104 96 164 104 96 164 104 96 164 104 96 164 104 96 164 104 96 164 104 96 164 104 96 164 104 96 164 104 96 164 104 96 164 104 96 164 104 96 164 104 96 164 104 96 164 104 96 164 104 96 164 104 96 164 104 96 164 104 96 164 104 96 164 104 96 164 104 96 164 104 96 164 104 96 164 104 96 164 104 96 164 104 96 164 104 96 164 104 96 164 104 96 164 104 96 164 104 96 164 104 96 168 109 100 164 104 96 164 104 96 164 104 96 164 104 96 168 109 100 164 104 96 168 109 100 168 109 100 168 109 100 168 109 100 168 109 100 168 109 100 168 109 100 168 109 100 107 64 79 107 64 79 107 64 79 107 64 79 107 64 79 107 64 79 107 64 79 107 64 79 107 64 79 107 64 79 107 64 79 107 64 79 107 64 79 107 64 79 107 64 79 107 64 79 107 64 79 107 64 79 107 64 79 107 64 79 107 64 79 107 64 79 107 64 79 107 64 79 107 64 79 107 64 79 107 64 79 107 64 79 99 60 75 107 64 79 99 60 75 99 60 75 99 60 75 99 60 75 99 60 75 99 60 75 99 60 75 99 60 75 99 60 75 99 60 75 99 60 75 99 60 75 99 60 75 99 60 75 76 43 64 76 43 64 99 60 75 99 60 75 74 40 65 74 40 65 74 40 65 99 60 75 99 60 75 121 96 107 158 158 161 216 223 223 216 223 223 216 223 223 216 223 223 216 223 223 216 223 223 216 223 223 216 223 223 216 223 223 216 223 223 216 223 223 216 223 223 160 196 220 160 196 220 158 158 161 158 158 161 158 158 161 122 97 106 122 97 106 122 97 106 122 97 106 122 97 106 122 97 106 122 97 106 122 97 106 122 97 106 122 97 106 122 97 106 122 97 106 122 97 106 122 97 106 122 97 106 122 97 106 122 97 106 122 97 106 122 97 106 122 97 106 122 97 106 122 97 106 122 97 106 122 97 106 122 97 106 122 97 106 122 97 106 122 97 106 122 97 106 122 97 106 122 97 106 122 97 106 122 97 106 121 98 109 121 98 109 121 98 109 121 98 109 121 98 109 121 98 109 121 98 109 121 98 109 121 98 109 121 98 109 121 98 109 121 98 109 121 98 109 121 98 109 121 98 109 121 98 109 121 98 109 121 98 109 121 98 109 121 98 109 121 98 109 121 98 109 121 98 109 121 98 109 121 98 109 121 98 109 121 98 109 121 98 109 121 98 109 121 98 109 121 98 109 121 98 109 121 98 109 121 98 109 121 98 109 121 98 109 155 195 221 155 195 221 155 195 221 155 195 221 155 195 221 155 195 221 155 195 221 155 195 221 155 195 221 155 195 221 155 195 221 155 195 221 155 195 221 155 195 221 155 195 221 155 195 221 155 195 221 155 195 221 157 195 219 157 195 219 157 195 219 157 195 219 157 195 219 157 195 219 157 195 219 157 195 219 157 195 219 157 195 219 157 195 219 157 195 219 157 195 219 157 195 219 157 195 219 157 195 219 157 195 219 157 195 219 157 195 219 157 195 219 157 195 219 157 195 219 157 195 219 157 195 219 157 195 219 157 195 219 157 195 219 157 195 219 157 195 219 157 195 219 157 195 219 157 195 219 157 195 219 157 195 219 157 195 219 157 195 219 131 142 144 131 142 144 159 197 219 214 223 216 214 223 216 214 223 216 214 223 216 214 223 216 159 197 219 164 104 96 98 66 73 164 104 96 164 104 96 164 104 96 164 104 96 164 104 96 164 104 96 164 104 96 164 104 96 164 104 96 164 104 96 164 104 96 164 104 96 164 104 96 164 104 96 164 104 96 164 104 96 164 104 96 164 104 96 164 104 96 164 104 96 164 104 96 164 104 96 164 104 96 164 104 96 164 104 96 164 104 96 164 104 96 164 104 96 164 104 96 164 104 96 164 104 96 164 104 96 164 104 96 164 104 96 164 104 96 164 104 96 164 104 96 164 104 96 164 104 96 164 104 96 164 104 96 164 104 96 168 109 100 168 109 100 168 109 100 168 109 100 168 109 100 168 109 100 168 109 100 168 109 100 168 109 100 168 109 100 107 64 79 107 64 79 107 64 79 107 64 79 107 64 79 107 64 79 107 64 79 107 64 79 107 64 79 107 64 79 107 64 79 107 64 79 107 64 79 107 64 79 107 64 79 107 64 79 107 64 79 107 64 79 107 64 79 107 64 79 107 64 79 107 64 79 107 64 79 107 64 79 107 64 79 99 60 75 99 60 75 99 60 75 99 60 75 99 60 75 99 60 75 99 60 75 99 60 75 99 60 75 99 60 75 99 60 75 99 60 75 99 60 75 99 60 75 99 60 75 99 60 75 99 60 75 99 60 75 99 60 75 99 60 75 99 60 75 99 60 75 74 40 65 74 40 65 74 40 65 74 40 65 99 60 75 99 60 75 121 96 107 158 158 161 216 223 223 216 223 223 216 223 223 216 223 223 216 223 223 216 223 223 216 223 223 216 223 223 216 223 223 216 223 223 216 223 223 216 223 223 216 223 223 216 223 223 160 196 220 158 158 161 158 158 161 122 97 106 122 97 106 122 97 106 122 97 106 122 97 106 122 97 106 122 97 106 122 97 106 122 97 106 122 97 106 122 97 106 122 97 106 122 97 106 122 97 106 122 97 106 122 97 106 122 97 106 122 97 106 122 97 106 122 97 106 122 97 106 122 97 106 122 97 106 122 97 106 122 97 106 122 97 106 122 97 106 122 97 106 122 97 106 122 97 106 121 98 109 121 98 109 121 98 109 121 98 109 121 98 109 121 98 109 121 98 109 121 98 109 121 98 109 121 98 109 121 98 109 121 98 109 121 98 109 121 98 109 121 98 109 121 98 109 121 98 109 121 98 109 121 98 109 121 98 109 121 98 109 121 98 109 121 98 109 121 98 109 121 98 109 121 98 109 121 98 109 121 98 109 121 98 109 121 98 109 121 98 109 121 98 109 121 98 109 121 98 109 121 98 109 121 98 109 121 98 109 155 195 221 155 195 221 155 195 221 155 195 221 155 195 221 155 195 221 155 195 221 155 195 221 155 195 221 155 195 221 155 195 221 155 195 221 155 195 221 155 195 221 155 195 221 155 195 221 155 195 221 157 195 219 157 195 219 157 195 219 157 195 219 157 195 219 157 195 219 157 195 219 157 195 219 157 195 219 157 195 219 157 195 219 157 195 219 157 195 219 157 195 219 157 195 219 157 195 219 157 195 219 157 195 219 157 195 219 157 195 219 157 195 219 157 195 219 157 195 219 157 195 219 157 195 219 157 195 219 157 195 219 157 195 219 157 195 219 157 195 219 157 195 219 157 195 219 157 195 219 157 195 219 157 195 219 157 195 219 131 142 144 131 142 144 159 197 219 214 223 216 214 223 216 214 223 216 214 223 216 214 223 216 159 197 219 131 142 144 98 66 73 98 66 73 164 104 96 164 104 96 164 104 96 164 104 96 164 104 96 164 104 96 164 104 96 164 104 96 164 104 96 164 104 96 164 104 96 164 104 96 164 104 96 164 104 96 164 104 96 164 104 96 164 104 96 164 104 96 164 104 96 164 104 96 164 104 96 164 104 96 164 104 96 164 104 96 164 104 96 164 104 96 164 104 96 164 104 96 164 104 96 164 104 96 164 104 96 164 104 96 164 104 96 164 104 96 164 104 96 164 104 96 164 104 96 164 104 96 164 104 96 164 104 96 164 104 96 164 104 96 168 109 100 168 109 100 168 109 100 168 109 100 168 109 100 168 109 100 168 109 100 168 109 100 168 109 100 168 109 100 168 109 100 168 109 100 107 64 79 107 64 79 107 64 79 107 64 79 107 64 79 107 64 79 107 64 79 107 64 79 107 64 79 107 64 79 107 64 79 107 64 79 107 64 79 107 64 79 107 64 79 107 64 79 107 64 79 107 64 79 107 64 79 107 64 79 107 64 79 107 64 79 107 64 79 99 60 75 99 60 75 99 60 75 99 60 75 99 60 75 99 60 75 99 60 75 99 60 75 99 60 75 99 60 75 99 60 75 99 60 75 99 60 75 99 60 75 99 60 75 99 60 75 99 60 75 99 60 75 99 60 75 99 60 75 99 60 75 74 40 65 74 40 65 74 40 65 74 40 65 74 40 65 74 40 65 74 40 65 99 60 75 99 60 75 126 139 153 216 223 223 216 223 223 216 223 223 216 223 223 216 223 223 216 223 223 216 223 223 216 223 223 216 223 223 216 223 223 216 223 223 216 223 223 216 223 223 216 223 223 158 158 161 158 158 161 158 158 161 122 97 106 122 97 106 122 97 106 122 97 106 122 97 106 122 97 106 122 97 106 122 97 106 122 97 106 122 97 106 122 97 106 122 97 106 122 97 106 122 97 106 122 97 106 122 97 106 122 97 106 122 97 106 122 97 106 122 97 106 122 97 106 122 97 106 122 97 106 122 97 106 122 97 106 122 97 106 122 97 106 122 97 106 122 97 106 121 98 109 121 98 109 121 98 109 121 98 109 121 98 109 121 98 109 121 98 109 121 98 109 121 98 109 121 98 109 121 98 109 121 98 109 121 98 109 121 98 109 121 98 109 121 98 109 121 98 109 121 98 109 121 98 109 121 98 109 121 98 109 121 98 109 121 98 109 121 98 109 121 98 109 121 98 109 121 98 109 121 98 109 121 98 109 121 98 109 121 98 109 121 98 109 121 98 109 121 98 109 121 98 109 121 98 109 121 98 109 155 195 221 155 195 221 155 195 221 155 195 221 155 195 221 155 195 221 155 195 221 155 195 221 155 195 221 155 195 221 155 195 221 155 195 221 155 195 221 155 195 221 155 195 221 155 195 221 157 195 219 157 195 219 157 195 219 157 195 219 157 195 219 157 195 219 157 195 219 157 195 219 157 195 219 157 195 219 157 195 219 157 195 219 157 195 219 157 195 219 157 195 219 157 195 219 157 195 219 157 195 219 157 195 219 157 195 219 157 195 219 157 195 219 157 195 219 157 195 219 157 195 219 157 195 219 157 195 219 157 195 219 157 195 219 157 195 219 157 195 219 157 195 219 157 195 219 157 195 219 157 195 219 157 195 219 131 142 144 131 142 144 159 197 219 214 223 216 214 223 216 214 223 216 214 223 216 214 223 216 214 223 216 131 142 144 98 66 73 98 66 73 98 66 73 164 104 96 164 104 96 164 104 96 164 104 96 164 104 96 164 104 96 164 104 96 164 104 96 164 104 96 164 104 96 164 104 96 164 104 96 164 104 96 164 104 96 164 104 96 164 104 96 164 104 96 164 104 96 164 104 96 164 104 96 164 104 96 164 104 96 164 104 96 164 104 96 164 104 96 164 104 96 164 104 96 164 104 96 164 104 96 164 104 96 164 104 96 164 104 96 164 104 96 164 104 96 164 104 96 164 104 96 164 104 96 164 104 96 164 104 96 164 104 96 164 104 96 168 109 100 168 109 100 168 109 100 168 109 100 168 109 100 168 109 100 168 109 100 168 109 100 168 109 100 168 109 100 168 109 100 168 109 100 168 109 100 168 109 100 107 64 79 107 64 79 107 64 79 107 64 79 107 64 79 107 64 79 107 64 79 107 64 79 107 64 79 107 64 79 107 64 79 107 64 79 107 64 79 107 64 79 107 64 79 107 64 79 107 64 79 107 64 79 107 64 79 107 64 79 107 64 79 107 64 79 99 60 75 99 60 75 99 60 75 99 60 75 99 60 75 99 60 75 99 60 75 99 60 75 99 60 75 99 60 75 99 60 75 99 60 75 99 60 75 99 60 75 99 60 75 99 60 75 99 60 75 99 60 75 99 60 75 99 60 75 99 60 75 99 60 75 99 60 75 74 40 65 74 40 65 74 40 65 74 40 65 74 40 65 74 40 65 74 40 65 99 60 75 126 139 153 216 223 223 216 223 223 216 223 223 216 223 223 216 223 223 216 223 223 216 223 223 216 223 223 216 223 223 216 223 223 216 223 223 216 223 223 216 223 223 216 223 223 216 223 223 158 158 161 158 158 161 158 158 161 158 158 161 158 158 161 122 97 106 122 97 106 122 97 106 122 97 106 122 97 106 122 97 106 122 97 106 122 97 106 122 97 106 122 97 106 122 97 106 122 97 106 122 97 106 122 97 106 122 97 106 122 97 106 122 97 106 122 97 106 122 97 106 122 97 106 122 97 106 122 97 106 122 97 106 122 97 106 122 97 106 121 98 109 121 98 109 121 98 109 121 98 109 121 98 109 121 98 109 121 98 109 121 98 109 121 98 109 121 98 109 121 98 109 121 98 109 121 98 109 121 98 109 121 98 109 121 98 109 121 98 109 121 98 109 121 98 109 121 98 109 121 98 109 121 98 109 121 98 109 121 98 109 121 98 109 121 98 109 121 98 109 121 98 109 121 98 109 121 98 109 121 98 109 121 98 109 121 98 109 121 98 109 121 98 109 121 98 109 121 98 109 157 196 220 157 196 220 157 196 220 157 196 220 157 196 220 157 196 220 157 196 220 157 196 220 157 196 220 157 196 220 157 196 220 155 195 221 155 195 221 155 195 221 155 195 221 157 195 219 157 195 219 157 195 219 157 195 219 157 195 219 157 195 219 157 195 219 157 195 219 157 195 219 157 195 219 157 195 219 157 195 219 157 195 219 157 195 219 157 195 219 157 195 219 157 195 219 157 195 219 157 195 219 157 195 219 157 195 219 157 195 219 157 195 219 157 195 219 157 195 219 157 195 219 157 195 219 157 195 219 157 195 219 157 195 219 157 195 219 157 195 219 157 195 219 157 195 219 157 195 219 157 195 219 131 142 144 131 142 144 157 195 219 214 223 216 214 223 216 214 223 216 214 223 216 214 223 216 214 223 216 131 142 144 98 66 73 98 66 73 98 66 73 164 104 96 164 104 96 164 104 96 164 104 96 164 104 96 164 104 96 164 104 96 164 104 96 164 104 96 164 104 96 164 104 96 164 104 96 164 104 96 164 104 96 164 104 96 164 104 96 164 104 96 164 104 96 164 104 96 164 104 96 164 104 96 164 104 96 164 104 96 164 104 96 164 104 96 164 104 96 164 104 96 164 104 96 164 104 96 164 104 96 164 104 96 164 104 96 164 104 96 164 104 96 164 104 96 164 104 96 168 109 100 164 104 96 164 104 96 164 104 96 164 104 96 164 104 96 164 104 96 168 109 100 164 104 96 168 109 100 168 109 100 168 109 100 168 109 100 168 109 100 168 109 100 168 109 100 168 109 100 168 109 100 168 109 100 168 109 100 168 109 100 168 109 100 107 64 79 107 64 79 107 64 79 107 64 79 107 64 79 107 64 79 107 64 79 107 64 79 107 64 79 107 64 79 107 64 79 107 64 79 107 64 79 107 64 79 107 64 79 107 64 79 107 64 79 107 64 79 107 64 79 99 60 75 99 60 75 99 60 75 99 60 75 99 60 75 99 60 75 99 60 75 99 60 75 99 60 75 99 60 75 99 60 75 99 60 75 99 60 75 99 60 75 99 60 75 99 60 75 99 60 75 99 60 75 99 60 75 99 60 75 99 60 75 99 60 75 99 60 75 74 40 65 74 40 65 99 60 75 99 60 75 74 40 65 74 40 65 74 40 65 74 40 65 74 40 65 99 60 75 158 158 161 216 223 223 216 223 223 216 223 223 216 223 223 216 223 223 216 223 223 216 223 223 216 223 223 216 223 223 216 223 223 216 223 223 216 223 223 216 223 223 216 223 223 158 158 161 158 158 161 216 223 223 216 223 223 216 223 223 216 223 223 216 223 223 216 223 223 158 158 161 158 158 161 158 158 161 158 158 161 122 97 106 122 97 106 122 97 106 122 97 106 122 97 106 122 97 106 122 97 106 122 97 106 122 97 106 122 97 106 122 97 106 122 97 106 122 97 106 122 97 106 122 97 106 122 97 106 122 97 106 121 98 109 121 98 109 121 98 109 121 98 109 121 98 109 121 98 109 121 98 109 121 98 109 121 98 109 121 98 109 121 98 109 121 98 109 121 98 109 121 98 109 121 98 109 121 98 109 121 98 109 121 98 109 121 98 109 121 98 109 121 98 109 121 98 109 121 98 109 121 98 109 121 98 109 121 98 109 121 98 109 121 98 109 121 98 109 121 98 109 121 98 109 121 98 109 121 98 109 121 98 109 121 98 109 121 98 109 121 98 109 121 98 109 157 196 220 157 196 220 157 196 220 157 196 220 157 196 220 157 196 220 157 196 220 157 196 220 157 196 220 157 196 220 157 196 220 157 196 220 157 196 220 157 196 220 157 196 220 157 196 220 157 195 219 157 195 219 157 195 219 157 195 219 157 195 219 157 195 219 157 195 219 157 195 219 157 195 219 157 195 219 157 195 219 157 195 219 157 195 219 157 195 219 157 195 219 157 195 219 157 195 219 157 195 219 157 195 219 157 195 219 157 195 219 157 195 219 157 195 219 157 195 219 157 195 219 157 195 219 157 195 219 157 195 219 157 195 219 157 195 219 157 195 219 157 195 219 157 195 219 157 195 219 131 142 144 131 142 144 157 195 219 214 223 216 214 223 216 214 223 216 214 223 216 214 223 216 214 223 216 131 142 144 98 66 73 98 66 73 98 66 73 98 66 73 164 104 96 164 104 96 164 104 96 164 104 96 164 104 96 164 104 96 164 104 96 164 104 96 164 104 96 164 104 96 164 104 96 164 104 96 164 104 96 164 104 96 164 104 96 164 104 96 164 104 96 164 104 96 164 104 96 164 104 96 164 104 96 164 104 96 164 104 96 164 104 96 164 104 96 164 104 96 164 104 96 164 104 96 164 104 96 164 104 96 164 104 96 164 104 96 164 104 96 164 104 96 164 104 96 164 104 96 168 109 100 164 104 96 164 104 96 164 104 96 164 104 96 164 104 96 164 104 96 168 109 100 168 109 100 168 109 100 168 109 100 168 109 100 168 109 100 168 109 100 168 109 100 168 109 100 168 109 100 168 109 100 168 109 100 168 109 100 168 109 100 168 109 100 168 109 100 168 109 100 107 64 79 107 64 79 107 64 79 107 64 79 107 64 79 107 64 79 107 64 79 107 64 79 107 64 79 107 64 79 107 64 79 107 64 79 107 64 79 107 64 79 107 64 79 107 64 79 107 64 79 107 64 79 107 64 79 107 64 79 107 64 79 99 60 75 99 60 75 99 60 75 99 60 75 99 60 75 99 60 75 99 60 75 99 60 75 99 60 75 99 60 75 99 60 75 99 60 75 99 60 75 99 60 75 99 60 75 99 60 75 99 60 75 99 60 75 99 60 75 99 60 75 99 60 75 99 60 75 74 40 65 74 40 65 74 40 65 74 40 65 74 40 65 74 40 65 74 40 65 126 139 153 216 223 223 216 223 223 216 223 223 216 223 223 216 223 223 216 223 223 216 223 223 216 223 223 216 223 223 216 223 223 216 223 223 216 223 223 216 223 223 216 223 223 216 223 223 216 223 223 216 223 223 158 158 161 158 158 161 158 158 161 158 158 161 158 158 161 216 223 223 216 223 223 216 223 223 216 223 223 216 223 223 158 158 161 158 158 161 158 158 161 158 158 161 122 97 106 122 97 106 122 97 106 122 97 106 122 97 106 122 97 106 122 97 106 122 97 106 122 97 106 122 97 106 122 97 106 122 97 106 122 97 106 121 98 109 121 98 109 121 98 109 121 98 109 121 98 109 121 98 109 121 98 109 121 98 109 121 98 109 121 98 109 121 98 109 121 98 109 121 98 109 121 98 109 121 98 109 121 98 109 121 98 109 121 98 109 121 98 109 121 98 109 121 98 109 121 98 109 121 98 109 121 98 109 121 98 109 121 98 109 121 98 109 121 98 109 121 98 109 121 98 109 121 98 109 121 98 109 121 98 109 121 98 109 121 98 109 121 98 109 121 98 109 157 196 220 157 196 220 157 196 220 157 196 220 157 196 220 157 196 220 157 196 220 157 196 220 157 196 220 157 196 220 157 196 220 157 196 220 157 196 220 157 196 220 157 196 220 157 196 220 157 196 220 157 195 219 157 195 219 157 195 219 157 195 219 157 195 219 157 195 219 157 195 219 157 195 219 157 195 219 157 195 219 157 195 219 157 195 219 157 195 219 157 195 219 157 195 219 157 195 219 157 195 219 157 195 219 157 195 219 157 195 219 157 195 219 157 195 219 157 195 219 157 195 219 157 195 219 157 195 219 157 195 219 157 195 219 157 195 219 157 195 219 157 195 219 157 195 219 131 142 144 131 142 144 157 195 219 214 223 216 214 223 216 214 223 216 214 223 216 214 223 216 214 223 216 131 142 144 98 66 73 98 66 73 98 66 73 98 66 73 98 66 73 98 66 73 164 104 96 164 104 96 164 104 96 164 104 96 164 104 96 164 104 96 164 104 96 164 104 96 164 104 96 164 104 96 164 104 96 164 104 96 164 104 96 164 104 96 164 104 96 164 104 96 164 104 96 164 104 96 164 104 96 164 104 96 164 104 96 164 104 96 164 104 96 164 104 96 164 104 96 164 104 96 164 104 96 164 104 96 164 104 96 164 104 96 164 104 96 164 104 96 164 104 96 164 104 96 164 104 96 168 109 100 164 104 96 164 104 96 164 104 96 164 104 96 168 109 100 168 109 100 168 109 100 168 109 100 168 109 100 168 109 100 168 109 100 168 109 100 168 109 100 168 109 100 168 109 100 168 109 100 168 109 100 168 109 100 168 109 100 168 109 100 168 109 100 168 109 100 168 109 100 168 109 100 107 64 79 107 64 79 107 64 79 107 64 79 107 64 79 107 64 79 107 64 79 107 64 79 107 64 79 107 64 79 107 64 79 107 64 79 107 64 79 107 64 79 107 64 79 107 64 79 107 64 79 107 64 79 107 64 79 99 60 75 99 60 75 99 60 75 99 60 75 99 60 75 99 60 75 99 60 75 99 60 75 99 60 75 99 60 75 99 60 75 99 60 75 99 60 75 99 60 75 99 60 75 99 60 75 99 60 75 99 60 75 99 60 75 99 60 75 99 60 75 99 60 75 99 60 75 74 40 65 74 40 65 74 40 65 74 40 65 74 40 65 74 40 65 74 40 65 121 96 107 216 223 223 216 223 223 216 223 223 216 223 223 216 223 223 216 223 223 216 223 223 216 223 223 216 223 223 216 223 223 216 223 223 216 223 223 216 223 223 216 223 223 216 223 223 216 223 223 158 158 161 158 158 161 158 158 161 158 158 161 158 158 161 158 158 161 158 158 161 158 158 161 158 158 161 158 158 161 158 158 161 216 223 223 216 223 223 216 223 223 216 223 223 216 223 223 216 223 223 158 158 161 158 158 161 158 158 161 158 158 161 122 97 106 122 97 106 122 97 106 122 97 106 122 97 106 122 97 106 122 97 106 122 97 106 121 98 109 121 98 109 121 98 109 121 98 109 121 98 109 121 98 109 121 98 109 121 98 109 121 98 109 121 98 109 121 98 109 121 98 109 121 98 109 121 98 109 121 98 109 121 98 109 121 98 109 121 98 109 121 98 109 121 98 109 121 98 109 121 98 109 121 98 109 121 98 109 121 98 109 121 98 109 121 98 109 121 98 109 121 98 109 121 98 109 121 98 109 121 98 109 121 98 109 121 98 109 121 98 109 121 98 109 157 196 220 157 196 220 157 196 220 157 196 220 157 196 220 157 196 220 157 196 220 157 196 220 157 196 220 157 196 220 157 196 220 157 196 220 157 196 220 157 196 220 157 196 220 157 196 220 157 196 220 157 195 219 157 195 219 157 195 219 157 195 219 157 195 219 157 195 219 157 195 219 157 195 219 157 195 219 157 195 219 157 195 219 157 195 219 157 195 219 157 195 219 157 195 219 157 195 219 157 195 219 157 195 219 157 195 219 157 195 219 157 195 219 157 195 219 157 195 219 157 195 219 157 195 219 157 195 219 157 195 219 157 195 219 157 195 219 157 195 219 157 195 219 157 195 219 131 142 144 157 195 219 214 223 216 214 223 216 214 223 216 214 223 216 214 223 216 214 223 216 131 142 144 98 66 73 98 66 73 98 66 73 98 66 73 98 66 73 98 66 73 98 66 73 164 104 96 164 104 96 164 104 96 164 104 96 164 104 96 164 104 96 164 104 96 164 104 96 164 104 96 164 104 96 164 104 96 164 104 96 164 104 96 164 104 96 164 104 96 164 104 96 164 104 96 164 104 96 164 104 96 164 104 96 164 104 96 164 104 96 164 104 96 164 104 96 164 104 96 164 104 96 164 104 96 164 104 96 164 104 96 164 104 96 164 104 96 164 104 96 164 104 96 164 104 96 164 104 96 164 104 96 164 104 96 164 104 96 164 104 96 164 104 96 164 104 96 164 104 96 168 109 100 168 109 100 168 109 100 168 109 100 168 109 100 168 109 100 168 109 100 168 109 100 168 109 100 168 109 100 168 109 100 168 109 100 168 109 100 168 109 100 168 109 100 168 109 100 168 109 100 168 109 100 168 109 100 168 109 100 107 64 79 107 64 79 107 64 79 107 64 79 107 64 79 107 64 79 107 64 79 107 64 79 107 64 79 107 64 79 107 64 79 107 64 79 107 64 79 107 64 79 107 64 79 107 64 79 107 64 79 99 60 75 99 60 75 99 60 75 99 60 75 99 60 75 99 60 75 99 60 75 99 60 75 99 60 75 99 60 75 99 60 75 99 60 75 99 60 75 99 60 75 99 60 75 99 60 75 99 60 75 99 60 75 99 60 75 99 60 75 99 60 75 99 60 75 99 60 75 99 60 75 99 60 75 99 60 75 74 40 65 74 40 65 74 40 65 74 40 65 99 60 75 216 223 223 216 223 223 216 223 223 216 223 223 216 223 223 216 223 223 216 223 223 216 223 223 216 223 223 216 223 223 216 223 223 216 223 223 216 223 223 216 223 223 216 223 223 216 223 223 158 158 161 158 158 161 158 158 161 158 158 161 158 158 161 158 158 161 158 158 161 158 158 161 158 158 161 158 158 161 158 158 161 158 158 161 158 158 161 158 158 161 158 158 161 158 158 161 158 158 161 216 223 223 216 223 223 216 223 223 216 223 223 216 223 223 158 158 161 158 158 161 158 158 161 158 158 161 158 158 161 158 158 161 121 98 109 121 98 109 121 98 109 121 98 109 121 98 109 121 98 109 121 98 109 121 98 109 121 98 109 121 98 109 121 98 109 121 98 109 121 98 109 121 98 109 121 98 109 121 98 109 121 98 109 121 98 109 121 98 109 121 98 109 121 98 109 121 98 109 121 98 109 121 98 109 121 98 109 121 98 109 121 98 109 121 98 109 121 98 109 121 98 109 121 98 109 121 98 109 121 98 109 121 98 109 121 98 109 121 98 109 121 98 109 157 196 220 157 196 220 157 196 220 157 196 220 157 196 220 157 196 220 157 196 220 157 196 220 157 196 220 157 196 220 157 196 220 157 196 220 157 196 220 157 196 220 157 196 220 157 196 220 157 196 220 157 196 220 157 195 219 157 195 219 157 195 219 157 195 219 157 195 219 157 195 219 157 195 219 157 195 219 157 195 219 157 195 219 157 195 219 157 195 219 157 195 219 157 195 219 157 195 219 157 195 219 157 195 219 157 195 219 157 195 219 157 195 219 157 195 219 157 195 219 157 195 219 157 195 219 157 195 219 157 195 219 157 195 219 157 195 219 157 195 219 157 195 219 131 142 144 157 195 219 157 195 219 214 223 216 214 223 216 214 223 216 214 223 216 214 223 216 181 172 166 98 66 73 98 66 73 98 66 73 98 66 73 98 66 73 98 66 73 98 66 73 98 66 73 164 104 96 164 104 96 164 104 96 164 104 96 164 104 96 164 104 96 164 104 96 164 104 96 164 104 96 164 104 96 164 104 96 164 104 96 164 104 96 164 104 96 164 104 96 164 104 96 164 104 96 164 104 96 164 104 96 164 104 96 164 104 96 164 104 96 164 104 96 164 104 96 164 104 96 164 104 96 164 104 96 164 104 96 164 104 96 164 104 96 164 104 96 164 104 96 164 104 96 164 104 96 164 104 96 164 104 96 164 104 96 164 104 96 168 109 100 168 109 100 168 109 100 168 109 100 168 109 100 168 109 100 168 109 100 168 109 100 168 109 100 168 109 100 168 109 100 168 109 100 168 109 100 168 109 100 168 109 100 168 109 100 168 109 100 168 109 100 168 109 100 168 109 100 168 109 100 168 109 100 168 109 100 168 109 100 168 109 100 168 109 100 168 109 100 107 64 79 107 64 79 107 64 79 107 64 79 107 64 79 107 64 79 107 64 79 107 64 79 107 64 79 107 64 79 107 64 79 107 64 79 107 64 79 107 64 79 99 60 75 99 60 75 99 60 75 99 60 75 99 60 75 99 60 75 99 60 75 99 60 75 99 60 75 99 60 75 99 60 75 99 60 75 99 60 75 99 60 75 99 60 75 99 60 75 99 60 75 99 60 75 99 60 75 99 60 75 99 60 75 99 60 75 99 60 75 99 60 75 99 60 75 99 60 75 74 40 65 74 40 65 74 40 65 74 40 65 99 60 75 158 158 161 216 223 223 216 223 223 216 223 223 216 223 223 216 223 223 216 223 223 216 223 223 216 223 223 216 223 223 216 223 223 216 223 223 216 223 223 216 223 223 216 223 223 158 158 161 122 97 106 122 97 106 122 97 106 158 158 161 158 158 161 158 158 161 158 158 161 158 158 161 158 158 161 158 158 161 158 158 161 158 158 161 158 158 161 158 158 161 158 158 161 158 158 161 158 158 161 158 158 161 158 158 161 158 158 161 158 158 161 158 158 161 158 158 161 158 158 161 216 223 223 216 223 223 216 223 223 216 223 223 216 223 223 158 158 161 158 158 161 158 158 161 158 158 161 121 98 109 121 98 109 121 98 109 121 98 109 121 98 109 121 98 109 121 98 109 121 98 109 121 98 109 121 98 109 121 98 109 121 98 109 121 98 109 121 98 109 121 98 109 121 98 109 121 98 109 121 98 109 121 98 109 121 98 109 121 98 109 121 98 109 121 98 109 121 98 109 121 98 109 121 98 109 121 98 109 121 98 109 121 98 109 121 98 109 121 98 109 121 98 109 157 196 220 157 196 220 157 196 220 157 196 220 157 196 220 157 196 220 157 196 220 157 196 220 157 196 220 157 196 220 157 196 220 157 196 220 157 196 220 157 196 220 157 196 220 157 196 220 157 196 220 157 196 220 157 196 220 157 195 219 157 195 219 157 195 219 157 195 219 157 195 219 157 195 219 157 195 219 157 195 219 157 195 219 157 195 219 157 195 219 157 195 219 157 195 219 157 195 219 157 195 219 157 195 219 157 195 219 157 195 219 157 195 219 157 195 219 157 195 219 157 195 219 157 195 219 157 195 219 157 195 219 157 195 219 157 195 219 157 195 219 131 142 144 157 195 219 214 223 216 214 223 216 214 223 216 214 223 216 214 223 216 214 223 216 157 195 219 131 142 144 98 66 73 98 66 73 98 66 73 98 66 73 98 66 73 98 66 73 98 66 73 164 104 96 164 104 96 164 104 96 164 104 96 164 104 96 164 104 96 164 104 96 164 104 96 164 104 96 164 104 96 164 104 96 164 104 96 164 104 96 164 104 96 164 104 96 164 104 96 164 104 96 164 104 96 164 104 96 164 104 96 164 104 96 164 104 96 164 104 96 164 104 96 164 104 96 164 104 96 164 104 96 164 104 96 164 104 96 164 104 96 164 104 96 164 104 96 164 104 96 164 104 96 164 104 96 164 104 96 164 104 96 164 104 96 164 104 96 168 109 100 168 109 100 168 109 100 168 109 100 168 109 100 168 109 100 168 109 100 168 109 100 168 109 100 168 109 100 168 109 100 168 109 100 168 109 100 168 109 100 168 109 100 168 109 100 168 109 100 168 109 100 168 109 100 168 109 100 168 109 100 168 109 100 168 109 100 168 109 100 168 109 100 168 109 100 168 109 100 168 109 100 107 64 79 107 64 79 107 64 79 107 64 79 107 64 79 107 64 79 107 64 79 107 64 79 107 64 79 107 64 79 107 64 79 107 64 79 99 60 75 99 60 75 99 60 75 99 60 75 99 60 75 99 60 75 99 60 75 99 60 75 99 60 75 99 60 75 99 60 75 99 60 75 99 60 75 99 60 75 99 60 75 99 60 75 99 60 75 99 60 75 99 60 75 99 60 75 99 60 75 99 60 75 99 60 75 99 60 75 99 60 75 74 40 65 99 60 75 99 60 75 74 40 65 74 40 65 74 40 65 99 60 75 158 158 161 216 223 223 216 223 223 216 223 223 216 223 223 216 223 223 216 223 223 216 223 223 216 223 223 216 223 223 216 223 223 216 223 223 216 223 223 216 223 223 216 223 223 158 158 161 122 97 106 122 97 106 122 97 106 122 97 106 122 97 106 122 97 106 122 97 106 122 97 106 122 97 106 158 158 161 158 158 161 158 158 161 158 158 161 158 158 161 158 158 161 158 158 161 158 158 161 158 158 161 158 158 161 158 158 161 158 158 161 158 158 161 158 158 161 158 158 161 158 158 161 158 158 161 158 158 161 158 158 161 158 158 161 158 158 161 216 223 223 216 223 223 216 223 223 216 223 223 158 158 161 158 158 161 158 158 161 158 158 161 158 158 161 121 98 109 121 98 109 121 98 109 121 98 109 121 98 109 121 98 109 121 98 109 121 98 109 121 98 109 121 98 109 121 98 109 121 98 109 121 98 109 121 98 109 121 98 109 121 98 109 121 98 109 121 98 109 121 98 109 121 98 109 121 98 109 121 98 109 121 98 109 121 98 109 121 98 109 121 98 109 157 196 220 157 196 220 157 196 220 157 196 220 157 196 220 157 196 220 157 196 220 157 196 220 157 196 220 157 196 220 157 196 220 157 196 220 157 196 220 157 196 220 157 196 220 157 196 220 157 196 220 157 196 220 157 196 220 157 196 220 157 195 219 157 195 219 157 195 219 157 195 219 157 195 219 157 195 219 157 195 219 157 195 219 157 195 219 157 195 219 157 195 219 157 195 219 157 195 219 157 195 219 157 195 219 157 195 219 157 195 219 157 195 219 157 195 219 157 195 219 157 195 219 157 195 219 157 195 219 157 195 219 157 195 219 157 195 219 131 142 144 131 142 144 214 223 216 214 223 216 214 223 216 214 223 216 214 223 216 214 223 216 157 195 219 131 142 144 98 66 73 98 66 73 98 66 73 98 66 73 98 66 73 98 66 73 98 66 73 98 66 73 165 105 94 165 105 94 165 105 94 165 105 94 165 105 94 165 105 94 164 104 96 164 104 96 164 104 96 164 104 96 164 104 96 164 104 96 164 104 96 164 104 96 164 104 96 164 104 96 164 104 96 164 104 96 164 104 96 164 104 96 164 104 96 164 104 96 164 104 96 164 104 96 164 104 96 164 104 96 164 104 96 164 104 96 164 104 96 164 104 96 164 104 96 164 104 96 164 104 96 168 109 100 168 109 100 168 109 100 168 109 100 164 104 96 168 109 100 168 109 100 168 109 100 168 109 100 168 109 100 168 109 100 168 109 100 168 109 100 168 109 100 168 109 100 168 109 100 168 109 100 168 109 100 168 109 100 168 109 100 168 109 100 168 109 100 168 109 100 168 109 100 168 109 100 168 109 100 168 109 100 168 109 100 168 109 100 168 109 100 168 109 100 168 109 100 168 109 100 168 109 100 168 109 100 168 109 100 107 64 79 107 64 79 107 64 79 107 64 79 107 64 79 107 64 79 107 64 79 99 60 75 107 64 79 99 60 75 99 60 75 99 60 75 99 60 75 99 60 75 99 60 75 99 60 75 99 60 75 99 60 75 99 60 75 99 60 75 99 60 75 99 60 75 99 60 75 99 60 75 99 60 75 99 60 75 99 60 75 99 60 75 99 60 75 99 60 75 99 60 75 99 60 75 99 60 75 99 60 75 99 60 75 99 60 75 99 60 75 99 60 75 74 40 65 74 40 65 74 40 65 99 60 75 158 158 161 216 223 223 216 223 223 216 223 223 216 223 223 216 223 223 216 223 223 216 223 223 216 223 223 216 223 223 216 223 223 216 223 223 216 223 223 216 223 223 216 223 223 158 158 161 158 158 161 158 158 161 158 158 161 122 97 106 122 97 106 122 97 106 122 97 106 122 97 106 122 97 106 122 97 106 122 97 106 122 97 106 122 97 106 122 97 106 158 158 161 158 158 161 158 158 161 158 158 161 158 158 161 158 158 161 158 158 161 158 158 161 158 158 161 158 158 161 158 158 161 158 158 161 158 158 161 158 158 161 158 158 161 158 158 161 158 158 161 158 158 161 158 158 161 158 158 161 158 158 161 158 158 161 159 197 222 159 197 222 159 197 222 159 197 222 159 197 222 158 158 161 158 158 161 158 158 161 158 158 161 121 98 109 121 98 109 121 98 109 121 98 109 121 98 109 121 98 109 121 98 109 121 98 109 121 98 109 121 98 109 121 98 109 121 98 109 121 98 109 121 98 109 121 98 109 121 98 109 121 98 109 121 98 109 121 98 109 121 98 109 157 196 220 157 196 220 157 196 220 157 196 220 157 196 220 157 196 220 157 196 220 157 196 220 157 196 220 157 196 220 157 196 220 157 196 220 157 196 220 157 196 220 157 196 220 157 196 220 157 196 220 157 196 220 157 196 220 157 196 220 157 196 220 157 195 219 157 195 219 157 195 219 157 195 219 157 195 219 157 195 219 157 195 219 157 195 219 157 195 219 157 195 219 157 195 219 157 195 219 157 195 219 157 195 219 157 195 219 157 195 219 157 195 219 157 195 219 157 195 219 157 195 219 157 195 219 157 195 219 157 195 219 157 195 219 131 142 144 131 142 144 157 195 219 214 223 216 214 223 216 214 223 216 214 223 216 214 223 216 214 223 216 131 142 144 98 66 73 98 66 73 98 66 73 98 66 73 98 66 73 98 66 73 98 66 73 98 66 73 98 66 73 165 105 94 165 105 94 165 105 94 165 105 94 165 105 94 165 105 94 165 105 94 165 105 94 165 105 94 164 104 96 164 104 96 164 104 96 164 104 96 164 104 96 164 104 96 164 104 96 164 104 96 164 104 96 164 104 96 164 104 96 164 104 96 164 104 96 164 104 96 164 104 96 164 104 96 164 104 96 164 104 96 164 104 96 164 104 96 164 104 96 164 104 96 164 104 96 164 104 96 164 104 96 164 104 96 168 109 100 168 109 100 164 104 96 168 109 100 168 109 100 168 109 100 168 109 100 168 109 100 168 109 100 168 109 100 168 109 100 168 109 100 168 109 100 168 109 100 168 109 100 168 109 100 168 109 100 168 109 100 168 109 100 168 109 100 168 109 100 168 109 100 168 109 100 168 109 100 168 109 100 168 109 100 168 109 100 168 109 100 168 109 100 168 109 100 168 109 100 168 109 100 168 109 100 168 109 100 168 109 100 107 64 79 107 64 79 107 64 79 107 64 79 107 64 79 107 64 79 99 60 75 107 64 79 107 64 79 107 64 79 99 60 75 99 60 75 99 60 75 99 60 75 99 60 75 99 60 75 99 60 75 99 60 75 99 60 75 99 60 75 99 60 75 99 60 75 99 60 75 99 60 75 99 60 75 99 60 75 99 60 75 99 60 75 99 60 75 99 60 75 99 60 75 99 60 75 99 60 75 99 60 75 99 60 75 99 60 75 99 60 75 74 40 65 74 40 65 99 60 75 99 60 75 158 158 161 216 223 223 216 223 223 216 223 223 216 223 223 216 223 223 216 223 223 216 223 223 216 223 223 216 223 223 216 223 223 216 223 223 216 223 223 216 223 223 158 158 161 158 158 161 158 158 161 158 158 161 158 158 161 158 158 161 158 158 161 158 158 161 158 158 161 158 158 161 158 158 161 158 158 161 122 97 106 122 97 106 107 68 81 122 97 106 158 158 161 216 223 223 216 223 223 158 158 161 158 158 161 122 97 106 122 97 106 158 158 161 158 158 161 158 158 161 158 158 161 158 158 161 158 158 161 158 158 161 158 158 161 158 158 161 158 158 161 158 158 161 158 158 161 158 158 161 158 158 161 158 158 161 158 158 161 158 158 161 158 158 161 158 158 161 158 158 161 159 197 222 159 197 222 159 197 222 159 197 222 159 197 222 158 158 161 158 158 161 158 158 161 158 158 161 158 158 161 121 98 109 121 98 109 121 98 109 121 98 109 121 98 109 121 98 109 121 98 109 121 98 109 121 98 109 121 98 109 121 98 109 121 98 109 121 98 109 121 98 109 157 196 220 157 196 220 157 196 220 157 196 220 157 196 220 157 196 220 157 196 220 157 196 220 157 196 220 157 196 220 157 196 220 157 196 220 157 196 220 157 196 220 157 196 220 157 196 220 157 196 220 157 196 220 157 196 220 157 196 220 157 196 220 157 196 220 157 195 219 157 195 219 157 195 219 157 195 219 157 195 219 157 195 219 157 195 219 157 195 219 157 195 219 157 195 219 157 195 219 157 195 219 157 195 219 157 195 219 157 195 219 157 195 219 157 195 219 157 195 219 157 195 219 157 195 219 157 195 219 157 195 219 131 142 144 131 142 144 157 195 219 214 223 216 214 223 216 214 223 216 214 223 216 214 223 216 214 223 216 131 142 144 98 66 73 98 66 73 98 66 73 98 66 73 98 66 73 98 66 73 98 66 73 98 66 73 98 66 73 98 66 73 165 105 94 165 105 94 165 105 94 165 105 94 165 105 94 165 105 94 165 105 94 165 105 94 165 105 94 165 105 94 165 105 94 165 105 94 164 104 96 164 104 96 164 104 96 164 104 96 164 104 96 164 104 96 164 104 96 164 104 96 164 104 96 164 104 96 164 104 96 164 104 96 164 104 96 164 104 96 164 104 96 164 104 96 164 104 96 164 104 96 164 104 96 164 104 96 168 109 100 168 109 100 168 109 100 168 109 100 168 109 100 164 104 96 164 104 96 168 109 100 168 109 100 168 109 100 168 109 100 168 109 100 168 109 100 168 109 100 168 109 100 168 109 100 168 109 100 168 109 100 168 109 100 168 109 100 168 109 100 168 109 100 168 109 100 168 109 100 168 109 100 168 109 100 168 109 100 168 109 100 168 109 100 168 109 100 168 109 100 168 109 100 168 109 100 168 109 100 168 109 100 168 109 100 168 109 100 168 109 100 168 109 100 168 109 100 107 64 79 107 64 79 107 64 79 99 60 75 99 60 75 99 60 75 99 60 75 99 60 75 99 60 75 99 60 75 99 60 75 99 60 75 99 60 75 99 60 75 99 60 75 99 60 75 99 60 75 99 60 75 99 60 75 99 60 75 99 60 75 99 60 75 99 60 75 99 60 75 99 60 75 99 60 75 99 60 75 99 60 75 99 60 75 99 60 75 99 60 75 99 60 75 99 60 75 99 60 75 99 60 75 99 60 75 99 60 75 99 60 75 99 60 75 216 223 223 216 223 223 216 223 223 216 223 223 216 223 223 216 223 223 216 223 223 216 223 223 216 223 223 216 223 223 158 158 161 158 158 161 158 158 161 158 158 161 122 97 106 107 68 81 122 97 106 122 97 106 122 97 106 122 97 106 122 97 106 158 158 161 158 158 161 158 158 161 158 158 161 158 158 161 158 158 161 158 158 161 122 97 106 158 158 161 216 223 223 216 223 223 216 223 223 216 223 223 158 158 161 122 97 106 122 97 106 122 97 106 122 97 106 122 97 106 122 97 106 121 98 109 121 98 109 158 158 161 158 158 161 158 158 161 158 158 161 158 158 161 158 158 161 158 158 161 158 158 161 158 158 161 158 158 161 158 158 161 158 158 161 158 158 161 158 158 161 158 158 161 158 158 161 158 158 161 158 158 161 158 158 161 158 158 161 159 197 222 159 197 222 159 197 222 159 197 222 159 197 222 158 158 161 158 158 161 158 158 161 158 158 161 158 158 161 121 98 109 121 98 109 121 98 109 121 98 109 121 98 109 121 98 109 121 98 109 121 98 109 157 196 220 157 196 220 157 196 220 157 196 220 157 196 220 157 196 220 157 196 220 157 196 220 157 196 220 157 196 220 157 196 220 157 196 220 157 196 220 157 196 220 157 196 220 157 196 220 157 196 220 157 196 220 157 196 220 157 196 220 157 196 220 157 196 220 157 195 219 157 195 219 157 195 219 157 195 219 157 195 219 157 195 219 157 195 219 157 195 219 157 195 219 157 195 219 157 195 219 157 195 219 157 195 219 157 195 219 157 195 219 157 195 219 157 195 219 157 195 219 157 195 219 157 195 219 157 195 219 131 142 144 131 142 144 157 195 219 214 223 216 214 223 216 214 223 216 214 223 216 214 223 216 214 223 216 131 142 144 98 66 73 98 66 73 98 66 73 98 66 73 98 66 73 98 66 73 98 66 73 98 66 73 98 66 73 98 66 73 98 66 73 165 105 94 165 105 94 165 105 94 165 105 94 165 105 94 165 105 94 165 105 94 165 105 94 165 105 94 165 105 94 165 105 94 165 105 94 165 105 94 165 105 94 165 105 94 165 105 94 164 104 96 164 104 96 164 104 96 164 104 96 164 104 96 164 104 96 164 104 96 164 104 96 164 104 96 164 104 96 164 104 96 164 104 96 164 104 96 164 104 96 164 104 96 164 104 96 164 104 96 164 104 96 164 104 96 168 109 100 164 104 96 168 109 100 168 109 100 168 109 100 168 109 100 168 109 100 168 109 100 168 109 100 168 109 100 168 109 100 168 109 100 168 109 100 168 109 100 168 109 100 168 109 100 168 109 100 168 109 100 168 109 100 168 109 100 168 109 100 168 109 100 168 109 100 168 109 100 168 109 100 168 109 100 168 109 100 168 109 100 168 109 100 168 109 100 168 109 100 168 109 100 168 109 100 168 109 100 168 109 100 168 109 100 168 109 100 168 109 100 107 64 79 107 64 79 107 64 79 107 64 79 107 64 79 107 64 79 107 64 79 99 60 75 99 60 75 99 60 75 99 60 75 99 60 75 99 60 75 99 60 75 99 60 75 99 60 75 99 60 75 99 60 75 99 60 75 99 60 75 99 60 75 99 60 75 99 60 75 99 60 75 99 60 75 99 60 75 99 60 75 99 60 75 99 60 75 99 60 75 99 60 75 99 60 75 99 60 75 99 60 75 99 60 75 99 60 75 99 60 75 122 97 106 216 223 223 216 223 223 216 223 223 216 223 223 216 223 223 216 223 223 216 223 223 158 158 161 158 158 161 158 158 161 122 97 106 122 97 106 122 97 106 122 97 106 122 97 106 107 68 81 107 68 81 107 68 81 107 68 81 107 68 81 107 68 81 107 68 81 107 68 81 122 97 106 122 97 106 122 97 106 122 97 106 122 97 106 122 97 106 158 158 161 216 223 223 216 223 223 216 223 223 216 223 223 158 158 161 158 158 161 158 158 161 158 158 161 158 158 161 122 97 106 122 97 106 122 97 106 121 98 109 121 98 109 121 98 109 121 98 109 121 98 109 121 98 109 121 98 109 158 158 161 158 158 161 158 158 161 158 158 161 158 158 161 158 158 161 158 158 161 158 158 161 158 158 161 158 158 161 158 158 161 158 158 161 158 158 161 158 158 161 158 158 161 158 158 161 158 158 161 158 158 161 158 158 161 158 158 161 159 197 222 159 197 222 159 197 222 159 197 222 159 197 222 158 158 161 158 158 161 158 158 161 158 158 161 121 98 109 121 98 109 121 98 109 157 196 220 157 196 220 157 196 220 157 196 220 157 196 220 157 196 220 157 196 220 157 196 220 157 196 220 157 196 220 157 196 220 157 196 220 157 196 220 157 196 220 157 196 220 157 196 220 157 196 220 157 196 220 157 196 220 157 196 220 157 196 220 157 196 220 157 196 220 157 195 219 157 195 219 157 195 219 157 195 219 157 195 219 157 195 219 157 195 219 157 195 219 157 195 219 157 195 219 157 195 219 157 195 219 157 195 219 157 195 219 157 195 219 157 195 219 157 195 219 157 195 219 157 195 219 131 142 144 131 142 144 157 195 219 214 223 216 214 223 216 214 223 216 214 223 216 214 223 216 214 223 216 131 142 144 98 66 73 98 66 73 98 66 73 98 66 73 98 66 73 98 66 73 98 66 73 98 66 73 98 66 73 98 66 73 98 66 73 98 66 73 165 105 94 165 105 94 165 105 94 165 105 94 165 105 94 165 105 94 165 105 94 165 105 94 165 105 94 165 105 94 165 105 94 165 105 94 165 105 94 165 105 94 165 105 94 165 105 94 165 105 94 165 105 94 165 105 94 164 104 96 164 104 96 164 104 96 164 104 96 164 104 96 164 104 96 164 104 96 164 104 96 164 104 96 164 104 96 164 104 96 164 104 96 164 104 96 164 104 96 164 104 96 164 104 96 164 104 96 168 109 100 164 104 96 164 104 96 168 109 100 168 109 100 168 109 100 168 109 100 168 109 100 168 109 100 168 109 100 168 109 100 168 109 100 168 109 100 168 109 100 168 109 100 168 109 100 168 109 100 168 109 100 168 109 100 168 109 100 168 109 100 168 109 100 168 109 100 168 109 100 168 109 100 168 109 100 168 109 100 168 109 100 168 109 100 168 109 100 168 109 100 168 109 100 168 109 100 168 109 100 168 109 100 168 109 100 168 109 100 168 109 100 168 109 100 168 109 100 107 64 79 107 64 79 99 60 75 99 60 75 99 60 75 99 60 75 99 60 75 99 60 75 99 60 75 99 60 75 99 60 75 99 60 75 99 60 75 99 60 75 99 60 75 99 60 75 99 60 75 99 60 75 99 60 75 99 60 75 99 60 75 99 60 75 99 60 75 99 60 75 99 60 75 99 60 75 99 60 75 99 60 75 99 60 75 99 60 75 99 60 75 99 60 75 99 60 75 99 60 75 122 97 106 216 223 223 216 223 223 216 223 223 158 158 161 158 158 161 126 139 153 122 97 106 122 97 106 107 68 81 107 68 81 107 68 81 107 68 81 107 68 81 107 68 81 107 68 81 107 68 81 107 68 81 107 68 81 107 68 81 107 68 81 107 68 81 74 40 65 74 40 65 74 40 65 74 40 65 74 40 65 107 68 81 107 68 81 122 97 106 158 158 161 216 223 223 216 223 223 216 223 223 216 223 223 158 158 161 158 158 161 158 158 161 158 158 161 158 158 161 158 158 161 158 158 161 158 158 161 158 158 161 158 158 161 121 98 109 121 98 109 121 98 109 121 98 109 121 98 109 121 98 109 121 98 109 121 98 109 121 98 109 121 98 109 121 98 109 158 158 161 158 158 161 158 158 161 158 158 161 158 158 161 158 158 161 158 158 161 158 158 161 158 158 161 158 158 161 158 158 161 158 158 161 158 158 161 158 158 161 158 158 161 158 158 161 158 158 161 158 158 161 158 158 161 158 158 161 159 197 222 159 197 222 159 197 222 159 197 222 159 197 222 158 158 161 157 196 220 157 196 220 157 196 220 157 196 220 157 196 220 157 196 220 157 196 220 157 196 220 157 196 220 157 196 220 157 196 220 157 196 220 157 196 220 157 196 220 157 196 220 157 196 220 157 196 220 157 196 220 157 196 220 157 196 220 157 196 220 157 196 220 157 196 220 157 196 220 157 195 219 157 195 219 157 195 219 157 195 219 157 195 219 157 195 219 157 195 219 157 195 219 157 195 219 157 195 219 157 195 219 157 195 219 157 195 219 157 195 219 157 195 219 157 195 219 157 195 219 131 142 144 131 142 144 157 195 219 214 223 216 214 223 216 214 223 216 214 223 216 214 223 216 214 223 216 131 142 144 98 66 73 98 66 73 98 66 73 98 66 73 98 66 73 98 66 73 98 66 73 98 66 73 98 66 73 98 66 73 98 66 73 98 66 73 98 66 73 165 105 94 165 105 94 165 105 94 165 105 94 165 105 94 165 105 94 165 105 94 165 105 94 165 105 94 165 105 94 165 105 94 165 105 94 165 105 94 165 105 94 165 105 94 165 105 94 165 105 94 165 105 94 165 105 94 165 105 94 165 105 94 165 105 94 165 105 94 165 105 94 164 104 96 164 104 96 164 104 96 164 104 96 164 104 96 164 104 96 164 104 96 164 104 96 164 104 96 164 104 96 164 104 96 168 109 100 168 109 100 168 109 100 168 109 100 168 109 100 168 109 100 168 109 100 168 109 100 168 109 100 168 109 100 168 109 100 168 109 100 168 109 100 168 109 100 168 109 100 168 109 100 168 109 100 168 109 100 168 109 100 168 109 100 168 109 100 168 109 100 168 109 100 168 109 100 168 109 100 168 109 100 168 109 100 168 109 100 168 109 100 168 109 100 168 109 100 168 109 100 168 109 100 168 109 100 168 109 100 168 109 100 168 109 100 168 109 100 168 109 100 168 109 100 168 109 100 168 109 100 107 64 79 107 64 79 99 60 75 99 60 75 99 60 75 99 60 75 99 60 75 99 60 75 99 60 75 99 60 75 99 60 75 99 60 75 99 60 75 99 60 75 99 60 75 99 60 75 99 60 75 99 60 75 99 60 75 99 60 75 99 60 75 99 60 75 99 60 75 99 60 75 99 60 75 99 60 75 99 60 75 99 60 75 99 60 75 99 60 75 99 60 75 99 60 75 99 60 75 99 60 75 126 139 153 122 97 106 122 97 106 122 97 106 107 68 81 99 60 75 99 60 75 99 60 75 74 40 65 74 40 65 74 40 65 74 40 65 99 60 75 107 68 81 107 68 81 107 68 81 107 68 81 107 68 81 107 68 81 107 68 81 107 68 81 107 68 81 107 68 81 74 40 65 74 40 65 74 40 65 107 68 81 107 68 81 122 97 106 158 158 161 216 223 223 216 223 223 216 223 223 158 158 161 122 97 106 107 68 81 107 68 81 122 97 106 122 97 106 121 98 109 158 158 161 158 158 161 158 158 161 158 158 161 158 158 161 158 158 161 158 158 161 158 158 161 158 158 161 158 158 161 121 98 109 121 98 109 121 98 109 121 98 109 121 98 109 121 98 109 121 98 109 121 98 109 121 98 109 121 98 109 121 98 109 158 158 161 158 158 161 158 158 161 158 158 161 158 158 161 158 158 161 158 158 161 158 158 161 158 158 161 158 158 161 158 158 161 158 158 161 158 158 161 158 158 161 158 158 161 158 158 161 158 158 161 158 158 161 158 158 161 159 197 222 157 196 220 157 196 220 157 196 220 157 196 220 157 196 220 157 196 220 157 196 220 157 196 220 157 196 220 157 196 220 157 196 220 157 196 220 157 196 220 157 196 220 157 196 220 157 196 220 157 196 220 157 196 220 157 196 220 157 196 220 157 196 220 157 196 220 157 196 220 157 196 220 157 196 220 157 195 219 157 195 219 157 195 219 157 195 219 157 195 219 157 195 219 157 195 219 157 195 219 157 195 219 157 195 219 157 195 219 157 195 219 157 195 219 157 195 219 157 195 219 131 142 144 131 142 144 157 195 219 214 223 216 214 223 216 214 223 216 214 223 216 214 223 216 214 223 216 131 142 144 98 66 73 98 66 73 98 66 73 98 66 73 98 66 73 98 66 73 98 66 73 98 66 73 98 66 73 98 66 73 98 66 73 98 66 73 98 66 73 98 66 73 98 66 73 165 105 94 165 105 94 165 105 94 165 105 94 165 105 94 165 105 94 165 105 94 165 105 94 165 105 94 165 105 94 165 105 94 165 105 94 165 105 94 165 105 94 165 105 94 165 105 94 165 105 94 165 105 94 165 105 94 165 105 94 165 105 94 165 105 94 165 105 94 165 105 94 165 105 94 165 105 94 164 104 96 164 104 96 164 104 96 164 104 96 164 104 96 164 104 96 164 104 96 164 104 96 168 109 100 168 109 100 168 109 100 168 109 100 168 109 100 168 109 100 168 109 100 168 109 100 168 109 100 168 109 100 168 109 100 168 109 100 168 109 100 168 109 100 168 109 100 168 109 100 168 109 100 168 109 100 168 109 100 168 109 100 168 109 100 168 109 100 168 109 100 168 109 100 168 109 100 168 109 100 168 109 100 168 109 100 168 109 100 168 109 100 168 109 100 168 109 100 168 109 100 168 109 100 168 109 100 168 109 100 168 109 100 168 109 100 168 109 100 168 109 100 168 109 100 168 109 100 168 109 100 168 109 100 168 109 100 99 60 75 99 60 75 99 60 75 99 60 75 99 60 75 99 60 75 99 60 75 99 60 75 99 60 75 99 60 75 99 60 75 99 60 75 99 60 75 99 60 75 99 60 75 99 60 75 99 60 75 99 60 75 99 60 75 99 60 75 99 60 75 99 60 75 99 60 75 99 60 75 99 60 75 99 60 75 99 60 75 99 60 75 99 60 75 99 60 75 99 60 75 99 60 75 99 60 75 99 60 75 99 60 75 99 60 75 74 40 65 74 40 65 74 40 65 74 40 65 74 40 65 74 40 65 74 40 65 74 40 65 74 40 65 74 40 65 74 40 65 74 40 65 74 40 65 74 40 65 74 40 65 107 68 81 107 68 81 107 68 81 107 68 81 107 68 81 107 68 81 107 68 81 107 68 81 158 158 161 216 223 223 216 223 223 158 158 161 158 158 161 158 158 161 107 68 81 107 68 81 107 68 81 107 68 81 107 68 81 107 68 81 107 68 81 107 68 81 121 98 109 121 98 109 121 98 109 121 98 109 158 158 161 158 158 161 158 158 161 158 158 161 158 158 161 158 158 161 158 158 161 158 158 161 158 158 161 158 158 161 121 98 109 121 98 109 121 98 109 121 98 109 121 98 109 121 98 109 121 98 109 121 98 109 121 98 109 121 98 109 158 158 161 158 158 161 158 158 161 158 158 161 158 158 161 158 158 161 158 158 161 158 158 161 158 158 161 158 158 161 158 158 161 158 158 161 158 158 161 158 158 161 158 158 161 157 196 220 157 196 220 157 196 220 157 196 220 157 196 220 157 196 220 157 196 220 157 196 220 157 196 220 157 196 220 157 196 220 157 196 220 157 196 220 157 196 220 157 196 220 157 196 220 157 196 220 157 196 220 157 196 220 157 196 220 157 196 220 157 196 220 157 196 220 157 196 220 157 196 220 157 196 220 157 195 219 157 195 219 157 195 219 157 195 219 157 195 219 157 195 219 157 195 219 157 195 219 157 195 219 157 195 219 157 195 219 157 195 219 157 195 219 157 195 219 131 142 144 157 195 219 214 223 216 214 223 216 214 223 216 214 223 216 214 223 216 214 223 216 181 172 166 165 105 94 98 66 73 98 66 73 98 66 73 98 66 73 98 66 73 98 66 73 98 66 73 98 66 73 98 66 73 98 66 73 98 66 73 98 66 73 98 66 73 98 66 73 165 105 94 165 105 94 165 105 94 165 105 94 165 105 94 165 105 94 165 105 94 165 105 94 165 105 94 165 105 94 165 105 94 165 105 94 165 105 94 165 105 94 165 105 94 165 105 94 165 105 94 165 105 94 165 105 94 165 105 94 165 105 94 165 105 94 165 105 94 165 105 94 165 105 94 165 105 94 165 105 94 165 105 94 165 105 94 165 105 94 164 104 96 168 109 100 168 109 100 168 109 100 168 109 100 168 109 100 168 109 100 168 109 100 168 109 100 168 109 100 168 109 100 168 109 100 168 109 100 168 109 100 168 109 100 168 109 100 168 109 100 168 109 100 168 109 100 168 109 100 168 109 100 168 109 100 168 109 100 168 109 100 168 109 100 168 109 100 168 109 100 168 109 100 168 109 100 168 109 100 168 109 100 168 109 100 168 109 100 168 109 100 168 109 100 168 109 100 168 109 100 168 109 100 168 109 100 168 109 100 168 109 100 168 109 100 168 109 100 168 109 100 168 109 100 168 109 100 168 109 100 168 109 100 168 109 100 168 109 100 168 109 100 99 60 75 99 60 75 99 60 75 99 60 75 99 60 75 99 60 75 99 60 75 99 60 75 99 60 75 99 60 75 99 60 75 99 60 75 99 60 75 99 60 75 99 60 75 99 60 75 99 60 75 99 60 75 99 60 75 99 60 75 99 60 75 99 60 75 99 60 75 99 60 75 99 60 75 99 60 75 99 60 75 99 60 75 99 60 75 99 60 75 99 60 75 99 60 75 99 60 75 99 60 75 99 60 75 74 40 65 74 40 65 74 40 65 74 40 65 74 40 65 74 40 65 74 40 65 74 40 65 74 40 65 74 40 65 74 40 65 74 40 65 74 40 65 74 40 65 74 40 65 74 40 65 74 40 65 74 40 65 74 40 65 74 40 65 74 40 65 107 68 81 122 97 106 158 158 161 216 223 223 158 158 161 158 158 161 158 158 161 158 158 161 107 68 81 107 68 81 107 68 81 107 68 81 107 68 81 107 68 81 107 68 81 107 68 81 107 68 81 107 68 81 107 68 81 107 68 81 107 68 81 121 98 109 121 98 109 121 98 109 121 98 109 121 98 109 158 158 161 158 158 161 158 158 161 158 158 161 158 158 161 158 158 161 158 158 161 158 158 161 158 158 161 158 158 161 121 98 109 121 98 109 121 98 109 121 98 109 121 98 109 121 98 109 121 98 109 121 98 109 121 98 109 121 98 109 121 98 109 121 98 109 158 158 161 158 158 161 158 158 161 158 158 161 158 158 161 158 158 161 158 158 161 157 196 220 157 196 220 157 196 220 157 196 220 157 196 220 157 196 220 157 196 220 157 196 220 157 196 220 157 196 220 157 196 220 157 196 220 157 196 220 157 196 220 157 196 220 157 196 220 157 196 220 157 196 220 157 196 220 157 196 220 157 196 220 157 196 220 157 196 220 157 196 220 157 196 220 157 196 220 157 196 220 157 195 219 157 195 219 157 195 219 157 195 219 157 195 219 157 195 219 157 195 219 157 195 219 157 195 219 157 195 219 157 195 219 157 195 219 131 142 144 157 195 219 214 223 216 214 223 216 214 223 216 214 223 216 214 223 216 214 223 216 181 172 166 131 142 144 98 66 73 98 66 73 98 66 73 98 66 73 98 66 73 98 66 73 98 66 73 98 66 73 98 66 73 98 66 73 98 66 73 98 66 73 98 66 73 98 66 73 98 66 73 165 105 94 165 105 94 165 105 94 165 105 94 165 105 94 165 105 94 165 105 94 165 105 94 165 105 94 165 105 94 165 105 94 165 105 94 165 105 94 165 105 94 165 105 94 165 105 94 165 105 94 165 105 94 165 105 94 165 105 94 165 105 94 165 105 94 165 105 94 165 105 94 165 105 94 165 105 94 165 105 94 165 105 94 165 105 94 165 105 94 165 105 94 165 105 94 168 109 100 168 109 100 168 109 100 168 109 100 168 109 100 168 109 100 168 109 100 168 109 100 168 109 100 168 109 100 168 109 100 168 109 100 168 109 100 168 109 100 168 109 100 168 109 100 168 109 100 168 109 100 168 109 100 168 109 100 168 109 100 168 109 100 168 109 100 168 109 100 168 109 100 168 109 100 168 109 100 168 109 100 168 109 100 168 109 100 168 109 100 168 109 100 168 109 100 168 109 100 168 109 100 168 109 100 168 109 100 168 109 100 168 109 100 168 109 100 168 109 100 168 109 100 168 109 100 168 109 100 168 109 100 168 109 100 168 109 100 168 109 100 168 109 100 168 109 100 164 106 100 99 60 75 99 60 75 99 60 75 99 60 75 99 60 75 99 60 75 99 60 75 99 60 75 99 60 75 99 60 75 99 60 75 99 60 75 99 60 75 99 60 75 99 60 75 99 60 75 99 60 75 99 60 75 99 60 75 99 60 75 99 60 75 99 60 75 99 60 75 99 60 75 99 60 75 99 60 75 99 60 75 99 60 75 99 60 75 99 60 75 99 60 75 99 60 75 99 60 75 99 60 75 74 40 65 74 40 65 74 40 65 74 40 65 74 40 65 74 40 65 74 40 65 74 40 65 74 40 65 74 40 65 74 40 65 74 40 65 74 40 65 74 40 65 74 40 65 74 40 65 74 40 65 74 40 65 74 40 65 74 40 65 107 68 81 158 158 161 158 158 161 158 158 161 158 158 161 158 158 161 158 158 161 122 97 106 107 68 81 107 68 81 107 68 81 107 68 81 107 68 81 107 68 81 107 68 81 107 68 81 107 68 81 107 68 81 107 68 81 107 68 81 107 68 81 107 68 81 112 69 83 112 69 83 112 69 83 112 69 83 112 69 83 112 69 83 121 98 109 121 98 109 121 98 109 121 98 109 121 98 109 158 158 161 158 158 161 158 158 161 158 158 161 158 158 161 158 158 161 158 158 161 158 158 161 158 158 161 158 158 161 121 98 109 121 98 109 121 98 109 121 98 109 121 98 109 121 98 109 121 98 109 121 98 109 121 98 109 121 98 109 121 98 109 158 158 161 157 196 220 157 196 220 157 196 220 157 196 220 157 196 220 157 196 220 157 196 220 157 196 220 157 196 220 157 196 220 157 196 220 157 196 220 157 196 220 157 196 220 157 196 220 157 196 220 157 196 220 157 196 220 157 196 220 157 196 220 157 196 220 157 196 220 157 196 220 157 196 220 157 196 220 157 196 220 157 196 220 157 196 220 157 195 219 157 195 219 157 195 219 157 195 219 157 195 219 157 195 219 157 195 219 157 195 219 157 195 219 157 195 219 131 142 144 131 142 144 214 223 216 214 223 216 214 223 216 214 223 216 214 223 216 214 223 216 181 172 166 98 66 73 98 66 73 98 66 73 98 66 73 98 66 73 98 66 73 98 66 73 98 66 73 98 66 73 98 66 73 98 66 73 98 66 73 98 66 73 98 66 73 98 66 73 98 66 73 98 66 73 165 105 94 165 105 94 165 105 94 165 105 94 165 105 94 165 105 94 165 105 94 165 105 94 165 105 94 165 105 94 165 105 94 165 105 94 165 105 94 165 105 94 165 105 94 165 105 94 165 105 94 165 105 94 165 105 94 165 105 94 165 105 94 165 105 94 165 105 94 165 105 94 165 105 94 165 105 94 165 105 94 165 105 94 168 109 100 165 105 94 165 105 94 165 105 94 165 105 94 165 105 94 165 105 94 168 109 100 165 105 94 168 109 100 168 109 100 168 109 100 168 109 100 168 109 100 168 109 100 168 109 100 168 109 100 168 109 100 168 109 100 168 109 100 168 109 100 168 109 100 168 109 100 168 109 100 168 109 100 168 109 100 168 109 100 168 109 100 168 109 100 168 109 100 168 109 100 168 109 100 168 109 100 168 109 100 168 109 100 168 109 100 168 109 100 168 109 100 168 109 100 168 109 100 168 109 100 168 109 100 168 109 100 168 109 100 168 109 100 168 109 100 168 109 100 168 109 100 168 109 100 168 109 100 168 109 100 168 109 100 168 109 100 168 109 100 168 109 100 164 106 100 99 60 75 99 60 75 99 60 75 99 60 75 99 60 75 99 60 75 99 60 75 99 60 75 99 60 75 99 60 75 99 60 75 99 60 75 99 60 75 99 60 75 99 60 75 99 60 75 99 60 75 99 60 75 99 60 75 99 60 75 99 60 75 99 60 75 99 60 75 122 97 106 122 97 106 122 97 106 99 60 75 99 60 75 99 60 75 99 60 75 99 60 75 99 60 75 74 40 65 74 40 65 74 40 65 74 40 65 74 40 65 74 40 65 74 40 65 74 40 65 74 40 65 74 40 65 74 40 65 74 40 65 74 40 65 74 40 65 74 40 65 74 40 65 74 40 65 74 40 65 74 40 65 74 40 65 122 97 106 158 158 161 158 158 161 158 158 161 158 158 161 122 97 106 122 97 106 107 68 81 74 40 65 74 40 65 74 40 65 107 68 81 107 68 81 107 68 81 107 68 81 107 68 81 107 68 81 107 68 81 107 68 81 121 98 109 121 98 109 112 69 83 112 69 83 112 69 83 112 69 83 112 69 83 112 69 83 112 69 83 112 69 83 112 69 83 112 69 83 112 69 83 112 69 83 112 69 83 112 69 83 121 98 109 121 98 109 121 98 109 121 98 109 158 158 161 158 158 161 158 158 161 158 158 161 158 158 161 158 158 161 158 158 161 158 158 161 158 158 161 158 158 161 121 98 109 121 98 109 121 98 109 121 98 109 121 98 109 121 98 109 121 98 109 157 196 220 157 196 220 157 196 220 157 196 220 157 196 220 157 196 220 157 196 220 157 196 220 157 196 220 157 196 220 157 196 220 157 196 220 157 196 220 157 196 220 157 196 220 157 196 220 157 196 220 157 196 220 157 196 220 157 196 220 157 196 220 157 196 220 157 196 220 157 196 220 157 196 220 157 196 220 157 196 220 157 196 220 157 196 220 157 195 219 157 195 219 157 195 219 157 195 219 157 195 219 157 195 219 157 195 219 157 195 219 131 142 144 131 142 144 157 195 219 214 223 216 214 223 216 214 223 216 214 223 216 214 223 216 181 172 166 131 142 144 98 66 73 98 66 73 98 66 73 98 66 73 98 66 73 98 66 73 98 66 73 98 66 73 98 66 73 98 66 73 98 66 73 98 66 73 98 66 73 98 66 73 98 66 73 98 66 73 98 66 73 165 105 94 165 105 94 165 105 94 165 105 94 165 105 94 165 105 94 165 105 94 165 105 94 165 105 94 165 105 94 165 105 94 165 105 94 165 105 94 165 105 94 165 105 94 165 105 94 165 105 94 165 105 94 165 105 94 165 105 94 165 105 94 165 105 94 165 105 94 165 105 94 165 105 94 165 105 94 165 105 94 165 105 94 165 105 94 165 105 94 165 105 94 165 105 94 165 105 94 165 105 94 168 109 100 168 109 100 168 109 100 168 109 100 168 109 100 168 109 100 168 109 100 168 109 100 168 109 100 168 109 100 168 109 100 168 109 100 168 109 100 168 109 100 168 109 100 168 109 100 168 109 100 168 109 100 168 109 100 168 109 100 168 109 100 168 109 100 168 109 100 168 109 100 168 109 100 168 109 100 168 109 100 168 109 100 168 109 100 168 109 100 168 109 100 168 109 100 168 109 100 168 109 100 168 109 100 168 109 100 168 109 100 168 109 100 168 109 100 168 109 100 168 109 100 168 109 100 168 109 100 168 109 100 168 109 100 168 109 100 168 109 100 168 109 100 168 109 100 168 109 100 164 106 100 164 106 100 99 60 75 99 60 75 99 60 75 99 60 75 99 60 75 99 60 75 99 60 75 99 60 75 99 60 75 99 60 75 99 60 75 99 60 75 99 60 75 99 60 75 99 60 75 109 103 115 109 103 115 109 103 115 126 139 153 126 139 153 126 139 153 126 139 153 126 139 153 126 139 153 99 60 75 99 60 75 99 60 75 99 60 75 99 60 75 99 60 75 74 40 65 74 40 65 74 40 65 74 40 65 74 40 65 74 40 65 74 40 65 74 40 65 74 40 65 74 40 65 74 40 65 74 40 65 74 40 65 74 40 65 74 40 65 74 40 65 74 40 65 74 40 65 107 68 81 122 97 106 158 158 161 158 158 161 158 158 161 122 97 106 122 97 106 122 97 106 107 68 81 74 40 65 74 40 65 74 40 65 74 40 65 74 40 65 74 40 65 74 40 65 74 40 65 74 40 65 85 44 68 85 44 68 85 44 68 107 68 81 107 68 81 107 68 81 112 69 83 121 98 109 121 98 109 121 98 109 121 98 109 121 98 109 121 98 109 112 69 83 112 69 83 112 69 83 112 69 83 112 69 83 112 69 83 112 69 83 112 69 83 85 44 68 112 69 83 121 98 109 112 69 83 112 69 83 121 98 109 121 98 109 121 98 109 121 98 109 121 98 109 158 158 161 158 158 161 158 158 161 158 158 161 158 158 161 158 158 161 158 158 161 158 158 161 158 158 161 157 196 220 157 196 220 157 196 220 157 196 220 157 196 220 157 196 220 157 196 220 157 196 220 157 196 220 157 196 220 157 196 220 157 196 220 157 196 220 157 196 220 157 196 220 157 196 220 157 196 220 157 196 220 157 196 220 157 196 220 157 196 220 157 196 220 157 196 220 157 196 220 157 196 220 157 196 220 157 196 220 157 196 220 157 196 220 157 195 219 157 195 219 157 195 219 157 195 219 157 195 219 157 195 219 157 195 219 131 142 144 131 142 144 214 223 216 214 223 216 214 223 216 214 223 216 214 223 216 214 223 216 214 223 216 131 142 144 98 66 73 98 66 73 98 66 73 98 66 73 98 66 73 98 66 73 98 66 73 98 66 73 98 66 73 98 66 73 98 66 73 98 66 73 98 66 73 98 66 73 98 66 73 98 66 73 98 66 73 98 66 73 165 105 94 165 105 94 165 105 94 165 105 94 165 105 94 165 105 94 165 105 94 165 105 94 165 105 94 165 105 94 165 105 94 165 105 94 165 105 94 165 105 94 165 105 94 165 105 94 165 105 94 165 105 94 165 105 94 165 105 94 165 105 94 165 105 94 165 105 94 165 105 94 165 105 94 165 105 94 165 105 94 165 105 94 165 105 94 165 105 94 165 105 94 165 105 94 165 105 94 165 105 94 168 109 100 168 109 100 168 109 100 168 109 100 168 109 100 168 109 100 168 109 100 168 109 100 168 109 100 168 109 100 168 109 100 168 109 100 168 109 100 168 109 100 168 109 100 168 109 100 168 109 100 168 109 100 168 109 100 168 109 100 168 109 100 168 109 100 168 109 100 168 109 100 168 109 100 168 109 100 168 109 100 168 109 100 168 109 100 168 109 100 168 109 100 168 109 100 168 109 100 168 109 100 168 109 100 168 109 100 168 109 100 168 109 100 168 109 100 168 109 100 168 109 100 168 109 100 168 109 100 168 109 100 168 109 100 168 109 100 168 109 100 168 109 100 168 109 100 164 106 100 164 106 100 164 106 100 164 106 100 164 106 100 99 60 75 99 60 75 99 60 75 99 60 75 99 60 75 99 60 75 99 60 75 99 60 75 99 60 75 109 103 115 109 103 115 109 103 115 126 139 153 126 139 153 126 139 153 126 139 153 126 139 153 126 139 153 126 139 153 126 139 153 126 139 153 126 139 153 99 60 75 99 60 75 99 60 75 99 60 75 99 60 75 99 60 75 99 60 75 99 60 75 74 40 65 74 40 65 74 40 65 74 40 65 74 40 65 74 40 65 74 40 65 74 40 65 74 40 65 74 40 65 74 40 65 74 40 65 74 40 65 74 40 65 74 40 65 107 68 81 122 97 106 158 158 161 158 158 161 158 158 161 122 97 106 122 97 106 107 68 81 74 40 65 74 40 65 74 40 65 74 40 65 74 40 65 74 40 65 74 40 65 74 40 65 74 40 65 74 40 65 74 40 65 74 40 65 74 40 65 74 40 65 74 40 65 74 40 65 85 44 68 85 44 68 85 44 68 112 69 83 112 69 83 112 69 83 112 69 83 121 98 109 121 98 109 112 69 83 112 69 83 112 69 83 121 98 109 121 98 109 121 98 109 112 69 83 112 69 83 112 69 83 112 69 83 121 98 109 112 69 83 112 69 83 112 69 83 112 69 83 112 69 83 112 69 83 112 69 83 112 69 83 121 98 109 121 98 109 121 98 109 121 98 109 121 98 109 158 158 161 158 158 161 157 196 220 157 196 220 157 196 220 157 196 220 157 196 220 157 196 220 157 196 220 157 196 220 157 196 220 157 196 220 157 196 220 157 196 220 157 196 220 157 196 220 157 196 220 157 196 220 157 196 220 157 196 220 157 196 220 157 196 220 157 196 220 157 196 220 157 196 220 157 196 220 157 196 220 157 196 220 157 196 220 157 196 220 157 196 220 157 196 220 157 195 219 157 195 219 157 195 219 157 195 219 157 195 219 131 142 144 131 142 144 157 195 219 214 223 216 214 223 216 214 223 216 214 223 216 214 223 216 214 223 216 131 142 144 98 66 73 98 66 73 98 66 73 98 66 73 98 66 73 98 66 73 98 66 73 98 66 73 98 66 73 98 66 73 98 66 73 98 66 73 98 66 73 98 66 73 98 66 73 98 66 73 98 66 73 98 66 73 98 66 73 165 105 94 165 105 94 165 105 94 165 105 94 165 105 94 165 105 94 165 105 94 165 105 94 165 105 94 165 105 94 165 105 94 165 105 94 165 105 94 165 105 94 165 105 94 165 105 94 165 105 94 165 105 94 165 105 94 165 105 94 165 105 94 165 105 94 165 105 94 165 105 94 165 105 94 165 105 94 165 105 94 165 105 94 165 105 94 165 105 94 165 105 94 165 105 94 168 109 100 165 105 94 165 105 94 168 109 100 168 109 100 165 105 94 168 109 100 168 109 100 168 109 100 168 109 100 168 109 100 168 109 100 168 109 100 168 109 100 168 109 100 168 109 100 168 109 100 168 109 100 168 109 100 168 109 100 168 109 100 168 109 100 168 109 100 168 109 100 168 109 100 168 109 100 168 109 100 168 109 100 168 109 100 168 109 100 168 109 100 168 109 100 168 109 100 168 109 100 168 109 100 168 109 100 168 109 100 168 109 100 168 109 100 168 109 100 168 109 100 168 109 100 168 109 100 168 109 100 168 109 100 168 109 100 168 109 100 168 109 100 164 106 100 164 106 100 164 106 100 164 106 100 164 106 100 164 106 100 164 106 100 164 106 100 164 106 100 109 103 115 99 60 75 99 60 75 99 60 75 109 103 115 109 103 115 109 103 115 126 139 153 126 139 153 126 139 153 126 139 153 126 139 153 126 139 153 126 139 153 126 139 153 126 139 153 126 139 153 126 139 153 158 158 161 158 158 161 126 139 153 99 60 75 99 60 75 99 60 75 99 60 75 99 60 75 99 60 75 99 60 75 74 40 65 74 40 65 99 60 75 74 40 65 74 40 65 74 40 65 74 40 65 74 40 65 74 40 65 74 40 65 74 40 65 74 40 65 74 40 65 74 40 65 74 40 65 122 97 106 158 158 161 158 158 161 158 158 161 158 158 161 122 97 106 122 97 106 107 68 81 74 40 65 74 40 65 74 40 65 74 40 65 74 40 65 74 40 65 74 40 65 74 40 65 74 40 65 74 40 65 74 40 65 85 44 68 74 40 65 74 40 65 74 40 65 74 40 65 74 40 65 74 40 65 74 40 65 85 44 68 85 44 68 85 44 68 85 44 68 85 44 68 85 44 68 85 44 68 85 44 68 112 69 83 112 69 83 112 69 83 112 69 83 112 69 83 121 98 109 121 98 109 112 69 83 112 69 83 121 98 109 112 69 83 112 69 83 112 69 83 112 69 83 112 69 83 112 69 83 112 69 83 112 69 83 112 69 83 112 69 83 112 69 83 112 69 83 112 69 83 121 98 109 121 98 109 157 196 220 157 196 220 157 196 220 157 196 220 157 196 220 157 196 220 157 196 220 157 196 220 157 196 220 157 196 220 157 196 220 157 196 220 157 196 220 157 196 220 157 196 220 157 196 220 157 196 220 157 196 220 157 196 220 157 196 220 157 196 220 157 196 220 157 196 220 157 196 220 157 196 220 157 196 220 157 196 220 157 196 220 157 196 220 157 196 220 157 196 220 157 195 219 157 195 219 157 195 219 131 142 144 131 142 144 157 195 219 214 223 216 214 223 216 214 223 216 214 223 216 214 223 216 214 223 216 131 142 144 98 66 73 98 66 73 98 66 73 98 66 73 98 66 73 98 66 73 98 66 73 98 66 73 98 66 73 98 66 73 98 66 73 98 66 73 98 66 73 98 66 73 98 66 73 98 66 73 98 66 73 98 66 73 98 66 73 98 66 73 165 105 94 165 105 94 165 105 94 165 105 94 165 105 94 165 105 94 165 105 94 165 105 94 165 105 94 165 105 94 165 105 94 165 105 94 165 105 94 165 105 94 165 105 94 165 105 94 165 105 94 165 105 94 165 105 94 165 105 94 165 105 94 165 105 94 165 105 94 165 105 94 165 105 94 165 105 94 165 105 94 165 105 94 165 105 94 165 105 94 165 105 94 165 105 94 168 109 100 165 105 94 165 105 94 168 109 100 168 109 100 168 109 100 168 109 100 168 109 100 168 109 100 168 109 100 168 109 100 168 109 100 168 109 100 168 109 100 168 109 100 168 109 100 168 109 100 168 109 100 168 109 100 168 109 100 168 109 100 168 109 100 168 109 100 168 109 100 168 109 100 168 109 100 168 109 100 168 109 100 168 109 100 168 109 100 168 109 100 168 109 100 168 109 100 168 109 100 168 109 100 168 109 100 168 109 100 168 109 100 168 109 100 168 109 100 168 109 100 168 109 100 168 109 100 168 109 100 168 109 100 168 109 100 168 109 100 168 109 100 168 109 100 168 109 100 164 106 100 164 106 100 164 106 100 164 106 100 164 106 100 99 60 75 99 60 75 99 60 75 109 103 115 109 103 115 126 139 153 126 139 153 126 139 153 126 139 153 126 139 153 126 139 153 126 139 153 126 139 153 126 139 153 126 139 153 158 158 161 158 158 161 158 158 161 158 158 161 126 139 153 126 139 153 126 139 153 126 139 153 99 60 75 99 60 75 99 60 75 99 60 75 99 60 75 107 68 81 107 68 81 107 68 81 99 60 75 107 68 81 74 40 65 74 40 65 74 40 65 74 40 65 74 40 65 74 40 65 74 40 65 74 40 65 74 40 65 74 40 65 74 40 65 107 68 81 158 158 161 158 158 161 158 158 161 122 97 106 122 97 106 107 68 81 107 68 81 74 40 65 74 40 65 74 40 65 74 40 65 74 40 65 74 40 65 74 40 65 74 40 65 74 40 65 74 40 65 74 40 65 74 40 65 74 40 65 74 40 65 74 40 65 74 40 65 85 44 68 85 44 68 85 44 68 85 44 68 85 44 68 85 44 68 85 44 68 85 44 68 85 44 68 85 44 68 85 44 68 85 44 68 85 44 68 85 44 68 85 44 68 85 44 68 85 44 68 112 69 83 112 69 83 112 69 83 112 69 83 112 69 83 112 69 83 121 98 109 112 69 83 121 98 109 121 98 109 112 69 83 112 69 83 112 69 83 112 69 83 112 69 83 112 69 83 112 69 83 112 69 83 112 69 83 112 69 83 157 196 220 157 196 220 157 196 220 157 196 220 157 196 220 157 196 220 157 196 220 157 196 220 157 196 220 157 196 220 157 196 220 157 196 220 157 196 220 157 196 220 157 196 220 157 196 220 157 196 220 157 196 220 157 196 220 157 196 220 157 196 220 157 196 220 157 196 220 157 196 220 157 196 220 157 196 220 157 196 220 157 196 220 157 196 220 157 196 220 157 196 220 157 195 219 157 195 219 131 142 144 131 142 144 157 195 219 214 223 216 214 223 216 214 223 216 214 223 216 214 223 216 214 223 216 131 142 144 98 66 73 98 66 73 98 66 73 98 66 73 98 66 73 98 66 73 98 66 73 98 66 73 98 66 73 98 66 73 98 66 73 98 66 73 98 66 73 98 66 73 98 66 73 98 66 73 98 66 73 98 66 73 98 66 73 98 66 73 98 66 73 165 105 94 165 105 94 165 105 94 165 105 94 165 105 94 165 105 94 165 105 94 165 105 94 165 105 94 165 105 94 165 105 94 165 105 94 165 105 94 165 105 94 165 105 94 165 105 94 165 105 94 165 105 94 165 105 94 165 105 94 165 105 94 165 105 94 165 105 94 165 105 94 165 105 94 165 105 94 165 105 94 165 105 94 165 105 94 165 105 94 165 105 94 165 105 94 165 105 94 165 105 94 165 105 94 165 105 94 165 105 94 168 109 100 168 109 100 168 109 100 168 109 100 168 109 100 168 109 100 168 109 100 168 109 100 168 109 100 168 109 100 168 109 100 168 109 100 168 109 100 168 109 100 168 109 100 168 109 100 168 109 100 168 109 100 168 109 100 168 109 100 168 109 100 168 109 100 168 109 100 168 109 100 168 109 100 168 109 100 168 109 100 168 109 100 168 109 100 168 109 100 168 109 100 168 109 100 168 109 100 168 109 100 168 109 100 168 109 100 168 109 100 168 109 100 168 109 100 168 109 100 168 109 100 168 109 100 168 109 100 168 109 100 164 106 100 164 106 100 164 106 100 164 106 100 164 106 100 164 106 100 99 60 75 99 60 75 109 103 115 109 103 115 126 139 153 126 139 153 126 139 153 126 139 153 126 139 153 126 139 153 126 139 153 126 139 153 126 139 153 126 139 153 126 139 153 126 139 153 126 139 153 126 139 153 126 139 153 126 139 153 126 139 153 126 139 153 126 139 153 107 68 81 99 60 75 107 68 81 107 68 81 99 60 75 107 68 81 107 68 81 107 68 81 107 68 81 107 68 81 107 68 81 74 40 65 74 40 65 74 40 65 74 40 65 74 40 65 74 40 65 74 40 65 74 40 65 74 40 65 107 68 81 122 97 106 158 158 161 122 97 106 122 97 106 107 68 81 107 68 81 74 40 65 74 40 65 74 40 65 74 40 65 74 40 65 74 40 65 74 40 65 74 40 65 74 40 65 74 40 65 74 40 65 74 40 65 74 40 65 74 40 65 85 44 68 85 44 68 85 44 68 74 40 65 74 40 65 85 44 68 85 44 68 85 44 68 85 44 68 85 44 68 85 44 68 85 44 68 85 44 68 85 44 68 85 44 68 85 44 68 85 44 68 85 44 68 85 44 68 85 44 68 85 44 68 85 44 68 85 44 68 85 44 68 85 44 68 85 44 68 85 44 68 85 44 68 112 69 83 112 69 83 112 69 83 112 69 83 121 98 109 112 69 83 121 98 109 121 98 109 112 69 83 112 69 83 112 69 83 112 69 83 112 69 83 157 196 220 157 196 220 157 196 220 157 196 220 157 196 220 157 196 220 157 196 220 157 196 220 157 196 220 157 196 220 157 196 220 157 196 220 157 196 220 157 196 220 157 196 220 157 196 220 157 196 220 157 196 220 157 196 220 157 196 220 157 196 220 157 196 220 157 196 220 157 196 220 157 196 220 157 196 220 157 196 220 157 196 220 157 196 220 157 196 220 157 196 220 157 195 219 131 142 144 131 142 144 157 195 219 214 223 216 214 223 216 214 223 216 214 223 216 214 223 216 214 223 216 131 142 144 98 66 73 98 66 73 98 66 73 98 66 73 98 66 73 98 66 73 98 66 73 98 66 73 98 66 73 98 66 73 98 66 73 98 66 73 98 66 73 98 66 73 98 66 73 98 66 73 98 66 73 98 66 73 98 66 73 98 66 73 98 66 73 98 66 73 165 105 94 165 105 94 165 105 94 165 105 94 165 105 94 165 105 94 165 105 94 165 105 94 165 105 94 165 105 94 165 105 94 165 105 94 165 105 94 165 105 94 165 105 94 165 105 94 165 105 94 165 105 94 165 105 94 165 105 94 165 105 94 165 105 94 165 105 94 165 105 94 165 105 94 165 105 94 165 105 94 165 105 94 165 105 94 165 105 94 165 105 94 165 105 94 165 105 94 165 105 94 165 105 94 168 109 100 168 109 100 168 109 100 168 109 100 168 109 100 168 109 100 168 109 100 168 109 100 168 109 100 168 109 100 168 109 100 168 109 100 168 109 100 168 109 100 168 109 100 168 109 100 168 109 100 168 109 100 168 109 100 168 109 100 168 109 100 168 109 100 168 109 100 168 109 100 168 109 100 168 109 100 168 109 100 168 109 100 168 109 100 168 109 100 168 109 100 168 109 100 168 109 100 168 109 100 168 109 100 168 109 100 168 109 100 168 109 100 168 109 100 168 109 100 168 109 100 168 109 100 164 106 100 164 106 100 164 106 100 164 106 100 164 106 100 164 106 100 164 106 100 164 106 100 164 106 100 164 106 100 99 60 75 99 60 75 109 103 115 126 139 153 126 139 153 126 139 153 126 139 153 126 139 153 126 139 153 126 139 153 126 139 153 126 139 153 126 139 153 126 139 153 126 139 153 126 139 153 126 139 153 126 139 153 126 139 153 126 139 153 126 139 153 109 103 115 122 97 106 99 60 75 107 68 81 107 68 81 107 68 81 107 68 81 99 60 75 107 68 81 107 68 81 107 68 81 107 68 81 107 68 81 107 68 81 107 68 81 107 68 81 107 68 81 74 40 65 74 40 65 74 40 65 74 40 65 74 40 65 107 68 81 158 158 161 122 97 106 122 97 106 107 68 81 107 68 81 74 40 65 74 40 65 74 40 65 74 40 65 74 40 65 74 40 65 74 40 65 74 40 65 74 40 65 74 40 65 74 40 65 74 40 65 74 40 65 85 44 68 85 44 68 85 44 68 85 44 68 85 44 68 85 44 68 85 44 68 85 44 68 85 44 68 85 44 68 85 44 68 85 44 68 85 44 68 85 44 68 85 44 68 85 44 68 85 44 68 85 44 68 85 44 68 85 44 68 85 44 68 85 44 68 85 44 68 85 44 68 85 44 68 85 44 68 85 44 68 85 44 68 85 44 68 85 44 68 85 44 68 85 44 68 85 44 68 85 44 68 85 44 68 112 69 83 112 69 83 112 69 83 112 69 83 112 69 83 112 69 83 121 98 109 121 98 109 157 196 220 157 196 220 157 196 220 157 196 220 157 196 220 157 196 220 157 196 220 157 196 220 157 196 220 157 196 220 157 196 220 157 196 220 157 196 220 157 196 220 157 196 220 157 196 220 157 196 220 157 196 220 157 196 220 157 196 220 157 196 220 157 196 220 157 196 220 157 196 220 157 196 220 157 196 220 157 196 220 157 196 220 157 196 220 157 196 220 157 196 220 131 142 144 131 142 144 157 195 219 214 223 216 214 223 216 214 223 216 214 223 216 214 223 216 214 223 216 131 142 144 98 66 73 98 66 73 98 66 73 98 66 73 98 66 73 98 66 73 98 66 73 98 66 73 98 66 73 98 66 73 98 66 73 98 66 73 98 66 73 98 66 73 98 66 73 98 66 73 98 66 73 98 66 73 98 66 73 98 66 73 98 66 73 98 66 73 98 66 73 165 105 94 165 105 94 165 105 94 165 105 94 165 105 94 165 105 94 165 105 94 165 105 94 165 105 94 165 105 94 165 105 94 165 105 94 165 105 94 165 105 94 165 105 94 165 105 94 165 105 94 165 105 94 165 105 94 165 105 94 165 105 94 165 105 94 165 105 94 165 105 94 165 105 94 165 105 94 165 105 94 165 105 94 165 105 94 165 105 94 165 105 94 165 105 94 165 105 94 165 105 94 165 105 94 168 109 100 168 109 100 168 109 100 168 109 100 168 109 100 168 109 100 168 109 100 168 109 100 168 109 100 168 109 100 168 109 100 168 109 100 168 109 100 168 109 100 168 109 100 168 109 100 168 109 100 168 109 100 168 109 100 168 109 100 168 109 100 168 109 100 168 109 100 168 109 100 168 109 100 168 109 100 168 109 100 168 109 100 168 109 100 168 109 100 168 109 100 168 109 100 168 109 100 168 109 100 168 109 100 168 109 100 168 109 100 168 109 100 168 109 100 168 109 100 168 109 100 164 106 100 164 106 100 164 106 100 164 106 100 164 106 100 164 106 100 164 106 100 164 106 100 164 106 100 164 106 100 164 106 100 99 60 75 99 60 75 126 139 153 126 139 153 126 139 153 126 139 153 126 139 153 126 139 153 126 139 153 126 139 153 126 139 153 126 139 153 126 139 153 126 139 153 126 139 153 126 139 153 126 139 153 109 103 115 109 103 115 109 103 115 109 103 115 109 103 115 109 103 115 99 60 75 99 60 75 99 60 75 99 60 75 99 60 75 107 68 81 74 40 65 107 68 81 107 68 81 107 68 81 107 68 81 107 68 81 107 68 81 107 68 81 107 68 81 74 40 65 74 40 65 74 40 65 74 40 65 74 40 65 122 97 106 158 158 161 158 158 161 122 97 106 122 97 106 107 68 81 74 40 65 74 40 65 74 40 65 74 40 65 74 40 65 74 40 65 74 40 65 74 40 65 74 40 65 74 40 65 74 40 65 74 40 65 74 40 65 74 40 65 74 40 65 85 44 68 85 44 68 85 44 68 85 44 68 85 44 68 85 44 68 85 44 68 85 44 68 85 44 68 85 44 68 85 44 68 85 44 68 85 44 68 85 44 68 85 44 68 85 44 68 85 44 68 85 44 68 85 44 68 85 44 68 85 44 68 85 44 68 85 44 68 85 44 68 85 44 68 85 44 68 85 44 68 85 44 68 85 44 68 85 44 68 85 44 68 85 44 68 85 44 68 85 44 68 85 44 68 85 44 68 85 44 68 85 44 68 85 44 68 85 44 68 112 69 83 157 196 220 157 196 220 157 196 220 157 196 220 157 196 220 157 196 220 157 196 220 157 196 220 157 196 220 157 196 220 157 196 220 157 196 220 157 196 220 157 196 220 157 196 220 157 196 220 157 196 220 157 196 220 157 196 220 157 196 220 157 196 220 157 196 220 157 196 220 157 196 220 157 196 220 157 196 220 157 196 220 157 196 220 157 196 220 157 196 220 131 142 144 131 142 144 131 142 144 214 223 216 214 223 216 214 223 216 214 223 216 214 223 216 214 223 216 181 172 166 98 66 73 98 66 73 98 66 73 98 66 73 98 66 73 98 66 73 98 66 73 98 66 73 98 66 73 98 66 73 98 66 73 98 66 73 98 66 73 98 66 73 98 66 73 98 66 73 98 66 73 98 66 73 98 66 73 98 66 73 98 66 73 98 66 73 98 66 73 98 66 73 165 105 94 165 105 94 165 105 94 165 105 94 165 105 94 165 105 94 165 105 94 165 105 94 165 105 94 165 105 94 165 105 94 165 105 94 165 105 94 165 105 94 165 105 94 165 105 94 165 105 94 165 105 94 165 105 94 165 105 94 165 105 94 165 105 94 165 105 94 165 105 94 165 105 94 165 105 94 165 105 94 165 105 94 165 105 94 165 105 94 165 105 94 165 105 94 165 105 94 165 105 94 165 105 94 168 109 100 168 109 100 165 105 94 165 105 94 168 109 100 168 109 100 168 109 100 168 109 100 168 109 100 168 109 100 168 109 100 168 109 100 168 109 100 168 109 100 168 109 100 168 109 100 168 109 100 168 109 100 168 109 100 168 109 100 168 109 100 168 109 100 168 109 100 168 109 100 168 109 100 168 109 100 168 109 100 168 109 100 168 109 100 168 109 100 168 109 100 168 109 100 168 109 100 168 109 100 168 109 100 168 109 100 168 109 100 168 109 100 168 109 100 168 109 100 168 109 100 168 109 100 164 106 100 164 106 100 164 106 100 164 106 100 164 106 100 164 106 100 164 106 100 164 106 100 164 106 100 164 106 100 164 106 100 99 60 75 126 139 153 126 139 153 126 139 153 126 139 153 126 139 153 126 139 153 126 139 153 126 139 153 126 139 153 109 103 115 109 103 115 109 103 115 109 103 115 109 103 115 109 103 115 126 139 153 126 139 153 126 139 153 126 139 153 126 139 153 109 103 115 107 68 81 107 68 81 107 68 81 107 68 81 107 68 81 107 68 81 74 40 65 74 40 65 74 40 65 107 68 81 107 68 81 107 68 81 107 68 81 107 68 81 107 68 81 107 68 81 74 40 65 74 40 65 74 40 65 74 40 65 158 158 161 158 158 161 158 158 161 158 158 161 122 97 106 107 68 81 74 40 65 74 40 65 74 40 65 74 40 65 74 40 65 74 40 65 74 40 65 74 40 65 74 40 65 74 40 65 74 40 65 74 40 65 85 44 68 85 44 68 85 44 68 85 44 68 85 44 68 85 44 68 85 44 68 85 44 68 85 44 68 85 44 68 85 44 68 85 44 68 85 44 68 85 44 68 85 44 68 85 44 68 85 44 68 85 44 68 85 44 68 85 44 68 85 44 68 85 44 68 85 44 68 85 44 68 85 44 68 85 44 68 85 44 68 85 44 68 85 44 68 85 44 68 85 44 68 85 44 68 85 44 68 85 44 68 85 44 68 85 44 68 85 44 68 85 44 68 85 44 68 85 44 68 85 44 68 85 44 68 85 44 68 85 44 68 157 196 220 157 196 220 157 196 220 157 196 220 157 196 220 157 196 220 157 196 220 157 196 220 157 196 220 157 196 220 157 196 220 157 196 220 157 196 220 157 196 220 157 196 220 157 196 220 157 196 220 157 196 220 157 196 220 157 196 220 157 196 220 157 196 220 157 196 220 157 196 220 157 196 220 157 196 220 157 196 220 157 196 220 157 196 220 131 142 144 131 142 144 131 142 144 214 223 216 214 223 216 214 223 216 214 223 216 214 223 216 214 223 216 181 172 166 131 142 144 98 66 73 98 66 73 98 66 73 98 66 73 98 66 73 98 66 73 98 66 73 98 66 73 98 66 73 98 66 73 98 66 73 98 66 73 98 66 73 98 66 73 98 66 73 98 66 73 98 66 73 98 66 73 98 66 73 98 66 73 98 66 73 98 66 73 98 66 73 98 66 73 165 105 94 165 105 94 165 105 94 165 105 94 165 105 94 165 105 94 165 105 94 165 105 94 165 105 94 165 105 94 165 105 94 165 105 94 165 105 94 165 105 94 165 105 94 165 105 94 165 105 94 165 105 94 165 105 94 165 105 94 165 105 94 165 105 94 165 105 94 165 105 94 165 105 94 165 105 94 165 105 94 165 105 94 165 105 94 165 105 94 165 105 94 165 105 94 165 105 94 165 105 94 165 105 94 165 105 94 165 105 94 165 105 94 168 109 100 168 109 100 168 109 100 168 109 100 168 109 100 168 109 100 168 109 100 168 109 100 168 109 100 168 109 100 168 109 100 168 109 100 168 109 100 168 109 100 168 109 100 168 109 100 168 109 100 168 109 100 168 109 100 168 109 100 168 109 100 168 109 100 168 109 100 168 109 100 168 109 100 168 109 100 168 109 100 168 109 100 168 109 100 168 109 100 109 103 115 109 103 115 109 103 115 109 103 115 168 109 100 168 109 100 168 109 100 168 109 100 164 106 100 164 106 100 164 106 100 164 106 100 164 106 100 164 106 100 164 106 100 164 106 100 164 106 100 164 106 100 164 106 100 164 106 100 164 106 100 126 139 153 213 219 211 126 139 153 126 139 153 126 139 153 109 103 115 109 103 115 109 103 115 109 103 115 109 103 115 109 103 115 109 103 115 109 103 115 126 139 153 126 139 153 126 139 153 126 139 153 126 139 153 126 139 153 126 139 153 109 103 115 107 68 81 107 68 81 107 68 81 107 68 81 107 68 81 107 68 81 74 40 65 74 40 65 74 40 65 107 68 81 107 68 81 107 68 81 107 68 81 107 68 81 107 68 81 107 68 81 74 40 65 74 40 65 74 40 65 107 68 81 158 158 161 158 158 161 158 158 161 158 158 161 158 158 161 122 97 106 107 68 81 107 68 81 74 40 65 74 40 65 74 40 65 74 40 65 107 68 81 74 40 65 74 40 65 107 68 81 107 68 81 74 40 65 85 44 68 107 68 81 85 44 68 85 44 68 85 44 68 85 44 68 85 44 68 85 44 68 85 44 68 85 44 68 85 44 68 85 44 68 85 44 68 85 44 68 85 44 68 85 44 68 85 44 68 85 44 68 85 44 68 85 44 68 85 44 68 85 44 68 85 44 68 85 44 68 85 44 68 85 44 68 85 44 68 85 44 68 85 44 68 85 44 68 85 44 68 85 44 68 85 44 68 85 44 68 85 44 68 85 44 68 85 44 68 85 44 68 85 44 68 85 44 68 85 44 68 85 44 68 85 44 68 85 44 68 157 196 220 157 196 220 157 196 220 157 196 220 157 196 220 157 196 220 157 196 220 157 196 220 157 196 220 157 196 220 157 196 220 157 196 220 157 196 220 157 196 220 157 196 220 157 196 220 157 196 220 157 196 220 157 196 220 157 196 220 157 196 220 157 196 220 157 196 220 157 196 220 157 196 220 157 196 220 157 196 220 157 196 220 131 142 144 131 142 144 131 142 144 214 223 216 214 223 216 214 223 216 214 223 216 214 223 216 214 223 216 181 172 166 131 142 144 98 66 73 98 66 73 98 66 73 98 66 73 98 66 73 98 66 73 98 66 73 98 66 73 98 66 73 98 66 73 98 66 73 98 66 73 98 66 73 98 66 73 98 66 73 98 66 73 98 66 73 98 66 73 98 66 73 98 66 73 98 66 73 98 66 73 98 66 73 98 66 73 98 66 73 165 105 94 165 105 94 165 105 94 165 105 94 165 105 94 165 105 94 165 105 94 165 105 94 165 105 94 165 105 94 165 105 94 165 105 94 165 105 94 165 105 94 165 105 94 165 105 94 165 105 94 165 105 94 165 105 94 165 105 94 165 105 94 165 105 94 165 105 94 165 105 94 165 105 94 165 105 94 165 105 94 165 105 94 165 105 94 165 105 94 165 105 94 165 105 94 165 105 94 165 105 94 165 105 94 165 105 94 165 105 94 165 105 94 168 109 100 168 109 100 168 109 100 168 109 100 168 109 100 168 109 100 168 109 100 168 109 100 168 109 100 168 109 100 168 109 100 168 109 100 168 109 100 168 109 100 168 109 100 168 109 100 168 109 100 168 109 100 168 109 100 168 109 100 168 109 100 168 109 100 168 109 100 168 109 100 168 109 100 168 109 100 168 109 100 109 103 115 109 103 115 109 103 115 109 103 115 109 103 115 126 139 153 168 109 100 168 109 100 168 109 100 164 106 100 164 106 100 164 106 100 164 106 100 164 106 100 164 106 100 164 106 100 164 106 100 164 106 100 164 106 100 164 106 100 164 106 100 164 106 100 164 106 100 164 106 100 139 170 182 213 219 211 139 170 182 139 170 182 126 139 153 109 103 115 109 103 115 109 103 115 109 103 115 109 103 115 126 139 153 126 139 153 126 139 153 126 139 153 126 139 153 126 139 153 126 139 153 126 139 153 126 139 153 126 139 153 126 139 153 109 103 115 107 68 81 107 68 81 122 97 106 107 68 81 74 40 65 74 40 65 74 40 65 74 40 65 74 40 65 107 68 81 107 68 81 107 68 81 107 68 81 74 40 65 74 40 65 74 40 65 74 40 65 74 40 65 107 68 81 158 158 161 158 158 161 158 158 161 158 158 161 158 158 161 158 158 161 158 158 161 122 97 106 107 68 81 74 40 65 74 40 65 107 68 81 107 68 81 107 68 81 107 68 81 107 68 81 107 68 81 107 68 81 85 44 68 85 44 68 85 44 68 85 44 68 85 44 68 85 44 68 85 44 68 85 44 68 85 44 68 85 44 68 85 44 68 85 44 68 85 44 68 85 44 68 85 44 68 85 44 68 85 44 68 85 44 68 85 44 68 85 44 68 85 44 68 85 44 68 85 44 68 85 44 68 85 44 68 85 44 68 85 44 68 85 44 68 85 44 68 85 44 68 85 44 68 85 44 68 85 44 68 85 44 68 85 44 68 85 44 68 85 44 68 85 44 68 85 44 68 85 44 68 85 44 68 85 44 68 85 44 68 85 44 68 157 196 220 157 196 220 157 196 220 157 196 220 157 196 220 157 196 220 157 196 220 157 196 220 157 196 220 157 196 220 157 196 220 157 196 220 157 196 220 157 196 220 157 196 220 157 196 220 157 196 220 157 196 220 157 196 220 157 196 220 157 196 220 157 196 220 157 196 220 157 196 220 157 196 220 157 196 220 157 196 220 157 196 220 131 142 144 131 142 144 214 223 216 214 223 216 214 223 216 214 223 216 214 223 216 214 223 216 214 223 216 131 142 144 98 66 73 98 66 73 98 66 73 98 66 73 98 66 73 98 66 73 98 66 73 98 66 73 98 66 73 98 66 73 98 66 73 98 66 73 98 66 73 98 66 73 98 66 73 98 66 73 98 66 73 98 66 73 98 66 73 98 66 73 98 66 73 98 66 73 98 66 73 98 66 73 98 66 73 165 105 94 165 105 94 165 105 94 165 105 94 165 105 94 165 105 94 165 105 94 165 105 94 165 105 94 165 105 94 165 105 94 165 105 94 165 105 94 165 105 94 165 105 94 165 105 94 165 105 94 165 105 94 165 105 94 165 105 94 165 105 94 165 105 94 165 105 94 165 105 94 165 105 94 165 105 94 165 105 94 165 105 94 165 105 94 165 105 94 165 105 94 165 105 94 165 105 94 165 105 94 165 105 94 165 105 94 165 105 94 165 105 94 165 105 94 165 105 94 168 109 100 168 109 100 168 109 100 168 109 100 168 109 100 168 109 100 168 109 100 168 109 100 168 109 100 168 109 100 168 109 100 168 109 100 168 109 100 168 109 100 168 109 100 168 109 100 168 109 100 168 109 100 168 109 100 168 109 100 168 109 100 109 103 115 109 103 115 109 103 115 109 103 115 109 103 115 109 103 115 126 139 153 126 139 153 126 139 153 126 139 153 126 139 153 126 139 153 168 109 100 164 106 100 164 106 100 168 109 100 164 106 100 164 106 100 164 106 100 164 106 100 164 106 100 164 106 100 164 106 100 164 106 100 164 106 100 164 106 100 164 106 100 164 106 100 164 106 100 213 219 211 213 219 211 139 170 182 139 170 182 126 139 153 109 103 115 109 103 115 109 103 115 109 103 115 109 103 115 126 139 153 126 139 153 126 139 153 126 139 153 126 139 153 126 139 153 126 139 153 126 139 153 126 139 153 158 158 161 158 158 161 158 158 161 126 139 153 126 139 153 126 139 153 126 139 153 74 40 65 74 40 65 74 40 65 74 40 65 74 40 65 107 68 81 107 68 81 107 68 81 107 68 81 107 68 81 107 68 81 107 68 81 107 68 81 74 40 65 107 68 81 158 158 161 158 158 161 158 158 161 158 158 161 158 158 161 158 158 161 158 158 161 158 158 161 122 97 106 74 40 65 74 40 65 74 40 65 74 40 65 107 68 81 107 68 81 122 97 106 122 97 106 107 68 81 85 44 68 85 44 68 85 44 68 85 44 68 85 44 68 85 44 68 85 44 68 85 44 68 85 44 68 85 44 68 85 44 68 85 44 68 85 44 68 85 44 68 85 44 68 85 44 68 85 44 68 85 44 68 85 44 68 85 44 68 85 44 68 85 44 68 85 44 68 85 44 68 85 44 68 85 44 68 85 44 68 85 44 68 85 44 68 85 44 68 85 44 68 85 44 68 85 44 68 85 44 68 85 44 68 85 44 68 85 44 68 85 44 68 85 44 68 85 44 68 85 44 68 85 44 68 85 44 68 85 44 68 157 196 220 157 196 220 157 196 220 157 196 220 157 196 220 157 196 220 157 196 220 157 196 220 157 196 220 157 196 220 157 196 220 157 196 220 157 196 220 157 196 220 157 196 220 157 196 220 157 196 220 157 196 220 157 196 220 157 196 220 157 196 220 157 196 220 157 196 220 157 196 220 157 196 220 157 196 220 157 196 220 131 142 144 131 142 144 157 196 220 214 223 216 214 223 216 214 223 216 214 223 216 214 223 216 214 223 216 131 142 144 98 66 73 98 66 73 98 66 73 98 66 73 98 66 73 98 66 73 98 66 73 98 66 73 98 66 73 98 66 73 98 66 73 98 66 73 98 66 73 98 66 73 98 66 73 98 66 73 98 66 73 98 66 73 98 66 73 98 66 73 98 66 73 98 66 73 98 66 73 98 66 73 98 66 73 98 66 73 165 105 94 165 105 94 165 105 94 165 105 94 165 105 94 165 105 94 165 105 94 165 105 94 165 105 94 165 105 94 165 105 94 165 105 94 165 105 94 165 105 94 165 105 94 165 105 94 165 105 94 165 105 94 165 105 94 165 105 94 165 105 94 165 105 94 165 105 94 165 105 94 165 105 94 165 105 94 165 105 94 165 105 94 165 105 94 165 105 94 165 105 94 165 105 94 165 105 94 165 105 94 165 105 94 165 105 94 168 109 100 168 109 100 168 109 100 168 109 100 168 109 100 168 109 100 168 109 100 168 109 100 168 109 100 168 109 100 168 109 100 168 109 100 168 109 100 168 109 100 168 109 100 168 109 100 168 109 100 168 109 100 168 109 100 168 109 100 168 109 100 168 109 100 109 103 115 109 103 115 109 103 115 109 103 115 126 139 153 109 103 115 126 139 153 126 139 153 126 139 153 126 139 153 126 139 153 126 139 153 126 139 153 126 139 153 126 139 153 164 106 100 164 106 100 164 106 100 164 106 100 164 106 100 164 106 100 164 106 100 164 106 100 164 106 100 164 106 100 164 106 100 164 106 100 164 106 100 164 106 100 164 106 100 164 106 100 126 139 153 213 219 211 213 219 211 139 170 182 139 170 182 126 139 153 109 103 115 109 103 115 109 103 115 109 103 115 126 139 153 126 139 153 126 139 153 126 139 153 126 139 153 126 139 153 126 139 153 126 139 153 126 139 153 126 139 153 213 219 211 216 223 223 213 219 211 158 158 161 158 158 161 158 158 161 158 158 161 107 68 81 74 40 65 74 40 65 74 40 65 107 68 81 107 68 81 107 68 81 107 68 81 107 68 81 107 68 81 107 68 81 107 68 81 107 68 81 74 40 65 107 68 81 158 158 161 158 158 161 213 219 211 158 158 161 158 158 161 126 139 153 122 97 106 158 158 161 158 158 161 74 40 65 74 40 65 74 40 65 74 40 65 74 40 65 74 40 65 107 68 81 107 68 81 107 68 81 85 44 68 85 44 68 85 44 68 107 68 81 107 68 81 107 68 81 85 44 68 85 44 68 85 44 68 85 44 68 85 44 68 85 44 68 85 44 68 85 44 68 85 44 68 85 44 68 85 44 68 85 44 68 85 44 68 85 44 68 85 44 68 85 44 68 85 44 68 85 44 68 85 44 68 85 44 68 85 44 68 85 44 68 85 44 68 85 44 68 85 44 68 85 44 68 85 44 68 85 44 68 85 44 68 85 44 68 85 44 68 85 44 68 85 44 68 85 44 68 85 44 68 85 44 68 85 44 68 85 44 68 157 196 220 157 196 220 157 196 220 157 196 220 157 196 220 157 196 220 157 196 220 157 196 220 157 196 220 157 196 220 157 196 220 157 196 220 157 196 220 157 196 220 157 196 220 157 196 220 157 196 220 157 196 220 157 196 220 157 196 220 157 196 220 157 196 220 157 196 220 157 196 220 157 196 220 157 196 220 131 142 144 131 142 144 157 196 220 214 223 216 214 223 216 214 223 216 214 223 216 214 223 216 214 223 216 131 142 144 98 66 73 98 66 73 98 66 73 98 66 73 98 66 73 98 66 73 98 66 73 98 66 73 98 66 73 98 66 73 98 66 73 98 66 73 98 66 73 98 66 73 98 66 73 98 66 73 98 66 73 98 66 73 98 66 73 98 66 73 98 66 73 98 66 73 98 66 73 98 66 73 98 66 73 165 105 94 165 105 94 165 105 94 165 105 94 165 105 94 165 105 94 165 105 94 165 105 94 165 105 94 165 105 94 165 105 94 165 105 94 165 105 94 165 105 94 165 105 94 165 105 94 165 105 94 165 105 94 165 105 94 165 105 94 165 105 94 165 105 94 165 105 94 165 105 94 165 105 94 165 105 94 165 105 94 165 105 94 165 105 94 165 105 94 165 105 94 165 105 94 165 105 94 165 105 94 165 105 94 165 105 94 165 105 94 165 105 94 168 109 100 168 109 100 165 105 94 168 109 100 168 109 100 168 109 100 168 109 100 168 109 100 168 109 100 168 109 100 168 109 100 168 109 100 168 109 100 168 109 100 168 109 100 109 103 115 109 103 115 168 109 100 168 109 100 168 109 100 168 109 100 109 103 115 126 139 153 126 139 153 126 139 153 126 139 153 126 139 153 126 139 153 126 139 153 126 139 153 109 103 115 109 103 115 109 103 115 126 139 153 109 103 115 109 103 115 109 103 115 109 103 115 164 106 100 164 106 100 164 106 100 164 106 100 164 106 100 164 106 100 164 106 100 164 106 100 164 106 100 164 106 100 164 106 100 164 106 100 164 106 100 164 106 100 164 106 100 126 139 153 213 219 211 213 219 211 213 219 211 139 170 182 126 139 153 109 103 115 109 103 115 109 103 115 109 103 115 126 139 153 126 139 153 126 139 153 126 139 153 126 139 153 126 139 153 126 139 153 126 139 153 126 139 153 126 139 153 213 219 211 213 219 211 158 158 161 164 106 100 126 139 153 213 219 211 158 158 161 126 139 153 74 40 65 74 40 65 74 40 65 107 68 81 107 68 81 107 68 81 107 68 81 107 68 81 107 68 81 107 68 81 107 68 81 107 68 81 107 68 81 107 68 81 158 158 161 213 219 211 158 158 161 158 158 161 158 158 161 107 68 81 107 68 81 122 97 106 107 68 81 74 40 65 74 40 65 74 40 65 74 40 65 74 40 65 74 40 65 85 44 68 107 68 81 85 44 68 85 44 68 85 44 68 85 44 68 85 44 68 85 44 68 85 44 68 85 44 68 85 44 68 85 44 68 85 44 68 85 44 68 85 44 68 85 44 68 85 44 68 85 44 68 85 44 68 85 44 68 85 44 68 85 44 68 85 44 68 85 44 68 85 44 68 85 44 68 85 44 68 85 44 68 85 44 68 85 44 68 85 44 68 85 44 68 85 44 68 85 44 68 85 44 68 85 44 68 85 44 68 85 44 68 85 44 68 85 44 68 85 44 68 85 44 68 85 44 68 85 44 68 85 44 68 85 44 68 85 44 68 157 196 220 157 196 220 157 196 220 157 196 220 157 196 220 157 196 220 157 196 220 157 196 220 157 196 220 157 196 220 157 196 220 157 196 220 157 196 220 157 196 220 157 196 220 157 196 220 157 196 220 157 196 220 157 196 220 157 196 220 157 196 220 157 196 220 157 196 220 157 196 220 157 196 220 131 142 144 131 142 144 157 196 220 214 223 216 214 223 216 214 223 216 214 223 216 214 223 216 214 223 216 131 142 144 98 66 73 98 66 73 98 66 73 98 66 73 98 66 73 98 66 73 98 66 73 98 66 73 98 66 73 98 66 73 98 66 73 98 66 73 98 66 73 98 66 73 98 66 73 98 66 73 98 66 73 98 66 73 98 66 73 98 66 73 98 66 73 98 66 73 98 66 73 98 66 73 98 66 73 98 66 73 165 105 94 165 105 94 165 105 94 165 105 94 165 105 94 165 105 94 165 105 94 165 105 94 165 105 94 165 105 94 165 105 94 165 105 94 165 105 94 165 105 94 165 105 94 165 105 94 165 105 94 165 105 94 165 105 94 165 105 94 165 105 94 165 105 94 165 105 94 165 105 94 165 105 94 165 105 94 165 105 94 165 105 94 165 105 94 165 105 94 165 105 94 165 105 94 165 105 94 165 105 94 169 108 96 165 105 94 165 105 94 165 105 94 169 108 96 165 105 94 165 105 94 168 109 100 165 105 94 168 109 100 168 109 100 168 109 100 168 109 100 168 109 100 168 109 100 168 109 100 168 109 100 107 64 79 107 64 79 109 103 115 109 103 115 109 103 115 168 109 100 168 109 100 126 139 153 126 139 153 126 139 153 126 139 153 126 139 153 126 139 153 126 139 153 126 139 153 126 139 153 126 139 153 109 103 115 109 103 115 109 103 115 109 103 115 109 103 115 109 103 115 109 103 115 164 106 100 164 106 100 164 106 100 164 106 100 164 106 100 164 106 100 164 106 100 164 106 100 164 106 100 164 106 100 164 106 100 164 106 100 164 106 100 164 106 100 164 106 100 164 106 100 126 139 153 213 219 211 213 219 211 213 219 211 139 170 182 126 139 153 109 103 115 126 139 153 109 103 115 126 139 153 126 139 153 126 139 153 126 139 153 126 139 153 126 139 153 126 139 153 126 139 153 126 139 153 126 139 153 126 139 153 126 139 153 158 158 161 164 106 100 107 68 81 109 103 115 158 158 161 158 158 161 122 97 106 74 40 65 74 40 65 74 40 65 107 68 81 107 68 81 107 68 81 107 68 81 107 68 81 107 68 81 107 68 81 107 68 81 107 68 81 107 68 81 107 68 81 158 158 161 213 219 211 213 219 211 158 158 161 158 158 161 107 68 81 74 40 65 74 40 65 74 40 65 74 40 65 74 40 65 74 40 65 74 40 65 74 40 65 74 40 65 85 44 68 107 68 81 85 44 68 85 44 68 85 44 68 107 68 81 85 44 68 85 44 68 107 68 81 107 68 81 85 44 68 85 44 68 85 44 68 85 44 68 85 44 68 112 69 83 112 69 83 112 69 83 112 69 83 112 69 83 112 69 83 85 44 68 85 44 68 85 44 68 85 44 68 85 44 68 85 44 68 85 44 68 85 44 68 85 44 68 85 44 68 85 44 68 85 44 68 85 44 68 85 44 68 85 44 68 85 44 68 85 44 68 85 44 68 85 44 68 85 44 68 85 44 68 85 44 68 85 44 68 85 44 68 85 44 68 85 44 68 157 196 220 157 196 220 157 196 220 157 196 220 157 196 220 157 196 220 157 196 220 157 196 220 157 196 220 157 196 220 157 196 220 157 196 220 157 196 220 157 196 220 157 196 220 157 196 220 157 196 220 157 196 220 157 196 220 157 196 220 157 196 220 157 196 220 157 196 220 157 196 220 131 142 144 131 142 144 157 196 220 214 223 216 214 223 216 214 223 216 214 223 216 214 223 216 214 223 216 131 142 144 98 66 73 98 66 73 98 66 73 98 66 73 98 66 73 98 66 73 98 66 73 98 66 73 98 66 73 98 66 73 98 66 73 98 66 73 98 66 73 98 66 73 98 66 73 98 66 73 98 66 73 98 66 73 98 66 73 98 66 73 98 66 73 98 66 73 98 66 73 98 66 73 98 66 73 98 66 73 165 105 94 165 105 94 165 105 94 165 105 94 165 105 94 165 105 94 165 105 94 165 105 94 165 105 94 165 105 94 165 105 94 165 105 94 165 105 94 165 105 94 165 105 94 165 105 94 165 105 94 165 105 94 165 105 94 165 105 94 165 105 94 165 105 94 165 105 94 165 105 94 165 105 94 165 105 94 165 105 94 165 105 94 165 105 94 165 105 94 165 105 94 165 105 94 165 105 94 165 105 94 165 105 94 165 105 94 165 105 94 165 105 94 165 105 94 165 105 94 169 108 96 169 108 96 168 109 100 168 109 100 168 109 100 168 109 100 168 109 100 168 109 100 168 109 100 168 109 100 168 109 100 168 109 100 109 103 115 107 64 79 109 103 115 126 139 153 126 139 153 126 139 153 168 109 100 126 139 153 109 103 115 109 103 115 109 103 115 109 103 115 109 103 115 109 103 115 139 170 182 139 170 182 126 139 153 109 103 115 109 103 115 109 103 115 109 103 115 109 103 115 109 103 115 126 139 153 164 106 100 164 106 100 164 106 100 164 106 100 164 106 100 164 106 100 164 106 100 164 106 100 164 106 100 164 106 100 164 106 100 164 106 100 164 106 100 164 106 100 164 106 100 164 106 100 126 139 153 213 219 211 213 219 211 213 219 211 213 219 211 139 170 182 126 139 153 126 139 153 109 103 115 126 139 153 126 139 153 126 139 153 126 139 153 126 139 153 126 139 153 126 139 153 126 139 153 126 139 153 126 139 153 126 139 153 126 139 153 126 139 153 107 68 81 99 60 75 107 68 81 107 68 81 107 68 81 107 68 81 74 40 65 74 40 65 107 68 81 107 68 81 107 68 81 107 68 81 107 68 81 107 68 81 107 68 81 107 68 81 107 68 81 107 68 81 107 68 81 107 68 81 158 158 161 213 219 211 213 219 211 158 158 161 158 158 161 74 40 65 74 40 65 74 40 65 74 40 65 74 40 65 107 68 81 74 40 65 74 40 65 74 40 65 74 40 65 85 44 68 85 44 68 85 44 68 107 68 81 107 68 81 107 68 81 107 68 81 107 68 81 107 68 81 107 68 81 107 68 81 112 69 83 112 69 83 85 44 68 112 69 83 112 69 83 85 44 68 112 69 83 112 69 83 112 69 83 85 44 68 85 44 68 112 69 83 85 44 68 85 44 68 85 44 68 85 44 68 85 44 68 85 44 68 85 44 68 85 44 68 85 44 68 112 69 83 112 69 83 85 44 68 85 44 68 85 44 68 85 44 68 85 44 68 85 44 68 85 44 68 85 44 68 85 44 68 85 44 68 85 44 68 85 44 68 85 44 68 157 196 220 157 196 220 157 196 220 157 196 220 157 196 220 157 196 220 157 196 220 157 196 220 157 196 220 157 196 220 157 196 220 157 196 220 157 196 220 157 196 220 157 196 220 157 196 220 157 196 220 157 196 220 157 196 220 157 196 220 157 196 220 157 196 220 157 196 220 131 142 144 131 142 144 157 196 220 214 223 216 214 223 216 214 223 216 214 223 216 214 223 216 214 223 216 131 142 144 98 66 73 98 66 73 98 66 73 98 66 73 98 66 73 98 66 73 98 66 73 98 66 73 98 66 73 98 66 73 98 66 73 98 66 73 98 66 73 98 66 73 98 66 73 98 66 73 98 66 73 98 66 73 98 66 73 98 66 73 98 66 73 98 66 73 98 66 73 98 66 73 98 66 73 98 66 73 98 66 73 165 105 94 165 105 94 165 105 94 165 105 94 165 105 94 165 105 94 165 105 94 165 105 94 165 105 94 165 105 94 165 105 94 165 105 94 165 105 94 165 105 94 165 105 94 165 105 94 165 105 94 165 105 94 165 105 94 165 105 94 165 105 94 165 105 94 165 105 94 165 105 94 165 105 94 165 105 94 165 105 94 165 105 94 165 105 94 165 105 94 165 105 94 165 105 94 169 108 96 165 105 94 165 105 94 169 108 96 165 105 94 165 105 94 165 105 94 165 105 94 165 105 94 165 105 94 169 108 96 169 108 96 168 109 100 168 109 100 168 109 100 168 109 100 168 109 100 168 109 100 168 109 100 168 109 100 168 109 100 107 64 79 109 103 115 126 139 153 126 139 153 109 103 115 109 103 115 107 64 79 109 103 115 107 64 79 99 60 75 99 60 75 99 60 75 109 103 115 139 170 182 139 170 182 126 139 153 109 103 115 109 103 115 109 103 115 109 103 115 109 103 115 109 103 115 126 139 153 164 106 100 164 106 100 164 106 100 164 106 100 164 106 100 164 106 100 164 106 100 164 106 100 164 106 100 164 106 100 164 106 100 164 106 100 164 106 100 164 106 100 164 106 100 164 106 100 126 139 153 213 219 211 213 219 211 213 219 211 213 219 211 139 170 182 126 139 153 126 139 153 126 139 153 126 139 153 126 139 153 126 139 153 126 139 153 126 139 153 126 139 153 126 139 153 126 139 153 126 139 153 126 139 153 126 139 153 126 139 153 126 139 153 107 68 81 107 68 81 107 68 81 74 40 65 107 68 81 74 40 65 107 68 81 107 68 81 107 68 81 107 68 81 107 68 81 107 68 81 107 68 81 107 68 81 107 68 81 107 68 81 107 68 81 74 40 65 107 68 81 107 68 81 158 158 161 213 219 211 213 219 211 213 219 211 158 158 161 74 40 65 74 40 65 74 40 65 74 40 65 74 40 65 107 68 81 107 68 81 74 40 65 74 40 65 107 68 81 107 68 81 85 44 68 107 68 81 107 68 81 107 68 81 107 68 81 107 68 81 107 68 81 107 68 81 107 68 81 112 69 83 112 69 83 112 69 83 85 44 68 85 44 68 112 69 83 112 69 83 112 69 83 112 69 83 112 69 83 112 69 83 112 69 83 112 69 83 85 44 68 85 44 68 85 44 68 112 69 83 85 44 68 112 69 83 112 69 83 112 69 83 112 69 83 112 69 83 112 69 83 112 69 83 112 69 83 112 69 83 112 69 83 112 69 83 85 44 68 85 44 68 85 44 68 85 44 68 85 44 68 85 44 68 85 44 68 85 44 68 157 196 220 157 196 220 157 196 220 157 196 220 157 196 220 157 196 220 157 196 220 157 196 220 157 196 220 157 196 220 157 196 220 157 196 220 157 196 220 157 196 220 157 196 220 157 196 220 157 196 220 157 196 220 157 196 220 157 196 220 157 196 220 157 196 220 131 142 144 131 142 144 157 196 220 157 196 220 214 223 216 214 223 216 214 223 216 214 223 216 214 223 216 181 172 166 131 142 144 98 66 73 98 66 73 98 66 73 98 66 73 98 66 73 98 66 73 98 66 73 98 66 73 98 66 73 98 66 73 98 66 73 98 66 73 98 66 73 98 66 73 98 66 73 98 66 73 98 66 73 98 66 73 98 66 73 98 66 73 98 66 73 98 66 73 98 66 73 98 66 73 98 66 73 98 66 73 165 105 94 165 105 94 165 105 94 165 105 94 165 105 94 165 105 94 165 105 94 165 105 94 165 105 94 165 105 94 165 105 94 165 105 94 165 105 94 165 105 94 165 105 94 165 105 94 165 105 94 165 105 94 165 105 94 165 105 94 165 105 94 165 105 94 165 105 94 165 105 94 165 105 94 165 105 94 165 105 94 165 105 94 165 105 94 165 105 94 165 105 94 165 105 94 165 105 94 169 108 96 165 105 94 165 105 94 165 105 94 169 108 96 169 108 96 169 108 96 169 108 96 169 108 96 169 108 96 169 108 96 169 108 96 169 108 96 169 108 96 168 109 100 168 109 100 168 109 100 168 109 100 168 109 100 168 109 100 168 109 100 109 103 115 168 109 100 181 172 166 109 103 115 109 103 115 109 103 115 99 60 75 99 60 75 99 60 75 99 60 75 99 60 75 99 60 75 109 103 115 139 170 182 139 170 182 126 139 153 126 139 153 109 103 115 109 103 115 109 103 115 126 139 153 126 139 153 109 103 115 164 106 100 164 106 100 164 106 100 164 106 100 164 106 100 164 106 100 164 106 100 164 106 100 164 106 100 164 106 100 164 106 100 164 106 100 164 106 100 164 106 100 164 106 100 164 106 100 126 139 153 213 219 211 213 219 211 213 219 211 213 219 211 139 170 182 126 139 153 126 139 153 126 139 153 126 139 153 126 139 153 126 139 153 126 139 153 126 139 153 126 139 153 126 139 153 126 139 153 126 139 153 126 139 153 126 139 153 126 139 153 126 139 153 164 106 100 107 68 81 107 68 81 74 40 65 107 68 81 74 40 65 74 40 65 74 40 65 107 68 81 107 68 81 107 68 81 107 68 81 107 68 81 107 68 81 107 68 81 107 68 81 107 68 81 107 68 81 107 68 81 122 97 106 158 158 161 213 219 211 213 219 211 213 219 211 158 158 161 107 68 81 74 40 65 74 40 65 107 68 81 107 68 81 107 68 81 107 68 81 107 68 81 74 40 65 107 68 81 107 68 81 85 44 68 107 68 81 107 68 81 107 68 81 107 68 81 107 68 81 107 68 81 107 68 81 107 68 81 112 69 83 112 69 83 112 69 83 85 44 68 85 44 68 85 44 68 85 44 68 112 69 83 112 69 83 112 69 83 112 69 83 112 69 83 85 44 68 112 69 83 85 44 68 112 69 83 112 69 83 112 69 83 112 69 83 112 69 83 112 69 83 112 69 83 112 69 83 112 69 83 112 69 83 112 69 83 112 69 83 112 69 83 112 69 83 85 44 68 85 44 68 85 44 68 85 44 68 85 44 68 85 44 68 85 44 68 85 44 68 157 196 220 157 196 220 157 196 220 157 196 220 157 196 220 157 196 220 157 196 220 157 196 220 157 196 220 157 196 220 157 196 220 157 196 220 157 196 220 157 196 220 157 196 220 157 196 220 157 196 220 157 196 220 157 196 220 157 196 220 157 196 220 131 142 144 131 142 144 131 142 144 214 223 216 214 223 216 214 223 216 214 223 216 214 223 216 214 223 216 181 172 166 131 142 144 98 66 73 98 66 73 98 66 73 98 66 73 98 66 73 98 66 73 98 66 73 98 66 73 98 66 73 98 66 73 98 66 73 98 66 73 98 66 73 98 66 73 98 66 73 98 66 73 98 66 73 98 66 73 98 66 73 98 66 73 98 66 73 98 66 73 98 66 73 98 66 73 98 66 73 165 105 94 165 105 94 165 105 94 165 105 94 165 105 94 165 105 94 165 105 94 165 105 94 165 105 94 165 105 94 165 105 94 165 105 94 165 105 94 165 105 94 165 105 94 165 105 94 165 105 94 165 105 94 165 105 94 165 105 94 165 105 94 165 105 94 165 105 94 165 105 94 165 105 94 165 105 94 165 105 94 165 105 94 165 105 94 165 105 94 165 105 94 165 105 94 165 105 94 165 105 94 165 105 94 169 108 96 165 105 94 165 105 94 165 105 94 165 105 94 165 105 94 169 108 96 169 108 96 169 108 96 169 108 96 169 108 96 169 108 96 169 108 96 169 108 96 168 109 100 168 109 100 168 109 100 168 109 100 168 109 100 168 109 100 168 109 100 168 109 100 126 139 153 181 172 166 126 139 153 109 103 115 109 103 115 99 60 75 99 60 75 99 60 75 99 60 75 107 64 79 107 64 79 109 103 115 213 219 211 213 219 211 126 139 153 126 139 153 109 103 115 109 103 115 109 103 115 126 139 153 126 139 153 126 139 153 164 106 100 164 106 100 164 106 100 164 106 100 164 106 100 164 106 100 164 106 100 164 106 100 164 106 100 164 106 100 164 106 100 164 106 100 164 106 100 164 106 100 164 106 100 164 106 100 126 139 153 213 219 211 213 219 211 213 219 211 213 219 211 139 170 182 126 139 153 126 139 153 126 139 153 126 139 153 126 139 153 126 139 153 126 139 153 126 139 153 126 139 153 126 139 153 126 139 153 126 139 153 126 139 153 126 139 153 126 139 153 126 139 153 164 106 100 164 106 100 107 68 81 107 68 81 107 68 81 107 68 81 74 40 65 107 68 81 107 68 81 107 68 81 107 68 81 107 68 81 107 68 81 107 68 81 107 68 81 107 68 81 107 68 81 107 68 81 107 68 81 122 97 106 213 219 211 213 219 211 213 219 211 213 219 211 158 158 161 107 68 81 107 68 81 107 68 81 107 68 81 107 68 81 107 68 81 107 68 81 107 68 81 107 68 81 107 68 81 107 68 81 107 68 81 107 68 81 107 68 81 107 68 81 107 68 81 107 68 81 107 68 81 107 68 81 107 68 81 112 69 83 112 69 83 112 69 83 112 69 83 112 69 83 112 69 83 112 69 83 112 69 83 112 69 83 112 69 83 112 69 83 112 69 83 112 69 83 112 69 83 85 44 68 85 44 68 85 44 68 112 69 83 112 69 83 112 69 83 112 69 83 112 69 83 112 69 83 112 69 83 112 69 83 112 69 83 112 69 83 112 69 83 85 44 68 85 44 68 112 69 83 112 69 83 112 69 83 112 69 83 112 69 83 112 69 83 112 69 83 157 196 220 157 196 220 157 196 220 157 196 220 157 196 220 157 196 220 157 196 220 157 196 220 157 196 220 157 196 220 157 196 220 157 196 220 157 196 220 157 196 220 157 196 220 157 196 220 157 196 220 157 196 220 157 196 220 157 196 220 131 142 144 131 142 144 160 196 218 214 223 216 214 223 216 214 223 216 214 223 216 214 223 216 214 223 216 214 223 216 131 142 144 98 66 73 98 66 73 98 66 73 98 66 73 98 66 73 98 66 73 98 66 73 98 66 73 98 66 73 98 66 73 98 66 73 98 66 73 98 66 73 98 66 73 98 66 73 98 66 73 98 66 73 98 66 73 98 66 73 98 66 73 98 66 73 98 66 73 98 66 73 98 66 73 98 66 73 165 105 94 165 105 94 165 105 94 165 105 94 165 105 94 165 105 94 165 105 94 165 105 94 165 105 94 165 105 94 165 105 94 165 105 94 165 105 94 165 105 94 165 105 94 165 105 94 165 105 94 165 105 94 165 105 94 165 105 94 165 105 94 165 105 94 165 105 94 165 105 94 165 105 94 165 105 94 165 105 94 165 105 94 165 105 94 165 105 94 165 105 94 165 105 94 165 105 94 165 105 94 165 105 94 169 108 96 169 108 96 169 108 96 169 108 96 169 108 96 169 108 96 169 108 96 169 108 96 169 108 96 169 108 96 169 108 96 169 108 96 169 108 96 169 108 96 169 108 96 169 108 96 169 108 96 169 108 96 169 108 96 168 109 100 168 109 100 168 109 100 168 109 100 126 139 153 181 172 166 126 139 153 126 139 153 109 103 115 99 60 75 99 60 75 99 60 75 99 60 75 107 64 79 109 103 115 126 139 153 213 219 211 213 219 211 139 170 182 126 139 153 109 103 115 109 103 115 109 103 115 126 139 153 126 139 153 126 139 153 164 106 100 164 106 100 164 106 100 164 106 100 164 106 100 164 106 100 164 106 100 164 106 100 164 106 100 164 106 100 164 106 100 164 106 100 164 106 100 164 106 100 164 106 100 164 106 100 126 139 153 213 219 211 213 219 211 213 219 211 213 219 211 213 219 211 126 139 153 126 139 153 126 139 153 126 139 153 126 139 153 126 139 153 126 139 153 126 139 153 126 139 153 126 139 153 126 139 153 126 139 153 126 139 153 126 139 153 126 139 153 126 139 153 164 106 100 163 106 100 107 68 81 107 68 81 107 68 81 107 68 81 107 68 81 107 68 81 107 68 81 107 68 81 107 68 81 107 68 81 107 68 81 107 68 81 107 68 81 107 68 81 107 68 81 107 68 81 107 68 81 122 97 106 213 219 211 213 219 211 213 219 211 213 219 211 158 158 161 107 68 81 74 40 65 107 68 81 107 68 81 107 68 81 107 68 81 107 68 81 107 68 81 107 68 81 107 68 81 107 68 81 107 68 81 107 68 81 107 68 81 107 68 81 107 68 81 107 68 81 107 68 81 107 68 81 85 44 68 85 44 68 112 69 83 85 44 68 85 44 68 112 69 83 112 69 83 112 69 83 112 69 83 112 69 83 112 69 83 112 69 83 112 69 83 112 69 83 85 44 68 85 44 68 85 44 68 85 44 68 112 69 83 112 69 83 112 69 83 112 69 83 112 69 83 112 69 83 112 69 83 112 69 83 112 69 83 112 69 83 112 69 83 112 69 83 112 69 83 112 69 83 112 69 83 112 69 83 112 69 83 112 69 83 112 69 83 112 69 83 157 196 220 157 196 220 157 196 220 157 196 220 157 196 220 157 196 220 157 196 220 157 196 220 157 196 220 157 196 220 157 196 220 157 196 220 157 196 220 157 196 220 157 196 220 157 196 220 157 196 220 157 196 220 157 196 220 157 196 220 131 142 144 131 142 144 160 196 218 214 223 216 214 223 216 214 223 216 214 223 216 214 223 216 214 223 216 181 172 166 98 66 73 98 66 73 98 66 73 98 66 73 98 66 73 98 66 73 98 66 73 98 66 73 98 66 73 98 66 73 98 66 73 98 66 73 98 66 73 98 66 73 98 66 73 98 66 73 98 66 73 98 66 73 98 66 73 98 66 73 98 66 73 98 66 73 98 66 73 98 66 73 98 66 73 98 66 73 165 105 94 165 105 94 165 105 94 165 105 94 165 105 94 165 105 94 165 105 94 165 105 94 165 105 94 165 105 94 165 105 94 165 105 94 165 105 94 165 105 94 165 105 94 165 105 94 165 105 94 165 105 94 165 105 94 165 105 94 165 105 94 165 105 94 165 105 94 165 105 94 165 105 94 165 105 94 165 105 94 165 105 94 165 105 94 165 105 94 165 105 94 165 105 94 165 105 94 165 105 94 165 105 94 169 108 96 169 108 96 169 108 96 169 108 96 169 108 96 169 108 96 169 108 96 169 108 96 169 108 96 169 108 96 169 108 96 169 108 96 169 108 96 169 108 96 169 108 96 168 109 100 169 108 96 169 108 96 169 108 96 168 109 100 168 109 100 168 109 100 168 109 100 181 172 166 213 219 211 126 139 153 126 139 153 109 103 115 107 64 79 99 60 75 107 64 79 109 103 115 109 103 115 109 103 115 126 139 153 213 219 211 213 219 211 213 219 211 126 139 153 109 103 115 109 103 115 126 139 153 126 139 153 126 139 153 126 139 153 164 106 100 164 106 100 164 106 100 164 106 100 164 106 100 164 106 100 164 106 100 164 106 100 164 106 100 164 106 100 164 106 100 164 106 100 164 106 100 164 106 100 164 106 100 164 106 100 139 170 182 213 219 211 213 219 211 213 219 211 213 219 211 213 219 211 126 139 153 126 139 153 126 139 153 126 139 153 126 139 153 126 139 153 126 139 153 126 139 153 126 139 153 126 139 153 126 139 153 126 139 153 126 139 153 126 139 153 126 139 153 126 139 153 164 106 100 163 106 100 107 68 81 107 68 81 107 68 81 107 68 81 107 68 81 107 68 81 107 68 81 107 68 81 107 68 81 107 68 81 107 68 81 107 68 81 107 68 81 107 68 81 107 68 81 107 68 81 107 68 81 122 97 106 213 219 211 213 219 211 213 219 211 213 219 211 158 158 161 107 68 81 107 68 81 107 68 81 107 68 81 107 68 81 107 68 81 107 68 81 107 68 81 107 68 81 107 68 81 107 68 81 107 68 81 107 68 81 107 68 81 107 68 81 107 68 81 107 68 81 107 68 81 107 68 81 107 68 81 112 69 83 112 69 83 85 44 68 85 44 68 112 69 83 112 69 83 112 69 83 85 44 68 112 69 83 112 69 83 112 69 83 112 69 83 112 69 83 112 69 83 112 69 83 112 69 83 112 69 83 112 69 83 112 69 83 112 69 83 112 69 83 112 69 83 112 69 83 112 69 83 112 69 83 112 69 83 112 69 83 112 69 83 112 69 83 85 44 68 85 44 68 85 44 68 85 44 68 112 69 83 112 69 83 112 69 83 112 69 83 157 196 220 157 196 220 157 196 220 157 196 220 157 196 220 157 196 220 157 196 220 157 196 220 157 196 220 157 196 220 157 196 220 157 196 220 157 196 220 157 196 220 157 196 220 157 196 220 160 196 218 160 196 218 160 196 218 131 142 144 131 142 144 214 223 216 214 223 216 214 223 216 214 223 216 214 223 216 214 223 216 214 223 216 214 223 216 131 142 144 98 66 73 131 142 144 131 142 144 131 142 144 98 66 73 98 66 73 98 66 73 159 105 98 98 66 73 98 66 73 98 66 73 98 66 73 98 66 73 98 66 73 98 66 73 98 66 73 98 66 73 98 66 73 98 66 73 98 66 73 98 66 73 98 66 73 98 66 73 98 66 73 159 105 98 159 105 98 165 105 94 165 105 94 165 105 94 165 105 94 165 105 94 165 105 94 165 105 94 165 105 94 165 105 94 165 105 94 165 105 94 165 105 94 165 105 94 165 105 94 165 105 94 165 105 94 165 105 94 165 105 94 165 105 94 165 105 94 165 105 94 165 105 94 165 105 94 165 105 94 165 105 94 165 105 94 165 105 94 165 105 94 165 105 94 165 105 94 165 105 94 169 108 96 165 105 94 165 105 94 169 108 96 169 108 96 169 108 96 169 108 96 169 108 96 169 108 96 169 108 96 169 108 96 169 108 96 169 108 96 169 108 96 169 108 96 169 108 96 169 108 96 169 108 96 169 108 96 169 108 96 169 108 96 169 108 96 169 108 96 169 108 96 169 108 96 168 109 100 168 109 100 213 219 211 213 219 211 126 139 153 126 139 153 109 103 115 107 64 79 107 64 79 107 64 79 109 103 115 109 103 115 109 103 115 126 139 153 213 219 211 213 219 211 213 219 211 126 139 153 109 103 115 109 103 115 126 139 153 126 139 153 126 139 153 126 139 153 164 106 100 164 106 100 164 106 100 164 106 100 164 106 100 164 106 100 164 106 100 164 106 100 164 106 100 164 106 100 164 106 100 164 106 100 164 106 100 164 106 100 164 106 100 164 106 100 139 170 182 213 219 211 213 219 211 213 219 211 213 219 211 213 219 211 139 170 182 126 139 153 126 139 153 139 170 182 126 139 153 126 139 153 126 139 153 126 139 153 126 139 153 126 139 153 126 139 153 126 139 153 126 139 153 126 139 153 126 139 153 126 139 153 163 106 100 163 106 100 107 68 81 107 68 81 107 68 81 107 68 81 107 68 81 107 68 81 107 68 81 107 68 81 107 68 81 107 68 81 107 68 81 107 68 81 107 68 81 107 68 81 107 68 81 107 68 81 107 68 81 126 139 153 213 219 211 213 219 211 213 219 211 213 219 211 158 158 161 107 68 81 107 68 81 107 68 81 107 68 81 107 68 81 107 68 81 107 68 81 107 68 81 107 68 81 107 68 81 107 68 81 107 68 81 107 68 81 107 68 81 107 68 81 107 68 81 107 68 81 107 68 81 112 69 83 112 69 83 112 69 83 112 69 83 112 69 83 112 69 83 112 69 83 112 69 83 112 69 83 112 69 83 112 69 83 112 69 83 112 69 83 112 69 83 112 69 83 112 69 83 112 69 83 112 69 83 112 69 83 112 69 83 112 69 83 112 69 83 112 69 83 112 69 83 112 69 83 112 69 83 112 69 83 112 69 83 112 69 83 112 69 83 112 69 83 85 44 68 85 44 68 85 44 68 112 69 83 112 69 83 112 69 83 112 69 83 112 69 83 157 196 220 157 196 220 157 196 220 157 196 220 157 196 220 157 196 220 157 196 220 157 196 220 157 196 220 157 196 220 157 196 220 160 196 218 160 196 218 160 196 218 160 196 218 160 196 218 160 196 218 160 196 218 131 142 144 131 142 144 160 196 218 214 223 216 214 223 216 214 223 216 214 223 216 214 223 216 214 223 216 214 223 216 214 223 216 131 142 144 131 142 144 131 142 144 131 142 144 131 142 144 131 142 144 131 142 144 131 142 144 131 142 144 98 66 73 98 66 73 98 66 73 98 66 73 98 66 73 98 66 73 98 66 73 98 66 73 98 66 73 98 66 73 98 66 73 98 66 73 98 66 73 98 66 73 98 66 73 98 66 73 159 105 98 159 105 98 165 105 94 165 105 94 165 105 94 165 105 94 165 105 94 165 105 94 165 105 94 165 105 94 165 105 94 165 105 94 165 105 94 165 105 94 165 105 94 165 105 94 165 105 94 165 105 94 165 105 94 165 105 94 165 105 94 165 105 94 165 105 94 165 105 94 165 105 94 165 105 94 165 105 94 165 105 94 165 105 94 165 105 94 169 108 96 165 105 94 165 105 94 165 105 94 169 108 96 169 108 96 169 108 96 169 108 96 169 108 96 169 108 96 169 108 96 169 108 96 169 108 96 169 108 96 169 108 96 169 108 96 169 108 96 169 108 96 169 108 96 169 108 96 169 108 96 169 108 96 169 108 96 169 108 96 169 108 96 169 108 96 169 108 96 168 109 100 168 109 100 168 109 100 213 219 211 213 219 211 139 170 182 126 139 153 109 103 115 109 103 115 109 103 115 109 103 115 109 103 115 109 103 115 109 103 115 126 139 153 213 219 211 213 219 211 213 219 211 126 139 153 109 103 115 109 103 115 126 139 153 126 139 153 126 139 153 126 139 153 164 106 100 164 106 100 164 106 100 164 106 100 164 106 100 164 106 100 164 106 100 164 106 100 164 106 100 164 106 100 164 106 100 164 106 100 164 106 100 164 106 100 164 106 100 164 106 100 139 170 182 213 219 211 213 219 211 213 219 211 213 219 211 213 219 211 139 170 182 139 170 182 126 139 153 139 170 182 126 139 153 126 139 153 126 139 153 126 139 153 126 139 153 126 139 153 126 139 153 126 139 153 126 139 153 126 139 153 126 139 153 126 139 153 163 106 100 163 106 100 107 68 81 107 68 81 107 68 81 107 68 81 107 68 81 107 68 81 107 68 81 107 68 81 107 68 81 107 68 81 107 68 81 107 68 81 107 68 81 107 68 81 107 68 81 107 68 81 107 68 81 126 139 153 213 219 211 213 219 211 213 219 211 213 219 211 158 158 161 107 68 81 107 68 81 107 68 81 107 68 81 107 68 81 107 68 81 107 68 81 107 68 81 107 68 81 107 68 81 107 68 81 107 68 81 107 68 81 107 68 81 107 68 81 107 68 81 107 68 81 107 68 81 112 69 83 112 69 83 112 69 83 112 69 83 112 69 83 112 69 83 112 69 83 112 69 83 112 69 83 112 69 83 112 69 83 112 69 83 112 69 83 112 69 83 112 69 83 112 69 83 112 69 83 112 69 83 112 69 83 112 69 83 112 69 83 112 69 83 112 69 83 112 69 83 112 69 83 112 69 83 112 69 83 112 69 83 112 69 83 112 69 83 112 69 83 112 69 83 112 69 83 112 69 83 112 69 83 112 69 83 112 69 83 112 69 83 112 69 83 160 196 218 160 196 218 160 196 218 160 196 218 160 196 218 160 196 218 160 196 218 160 196 218 160 196 218 160 196 218 160 196 218 160 196 218 160 196 218 160 196 218 160 196 218 160 196 218 160 196 218 131 142 144 131 142 144 160 196 218 214 223 216 214 223 216 214 223 216 214 223 216 214 223 216 214 223 216 214 223 216 214 223 216 214 223 216 131 142 144 131 142 144 131 142 144 131 142 144 131 142 144 131 142 144 131 142 144 131 142 144 131 142 144 98 66 73 98 66 73 98 66 73 98 66 73 98 66 73 98 66 73 98 66 73 98 66 73 98 66 73 98 66 73 98 66 73 98 66 73 98 66 73 98 66 73 98 66 73 159 105 98 159 105 98 159 105 98 159 105 98 159 105 98 165 105 94 165 105 94 165 105 94 165 105 94 165 105 94 165 105 94 165 105 94 165 105 94 165 105 94 165 105 94 165 105 94 165 105 94 165 105 94 165 105 94 165 105 94 165 105 94 165 105 94 165 105 94 165 105 94 165 105 94 165 105 94 165 105 94 165 105 94 165 105 94 165 105 94 165 105 94 165 105 94 165 105 94 165 105 94 165 105 94 165 105 94 165 105 94 169 108 96 169 108 96 169 108 96 169 108 96 169 108 96 169 108 96 169 108 96 169 108 96 169 108 96 169 108 96 169 108 96 169 108 96 169 108 96 169 108 96 169 108 96 169 108 96 169 108 96 169 108 96 169 108 96 169 108 96 169 108 96 169 108 96 169 108 96 168 109 100 213 219 211 213 219 211 139 170 182 126 139 153 109 103 115 109 103 115 109 103 115 109 103 115 109 103 115 109 103 115 109 103 115 126 139 153 213 219 211 213 219 211 213 219 211 139 170 182 109 103 115 109 103 115 126 139 153 126 139 153 126 139 153 126 139 153 164 106 100 164 106 100 164 106 100 164 106 100 164 106 100 164 106 100 164 106 100 164 106 100 164 106 100 164 106 100 164 106 100 164 106 100 164 106 100 164 106 100 164 106 100 164 106 100 213 219 211 213 219 211 213 219 211 213 219 211 213 219 211 213 219 211 139 170 182 139 170 182 126 139 153 126 139 153 126 139 153 126 139 153 126 139 153 126 139 153 126 139 153 126 139 153 126 139 153 126 139 153 126 139 153 126 139 153 126 139 153 126 139 153 163 106 100 107 68 81 107 68 81 107 68 81 107 68 81 107 68 81 107 68 81 107 68 81 107 68 81 107 68 81 107 68 81 107 68 81 107 68 81 107 68 81 107 68 81 107 68 81 107 68 81 107 68 81 107 68 81 126 139 153 213 219 211 213 219 211 213 219 211 213 219 211 158 158 161 107 68 81 107 68 81 107 68 81 107 68 81 107 68 81 107 68 81 107 68 81 107 68 81 107 68 81 107 68 81 107 68 81 107 68 81 107 68 81 107 68 81 107 68 81 107 68 81 107 68 81 112 69 83 112 69 83 112 69 83 112 69 83 112 69 83 112 69 83 112 69 83 112 69 83 112 69 83 112 69 83 112 69 83 112 69 83 112 69 83 112 69 83 112 69 83 112 69 83 112 69 83 112 69 83 112 69 83 112 69 83 112 69 83 112 69 83 112 69 83 112 69 83 112 69 83 112 69 83 112 69 83 112 69 83 112 69 83 112 69 83 112 69 83 112 69 83 112 69 83 112 69 83 112 69 83 112 69 83 112 69 83 112 69 83 112 69 83 112 69 83 160 196 218 160 196 218 160 196 218 160 196 218 160 196 218 160 196 218 160 196 218 160 196 218 160 196 218 160 196 218 160 196 218 160 196 218 160 196 218 160 196 218 160 196 218 160 196 218 131 142 144 131 142 144 160 196 218 214 223 216 214 223 216 214 223 216 214 223 216 214 223 216 214 223 216 214 223 216 214 223 216 214 223 216 214 223 216 181 172 166 131 142 144 131 142 144 131 142 144 131 142 144 131 142 144 131 142 144 131 142 144 131 142 144 98 66 73 98 66 73 98 66 73 98 66 73 98 66 73 98 66 73 98 66 73 98 66 73 98 66 73 98 66 73 98 66 73 98 66 73 98 66 73 98 66 73 159 105 98 159 105 98 159 105 98 159 105 98 159 105 98 159 105 98 159 105 98 159 105 98 159 105 98 159 105 98 165 105 94 165 105 94 165 105 94 165 105 94 165 105 94 165 105 94 165 105 94 165 105 94 165 105 94 165 105 94 165 105 94 165 105 94 165 105 94 165 105 94 165 105 94 165 105 94 165 105 94 165 105 94 165 105 94 165 105 94 165 105 94 165 105 94 169 108 96 169 108 96 169 108 96 169 108 96 169 108 96 169 108 96 169 108 96 169 108 96 169 108 96 169 108 96 169 108 96 169 108 96 169 108 96 169 108 96 169 108 96 169 108 96 169 108 96 169 108 96 169 108 96 169 108 96 169 108 96 169 108 96 169 108 96 169 108 96 169 108 96 169 108 96 169 108 96 169 108 96 169 108 96 168 109 100 213 219 211 213 219 211 213 219 211 126 139 153 109 103 115 109 103 115 109 103 115 109 103 115 109 103 115 109 103 115 109 103 115 139 170 182 213 219 211 213 219 211 213 219 211 139 170 182 126 139 153 109 103 115 126 139 153 126 139 153 126 139 153 126 139 153 164 106 100 164 106 100 164 106 100 164 106 100 164 106 100 164 106 100 164 106 100 164 106 100 164 106 100 164 106 100 164 106 100 164 106 100 164 106 100 164 106 100 164 106 100 164 106 100 213 219 211 213 219 211 213 219 211 213 219 211 213 219 211 213 219 211 139 170 182 139 170 182 126 139 153 126 139 153 126 139 153 126 139 153 126 139 153 126 139 153 126 139 153 126 139 153 126 139 153 126 139 153 126 139 153 126 139 153 126 139 153 126 139 153 163 106 100 107 68 81 107 68 81 107 68 81 107 68 81 107 68 81 107 68 81 107 68 81 107 68 81 107 68 81 107 68 81 107 68 81 107 68 81 107 68 81 107 68 81 107 68 81 107 68 81 107 68 81 107 68 81 126 139 153 213 219 211 213 219 211 213 219 211 213 219 211 158 158 161 107 68 81 107 68 81 107 68 81 107 68 81 107 68 81 107 68 81 107 68 81 107 68 81 107 68 81 107 68 81 107 68 81 107 68 81 107 68 81 107 68 81 107 68 81 107 68 81 107 68 81 112 69 83 112 69 83 112 69 83 112 69 83 112 69 83 112 69 83 112 69 83 112 69 83 112 69 83 112 69 83 112 69 83 112 69 83 112 69 83 112 69 83 112 69 83 112 69 83 112 69 83 112 69 83 112 69 83 112 69 83 112 69 83 112 69 83 112 69 83 112 69 83 112 69 83 112 69 83 112 69 83 112 69 83 112 69 83 112 69 83 112 69 83 112 69 83 112 69 83 112 69 83 112 69 83 112 69 83 112 69 83 112 69 83 112 69 83 112 69 83 160 196 218 160 196 218 160 196 218 160 196 218 160 196 218 160 196 218 160 196 218 160 196 218 160 196 218 160 196 218 160 196 218 160 196 218 160 196 218 160 196 218 160 196 218 160 196 218 160 196 218 160 196 218 160 196 218 214 223 216 214 223 216 214 223 216 214 223 216 214 223 216 214 223 216 214 223 216 214 223 216 214 223 216 214 223 216 214 223 216 160 196 218 131 142 144 131 142 144 131 142 144 131 142 144 131 142 144 131 142 144 131 142 144 98 66 73 98 66 73 98 66 73 98 66 73 98 66 73 98 66 73 98 66 73 98 66 73 98 66 73 98 66 73 98 66 73 98 66 73 159 105 98 159 105 98 159 105 98 159 105 98 159 105 98 159 105 98 159 105 98 159 105 98 159 105 98 159 105 98 159 105 98 159 105 98 159 105 98 165 105 94 165 105 94 165 105 94 165 105 94 165 105 94 165 105 94 165 105 94 165 105 94 165 105 94 165 105 94 165 105 94 165 105 94 165 105 94 165 105 94 165 105 94 165 105 94 165 105 94 165 105 94 165 105 94 169 108 96 169 108 96 169 108 96 169 108 96 169 108 96 169 108 96 169 108 96 169 108 96 169 108 96 169 108 96 169 108 96 169 108 96 169 108 96 169 108 96 169 108 96 169 108 96 169 108 96 169 108 96 169 108 96 169 108 96 169 108 96 169 108 96 169 108 96 169 108 96 169 108 96 169 108 96 169 108 96 169 108 96 169 108 96 169 108 96 169 108 96 168 109 100 213 219 211 213 219 211 213 219 211 126 139 153 109 103 115 109 103 115 99 60 75 109 103 115 109 103 115 109 103 115 109 103 115 139 170 182 213 219 211 213 219 211 213 219 211 213 219 211 126 139 153 126 139 153 126 139 153 126 139 153 126 139 153 126 139 153 164 106 100 164 106 100 164 106 100 164 106 100 164 106 100 164 106 100 164 106 100 164 106 100 164 106 100 164 106 100 164 106 100 164 106 100 164 106 100 164 106 100 164 106 100 164 106 100 213 219 211 213 219 211 213 219 211 213 219 211 213 219 211 213 219 211 139 170 182 139 170 182 126 139 153 126 139 153 126 139 153 126 139 153 126 139 153 126 139 153 126 139 153 126 139 153 126 139 153 126 139 153 126 139 153 126 139 153 126 139 153 109 103 115 107 68 81 107 68 81 107 68 81 107 68 81 107 68 81 107 68 81 107 68 81 107 68 81 107 68 81 107 68 81 107 68 81 107 68 81 107 68 81 107 68 81 107 68 81 107 68 81 107 68 81 107 68 81 107 68 81 126 139 153 213 219 211 213 219 211 213 219 211 213 219 211 158 158 161 107 68 81 107 68 81 107 68 81 107 68 81 107 68 81 107 68 81 107 68 81 107 68 81 107 68 81 107 68 81 107 68 81 107 68 81 107 68 81 107 68 81 107 68 81 107 68 81 107 68 81 107 68 81 112 69 83 112 69 83 112 69 83 112 69 83 112 69 83 112 69 83 112 69 83 112 69 83 112 69 83 112 69 83 112 69 83 112 69 83 112 69 83 112 69 83 112 69 83 112 69 83 112 69 83 112 69 83 112 69 83 112 69 83 112 69 83 112 69 83 112 69 83 112 69 83 112 69 83 112 69 83 112 69 83 112 69 83 112 69 83 112 69 83 112 69 83 112 69 83 112 69 83 112 69 83 112 69 83 112 69 83 112 69 83 112 69 83 112 69 83 160 196 218 160 196 218 160 196 218 160 196 218 160 196 218 160 196 218 160 196 218 160 196 218 160 196 218 160 196 218 160 196 218 160 196 218 160 196 218 160 196 218 160 196 218 160 196 218 214 223 216 214 223 216 214 223 216 214 223 216 214 223 216 214 223 216 214 223 216 214 223 216 214 223 216 214 223 216 214 223 216 214 223 216 214 223 216 214 223 216 214 223 216 181 172 166 131 142 144 131 142 144 131 142 144 131 142 144 131 142 144 131 142 144 98 66 73 98 66 73 98 66 73 98 66 73 98 66 73 98 66 73 98 66 73 98 66 73 98 66 73 98 66 73 98 66 73 159 105 98 159 105 98 159 105 98 159 105 98 159 105 98 159 105 98 98 66 73 98 66 73 98 66 73 98 66 73 98 66 73 159 105 98 159 105 98 159 105 98 159 105 98 165 105 94 165 105 94 165 105 94 165 105 94 165 105 94 165 105 94 165 105 94 165 105 94 165 105 94 165 105 94 165 105 94 165 105 94 165 105 94 165 105 94 165 105 94 165 105 94 165 105 94 165 105 94 165 105 94 165 105 94 165 105 94 169 108 96 169 108 96 169 108 96 169 108 96 169 108 96 169 108 96 169 108 96 169 108 96 169 108 96 169 108 96 169 108 96 169 108 96 169 108 96 169 108 96 169 108 96 169 108 96 169 108 96 169 108 96 169 108 96 169 108 96 169 108 96 169 108 96 169 108 96 169 108 96 169 108 96 169 108 96 169 108 96 169 108 96 168 109 100 213 219 211 213 219 211 213 219 211 139 170 182 109 103 115 109 103 115 109 103 115 109 103 115 109 103 115 109 103 115 109 103 115 139 170 182 213 219 211 213 219 211 213 219 211 213 219 211 126 139 153 126 139 153 126 139 153 126 139 153 126 139 153 126 139 153 164 106 100 164 106 100 164 106 100 164 106 100 164 106 100 164 106 100 164 106 100 164 106 100 164 106 100 164 106 100 164 106 100 164 106 100 164 106 100 164 106 100 164 106 100 164 106 100 213 219 211 213 219 211 213 219 211 213 219 211 213 219 211 213 219 211 139 170 182 139 170 182 126 139 153 126 139 153 126 139 153 126 139 153 126 139 153 126 139 153 126 139 153 126 139 153 126 139 153 126 139 153 126 139 153 126 139 153 126 139 153 109 103 115 107 68 81 107 68 81 107 68 81 107 68 81 107 68 81 107 68 81 107 68 81 107 68 81 163 106 100 163 106 100 163 106 100 163 106 100 163 106 100 163 106 100 163 106 100 107 68 81 107 68 81 107 68 81 107 68 81 126 139 153 213 219 211 213 219 211 213 219 211 213 219 211 158 158 161 107 68 81 107 68 81 107 68 81 107 68 81 107 68 81 107 68 81 107 68 81 107 68 81 107 68 81 107 68 81 107 68 81 107 68 81 107 68 81 107 68 81 107 68 81 107 68 81 107 68 81 107 68 81 112 69 83 112 69 83 112 69 83 112 69 83 112 69 83 112 69 83 112 69 83 112 69 83 112 69 83 112 69 83 112 69 83 112 69 83 112 69 83 112 69 83 112 69 83 112 69 83 112 69 83 112 69 83 112 69 83 112 69 83 112 69 83 112 69 83 112 69 83 112 69 83 112 69 83 112 69 83 112 69 83 112 69 83 112 69 83 112 69 83 112 69 83 112 69 83 112 69 83 112 69 83 112 69 83 112 69 83 112 69 83 112 69 83 112 69 83 160 196 218 160 196 218 160 196 218 160 196 218 160 196 218 160 196 218 160 196 218 160 196 218 160 196 218 160 196 218 160 196 218 160 196 218 160 196 218 160 196 218 160 196 218 214 223 216 214 223 216 214 223 216 214 223 216 214 223 216 214 223 216 214 223 216 214 223 216 214 223 216 214 223 216 214 223 216 214 223 216 214 223 216 214 223 216 214 223 216 214 223 216 160 196 218 181 172 166 131 142 144 131 142 144 131 142 144 131 142 144 181 172 166 98 66 73 98 66 73 98 66 73 98 66 73 98 66 73 98 66 73 98 66 73 98 66 73 98 66 73 98 66 73 98 66 73 159 105 98 159 105 98 159 105 98 159 105 98 159 105 98 159 105 98 98 66 73 98 66 73 98 66 73 98 66 73 159 105 98 131 142 144 131 142 144 131 142 144 159 105 98 165 105 94 165 105 94 165 105 94 165 105 94 165 105 94 165 105 94 165 105 94 165 105 94 165 105 94 165 105 94 165 105 94 165 105 94 165 105 94 165 105 94 165 105 94 165 105 94 165 105 94 165 105 94 169 108 96 169 108 96 169 108 96 169 108 96 169 108 96 169 108 96 169 108 96 169 108 96 169 108 96 169 108 96 169 108 96 169 108 96 169 108 96 169 108 96 169 108 96 169 108 96 169 108 96 169 108 96 169 108 96 169 108 96 169 108 96 169 108 96 169 108 96 169 108 96 169 108 96 169 108 96 169 108 96 169 108 96 169 108 96 169 108 96 169 108 96 168 109 100 213 219 211 213 219 211 213 219 211 139 170 182 109 103 115 109 103 115 109 103 115 109 103 115 109 103 115 109 103 115 109 103 115 139 170 182 213 219 211 213 219 211 213 219 211 213 219 211 126 139 153 126 139 153 126 139 153 126 139 153 126 139 153 126 139 153 164 106 100 164 106 100 164 106 100 164 106 100 164 106 100 164 106 100 164 106 100 164 106 100 164 106 100 164 106 100 164 106 100 164 106 100 164 106 100 164 106 100 164 106 100 164 106 100 213 219 211 213 219 211 213 219 211 213 219 211 213 219 211 213 219 211 139 170 182 139 170 182 139 170 182 139 170 182 139 170 182 139 170 182 139 170 182 139 170 182 126 139 153 126 139 153 126 139 153 126 139 153 126 139 153 126 139 153 126 139 153 109 103 115 107 68 81 107 68 81 107 68 81 107 68 81 107 68 81 107 68 81 163 106 100 163 106 100 163 106 100 163 106 100 163 106 100 163 106 100 163 106 100 163 106 100 163 106 100 107 68 81 107 68 81 107 68 81 107 68 81 158 158 161 213 219 211 213 219 211 213 219 211 213 219 211 158 158 161 107 68 81 107 68 81 107 68 81 107 68 81 107 68 81 107 68 81 107 68 81 107 68 81 107 68 81 107 68 81 107 68 81 107 68 81 107 68 81 107 68 81 107 68 81 107 68 81 107 68 81 112 69 83 112 69 83 112 69 83 112 69 83 112 69 83 112 69 83 112 69 83 112 69 83 112 69 83 112 69 83 112 69 83 112 69 83 112 69 83 112 69 83 112 69 83 112 69 83 112 69 83 112 69 83 112 69 83 112 69 83 112 69 83 112 69 83 112 69 83 112 69 83 112 69 83 112 69 83 112 69 83 112 69 83 112 69 83 112 69 83 112 69 83 112 69 83 112 69 83 112 69 83 112 69 83 112 69 83 112 69 83 112 69 83 112 69 83 112 69 83 160 196 218 160 196 218 160 196 218 160 196 218 160 196 218 160 196 218 160 196 218 160 196 218 160 196 218 160 196 218 160 196 218 160 196 218 160 196 218 160 196 218 160 196 218 214 223 216 214 223 216 214 223 216 214 223 216 214 223 216 214 223 216 214 223 216 214 223 216 214 223 216 214 223 216 214 223 216 214 223 216 214 223 216 214 223 216 214 223 216 214 223 216 214 223 216 181 172 166 131 142 144 131 142 144 131 142 144 181 172 166 181 172 166 98 66 73 98 66 73 98 66 73 98 66 73 98 66 73 98 66 73 98 66 73 98 66 73 98 66 73 98 66 73 159 105 98 159 105 98 159 105 98 159 105 98 159 105 98 159 105 98 159 105 98 159 105 98 98 66 73 98 66 73 131 142 144 131 142 144 131 142 144 131 142 144 159 105 98 159 105 98 159 105 98 165 105 94 165 105 94 165 105 94 165 105 94 165 105 94 165 105 94 165 105 94 165 105 94 165 105 94 165 105 94 165 105 94 165 105 94 169 108 96 169 108 96 169 108 96 169 108 96 169 108 96 169 108 96 169 108 96 169 108 96 169 108 96 169 108 96 169 108 96 169 108 96 169 108 96 169 108 96 169 108 96 169 108 96 169 108 96 169 108 96 169 108 96 169 108 96 169 108 96 169 108 96 169 108 96 169 108 96 169 108 96 169 108 96 169 108 96 169 108 96 169 108 96 169 108 96 169 108 96 169 108 96 169 108 96 169 108 96 169 108 96 169 108 96 181 172 166 213 219 211 213 219 211 213 219 211 213 219 211 126 139 153 109 103 115 109 103 115 109 103 115 109 103 115 109 103 115 109 103 115 139 170 182 213 219 211 213 219 211 213 219 211 139 170 182 126 139 153 126 139 153 126 139 153 126 139 153 126 139 153 126 139 153 164 106 100 164 106 100 164 106 100 164 106 100 164 106 100 164 106 100 164 106 100 164 106 100 164 106 100 164 106 100 164 106 100 164 106 100 164 106 100 164 106 100 164 106 100 164 106 100 213 219 211 213 219 211 213 219 211 213 219 211 213 219 211 213 219 211 139 170 182 139 170 182 139 170 182 139 170 182 139 170 182 139 170 182 139 170 182 139 170 182 139 170 182 139 170 182 126 139 153 126 139 153 126 139 153 126 139 153 126 139 153 109 103 115 107 68 81 163 106 100 163 106 100 163 106 100 107 68 81 107 68 81 163 106 100 163 106 100 163 106 100 163 106 100 163 106 100 163 106 100 163 106 100 163 106 100 163 106 100 163 106 100 107 68 81 107 68 81 107 68 81 158 158 161 213 219 211 213 219 211 213 219 211 213 219 211 158 158 161 107 68 81 107 68 81 107 68 81 107 68 81 107 68 81 107 68 81 107 68 81 107 68 81 107 68 81 107 68 81 107 68 81 107 68 81 107 68 81 107 68 81 107 68 81 107 68 81 107 68 81 107 68 81 112 69 83 112 69 83 112 69 83 112 69 83 112 69 83 112 69 83 112 69 83 112 69 83 112 69 83 112 69 83 112 69 83 112 69 83 112 69 83 112 69 83 112 69 83 112 69 83 112 69 83 112 69 83 112 69 83 112 69 83 112 69 83 112 69 83 112 69 83 112 69 83 112 69 83 112 69 83 112 69 83 112 69 83 112 69 83 112 69 83 112 69 83 112 69 83 112 69 83 112 69 83 112 69 83 112 69 83 112 69 83 112 69 83 112 69 83 160 196 218 160 196 218 160 196 218 160 196 218 160 196 218 160 196 218 160 196 218 160 196 218 160 196 218 160 196 218 160 196 218 160 196 218 160 196 218 160 196 218 160 196 218 160 196 218 160 196 218 214 223 216 214 223 216 214 223 216 214 223 216 214 223 216 214 223 216 214 223 216 214 223 216 214 223 216 160 196 218 181 172 166 181 172 166 214 223 216 214 223 216 214 223 216 181 172 166 131 142 144 181 172 166 131 142 144 181 172 166 181 172 166 98 66 73 98 66 73 98 66 73 98 66 73 98 66 73 98 66 73 98 66 73 98 66 73 98 66 73 159 105 98 159 105 98 159 105 98 159 105 98 159 105 98 159 105 98 159 105 98 159 105 98 159 105 98 98 66 73 98 66 73 131 142 144 131 142 144 98 66 73 98 66 73 159 105 98 159 105 98 159 105 98 165 105 94 165 105 94 165 105 94 165 105 94 165 105 94 165 105 94 165 105 94 165 105 94 165 105 94 165 105 94 169 108 96 169 108 96 169 108 96 169 108 96 169 108 96 169 108 96 169 108 96 169 108 96 169 108 96 169 108 96 169 108 96 169 108 96 169 108 96 169 108 96 169 108 96 169 108 96 169 108 96 169 108 96 169 108 96 169 108 96 169 108 96 169 108 96 169 108 96 169 108 96 169 108 96 169 108 96 169 108 96 169 108 96 169 108 96 169 108 96 169 108 96 169 108 96 169 108 96 169 108 96 169 108 96 169 108 96 169 108 96 169 108 96 181 172 166 213 219 211 213 219 211 213 219 211 213 219 211 126 139 153 109 103 115 109 103 115 109 103 115 109 103 115 109 103 115 109 103 115 139 170 182 213 219 211 213 219 211 213 219 211 139 170 182 126 139 153 126 139 153 126 139 153 126 139 153 126 139 153 126 139 153 109 103 115 164 106 100 164 106 100 164 106 100 164 106 100 164 106 100 164 106 100 164 106 100 164 106 100 164 106 100 164 106 100 164 106 100 164 106 100 164 106 100 164 106 100 164 106 100 213 219 211 213 219 211 213 219 211 213 219 211 213 219 211 213 219 211 213 219 211 139 170 182 139 170 182 139 170 182 139 170 182 139 170 182 139 170 182 139 170 182 139 170 182 139 170 182 139 170 182 139 170 182 126 139 153 126 139 153 126 139 153 107 68 81 107 68 81 163 106 100 163 106 100 107 68 81 107 68 81 107 68 81 163 106 100 163 106 100 163 106 100 163 106 100 163 106 100 163 106 100 163 106 100 163 106 100 163 106 100 163 106 100 107 68 81 107 68 81 107 68 81 158 158 161 213 219 211 213 219 211 213 219 211 213 219 211 158 158 161 107 68 81 107 68 81 107 68 81 107 68 81 107 68 81 107 68 81 107 68 81 107 68 81 107 68 81 107 68 81 107 68 81 107 68 81 107 68 81 107 68 81 107 68 81 107 68 81 107 68 81 107 68 81 112 69 83 112 69 83 112 69 83 112 69 83 112 69 83 112 69 83 112 69 83 112 69 83 112 69 83 112 69 83 112 69 83 112 69 83 112 69 83 112 69 83 112 69 83 112 69 83 112 69 83 112 69 83 112 69 83 112 69 83 112 69 83 112 69 83 112 69 83 112 69 83 112 69 83 112 69 83 112 69 83 112 69 83 112 69 83 112 69 83 112 69 83 112 69 83 112 69 83 112 69 83 112 69 83 112 69 83 112 69 83 112 69 83 112 69 83 160 196 218 160 196 218 160 196 218 160 196 218 160 196 218 160 196 218 160 196 218 160 196 218 160 196 218 160 196 218 160 196 218 160 196 218 160 196 218 160 196 218 160 196 218 160 196 218 160 196 218 160 196 218 214 223 216 214 223 216 214 223 216 214 223 216 160 196 218 160 196 218 131 142 144 131 142 144 131 142 144 131 142 144 131 142 144 131 142 144 131 142 144 131 142 144 131 142 144 131 142 144 131 142 144 131 142 144 131 142 144 131 142 144 98 66 73 98 66 73 98 66 73 98 66 73 98 66 73 98 66 73 98 66 73 98 66 73 159 105 98 159 105 98 159 105 98 159 105 98 159 105 98 159 105 98 159 105 98 159 105 98 159 105 98 159 105 98 98 66 73 159 105 98 131 142 144 131 142 144 131 142 144 159 105 98 159 105 98 159 105 98 159 105 98 159 105 98 165 105 94 165 105 94 165 105 94 165 105 94 165 105 94 165 105 94 165 105 94 165 105 94 165 105 94 165 105 94 165 105 94 165 105 94 169 108 96 169 108 96 169 108 96 169 108 96 169 108 96 169 108 96 169 108 96 169 108 96 169 108 96 169 108 96 169 108 96 169 108 96 169 108 96 169 108 96 169 108 96 169 108 96 169 108 96 169 108 96 169 108 96 169 108 96 169 108 96 169 108 96 169 108 96 169 108 96 169 108 96 169 108 96 169 108 96 169 108 96 169 108 96 169 108 96 169 108 96 169 108 96 169 108 96 169 108 96 169 108 96 181 172 166 213 219 211 213 219 211 213 219 211 213 219 211 126 139 153 109 103 115 109 103 115 109 103 115 109 103 115 109 103 115 109 103 115 139 170 182 213 219 211 213 219 211 213 219 211 139 170 182 126 139 153 126 139 153 126 139 153 126 139 153 126 139 153 126 139 153 164 106 100 164 106 100 164 106 100 164 106 100 164 106 100 164 106 100 164 106 100 164 106 100 164 106 100 164 106 100 164 106 100 164 106 100 164 106 100 164 106 100 164 106 100 164 106 100 213 219 211 213 219 211 213 219 211 213 219 211 213 219 211 213 219 211 139 170 182 139 170 182 139 170 182 139 170 182 139 170 182 139 170 182 139 170 182 139 170 182 139 170 182 139 170 182 139 170 182 139 170 182 139 170 182 126 139 153 126 139 153 107 68 81 107 68 81 163 106 100 163 106 100 107 68 81 107 68 81 163 106 100 163 106 100 163 106 100 163 106 100 163 106 100 163 106 100 163 106 100 163 106 100 163 106 100 163 106 100 163 106 100 107 68 81 107 68 81 107 68 81 158 158 161 213 219 211 213 219 211 213 219 211 213 219 211 158 158 161 107 68 81 107 68 81 107 68 81 107 68 81 107 68 81 107 68 81 107 68 81 107 68 81 107 68 81 107 68 81 107 68 81 107 68 81 107 68 81 107 68 81 107 68 81 107 68 81 107 68 81 112 69 83 112 69 83 112 69 83 112 69 83 112 69 83 112 69 83 112 69 83 112 69 83 112 69 83 112 69 83 112 69 83 112 69 83 112 69 83 112 69 83 112 69 83 112 69 83 112 69 83 112 69 83 112 69 83 112 69 83 112 69 83 112 69 83 112 69 83 112 69 83 112 69 83 112 69 83 112 69 83 112 69 83 112 69 83 112 69 83 112 69 83 112 69 83 112 69 83 112 69 83 112 69 83 112 69 83 112 69 83 112 69 83 112 69 83 112 69 83 160 196 218 160 196 218 160 196 218 160 196 218 160 196 218 160 196 218 160 196 218 160 196 218 160 196 218 160 196 218 160 196 218 160 196 218 160 196 218 160 196 218 160 196 218 160 196 218 160 196 218 160 196 218 160 196 218 160 196 218 181 172 166 131 142 144 131 142 144 98 66 73 98 66 73 98 66 73 98 66 73 98 66 73 98 66 73 98 66 73 98 66 73 98 66 73 98 66 73 98 66 73 98 66 73 98 66 73 98 66 73 98 66 73 98 66 73 98 66 73 98 66 73 98 66 73 98 66 73 98 66 73 98 66 73 159 105 98 159 105 98 159 105 98 159 105 98 159 105 98 159 105 98 159 105 98 159 105 98 159 105 98 159 105 98 159 105 98 98 66 73 159 105 98 181 172 166 131 142 144 131 142 144 159 105 98 159 105 98 159 105 98 159 105 98 159 105 98 159 105 98 165 105 94 165 105 94 165 105 94 165 105 94 165 105 94 165 105 94 165 105 94 165 105 94 165 105 94 169 108 96 169 108 96 169 108 96 169 108 96 169 108 96 169 108 96 169 108 96 169 108 96 169 108 96 169 108 96 169 108 96 169 108 96 169 108 96 169 108 96 169 108 96 169 108 96 169 108 96 169 108 96 169 108 96 169 108 96 169 108 96 169 108 96 169 108 96 169 108 96 169 108 96 169 108 96 169 108 96 169 108 96 169 108 96 169 108 96 169 108 96 169 108 96 169 108 96 169 108 96 169 108 96 169 108 96 169 108 96 181 172 166 213 219 211 213 219 211 213 219 211 213 219 211 126 139 153 109 103 115 109 103 115 109 103 115 109 103 115 109 103 115 109 103 115 213 219 211 213 219 211 213 219 211 213 219 211 213 219 211 126 139 153 126 139 153 126 139 153 126 139 153 126 139 153 126 139 153 164 106 100 164 106 100 164 106 100 164 106 100 164 106 100 164 106 100 164 106 100 164 106 100 164 106 100 164 106 100 164 106 100 164 106 100 164 106 100 164 106 100 164 106 100 164 106 100 213 219 211 213 219 211 213 219 211 213 219 211 213 219 211 213 219 211 139 170 182 139 170 182 139 170 182 139 170 182 139 170 182 139 170 182 139 170 182 139 170 182 139 170 182 139 170 182 139 170 182 139 170 182 139 170 182 139 170 182 126 139 153 107 68 81 163 106 100 163 106 100 163 106 100 107 68 81 163 106 100 163 106 100 163 106 100 163 106 100 163 106 100 163 106 100 163 106 100 163 106 100 163 106 100 163 106 100 163 106 100 163 106 100 163 106 100 107 68 81 107 68 81 158 158 161 213 219 211 213 219 211 213 219 211 213 219 211 158 158 161 107 68 81 107 68 81 107 68 81 107 68 81 107 68 81 107 68 81 107 68 81 107 68 81 107 68 81 107 68 81 107 68 81 107 68 81 107 68 81 107 68 81 107 68 81 107 68 81 107 68 81 112 69 83 112 69 83 112 69 83 112 69 83 112 69 83 112 69 83 112 69 83 112 69 83 112 69 83 112 69 83 112 69 83 112 69 83 112 69 83 112 69 83 112 69 83 112 69 83 112 69 83 112 69 83 112 69 83 112 69 83 112 69 83 112 69 83 112 69 83 112 69 83 112 69 83 112 69 83 112 69 83 112 69 83 112 69 83 112 69 83 112 69 83 112 69 83 112 69 83 112 69 83 112 69 83 112 69 83 112 69 83 112 69 83 112 69 83 112 69 83 160 196 218 160 196 218 160 196 218 160 196 218 160 196 218 160 196 218 160 196 218 160 196 218 160 196 218 160 196 218 160 196 218 160 196 218 160 196 218 160 196 218 160 196 218 160 196 218 160 196 218 160 196 218 160 196 218 160 196 218 160 196 218 131 142 144 131 142 144 131 142 144 131 142 144 131 142 144 98 66 73 98 66 73 98 66 73 98 66 73 98 66 73 98 66 73 98 66 73 98 66 73 98 66 73 98 66 73 98 66 73 98 66 73 98 66 73 98 66 73 98 66 73 98 66 73 98 66 73 98 66 73 98 66 73 159 105 98 159 105 98 159 105 98 159 105 98 159 105 98 159 105 98 159 105 98 159 105 98 159 105 98 159 105 98 159 105 98 159 105 98 181 172 166 181 172 166 131 142 144 131 142 144 159 105 98 159 105 98 159 105 98 159 105 98 159 105 98 159 105 98 159 105 98 165 105 94 165 105 94 165 105 94 165 105 94 169 108 96 169 108 96 169 108 96 169 108 96 169 108 96 165 105 94 169 108 96 165 105 94 169 108 96 169 108 96 169 108 96 169 108 96 169 108 96 169 108 96 169 108 96 169 108 96 169 108 96 169 108 96 169 108 96 169 108 96 169 108 96 169 108 96 169 108 96 169 108 96 169 108 96 169 108 96 169 108 96 169 108 96 169 108 96 169 108 96 169 108 96 169 108 96 169 108 96 169 108 96 169 108 96 169 108 96 169 108 96 169 108 96 169 108 96 169 108 96 169 108 96 181 172 166 213 219 211 213 219 211 213 219 211 213 219 211 126 139 153 109 103 115 109 103 115 109 103 115 109 103 115 109 103 115 109 103 115 213 219 211 213 219 211 213 219 211 213 219 211 213 219 211 126 139 153 126 139 153 126 139 153 126 139 153 126 139 153 126 139 153 164 106 100 164 106 100 164 106 100 164 106 100 164 106 100 164 106 100 164 106 100 164 106 100 164 106 100 164 106 100 164 106 100 164 106 100 164 106 100 164 106 100 164 106 100 164 106 100 213 219 211 213 219 211 213 219 211 213 219 211 213 219 211 213 219 211 139 170 182 139 170 182 139 170 182 139 170 182 139 170 182 139 170 182 139 170 182 139 170 182 139 170 182 139 170 182 139 170 182 139 170 182 139 170 182 139 170 182 126 139 153 109 103 115 163 106 100 163 106 100 163 106 100 107 68 81 163 106 100 163 106 100 163 106 100 163 106 100 163 106 100 163 106 100 163 106 100 163 106 100 163 106 100 163 106 100 163 106 100 163 106 100 163 106 100 107 68 81 107 68 81 213 219 211 213 219 211 213 219 211 213 219 211 213 219 211 158 158 161 107 68 81 107 68 81 107 68 81 107 68 81 107 68 81 107 68 81 107 68 81 107 68 81 107 68 81 107 68 81 107 68 81 107 68 81 107 68 81 107 68 81 107 68 81 107 68 81 112 69 83 112 69 83 112 69 83 112 69 83 112 69 83 112 69 83 112 69 83 112 69 83 112 69 83 112 69 83 112 69 83 112 69 83 112 69 83 112 69 83 112 69 83 112 69 83 112 69 83 112 69 83 112 69 83 112 69 83 112 69 83 112 69 83 112 69 83 112 69 83 112 69 83 112 69 83 112 69 83 112 69 83 112 69 83 112 69 83 112 69 83 112 69 83 112 69 83 112 69 83 112 69 83 112 69 83 112 69 83 112 69 83 112 69 83 112 69 83 112 69 83 160 196 218 160 196 218 160 196 218 160 196 218 160 196 218 160 196 218 160 196 218 160 196 218 160 196 218 160 196 218 160 196 218 160 196 218 160 196 218 160 196 218 160 196 218 160 196 218 160 196 218 160 196 218 160 196 218 160 196 218 160 196 218 160 196 218 160 196 218 160 196 218 160 196 218 160 196 218 160 196 218 181 172 166 181 172 166 131 142 144 131 142 144 131 142 144 98 66 73 98 66 73 98 66 73 98 66 73 98 66 73 98 66 73 98 66 73 98 66 73 98 66 73 98 66 73 98 66 73 159 105 98 159 105 98 159 105 98 159 105 98 159 105 98 159 105 98 159 105 98 159 105 98 159 105 98 159 105 98 159 105 98 159 105 98 159 105 98 159 105 98 181 172 166 181 172 166 131 142 144 131 142 144 159 105 98 159 105 98 159 105 98 159 105 98 159 105 98 159 105 98 159 105 98 159 105 98 165 105 94 169 108 96 169 108 96 165 105 94 169 108 96 169 108 96 169 108 96 169 108 96 169 108 96 169 108 96 169 108 96 169 108 96 169 108 96 169 108 96 169 108 96 169 108 96 169 108 96 169 108 96 169 108 96 169 108 96 169 108 96 169 108 96 169 108 96 169 108 96 169 108 96 169 108 96 169 108 96 169 108 96 169 108 96 169 108 96 169 108 96 169 108 96 169 108 96 169 108 96 169 108 96 169 108 96 169 108 96 169 108 96 169 108 96 169 108 96 169 108 96 169 108 96 169 108 96 169 108 96 181 172 166 213 219 211 213 219 211 213 219 211 213 219 211 126 139 153 109 103 115 109 103 115 109 103 115 109 103 115 109 103 115 126 139 153 213 219 211 213 219 211 213 219 211 213 219 211 213 219 211 126 139 153 126 139 153 126 139 153 126 139 153 126 139 153 126 139 153 164 106 100 164 106 100 164 106 100 164 106 100 164 106 100 164 106 100 164 106 100 164 106 100 164 106 100 164 106 100 164 106 100 164 106 100 164 106 100 164 106 100 164 106 100 164 106 100 213 219 211 213 219 211 213 219 211 213 219 211 213 219 211 213 219 211 139 170 182 139 170 182 139 170 182 139 170 182 139 170 182 139 170 182 139 170 182 139 170 182 139 170 182 139 170 182 139 170 182 139 170 182 139 170 182 139 170 182 126 139 153 163 106 100 163 106 100 163 106 100 163 106 100 163 106 100 163 106 100 163 106 100 163 106 100 163 106 100 163 106 100 163 106 100 163 106 100 163 106 100 163 106 100 163 106 100 163 106 100 163 106 100 163 106 100 107 68 81 107 68 81 213 219 211 213 219 211 213 219 211 213 219 211 213 219 211 158 158 161 107 68 81 107 68 81 107 68 81 107 68 81 107 68 81 107 68 81 107 68 81 107 68 81 107 68 81 107 68 81 107 68 81 107 68 81 107 68 81 107 68 81 107 68 81 107 68 81 112 69 83 112 69 83 112 69 83 112 69 83 112 69 83 112 69 83 112 69 83 112 69 83 112 69 83 112 69 83 112 69 83 112 69 83 112 69 83 112 69 83 112 69 83 112 69 83 112 69 83 112 69 83 112 69 83 112 69 83 112 69 83 112 69 83 112 69 83 112 69 83 112 69 83 112 69 83 112 69 83 112 69 83 112 69 83 112 69 83 112 69 83 112 69 83 112 69 83 112 69 83 112 69 83 112 69 83 112 69 83 112 69 83 112 69 83 112 69 83 112 69 83 160 196 218 160 196 218 160 196 218 160 196 218 160 196 218 160 196 218 160 196 218 160 196 218 160 196 218 160 196 218 160 196 218 160 196 218 160 196 218 160 196 218 160 196 218 160 196 218 160 196 218 160 196 218 160 196 218 160 196 218 160 196 218 160 196 218 160 196 218 160 196 218 160 196 218 160 196 218 160 196 218 160 196 218 160 196 218 160 196 218 160 196 218 181 172 166 131 142 144 98 66 73 98 66 73 98 66 73 98 66 73 98 66 73 98 66 73 98 66 73 98 66 73 98 66 73 159 105 98 159 105 98 159 105 98 159 105 98 159 105 98 159 105 98 159 105 98 159 105 98 159 105 98 159 105 98 159 105 98 159 105 98 159 105 98 159 105 98 159 105 98 181 172 166 214 223 216 181 172 166 131 142 144 159 105 98 159 105 98 159 105 98 159 105 98 159 105 98 159 105 98 159 105 98 159 105 98 159 105 98 159 105 98 169 108 96 169 108 96 169 108 96 169 108 96 169 108 96 169 108 96 169 108 96 169 108 96 169 108 96 169 108 96 169 108 96 169 108 96 169 108 96 169 108 96 169 108 96 169 108 96 169 108 96 169 108 96 169 108 96 169 108 96 169 108 96 169 108 96 169 108 96 169 108 96 169 108 96 169 108 96 169 108 96 169 108 96 169 108 96 169 108 96 169 108 96 169 108 96 169 108 96 169 108 96 169 108 96 169 108 96 169 108 96 169 108 96 169 108 96 169 108 96 169 108 96 169 108 96 181 172 166 213 219 211 213 219 211 213 219 211 213 219 211 126 139 153 109 103 115 109 103 115 109 103 115 109 103 115 109 103 115 126 139 153 213 219 211 213 219 211 213 219 211 213 219 211 213 219 211 126 139 153 126 139 153 126 139 153 126 139 153 139 170 182 126 139 153 164 106 100 164 106 100 164 106 100 164 106 100 164 106 100 164 106 100 164 106 100 164 106 100 164 106 100 164 106 100 164 106 100 164 106 100 164 106 100 164 106 100 164 106 100 164 106 100 213 219 211 213 219 211 213 219 211 213 219 211 213 219 211 213 219 211 139 170 182 139 170 182 139 170 182 139 170 182 139 170 182 139 170 182 139 170 182 139 170 182 139 170 182 139 170 182 139 170 182 139 170 182 139 170 182 139 170 182 139 170 182 163 106 100 163 106 100 163 106 100 163 106 100 163 106 100 163 106 100 163 106 100 163 106 100 163 106 100 163 106 100 163 106 100 163 106 100 163 106 100 163 106 100 163 106 100 163 106 100 163 106 100 163 106 100 163 106 100 107 68 81 213 219 211 213 219 211 213 219 211 213 219 211 213 219 211 163 106 100 107 68 81 107 68 81 107 68 81 107 68 81 107 68 81 107 68 81 107 68 81 107 68 81 107 68 81 107 68 81 107 68 81 107 68 81 107 68 81 107 68 81 107 68 81 112 69 83 112 69 83 112 69 83 112 69 83 112 69 83 112 69 83 112 69 83 112 69 83 112 69 83 112 69 83 112 69 83 112 69 83 112 69 83 112 69 83 112 69 83 112 69 83 112 69 83 112 69 83 112 69 83 112 69 83 112 69 83 112 69 83 112 69 83 112 69 83 112 69 83 112 69 83 112 69 83 112 69 83 112 69 83 112 69 83 112 69 83 112 69 83 112 69 83 112 69 83 112 69 83 112 69 83 112 69 83 112 69 83 112 69 83 112 69 83 112 69 83 112 69 83 160 196 218 160 196 218 160 196 218 160 196 218 160 196 218 160 196 218 160 196 218 160 196 218 160 196 218 160 196 218 160 196 218 160 196 218 160 196 218 160 196 218 160 196 218 160 196 218 160 196 218 160 196 218 160 196 218 160 196 218 160 196 218 160 196 218 160 196 218 160 196 218 160 196 218 160 196 218 160 196 218 160 196 218 160 196 218 160 196 218 160 196 218 160 196 218 131 142 144 98 66 73 98 66 73 98 66 73 98 66 73 98 66 73 98 66 73 98 66 73 98 66 73 98 66 73 159 105 98 159 105 98 159 105 98 159 105 98 159 105 98 159 105 98 159 105 98 159 105 98 159 105 98 159 105 98 159 105 98 159 105 98 159 105 98 159 105 98 159 105 98 214 223 216 214 223 216 181 172 166 131 142 144 159 105 98 159 105 98 159 105 98 159 105 98 159 105 98 159 105 98 159 105 98 159 105 98 159 105 98 169 108 96 169 108 96 169 108 96 169 108 96 169 108 96 169 108 96 169 108 96 169 108 96 169 108 96 169 108 96 169 108 96 169 108 96 169 108 96 169 108 96 169 108 96 169 108 96 169 108 96 169 108 96 169 108 96 169 108 96 169 108 96 169 108 96 169 108 96 169 108 96 169 108 96 169 108 96 169 108 96 169 108 96 169 108 96 169 108 96 169 108 96 169 108 96 169 108 96 169 108 96 169 108 96 169 108 96 169 108 96 169 108 96 169 108 96 169 108 96 169 108 96 169 108 96 169 108 96 181 172 166 213 219 211 213 219 211 213 219 211 213 219 211 126 139 153 109 103 115 109 103 115 126 139 153 109 103 115 126 139 153 126 139 153 213 219 211 213 219 211 213 219 211 213 219 211 213 219 211 126 139 153 126 139 153 126 139 153 139 170 182 139 170 182 126 139 153 164 106 100 164 106 100 164 106 100 164 106 100 164 106 100 164 106 100 164 106 100 164 106 100 164 106 100 164 106 100 164 106 100 164 106 100 164 106 100 164 106 100 164 106 100 164 106 100 213 219 211 213 219 211 213 219 211 213 219 211 213 219 211 213 219 211 139 170 182 139 170 182 139 170 182 139 170 182 139 170 182 139 170 182 139 170 182 139 170 182 139 170 182 139 170 182 139 170 182 139 170 182 139 170 182 139 170 182 139 170 182 163 106 100 163 106 100 163 106 100 163 106 100 163 106 100 163 106 100 163 106 100 163 106 100 163 106 100 163 106 100 163 106 100 163 106 100 163 106 100 163 106 100 163 106 100 163 106 100 163 106 100 163 106 100 163 106 100 163 106 100 213 219 211 213 219 211 213 219 211 213 219 211 213 219 211 163 106 100 107 68 81 107 68 81 107 68 81 107 68 81 107 68 81 107 68 81 107 68 81 107 68 81 107 68 81 107 68 81 107 68 81 107 68 81 107 68 81 107 68 81 112 69 83 112 69 83 112 69 83 112 69 83 112 69 83 112 69 83 112 69 83 112 69 83 112 69 83 112 69 83 112 69 83 112 69 83 112 69 83 112 69 83 112 69 83 112 69 83 112 69 83 112 69 83 112 69 83 112 69 83 112 69 83 112 69 83 112 69 83 112 69 83 112 69 83 112 69 83 112 69 83 112 69 83 112 69 83 112 69 83 112 69 83 112 69 83 112 69 83 112 69 83 112 69 83 112 69 83 112 69 83 112 69 83 112 69 83 112 69 83 112 69 83 112 69 83 112 69 83 160 196 218 160 196 218 160 196 218 160 196 218 160 196 218 160 196 218 160 196 218 160 196 218 160 196 218 160 196 218 160 196 218 160 196 218 160 196 218 160 196 218 160 196 218 160 196 218 160 196 218 160 196 218 160 196 218 160 196 218 160 196 218 160 196 218 160 196 218 160 196 218 160 196 218 160 196 218 160 196 218 160 196 218 160 196 218 160 196 218 160 196 218 160 196 218 131 142 144 98 66 73 98 66 73 98 66 73 98 66 73 98 66 73 98 66 73 98 66 73 98 66 73 159 105 98 159 105 98 159 105 98 159 105 98 159 105 98 159 105 98 159 105 98 159 105 98 159 105 98 159 105 98 159 105 98 159 105 98 159 105 98 159 105 98 159 105 98 159 105 98 214 223 216 214 223 216 181 172 166 131 142 144 159 105 98 159 105 98 159 105 98 159 105 98 159 105 98 159 105 98 159 105 98 159 105 98 159 105 98 159 105 98 159 105 98 169 108 96 169 108 96 169 108 96 169 108 96 169 108 96 169 108 96 169 108 96 169 108 96 169 108 96 169 108 96 169 108 96 169 108 96 169 108 96 169 108 96 169 108 96 169 108 96 169 108 96 169 108 96 169 108 96 169 108 96 169 108 96 169 108 96 169 108 96 169 108 96 169 108 96 169 108 96 169 108 96 169 108 96 169 108 96 169 108 96 169 108 96 169 108 96 169 108 96 169 108 96 169 108 96 169 108 96 169 108 96 169 108 96 169 108 96 169 108 96 169 108 96 181 172 166 213 219 211 213 219 211 213 219 211 213 219 211 126 139 153 109 103 115 126 139 153 126 139 153 126 139 153 126 139 153 126 139 153 213 219 211 213 219 211 213 219 211 213 219 211 213 219 211 126 139 153 126 139 153 126 139 153 139 170 182 139 170 182 126 139 153 164 106 100 164 106 100 164 106 100 164 106 100 164 106 100 164 106 100 164 106 100 164 106 100 164 106 100 164 106 100 164 106 100 164 106 100 164 106 100 164 106 100 164 106 100 164 106 100 213 219 211 213 219 211 213 219 211 213 219 211 213 219 211 213 219 211 139 170 182 139 170 182 139 170 182 139 170 182 139 170 182 139 170 182 139 170 182 139 170 182 139 170 182 139 170 182 139 170 182 139 170 182 139 170 182 139 170 182 139 170 182 163 106 100 163 106 100 163 106 100 163 106 100 163 106 100 163 106 100 163 106 100 163 106 100 163 106 100 163 106 100 163 106 100 163 106 100 163 106 100 163 106 100 163 106 100 163 106 100 163 106 100 163 106 100 163 106 100 163 106 100 213 219 211 213 219 211 213 219 211 213 219 211 213 219 211 171 113 108 107 68 81 107 68 81 163 106 100 107 68 81 107 68 81 107 68 81 107 68 81 107 68 81 107 68 81 107 68 81 107 68 81 107 68 81 107 68 81 107 68 81 107 68 81 112 69 83 112 69 83 112 69 83 112 69 83 112 69 83 112 69 83 112 69 83 112 69 83 112 69 83 112 69 83 112 69 83 112 69 83 112 69 83 112 69 83 112 69 83 112 69 83 112 69 83 112 69 83 112 69 83 112 69 83 112 69 83 112 69 83 112 69 83 112 69 83 112 69 83 112 69 83 112 69 83 112 69 83 112 69 83 112 69 83 112 69 83 112 69 83 112 69 83 112 69 83 112 69 83 112 69 83 112 69 83 112 69 83 112 69 83 112 69 83 112 69 83 112 69 83 160 196 218 160 196 218 160 196 218 160 196 218 160 196 218 160 196 218 160 196 218 160 196 218 160 196 218 160 196 218 160 196 218 160 196 218 160 196 218 160 196 218 160 196 218 160 196 218 160 196 218 160 196 218 160 196 218 160 196 218 160 196 218 160 196 218 160 196 218 160 196 218 160 196 218 160 196 218 160 196 218 160 196 218 160 196 218 160 196 218 160 196 218 160 196 218 131 142 144 131 142 144 159 105 98 98 66 73 98 66 73 98 66 73 98 66 73 98 66 73 159 105 98 159 105 98 159 105 98 159 105 98 159 105 98 159 105 98 159 105 98 159 105 98 159 105 98 159 105 98 159 105 98 159 105 98 159 105 98 159 105 98 159 105 98 159 105 98 159 105 98 214 223 216 214 223 216 181 172 166 181 172 166 131 142 144 159 105 98 159 105 98 159 105 98 159 105 98 159 105 98 159 105 98 159 105 98 159 105 98 159 105 98 169 108 96 169 108 96 169 108 96 169 108 96 169 108 96 169 108 96 169 108 96 169 108 96 169 108 96 169 108 96 169 108 96 169 108 96 169 108 96 169 108 96 169 108 96 169 108 96 169 108 96 169 108 96 169 108 96 169 108 96 169 108 96 169 108 96 169 108 96 169 108 96 169 108 96 169 108 96 169 108 96 169 108 96 169 108 96 169 108 96 169 108 96 169 108 96 169 108 96 169 108 96 169 108 96 169 108 96 169 108 96 169 108 96 169 108 96 169 108 96 169 108 96 169 108 96 213 219 211 213 219 211 213 219 211 213 219 211 213 219 211 126 139 153 109 103 115 126 139 153 126 139 153 126 139 153 126 139 153 126 139 153 213 219 211 213 219 211 213 219 211 213 219 211 213 219 211 126 139 153 126 139 153 139 170 182 139 170 182 139 170 182 126 139 153 164 106 100 164 106 100 164 106 100 164 106 100 164 106 100 164 106 100 164 106 100 164 106 100 164 106 100 164 106 100 164 106 100 164 106 100 164 106 100 164 106 100 164 106 100 164 106 100 213 219 211 213 219 211 213 219 211 213 219 211 213 219 211 213 219 211 139 170 182 139 170 182 139 170 182 139 170 182 139 170 182 139 170 182 139 170 182 139 170 182 139 170 182 139 170 182 139 170 182 139 170 182 139 170 182 139 170 182 126 139 153 163 106 100 163 106 100 163 106 100 163 106 100 163 106 100 163 106 100 163 106 100 163 106 100 163 106 100 163 106 100 163 106 100 163 106 100 163 106 100 163 106 100 163 106 100 163 106 100 163 106 100 163 106 100 163 106 100 163 106 100 213 219 211 213 219 211 213 219 211 213 219 211 213 219 211 171 113 108 163 106 100 163 106 100 163 106 100 163 106 100 163 106 100 107 68 81 107 68 81 107 68 81 107 68 81 107 68 81 107 68 81 107 68 81 107 68 81 112 69 83 112 69 83 112 69 83 112 69 83 112 69 83 112 69 83 112 69 83 112 69 83 112 69 83 112 69 83 112 69 83 112 69 83 112 69 83 112 69 83 112 69 83 112 69 83 112 69 83 112 69 83 112 69 83 112 69 83 112 69 83 112 69 83 112 69 83 112 69 83 112 69 83 112 69 83 112 69 83 112 69 83 112 69 83 112 69 83 112 69 83 112 69 83 112 69 83 112 69 83 112 69 83 112 69 83 112 69 83 112 69 83 112 69 83 112 69 83 112 69 83 112 69 83 112 69 83 112 69 83 160 196 218 160 196 218 160 196 218 160 196 218 160 196 218 160 196 218 160 196 218 160 196 218 160 196 218 160 196 218 160 196 218 160 196 218 160 196 218 160 196 218 160 196 218 160 196 218 160 196 218 160 196 218 160 196 218 160 196 218 160 196 218 160 196 218 160 196 218 160 196 218 160 196 218 160 196 218 160 196 218 160 196 218 160 196 218 160 196 218 160 196 218 160 196 218 160 196 218 131 142 144 131 142 144 98 66 73 98 66 73 98 66 73 98 66 73 159 105 98 98 66 73 159 105 98 159 105 98 159 105 98 159 105 98 159 105 98 159 105 98 159 105 98 159 105 98 159 105 98 159 105 98 159 105 98 159 105 98 159 105 98 159 105 98 159 105 98 159 105 98 214 223 216 214 223 216 214 223 216 181 172 166 131 142 144 159 105 98 159 105 98 159 105 98 159 105 98 159 105 98 159 105 98 159 105 98 159 105 98 169 108 96 169 108 96 159 105 98 169 108 96 169 108 96 169 108 96 169 108 96 169 108 96 169 108 96 169 108 96 169 108 96 169 108 96 169 108 96 169 108 96 169 108 96 169 108 96 169 108 96 169 108 96 169 108 96 169 108 96 169 108 96 169 108 96 169 108 96 169 108 96 169 108 96 169 108 96 169 108 96 169 108 96 169 108 96 169 108 96 169 108 96 169 108 96 169 108 96 169 108 96 169 108 96 169 108 96 169 108 96 169 108 96 169 108 96 169 108 96 169 108 96 169 108 96 169 108 96 213 219 211 213 219 211 213 219 211 213 219 211 213 219 211 126 139 153 109 103 115 126 139 153 126 139 153 126 139 153 126 139 153 126 139 153 213 219 211 213 219 211 213 219 211 213 219 211 213 219 211 126 139 153 126 139 153 139 170 182 139 170 182 139 170 182 126 139 153 164 106 100 164 106 100 164 106 100 164 106 100 164 106 100 164 106 100 164 106 100 164 106 100 164 106 100 164 106 100 164 106 100 164 106 100 164 106 100 164 106 100 164 106 100 164 106 100 213 219 211 213 219 211 213 219 211 213 219 211 213 219 211 213 219 211 139 170 182 139 170 182 139 170 182 139 170 182 139 170 182 139 170 182 139 170 182 139 170 182 139 170 182 139 170 182 139 170 182 139 170 182 139 170 182 139 170 182 126 139 153 163 106 100 163 106 100 163 106 100 163 106 100 163 106 100 163 106 100 163 106 100 163 106 100 163 106 100 163 106 100 163 106 100 163 106 100 163 106 100 163 106 100 163 106 100 163 106 100 163 106 100 163 106 100 163 106 100 163 106 100 213 219 211 213 219 211 213 219 211 213 219 211 213 219 211 171 113 108 163 106 100 171 113 108 171 113 108 171 113 108 163 106 100 163 106 100 107 68 81 107 68 81 107 68 81 107 68 81 107 68 81 171 113 108 171 113 108 171 113 108 171 113 108 171 113 108 171 113 108 171 113 108 171 113 108 171 113 108 112 69 83 112 69 83 112 69 83 112 69 83 112 69 83 112 69 83 112 69 83 112 69 83 112 69 83 112 69 83 112 69 83 112 69 83 112 69 83 112 69 83 112 69 83 112 69 83 112 69 83 112 69 83 112 69 83 112 69 83 112 69 83 112 69 83 112 69 83 112 69 83 112 69 83 112 69 83 112 69 83 112 69 83 112 69 83 112 69 83 112 69 83 112 69 83 112 69 83 112 69 83 112 69 83 112 69 83 112 69 83 160 196 218 160 196 218 160 196 218 160 196 218 160 196 218 160 196 218 160 196 218 160 196 218 160 196 218 160 196 218 160 196 218 160 196 218 160 196 218 160 196 218 160 196 218 160 196 218 160 196 218 160 196 218 160 196 218 160 196 218 160 196 218 160 196 218 160 196 218 160 196 218 160 196 218 160 196 218 160 196 218 160 196 218 160 196 218 160 196 218 160 196 218 160 196 218 160 196 218 160 196 218 181 172 166 159 105 98 131 142 144 159 105 98 131 142 144 181 172 166 159 105 98 159 105 98 159 105 98 159 105 98 159 105 98 159 105 98 159 105 98 159 105 98 159 105 98 159 105 98 159 105 98 159 105 98 159 105 98 159 105 98 159 105 98 159 105 98 181 172 166 214 223 216 214 223 216 214 223 216 181 172 166 131 142 144 159 105 98 159 105 98 159 105 98 159 105 98 159 105 98 159 105 98 159 105 98 159 105 98 159 105 98 159 105 98 159 105 98 169 108 96 169 108 96 169 108 96 169 108 96 169 108 96 169 108 96 169 108 96 169 108 96 169 108 96 169 108 96 169 108 96 169 108 96 169 108 96 169 108 96 169 108 96 169 108 96 169 108 96 169 108 96 169 108 96 169 108 96 169 108 96 169 108 96 169 108 96 169 108 96 169 108 96 169 108 96 169 108 96 169 108 96 169 108 96 169 108 96 169 108 96 169 108 96 169 108 96 169 108 96 169 108 96 169 108 96 169 108 96 169 108 96 169 108 96 169 108 96 213 219 211 213 219 211 213 219 211 213 219 211 213 219 211 126 139 153 109 103 115 126 139 153 126 139 153 126 139 153 126 139 153 126 139 153 213 219 211 213 219 211 213 219 211 213 219 211 213 219 211 126 139 153 126 139 153 139 170 182 139 170 182 139 170 182 126 139 153 164 106 100 164 106 100 164 106 100 164 106 100 164 106 100 164 106 100 164 106 100 164 106 100 164 106 100 164 106 100 164 106 100 164 106 100 164 106 100 164 106 100 164 106 100 164 106 100 213 219 211 213 219 211 213 219 211 213 219 211 213 219 211 213 219 211 139 170 182 139 170 182 139 170 182 139 170 182 139 170 182 139 170 182 139 170 182 139 170 182 139 170 182 139 170 182 139 170 182 139 170 182 139 170 182 139 170 182 126 139 153 163 106 100 163 106 100 163 106 100 163 106 100 163 106 100 163 106 100 163 106 100 163 106 100 163 106 100 163 106 100 163 106 100 163 106 100 163 106 100 163 106 100 163 106 100 163 106 100 163 106 100 163 106 100 163 106 100 163 106 100 213 219 211 213 219 211 213 219 211 213 219 211 213 219 211 171 113 108 163 106 100 171 113 108 171 113 108 171 113 108 171 113 108 163 106 100 107 68 81 107 68 81 107 68 81 107 68 81 163 106 100 171 113 108 171 113 108 171 113 108 171 113 108 171 113 108 171 113 108 171 113 108 171 113 108 171 113 108 171 113 108 171 113 108 171 113 108 171 113 108 171 113 108 112 69 83 112 69 83 112 69 83 112 69 83 112 69 83 112 69 83 112 69 83 112 69 83 112 69 83 112 69 83 112 69 83 112 69 83 112 69 83 112 69 83 112 69 83 112 69 83 112 69 83 112 69 83 112 69 83 112 69 83 112 69 83 112 69 83 112 69 83 112 69 83 112 69 83 112 69 83 112 69 83 112 69 83 112 69 83 112 69 83 112 69 83 112 69 83 160 196 218 160 196 218 160 196 218 160 196 218 160 196 218 160 196 218 160 196 218 160 196 218 160 196 218 160 196 218 160 196 218 160 196 218 160 196 218 160 196 218 160 196 218 160 196 218 160 196 218 160 196 218 160 196 218 160 196 218 160 196 218 160 196 218 160 196 218 160 196 218 160 196 218 160 196 218 160 196 218 160 196 218 160 196 218 160 196 218 160 196 218 160 196 218 160 196 218 160 196 218 181 172 166 181 172 166 181 172 166 159 105 98 181 172 166 181 172 166 98 66 73 98 66 73 159 105 98 159 105 98 159 105 98 159 105 98 159 105 98 159 105 98 159 105 98 159 105 98 159 105 98 159 105 98 159 105 98 159 105 98 159 105 98 159 105 98 159 105 98 214 223 216 214 223 216 214 223 216 181 172 166 131 142 144 159 105 98 159 105 98 159 105 98 159 105 98 159 105 98 159 105 98 159 105 98 159 105 98 159 105 98 159 105 98 169 108 96 169 108 96 169 108 96 169 108 96 169 108 96 169 108 96 169 108 96 169 108 96 169 108 96 169 108 96 169 108 96 169 108 96 169 108 96 169 108 96 169 108 96 169 108 96 169 108 96 169 108 96 169 108 96 169 108 96 169 108 96 169 108 96 169 108 96 169 108 96 169 108 96 169 108 96 169 108 96 169 108 96 169 108 96 169 108 96 169 108 96 169 108 96 169 108 96 169 108 96 169 108 96 169 108 96 169 108 96 169 108 96 169 108 96 169 108 96 169 108 96 213 219 211 213 219 211 213 219 211 213 219 211 213 219 211 126 139 153 109 103 115 126 139 153 126 139 153 126 139 153 126 139 153 126 139 153 213 219 211 213 219 211 213 219 211 213 219 211 213 219 211 126 139 153 126 139 153 139 170 182 139 170 182 139 170 182 126 139 153 164 106 100 164 106 100 164 106 100 164 106 100 164 106 100 164 106 100 164 106 100 164 106 100 164 106 100 164 106 100 164 106 100 164 106 100 164 106 100 164 106 100 164 106 100 164 106 100 213 219 211 213 219 211 213 219 211 213 219 211 213 219 211 213 219 211 139 170 182 139 170 182 139 170 182 139 170 182 139 170 182 139 170 182 139 170 182 139 170 182 139 170 182 139 170 182 139 170 182 139 170 182 139 170 182 139 170 182 139 170 182 163 106 100 163 106 100 163 106 100 163 106 100 163 106 100 163 106 100 163 106 100 163 106 100 163 106 100 163 106 100 163 106 100 163 106 100 163 106 100 163 106 100 163 106 100 163 106 100 163 106 100 163 106 100 163 106 100 163 106 100 213 219 211 213 219 211 213 219 211 213 219 211 213 219 211 171 113 108 163 106 100 163 106 100 163 106 100 163 106 100 171 113 108 163 106 100 107 68 81 107 68 81 107 68 81 107 68 81 163 106 100 171 113 108 171 113 108 171 113 108 171 113 108 171 113 108 171 113 108 171 113 108 171 113 108 171 113 108 171 113 108 171 113 108 171 113 108 171 113 108 171 113 108 171 113 108 171 113 108 171 113 108 171 113 108 171 113 108 171 113 108 171 113 108 171 113 108 112 69 83 112 69 83 112 69 83 112 69 83 112 69 83 112 69 83 112 69 83 112 69 83 112 69 83 112 69 83 112 69 83 112 69 83 112 69 83 112 69 83 112 69 83 112 69 83 112 69 83 112 69 83 112 69 83 112 69 83 112 69 83 112 69 83 112 69 83 112 69 83 160 196 218 160 196 218 160 196 218 160 196 218 160 196 218 160 196 218 160 196 218 160 196 218 160 196 218 160 196 218 160 196 218 160 196 218 160 196 218 160 196 218 160 196 218 160 196 218 160 196 218 160 196 218 160 196 218 160 196 218 160 196 218 160 196 218 160 196 218 160 196 218 160 196 218 160 196 218 160 196 218 160 196 218 160 196 218 160 196 218 160 196 218 160 196 218 160 196 218 160 196 218 181 172 166 131 142 144 159 105 98 159 105 98 181 172 166 181 172 166 98 66 73 98 66 73 159 105 98 159 105 98 159 105 98 159 105 98 159 105 98 159 105 98 159 105 98 159 105 98 159 105 98 159 105 98 159 105 98 159 105 98 159 105 98 159 105 98 181 172 166 214 223 216 214 223 216 214 223 216 181 172 166 181 172 166 159 105 98 159 105 98 159 105 98 159 105 98 159 105 98 159 105 98 159 105 98 159 105 98 159 105 98 169 108 96 169 108 96 169 108 96 169 108 96 169 108 96 169 108 96 169 108 96 169 108 96 169 108 96 169 108 96 169 108 96 169 108 96 169 108 96 169 108 96 169 108 96 169 108 96 169 108 96 169 108 96 169 108 96 169 108 96 169 108 96 169 108 96 169 108 96 169 108 96 169 108 96 169 108 96 169 108 96 169 108 96 169 108 96 169 108 96 169 108 96 169 108 96 169 108 96 169 108 96 169 108 96 169 108 96 169 108 96 169 108 96 169 108 96 169 108 96 169 108 96 169 108 96 213 219 211 213 219 211 213 219 211 213 219 211 213 219 211 126 139 153 109 103 115 126 139 153 126 139 153 126 139 153 126 139 153 126 139 153 213 219 211 213 219 211 213 219 211 213 219 211 213 219 211 126 139 153 126 139 153 139 170 182 139 170 182 139 170 182 126 139 153 164 106 100 164 106 100 164 106 100 164 106 100 164 106 100 164 106 100 164 106 100 164 106 100 164 106 100 164 106 100 164 106 100 164 106 100 164 106 100 164 106 100 164 106 100 164 106 100 213 219 211 213 219 211 213 219 211 213 219 211 213 219 211 213 219 211 139 170 182 139 170 182 139 170 182 139 170 182 139 170 182 139 170 182 139 170 182 139 170 182 139 170 182 139 170 182 139 170 182 139 170 182 139 170 182 139 170 182 139 170 182 163 106 100 163 106 100 163 106 100 163 106 100 163 106 100 163 106 100 163 106 100 163 106 100 163 106 100 163 106 100 163 106 100 163 106 100 163 106 100 163 106 100 163 106 100 163 106 100 163 106 100 163 106 100 163 106 100 163 106 100 213 219 211 213 219 211 213 219 211 213 219 211 213 219 211 171 113 108 163 106 100 163 106 100 163 106 100 163 106 100 163 106 100 163 106 100 163 106 100 163 106 100 163 106 100 163 106 100 163 106 100 171 113 108 171 113 108 171 113 108 171 113 108 171 113 108 171 113 108 171 113 108 171 113 108 171 113 108 171 113 108 171 113 108 171 113 108 171 113 108 171 113 108 171 113 108 171 113 108 171 113 108 171 113 108 171 113 108 171 113 108 171 113 108 171 113 108 171 113 108 171 113 108 171 113 108 171 113 108 171 113 108 112 69 83 112 69 83 171 113 108 112 69 83 112 69 83 112 69 83 112 69 83 112 69 83 112 69 83 112 69 83 112 69 83 112 69 83 112 69 83 112 69 83 112 69 83 112 69 83 112 69 83 112 69 83 112 69 83 160 196 218 160 196 218 160 196 218 160 196 218 160 196 218 160 196 218 160 196 218 160 196 218 160 196 218 160 196 218 160 196 218 160 196 218 160 196 218 160 196 218 160 196 218 160 196 218 160 196 218 160 196 218 160 196 218 160 196 218 160 196 218 160 196 218 160 196 218 160 196 218 160 196 218 160 196 218 160 196 218 160 196 218 160 196 218 160 196 218 160 196 218 160 196 218 160 196 218 160 196 218 181 172 166 159 105 98 159 105 98 159 105 98 131 142 144 159 105 98 98 66 73 159 105 98 159 105 98 159 105 98 159 105 98 159 105 98 159 105 98 159 105 98 159 105 98 159 105 98 159 105 98 159 105 98 159 105 98 159 105 98 159 105 98 159 105 98 181 172 166 214 223 216 214 223 216 214 223 216 181 172 166 181 172 166 159 105 98 159 105 98 159 105 98 159 105 98 159 105 98 159 105 98 159 105 98 159 105 98 159 105 98 159 105 98 159 105 98 169 108 96 169 108 96 169 108 96 169 108 96 169 108 96 169 108 96 169 108 96 169 108 96 169 108 96 169 108 96 169 108 96 169 108 96 169 108 96 169 108 96 169 108 96 169 108 96 169 108 96 169 108 96 169 108 96 169 108 96 169 108 96 169 108 96 169 108 96 169 108 96 169 108 96 169 108 96 169 108 96 169 108 96 169 108 96 169 108 96 169 108 96 169 108 96 169 108 96 169 108 96 169 108 96 169 108 96 169 108 96 169 108 96 169 108 96 169 108 96 213 219 211 213 219 211 213 219 211 213 219 211 213 219 211 126 139 153 109 103 115 126 139 153 126 139 153 126 139 153 126 139 153 126 139 153 213 219 211 213 219 211 213 219 211 213 219 211 213 219 211 126 139 153 126 139 153 139 170 182 139 170 182 139 170 182 139 170 182 164 106 100 164 106 100 164 106 100 164 106 100 164 106 100 164 106 100 164 106 100 164 106 100 164 106 100 164 106 100 164 106 100 164 106 100 164 106 100 164 106 100 164 106 100 164 106 100 213 219 211 213 219 211 213 219 211 213 219 211 213 219 211 213 219 211 139 170 182 139 170 182 139 170 182 139 170 182 139 170 182 139 170 182 139 170 182 139 170 182 139 170 182 139 170 182 139 170 182 139 170 182 139 170 182 139 170 182 126 139 153 163 106 100 163 106 100 163 106 100 163 106 100 163 106 100 163 106 100 163 106 100 163 106 100 163 106 100 163 106 100 163 106 100 163 106 100 163 106 100 163 106 100 163 106 100 163 106 100 163 106 100 163 106 100 163 106 100 163 106 100 213 219 211 213 219 211 213 219 211 213 219 211 213 219 211 171 113 108 163 106 100 163 106 100 163 106 100 163 106 100 163 106 100 171 113 108 171 113 108 171 113 108 171 113 108 171 113 108 171 113 108 171 113 108 171 113 108 171 113 108 171 113 108 171 113 108 171 113 108 171 113 108 171 113 108 171 113 108 171 113 108 171 113 108 171 113 108 171 113 108 171 113 108 171 113 108 171 113 108 171 113 108 171 113 108 171 113 108 171 113 108 171 113 108 171 113 108 171 113 108 171 113 108 171 113 108 171 113 108 171 113 108 171 113 108 171 113 108 171 113 108 171 113 108 171 113 108 171 113 108 112 69 83 112 69 83 112 69 83 112 69 83 112 69 83 112 69 83 112 69 83 112 69 83 112 69 83 112 69 83 112 69 83 112 69 83 112 69 83 160 196 218 160 196 218 160 196 218 160 196 218 160 196 218 160 196 218 160 196 218 160 196 218 160 196 218 160 196 218 160 196 218 160 196 218 160 196 218 160 196 218 160 196 218 160 196 218 160 196 218 160 196 218 160 196 218 160 196 218 160 196 218 160 196 218 160 196 218 160 196 218 160 196 218 160 196 218 160 196 218 160 196 218 160 196 218 160 196 218 160 196 218 160 196 218 160 196 218 181 172 166 131 142 144 159 105 98 159 105 98 159 105 98 131 142 144 159 105 98 98 66 73 159 105 98 159 105 98 159 105 98 159 105 98 159 105 98 159 105 98 159 105 98 159 105 98 159 105 98 159 105 98 159 105 98 159 105 98 159 105 98 159 105 98 159 105 98 181 172 166 214 223 216 214 223 216 214 223 216 214 223 216 181 172 166 159 105 98 159 105 98 159 105 98 159 105 98 159 105 98 159 105 98 159 105 98 159 105 98 159 105 98 159 105 98 169 108 96 169 108 96 169 108 96 169 108 96 169 108 96 169 108 96 169 108 96 169 108 96 169 108 96 169 108 96 169 108 96 169 108 96 169 108 96 169 108 96 169 108 96 169 108 96 169 108 96 169 108 96 169 108 96 169 108 96 169 108 96 169 108 96 169 108 96 169 108 96 169 108 96 169 108 96 169 108 96 169 108 96 169 108 96 169 108 96 169 108 96 169 108 96 169 108 96 169 108 96 169 108 96 169 108 96 169 108 96 169 108 96 169 108 96 169 108 96 169 108 96 213 219 211 213 219 211 213 219 211 213 219 211 213 219 211 126 139 153 109 103 115 126 139 153 126 139 153 126 139 153 126 139 153 139 170 182 213 219 211 213 219 211 213 219 211 213 219 211 213 219 211 139 170 182 139 170 182 213 219 211 213 219 211 213 219 211 213 219 211 164 106 100 164 106 100 164 106 100 164 106 100 164 106 100 164 106 100 164 106 100 164 106 100 164 106 100 164 106 100 164 106 100 164 106 100 164 106 100 164 106 100 164 106 100 164 106 100 213 219 211 213 219 211 213 219 211 213 219 211 213 219 211 213 219 211 139 170 182 139 170 182 139 170 182 139 170 182 139 170 182 139 170 182 139 170 182 139 170 182 139 170 182 139 170 182 139 170 182 139 170 182 139 170 182 139 170 182 126 139 153 163 106 100 163 106 100 163 106 100 163 106 100 163 106 100 163 106 100 163 106 100 163 106 100 163 106 100 163 106 100 163 106 100 163 106 100 163 106 100 163 106 100 163 106 100 163 106 100 163 106 100 163 106 100 163 106 100 163 106 100 213 219 211 213 219 211 213 219 211 213 219 211 213 219 211 163 106 100 163 106 100 163 106 100 163 106 100 163 106 100 163 106 100 163 106 100 163 106 100 171 113 108 171 113 108 171 113 108 171 113 108 171 113 108 171 113 108 171 113 108 171 113 108 171 113 108 171 113 108 171 113 108 171 113 108 171 113 108 171 113 108 171 113 108 171 113 108 171 113 108 171 113 108 171 113 108 171 113 108 171 113 108 171 113 108 171 113 108 171 113 108 171 113 108 171 113 108 171 113 108 171 113 108 171 113 108 171 113 108 171 113 108 171 113 108 171 113 108 171 113 108 171 113 108 171 113 108 171 113 108 171 113 108 171 113 108 171 113 108 171 113 108 171 113 108 171 113 108 115 93 101 112 69 83 115 93 101 112 69 83 112 69 83 112 69 83 112 69 83 160 196 218 160 196 218 160 196 218 160 196 218 160 196 218 160 196 218 160 196 218 160 196 218 160 196 218 160 196 218 160 196 218 160 196 218 160 196 218 160 196 218 160 196 218 160 196 218 160 196 218 160 196 218 160 196 218 160 196 218 160 196 218 160 196 218 160 196 218 160 196 218 160 196 218 160 196 218 160 196 218 160 196 218 160 196 218 160 196 218 160 196 218 160 196 218 160 196 218 181 172 166 181 172 166 159 105 98 159 105 98 159 105 98 181 172 166 159 105 98 159 105 98 159 105 98 159 105 98 159 105 98 159 105 98 159 105 98 159 105 98 159 105 98 159 105 98 159 105 98 159 105 98 159 105 98 159 105 98 159 105 98 159 105 98 159 105 98 181 172 166 214 223 216 214 223 216 181 172 166 181 172 166 181 172 166 159 105 98 159 105 98 159 105 98 159 105 98 159 105 98 159 105 98 159 105 98 159 105 98 171 108 95 159 105 98 159 105 98 159 105 98 159 105 98 169 108 96 169 108 96 169 108 96 169 108 96 169 108 96 169 108 96 169 108 96 169 108 96 169 108 96 169 108 96 169 108 96 169 108 96 169 108 96 169 108 96 169 108 96 169 108 96 169 108 96 169 108 96 169 108 96 169 108 96 169 108 96 169 108 96 169 108 96 169 108 96 169 108 96 169 108 96 169 108 96 169 108 96 169 108 96 169 108 96 169 108 96 169 108 96 169 108 96 169 108 96 169 108 96 169 108 96 169 108 96 169 108 96 213 219 211 213 219 211 213 219 211 213 219 211 213 219 211 126 139 153 109 103 115 126 139 153 126 139 153 126 139 153 126 139 153 139 170 182 213 219 211 213 219 211 213 219 211 213 219 211 213 219 211 213 219 211 213 219 211 213 219 211 213 219 211 213 219 211 213 219 211 164 106 100 164 106 100 164 106 100 164 106 100 164 106 100 164 106 100 164 106 100 164 106 100 164 106 100 164 106 100 164 106 100 164 106 100 164 106 100 164 106 100 164 106 100 164 106 100 213 219 211 213 219 211 213 219 211 213 219 211 213 219 211 213 219 211 139 170 182 139 170 182 139 170 182 139 170 182 139 170 182 139 170 182 139 170 182 139 170 182 139 170 182 139 170 182 139 170 182 139 170 182 139 170 182 139 170 182 126 139 153 163 106 100 163 106 100 163 106 100 163 106 100 163 106 100 163 106 100 163 106 100 163 106 100 163 106 100 163 106 100 163 106 100 163 106 100 163 106 100 163 106 100 163 106 100 163 106 100 163 106 100 163 106 100 163 106 100 163 106 100 213 219 211 213 219 211 213 219 211 213 219 211 213 219 211 171 113 108 163 106 100 163 106 100 163 106 100 163 106 100 163 106 100 163 106 100 163 106 100 171 113 108 163 106 100 171 113 108 171 113 108 171 113 108 171 113 108 171 113 108 171 113 108 171 113 108 171 113 108 171 113 108 171 113 108 171 113 108 171 113 108 171 113 108 171 113 108 171 113 108 171 113 108 171 113 108 171 113 108 171 113 108 171 113 108 171 113 108 171 113 108 171 113 108 171 113 108 171 113 108 171 113 108 171 113 108 171 113 108 171 113 108 171 113 108 171 113 108 171 113 108 171 113 108 171 113 108 171 113 108 171 113 108 171 113 108 171 113 108 171 113 108 171 113 108 171 113 108 171 113 108 171 113 108 171 113 108 171 113 108 171 113 108 171 113 108 112 69 83 160 196 218 160 196 218 160 196 218 160 196 218 160 196 218 160 196 218 160 196 218 160 196 218 160 196 218 160 196 218 160 196 218 160 196 218 160 196 218 160 196 218 160 196 218 160 196 218 160 196 218 160 196 218 160 196 218 160 196 218 160 196 218 160 196 218 160 196 218 160 196 218 160 196 218 160 196 218 160 196 218 160 196 218 160 196 218 160 196 218 160 196 218 160 196 218 160 196 218 160 196 218 181 172 166 131 142 144 159 105 98 159 105 98 181 172 166 159 105 98 159 105 98 159 105 98 159 105 98 159 105 98 159 105 98 159 105 98 159 105 98 159 105 98 159 105 98 159 105 98 159 105 98 159 105 98 159 105 98 159 105 98 159 105 98 159 105 98 181 172 166 214 223 216 214 223 216 181 172 166 181 172 166 181 172 166 159 105 98 159 105 98 159 105 98 159 105 98 159 105 98 159 105 98 159 105 98 159 105 98 159 105 98 171 108 95 171 108 95 171 108 95 171 108 95 171 108 95 169 108 96 169 108 96 169 108 96 169 108 96 169 108 96 169 108 96 169 108 96 169 108 96 169 108 96 169 108 96 169 108 96 169 108 96 169 108 96 169 108 96 169 108 96 169 108 96 169 108 96 169 108 96 169 108 96 169 108 96 169 108 96 169 108 96 169 108 96 169 108 96 169 108 96 169 108 96 169 108 96 169 108 96 169 108 96 169 108 96 169 108 96 169 108 96 169 108 96 169 108 96 169 108 96 169 108 96 169 108 96 213 219 211 213 219 211 213 219 211 213 219 211 213 219 211 139 170 182 126 139 153 139 170 182 139 170 182 213 219 211 213 219 211 213 219 211 213 219 211 213 219 211 213 219 211 213 219 211 213 219 211 213 219 211 213 219 211 213 219 211 213 219 211 213 219 211 139 170 182 164 106 100 164 106 100 164 106 100 164 106 100 164 106 100 164 106 100 164 106 100 164 106 100 164 106 100 164 106 100 164 106 100 164 106 100 164 106 100 164 106 100 164 106 100 164 106 100 213 219 211 213 219 211 213 219 211 213 219 211 213 219 211 213 219 211 139 170 182 139 170 182 139 170 182 139 170 182 139 170 182 139 170 182 139 170 182 139 170 182 139 170 182 139 170 182 139 170 182 139 170 182 139 170 182 139 170 182 126 139 153 163 106 100 163 106 100 163 106 100 163 106 100 163 106 100 163 106 100 163 106 100 163 106 100 163 106 100 163 106 100 163 106 100 163 106 100 163 106 100 163 106 100 163 106 100 163 106 100 163 106 100 163 106 100 163 106 100 163 106 100 213 219 211 213 219 211 213 219 211 213 219 211 213 219 211 163 106 100 163 106 100 163 106 100 163 106 100 171 113 108 171 113 108 163 106 100 171 113 108 163 106 100 171 113 108 171 113 108 171 113 108 171 113 108 171 113 108 171 113 108 171 113 108 171 113 108 171 113 108 171 113 108 171 113 108 171 113 108 171 113 108 171 113 108 171 113 108 171 113 108 171 113 108 171 113 108 171 113 108 171 113 108 171 113 108 171 113 108 171 113 108 171 113 108 171 113 108 171 113 108 171 113 108 171 113 108 171 113 108 171 113 108 171 113 108 171 113 108 171 113 108 171 113 108 171 113 108 171 113 108 171 113 108 171 113 108 171 113 108 171 113 108 171 113 108 171 113 108 171 113 108 171 113 108 171 113 108 171 113 108 171 113 108 171 113 108 171 113 108 160 196 218 160 196 218 160 196 218 160 196 218 160 196 218 160 196 218 160 196 218 160 196 218 160 196 218 160 196 218 160 196 218 160 196 218 160 196 218 160 196 218 160 196 218 160 196 218 160 196 218 160 196 218 160 196 218 160 196 218 160 196 218 160 196 218 160 196 218 160 196 218 160 196 218 160 196 218 160 196 218 160 196 218 160 196 218 160 196 218 160 196 218 160 196 218 160 196 218 160 196 218 181 172 166 131 142 144 159 105 98 159 105 98 159 105 98 98 66 73 159 105 98 159 105 98 159 105 98 159 105 98 159 105 98 159 105 98 159 105 98 159 105 98 159 105 98 159 105 98 159 105 98 159 105 98 159 105 98 159 105 98 159 105 98 159 105 98 181 172 166 214 223 216 214 223 216 181 172 166 181 172 166 159 105 98 159 105 98 159 105 98 159 105 98 159 105 98 159 105 98 159 105 98 159 105 98 171 108 95 171 108 95 171 108 95 171 108 95 171 108 95 171 108 95 171 108 95 171 108 95 169 108 96 169 108 96 169 108 96 169 108 96 169 108 96 169 108 96 169 108 96 169 108 96 169 108 96 169 108 96 169 108 96 169 108 96 169 108 96 169 108 96 169 108 96 169 108 96 169 108 96 169 108 96 169 108 96 169 108 96 169 108 96 169 108 96 169 108 96 169 108 96 169 108 96 169 108 96 169 108 96 169 108 96 169 108 96 169 108 96 169 108 96 169 108 96 169 108 96 169 108 96 169 108 96 169 108 96 213 219 211 213 219 211 213 219 211 213 219 211 213 219 211 213 219 211 213 219 211 213 219 211 213 219 211 213 219 211 213 219 211 213 219 211 213 219 211 213 219 211 213 219 211 213 219 211 213 219 211 213 219 211 213 219 211 213 219 211 213 219 211 213 219 211 139 170 182 164 106 100 164 106 100 164 106 100 164 106 100 164 106 100 164 106 100 164 106 100 164 106 100 164 106 100 164 106 100 164 106 100 164 106 100 164 106 100 164 106 100 164 106 100 164 106 100 213 219 211 213 219 211 213 219 211 213 219 211 213 219 211 213 219 211 139 170 182 139 170 182 139 170 182 139 170 182 139 170 182 139 170 182 139 170 182 139 170 182 139 170 182 139 170 182 139 170 182 139 170 182 139 170 182 139 170 182 126 139 153 163 106 100 163 106 100 163 106 100 163 106 100 163 106 100 163 106 100 163 106 100 163 106 100 163 106 100 163 106 100 163 106 100 163 106 100 163 106 100 163 106 100 163 106 100 163 106 100 163 106 100 163 106 100 163 106 100 171 113 108 213 219 211 213 219 211 213 219 211 213 219 211 213 219 211 163 106 100 163 106 100 163 106 100 163 106 100 163 106 100 163 106 100 163 106 100 163 106 100 163 106 100 163 106 100 171 113 108 171 113 108 171 113 108 171 113 108 171 113 108 171 113 108 171 113 108 171 113 108 171 113 108 171 113 108 171 113 108 171 113 108 171 113 108 171 113 108 171 113 108 171 113 108 171 113 108 171 113 108 171 113 108 171 113 108 171 113 108 171 113 108 171 113 108 171 113 108 171 113 108 171 113 108 171 113 108 171 113 108 171 113 108 171 113 108 171 113 108 171 113 108 171 113 108 171 113 108 171 113 108 171 113 108 171 113 108 171 113 108 171 113 108 171 113 108 171 113 108 171 113 108 171 113 108 171 113 108 171 113 108 171 113 108 171 113 108 171 113 108 160 196 218 160 196 218 160 196 218 160 196 218 160 196 218 160 196 218 160 196 218 160 196 218 160 196 218 160 196 218 160 196 218 160 196 218 160 196 218 160 196 218 160 196 218 160 196 218 160 196 218 160 196 218 160 196 218 160 196 218 160 196 218 160 196 218 160 196 218 160 196 218 160 196 218 160 196 218 160 196 218 160 196 218 160 196 218 160 196 218 160 196 218 160 196 218 160 196 218 160 196 218 181 172 166 131 142 144 159 105 98 159 105 98 159 105 98 98 66 73 159 105 98 159 105 98 159 105 98 159 105 98 159 105 98 159 105 98 159 105 98 159 105 98 159 105 98 159 105 98 159 105 98 159 105 98 159 105 98 159 105 98 159 105 98 159 105 98 181 172 166 214 223 216 214 223 216 181 172 166 181 172 166 159 105 98 159 105 98 159 105 98 159 105 98 159 105 98 159 105 98 159 105 98 159 105 98 159 105 98 159 105 98 159 105 98 171 108 95 171 108 95 171 108 95 171 108 95 171 108 95 171 108 95 171 108 95 171 108 95 171 108 95 169 108 96 169 108 96 169 108 96 169 108 96 169 108 96 169 108 96 169 108 96 169 108 96 169 108 96 169 108 96 169 108 96 169 108 96 169 108 96 169 108 96 169 108 96 169 108 96 169 108 96 169 108 96 169 108 96 169 108 96 169 108 96 169 108 96 169 108 96 169 108 96 169 108 96 169 108 96 169 108 96 169 108 96 169 108 96 169 108 96 169 108 96 169 108 96 213 219 211 213 219 211 213 219 211 213 219 211 213 219 211 213 219 211 213 219 211 213 219 211 213 219 211 213 219 211 213 219 211 213 219 211 213 219 211 213 219 211 213 219 211 213 219 211 213 219 211 213 219 211 213 219 211 213 219 211 213 219 211 213 219 211 139 170 182 164 106 100 164 106 100 164 106 100 164 106 100 164 106 100 164 106 100 164 106 100 164 106 100 164 106 100 164 106 100 164 106 100 164 106 100 164 106 100 164 106 100 164 106 100 164 106 100 213 219 211 213 219 211 213 219 211 213 219 211 213 219 211 213 219 211 139 170 182 139 170 182 139 170 182 139 170 182 139 170 182 139 170 182 139 170 182 139 170 182 139 170 182 139 170 182 139 170 182 139 170 182 139 170 182 139 170 182 126 139 153 163 106 100 163 106 100 163 106 100 163 106 100 163 106 100 163 106 100 163 106 100 163 106 100 163 106 100 163 106 100 163 106 100 163 106 100 163 106 100 163 106 100 163 106 100 163 106 100 163 106 100 163 106 100 163 106 100 171 113 108 213 219 211 213 219 211 213 219 211 213 219 211 213 219 211 171 113 108 171 113 108 163 106 100 163 106 100 163 106 100 171 113 108 171 113 108 171 113 108 171 113 108 171 113 108 171 113 108 171 113 108 171 113 108 171 113 108 171 113 108 171 113 108 171 113 108 171 113 108 171 113 108 171 113 108 171 113 108 171 113 108 171 113 108 171 113 108 171 113 108 171 113 108 171 113 108 171 113 108 171 113 108 171 113 108 171 113 108 171 113 108 171 113 108 171 113 108 171 113 108 171 113 108 171 113 108 171 113 108 171 113 108 171 113 108 171 113 108 171 113 108 171 113 108 171 113 108 171 113 108 171 113 108 171 113 108 171 113 108 171 113 108 171 113 108 171 113 108 171 113 108 171 113 108 171 113 108 171 113 108 171 113 108 171 113 108 171 113 108 160 196 218 160 196 218 160 196 218 160 196 218 160 196 218 160 196 218 160 196 218 160 196 218 160 196 218 160 196 218 160 196 218 160 196 218 160 196 218 160 196 218 160 196 218 160 196 218 160 196 218 160 196 218 160 196 218 160 196 218 160 196 218 160 196 218 160 196 218 160 196 218 160 196 218 160 196 218 160 196 218 160 196 218 160 196 218 160 196 218 160 196 218 160 196 218 160 196 218 160 196 218 181 172 166 159 105 98 159 105 98 159 105 98 159 105 98 98 66 73 159 105 98 159 105 98 159 105 98 159 105 98 159 105 98 159 105 98 159 105 98 159 105 98 159 105 98 159 105 98 159 105 98 159 105 98 159 105 98 159 105 98 159 105 98 159 105 98 181 172 166 214 223 216 214 223 216 181 172 166 181 172 166 159 105 98 159 105 98 159 105 98 159 105 98 159 105 98 159 105 98 159 105 98 159 105 98 159 105 98 159 105 98 171 108 95 171 108 95 171 108 95 171 108 95 171 108 95 171 108 95 171 108 95 171 108 95 171 108 95 171 108 95 171 108 95 171 108 95 171 108 95 169 108 96 169 108 96 169 108 96 169 108 96 169 108 96 169 108 96 169 108 96 169 108 96 169 108 96 169 108 96 169 108 96 169 108 96 169 108 96 169 108 96 169 108 96 169 108 96 169 108 96 169 108 96 169 108 96 169 108 96 169 108 96 169 108 96 169 108 96 169 108 96 169 108 96 169 108 96 169 108 96 181 172 166 181 172 166 213 219 211 213 219 211 213 219 211 213 219 211 213 219 211 213 219 211 213 219 211 213 219 211 213 219 211 213 219 211 213 219 211 213 219 211 213 219 211 213 219 211 213 219 211 213 219 211 213 219 211 139 170 182 139 170 182 139 170 182 164 106 100 164 106 100 164 106 100 164 106 100 164 106 100 164 106 100 164 106 100 164 106 100 164 106 100 164 106 100 164 106 100 164 106 100 164 106 100 164 106 100 164 106 100 164 106 100 164 106 100 164 106 100 164 106 100 213 219 211 213 219 211 213 219 211 213 219 211 213 219 211 213 219 211 139 170 182 139 170 182 139 170 182 139 170 182 139 170 182 139 170 182 139 170 182 139 170 182 139 170 182 139 170 182 139 170 182 139 170 182 139 170 182 139 170 182 126 139 153 163 106 100 163 106 100 163 106 100 163 106 100 163 106 100 163 106 100 163 106 100 163 106 100 163 106 100 163 106 100 163 106 100 163 106 100 163 106 100 163 106 100 163 106 100 163 106 100 163 106 100 163 106 100 163 106 100 171 113 108 213 219 211 213 219 211 213 219 211 213 219 211 213 219 211 163 106 100 163 106 100 163 106 100 163 106 100 163 106 100 171 113 108 171 113 108 171 113 108 171 113 108 171 113 108 171 113 108 171 113 108 171 113 108 171 113 108 171 113 108 171 113 108 171 113 108 171 113 108 171 113 108 171 113 108 171 113 108 171 113 108 171 113 108 171 113 108 171 113 108 171 113 108 171 113 108 171 113 108 171 113 108 171 113 108 171 113 108 171 113 108 171 113 108 171 113 108 171 113 108 171 113 108 171 113 108 171 113 108 171 113 108 171 113 108 171 113 108 171 113 108 171 113 108 171 113 108 171 113 108 171 113 108 171 113 108 171 113 108 171 113 108 171 113 108 171 113 108 171 113 108 171 113 108 171 113 108 171 113 108 171 113 108 171 113 108 171 113 108 160 196 218 160 196 218 160 196 218 160 196 218 160 196 218 160 196 218 160 196 218 160 196 218 160 196 218 160 196 218 160 196 218 160 196 218 160 196 218 160 196 218 160 196 218 160 196 218 160 196 218 160 196 218 160 196 218 160 196 218 160 196 218 160 196 218 160 196 218 160 196 218 160 196 218 160 196 218 160 196 218 160 196 218 160 196 218 160 196 218 160 196 218 160 196 218 160 196 218 160 196 218 181 172 166 159 105 98 159 105 98 159 105 98 159 105 98 98 66 73 159 105 98 159 105 98 159 105 98 159 105 98 159 105 98 159 105 98 159 105 98 159 105 98 159 105 98 159 105 98 159 105 98 159 105 98 159 105 98 159 105 98 159 105 98 159 105 98 181 172 166 214 223 216 214 223 216 181 172 166 181 172 166 159 105 98 159 105 98 159 105 98 159 105 98 159 105 98 159 105 98 159 105 98 159 105 98 171 108 95 171 108 95 171 108 95 159 105 98 171 108 95 171 108 95 171 108 95 171 108 95 171 108 95 171 108 95 171 108 95 171 108 95 171 108 95 171 108 95 171 108 95 171 108 95 169 108 96 169 108 96 169 108 96 169 108 96 169 108 96 169 108 96 169 108 96 169 108 96 169 108 96 169 108 96 169 108 96 169 108 96 169 108 96 169 108 96 169 108 96 169 108 96 169 108 96 169 108 96 169 108 96 169 108 96 169 108 96 169 108 96 169 108 96 169 108 96 169 108 96 181 172 166 213 219 211 213 219 211 213 219 211 213 219 211 213 219 211 213 219 211 213 219 211 213 219 211 213 219 211 213 219 211 213 219 211 213 219 211 213 219 211 213 219 211 139 170 182 139 170 182 139 170 182 164 106 100 164 106 100 109 103 115 109 103 115 109 103 115 99 60 75 165 104 94 164 106 100 164 106 100 164 106 100 164 106 100 164 106 100 164 106 100 164 106 100 164 106 100 164 106 100 164 106 100 164 106 100 164 106 100 164 106 100 164 106 100 164 106 100 164 106 100 142 137 132 213 219 211 213 219 211 213 219 211 213 219 211 213 219 211 213 219 211 139 170 182 139 170 182 139 170 182 139 170 182 139 170 182 139 170 182 139 170 182 139 170 182 139 170 182 139 170 182 139 170 182 139 170 182 139 170 182 139 170 182 126 139 153 163 106 100 163 106 100 163 106 100 163 106 100 163 106 100 163 106 100 163 106 100 163 106 100 163 106 100 163 106 100 163 106 100 163 106 100 163 106 100 163 106 100 163 106 100 163 106 100 163 106 100 163 106 100 163 106 100 171 113 108 213 219 211 213 219 211 213 219 211 213 219 211 213 219 211 163 106 100 163 106 100 163 106 100 163 106 100 163 106 100 163 106 100 163 106 100 171 113 108 171 113 108 171 113 108 171 113 108 171 113 108 171 113 108 171 113 108 171 113 108 171 113 108 171 113 108 171 113 108 171 113 108 171 113 108 171 113 108 171 113 108 171 113 108 171 113 108 171 113 108 171 113 108 171 113 108 171 113 108 171 113 108 171 113 108 171 113 108 171 113 108 171 113 108 171 113 108 171 113 108 171 113 108 171 113 108 171 113 108 171 113 108 171 113 108 171 113 108 171 113 108 171 113 108 171 113 108 171 113 108 171 113 108 171 113 108 171 113 108 171 113 108 171 113 108 171 113 108 171 113 108 171 113 108 171 113 108 171 113 108 171 113 108 171 113 108 171 113 108 160 196 218 160 196 218 160 196 218 160 196 218 160 196 218 160 196 218 160 196 218 160 196 218 160 196 218 160 196 218 160 196 218 160 196 218 160 196 218 160 196 218 160 196 218 160 196 218 160 196 218 160 196 218 160 196 218 160 196 218 160 196 218 160 196 218 160 196 218 160 196 218 160 196 218 160 196 218 160 196 218 160 196 218 160 196 218 160 196 218 160 196 218 160 196 218 160 196 218 160 196 218 181 172 166 159 105 98 159 105 98 159 105 98 159 105 98 98 66 73 159 105 98 159 105 98 159 105 98 159 105 98 159 105 98 159 105 98 159 105 98 159 105 98 159 105 98 159 105 98 159 105 98 159 105 98 159 105 98 159 105 98 159 105 98 159 105 98 181 172 166 214 223 216 214 223 216 181 172 166 181 172 166 159 105 98 159 105 98 159 105 98 159 105 98 159 105 98 159 105 98 159 105 98 159 105 98 159 105 98 159 105 98 171 108 95 171 108 95 171 108 95 171 108 95 171 108 95 171 108 95 171 108 95 171 108 95 171 108 95 171 108 95 171 108 95 171 108 95 171 108 95 171 108 95 171 108 95 171 108 95 171 108 95 169 108 96 169 108 96 169 108 96 169 108 96 169 108 96 169 108 96 169 108 96 169 108 96 169 108 96 169 108 96 169 108 96 169 108 96 169 108 96 169 108 96 169 108 96 169 108 96 169 108 96 169 108 96 169 108 96 169 108 96 169 108 96 169 108 96 181 172 166 213 219 211 213 219 211 213 219 211 213 219 211 213 219 211 213 219 211 213 219 211 213 219 211 213 219 211 139 170 182 139 170 182 126 139 153 164 106 100 109 103 115 109 103 115 109 103 115 109 103 115 109 103 115 109 103 115 109 103 115 109 103 115 165 104 94 165 104 94 165 104 94 165 104 94 165 104 94 165 104 94 164 106 100 165 104 94 165 104 94 164 106 100 164 106 100 164 106 100 164 106 100 164 106 100 164 106 100 164 106 100 164 106 100 164 106 100 164 106 100 142 137 132 213 219 211 213 219 211 213 219 211 213 219 211 213 219 211 213 219 211 139 170 182 139 170 182 139 170 182 139 170 182 139 170 182 139 170 182 139 170 182 139 170 182 139 170 182 139 170 182 139 170 182 139 170 182 139 170 182 139 170 182 126 139 153 163 106 100 163 106 100 163 106 100 163 106 100 163 106 100 163 106 100 163 106 100 163 106 100 163 106 100 163 106 100 163 106 100 163 106 100 163 106 100 163 106 100 163 106 100 163 106 100 163 106 100 163 106 100 163 106 100 171 113 108 213 219 211 213 219 211 213 219 211 213 219 211 213 219 211 163 106 100 163 106 100 163 106 100 171 113 108 171 113 108 163 106 100 163 106 100 171 113 108 171 113 108 171 113 108 171 113 108 171 113 108 171 113 108 171 113 108 171 113 108 171 113 108 171 113 108 171 113 108 171 113 108 171 113 108 171 113 108 171 113 108 171 113 108 171 113 108 171 113 108 171 113 108 171 113 108 171 113 108 171 113 108 171 113 108 171 113 108 171 113 108 171 113 108 171 113 108 171 113 108 171 113 108 171 113 108 171 113 108 171 113 108 171 113 108 171 113 108 171 113 108 171 113 108 171 113 108 171 113 108 171 113 108 171 113 108 171 113 108 171 113 108 171 113 108 171 113 108 171 113 108 171 113 108 171 113 108 171 113 108 115 93 101 115 93 101 115 93 101 160 196 218 160 196 218 160 196 218 160 196 218 160 196 218 160 196 218 160 196 218 160 196 218 160 196 218 160 196 218 160 196 218 160 196 218 160 196 218 160 196 218 160 196 218 160 196 218 160 196 218 160 196 218 160 196 218 160 196 218 160 196 218 160 196 218 160 196 218 160 196 218 160 196 218 159 196 217 159 196 217 159 196 217 159 196 217 159 196 217 159 196 217 159 196 217 159 196 217 159 196 217 181 172 166 159 105 98 159 105 98 159 105 98 159 105 98 98 66 73 159 105 98 159 105 98 159 105 98 159 105 98 159 105 98 159 105 98 159 105 98 159 105 98 159 105 98 159 105 98 159 105 98 159 105 98 159 105 98 159 105 98 159 105 98 159 105 98 181 172 166 214 223 216 214 223 216 181 172 166 181 172 166 159 105 98 159 105 98 159 105 98 159 105 98 159 105 98 159 105 98 159 105 98 159 105 98 171 108 95 171 108 95 171 108 95 171 108 95 171 108 95 171 108 95 171 108 95 171 108 95 171 108 95 171 108 95 171 108 95 171 108 95 171 108 95 171 108 95 171 108 95 171 108 95 171 108 95 171 108 95 171 108 95 171 108 95 169 108 96 169 108 96 169 108 96 169 108 96 169 108 96 169 108 96 169 108 96 169 108 96 169 108 96 169 108 96 169 108 96 169 108 96 169 108 96 169 108 96 169 108 96 169 108 96 169 108 96 169 108 96 169 108 96 169 108 96 169 108 96 181 172 166 213 219 211 213 219 211 213 219 211 181 172 166 139 170 182 139 170 182 142 137 132 165 104 94 109 103 115 109 103 115 109 103 115 109 103 115 99 60 75 109 103 115 109 103 115 109 103 115 165 104 94 165 104 94 165 104 94 165 104 94 165 104 94 165 104 94 165 104 94 165 104 94 165 104 94 165 104 94 165 104 94 164 106 100 164 106 100 164 106 100 164 106 100 164 106 100 164 106 100 164 106 100 164 106 100 164 106 100 164 106 100 164 106 100 164 106 100 164 106 100 142 137 132 213 219 211 213 219 211 213 219 211 213 219 211 213 219 211 213 219 211 139 170 182 139 170 182 139 170 182 139 170 182 139 170 182 139 170 182 139 170 182 139 170 182 139 170 182 139 170 182 139 170 182 139 170 182 139 170 182 139 170 182 142 137 132 163 106 100 163 106 100 163 106 100 163 106 100 163 106 100 163 106 100 163 106 100 163 106 100 163 106 100 163 106 100 163 106 100 163 106 100 163 106 100 163 106 100 163 106 100 163 106 100 163 106 100 163 106 100 163 106 100 151 155 149 213 219 211 213 219 211 213 219 211 213 219 211 213 219 211 163 106 100 163 106 100 163 106 100 163 106 100 171 113 108 171 113 108 171 113 108 171 113 108 171 113 108 171 113 108 171 113 108 171 113 108 171 113 108 171 113 108 171 113 108 171 113 108 171 113 108 171 113 108 171 113 108 171 113 108 171 113 108 171 113 108 171 113 108 171 113 108 171 113 108 171 113 108 171 113 108 171 113 108 171 113 108 171 113 108 171 113 108 171 113 108 171 113 108 171 113 108 171 113 108 171 113 108 171 113 108 171 113 108 171 113 108 171 113 108 171 113 108 171 113 108 171 113 108 171 113 108 171 113 108 171 113 108 171 113 108 171 113 108 171 113 108 171 113 108 171 113 108 171 113 108 171 113 108 171 113 108 171 113 108 115 93 101 115 93 101 115 93 101 160 196 218 160 196 218 160 196 218 160 196 218 160 196 218 160 196 218 160 196 218 160 196 218 160 196 218 160 196 218 160 196 218 160 196 218 160 196 218 159 196 217 160 196 218 159 196 217 159 196 217 159 196 217 159 196 217 159 196 217 159 196 217 159 196 217 159 196 217 159 196 217 159 196 217 159 196 217 159 196 217 159 196 217 159 196 217 159 196 217 159 196 217 159 196 217 159 196 217 159 196 217 181 172 166 159 105 98 98 66 73 159 105 98 159 105 98 98 66 73 159 105 98 159 105 98 159 105 98 159 105 98 159 105 98 159 105 98 159 105 98 159 105 98 159 105 98 159 105 98 159 105 98 159 105 98 159 105 98 159 105 98 159 105 98 159 105 98 181 172 166 214 223 216 214 223 216 181 172 166 181 172 166 159 105 98 159 105 98 159 105 98 159 105 98 159 105 98 159 105 98 171 108 95 171 108 95 171 108 95 159 105 98 171 108 95 171 108 95 171 108 95 171 108 95 171 108 95 171 108 95 171 108 95 171 108 95 171 108 95 171 108 95 171 108 95 171 108 95 171 108 95 171 108 95 171 108 95 171 108 95 171 108 95 171 108 95 171 108 95 171 108 95 169 108 96 169 108 96 169 108 96 169 108 96 169 108 96 169 108 96 169 108 96 169 108 96 169 108 96 169 108 96 169 108 96 169 108 96 169 108 96 169 108 96 169 108 96 169 108 96 169 108 96 169 108 96 169 108 96 169 108 96 181 172 166 169 108 96 165 104 94 109 103 115 109 103 115 109 103 115 109 103 115 109 103 115 109 103 115 165 104 94 165 104 94 165 104 94 165 104 94 165 104 94 165 104 94 165 104 94 165 104 94 165 104 94 165 104 94 165 104 94 165 104 94 165 104 94 165 104 94 165 104 94 165 104 94 165 104 94 165 104 94 164 106 100 164 106 100 165 104 94 164 106 100 164 106 100 165 104 94 165 104 94 165 104 94 165 104 94 164 106 100 164 106 100 164 106 100 164 106 100 142 137 132 213 219 211 213 219 211 213 219 211 213 219 211 213 219 211 213 219 211 139 170 182 139 170 182 139 170 182 139 170 182 139 170 182 139 170 182 139 170 182 139 170 182 139 170 182 139 170 182 139 170 182 139 170 182 139 170 182 139 170 182 163 106 100 163 106 100 163 106 100 163 106 100 163 106 100 163 106 100 163 106 100 163 106 100 163 106 100 163 106 100 163 106 100 163 106 100 163 106 100 163 106 100 163 106 100 163 106 100 163 106 100 163 106 100 163 106 100 163 106 100 151 155 149 213 219 211 213 219 211 213 219 211 213 219 211 213 219 211 163 106 100 163 106 100 163 106 100 163 106 100 171 113 108 163 106 100 163 106 100 163 106 100 163 106 100 163 106 100 171 113 108 171 113 108 171 113 108 171 113 108 171 113 108 171 113 108 171 113 108 171 113 108 171 113 108 171 113 108 171 113 108 171 113 108 171 113 108 171 113 108 171 113 108 171 113 108 171 113 108 171 113 108 171 113 108 171 113 108 171 113 108 171 113 108 171 113 108 171 113 108 171 113 108 171 113 108 171 113 108 171 113 108 171 113 108 171 113 108 171 113 108 171 113 108 171 113 108 171 113 108 171 113 108 171 113 108 171 113 108 171 113 108 115 93 101 115 93 101 115 93 101 115 93 101 115 93 101 115 93 101 115 93 101 115 93 101 115 93 101 115 93 101 160 196 218 160 196 218 160 196 218 160 196 218 160 196 218 160 196 218 160 196 218 159 196 217 159 196 217 159 196 217 159 196 217 159 196 217 159 196 217 159 196 217 159 196 217 159 196 217 159 196 217 159 196 217 159 196 217 159 196 217 159 196 217 159 196 217 159 196 217 159 196 217 159 196 217 159 196 217 159 196 217 159 196 217 159 196 217 159 196 217 159 196 217 159 196 217 159 196 217 159 196 217 181 172 166 159 105 98 98 66 73 159 105 98 159 105 98 159 105 98 159 105 98 159 105 98 159 105 98 159 105 98 159 105 98 159 105 98 159 105 98 159 105 98 159 105 98 159 105 98 159 105 98 159 105 98 159 105 98 159 105 98 159 105 98 159 105 98 181 172 166 214 223 216 214 223 216 181 172 166 159 105 98 159 105 98 159 105 98 159 105 98 159 105 98 159 105 98 159 105 98 171 108 95 171 108 95 171 108 95 171 108 95 171 108 95 171 108 95 171 108 95 171 108 95 171 108 95 171 108 95 171 108 95 171 108 95 171 108 95 171 108 95 171 108 95 171 108 95 171 108 95 171 108 95 171 108 95 171 108 95 171 108 95 171 108 95 171 108 95 171 108 95 171 108 95 171 108 95 171 108 95 169 108 96 169 108 96 169 108 96 169 108 96 169 108 96 169 108 96 169 108 96 169 108 96 169 108 96 169 108 96 169 108 96 169 108 96 169 108 96 169 108 96 169 108 96 165 104 94 165 104 94 109 103 115 109 103 115 109 103 115 165 104 94 165 104 94 165 104 94 165 104 94 165 104 94 165 104 94 165 104 94 165 104 94 165 104 94 165 104 94 165 104 94 165 104 94 165 104 94 165 104 94 165 104 94 165 104 94 165 104 94 165 104 94 165 104 94 165 104 94 165 104 94 165 104 94 165 104 94 165 104 94 165 104 94 165 104 94 165 104 94 165 104 94 165 104 94 165 104 94 165 104 94 165 104 94 164 106 100 164 106 100 164 106 100 164 106 100 164 106 100 139 170 182 213 219 211 213 219 211 213 219 211 213 219 211 213 219 211 213 219 211 139 170 182 139 170 182 139 170 182 139 170 182 139 170 182 139 170 182 139 170 182 139 170 182 139 170 182 139 170 182 139 170 182 139 170 182 139 170 182 139 170 182 163 106 100 163 106 100 163 106 100 163 106 100 163 106 100 163 106 100 163 106 100 163 106 100 163 106 100 163 106 100 163 106 100 163 106 100 163 106 100 163 106 100 163 106 100 163 106 100 163 106 100 163 106 100 163 106 100 163 106 100 151 155 149 213 219 211 213 219 211 213 219 211 213 219 211 213 219 211 163 106 100 163 106 100 171 113 108 171 113 108 171 113 108 171 113 108 171 113 108 171 113 108 171 113 108 171 113 108 171 113 108 171 113 108 171 113 108 171 113 108 171 113 108 171 113 108 171 113 108 171 113 108 171 113 108 171 113 108 171 113 108 171 113 108 171 113 108 171 113 108 171 113 108 171 113 108 171 113 108 171 113 108 171 113 108 171 113 108 171 113 108 171 113 108 171 113 108 171 113 108 171 113 108 171 113 108 171 113 108 171 113 108 171 113 108 171 113 108 171 113 108 171 113 108 171 113 108 171 113 108 171 113 108 171 113 108 171 113 108 171 113 108 115 93 101 112 69 83 112 69 83 115 93 101 115 93 101 115 93 101 115 93 101 115 93 101 115 93 101 115 93 101 159 196 217 159 196 217 159 196 217 159 196 217 159 196 217 159 196 217 159 196 217 159 196 217 159 196 217 159 196 217 159 196 217 159 196 217 159 196 217 159 196 217 159 196 217 159 196 217 159 196 217 159 196 217 159 196 217 159 196 217 159 196 217 159 196 217 159 196 217 159 196 217 159 196 217 159 196 217 159 196 217 159 196 217 159 196 217 159 196 217 159 196 217 159 196 217 159 196 217 159 196 217 181 172 166 159 105 98 159 105 98 159 105 98 98 66 73 159 105 98 159 105 98 159 105 98 159 105 98 159 105 98 159 105 98 159 105 98 159 105 98 159 105 98 159 105 98 159 105 98 159 105 98 159 105 98 159 105 98 159 105 98 159 105 98 159 105 98 181 172 166 214 223 216 214 223 216 181 172 166 159 105 98 159 105 98 159 105 98 159 105 98 159 105 98 159 105 98 171 108 95 171 108 95 171 108 95 171 108 95 171 108 95 171 108 95 171 108 95 171 108 95 171 108 95 171 108 95 171 108 95 171 108 95 171 108 95 171 108 95 171 108 95 171 108 95 171 108 95 171 108 95 171 108 95 171 108 95 171 108 95 171 108 95 171 108 95 171 108 95 171 108 95 171 108 95 171 108 95 171 108 95 171 108 95 171 108 95 171 108 95 171 108 95 169 108 96 169 108 96 169 108 96 169 108 96 169 108 96 169 108 96 169 108 96 169 108 96 169 108 96 169 108 96 169 108 96 165 104 94 165 104 94 165 104 94 165 104 94 165 104 94 165 104 94 165 104 94 165 104 94 165 104 94 165 104 94 165 104 94 165 104 94 165 104 94 165 104 94 165 104 94 165 104 94 165 104 94 165 104 94 165 104 94 165 104 94 165 104 94 165 104 94 165 104 94 165 104 94 165 104 94 165 104 94 165 104 94 165 104 94 165 104 94 165 104 94 165 104 94 165 104 94 165 104 94 165 104 94 165 104 94 164 106 100 165 104 94 165 104 94 164 106 100 164 106 100 164 106 100 164 106 100 139 170 182 213 219 211 213 219 211 213 219 211 213 219 211 213 219 211 213 219 211 139 170 182 139 170 182 139 170 182 139 170 182 139 170 182 139 170 182 139 170 182 139 170 182 139 170 182 139 170 182 139 170 182 139 170 182 139 170 182 139 170 182 142 137 132 163 106 100 163 106 100 163 106 100 163 106 100 163 106 100 163 106 100 163 106 100 163 106 100 163 106 100 163 106 100 163 106 100 163 106 100 163 106 100 163 106 100 163 106 100 163 106 100 163 106 100 163 106 100 163 106 100 151 155 149 213 219 211 213 219 211 213 219 211 213 219 211 213 219 211 163 106 100 163 106 100 163 106 100 163 106 100 163 106 100 163 106 100 171 113 108 171 113 108 171 113 108 171 113 108 171 113 108 171 113 108 171 113 108 171 113 108 171 113 108 171 113 108 171 113 108 171 113 108 171 113 108 171 113 108 171 113 108 171 113 108 171 113 108 171 113 108 171 113 108 171 113 108 171 113 108 171 113 108 171 113 108 171 113 108 171 113 108 171 113 108 171 113 108 171 113 108 171 113 108 171 113 108 171 113 108 171 113 108 171 113 108 171 113 108 171 113 108 171 113 108 115 93 101 115 93 101 115 93 101 115 93 101 115 93 101 115 93 101 115 93 101 115 93 101 115 93 101 115 93 101 115 93 101 115 93 101 115 93 101 115 93 101 115 93 101 115 93 101 159 196 217 159 196 217 159 196 217 159 196 217 159 196 217 159 196 217 159 196 217 159 196 217 159 196 217 159 196 217 159 196 217 159 196 217 159 196 217 159 196 217 159 196 217 159 196 217 159 196 217 159 196 217 159 196 217 159 196 217 159 196 217 159 196 217 159 196 217 159 196 217 159 196 217 159 196 217 159 196 217 159 196 217 159 196 217 159 196 217 159 196 217 159 196 217 159 196 217 159 196 217 181 172 166 98 66 73 159 105 98 159 105 98 98 66 73 159 105 98 159 105 98 159 105 98 159 105 98 159 105 98 159 105 98 159 105 98 159 105 98 159 105 98 159 105 98 159 105 98 159 105 98 159 105 98 159 105 98 159 105 98 159 105 98 159 105 98 181 172 166 214 223 216 214 223 216 181 172 166 159 105 98 159 105 98 159 105 98 159 105 98 159 105 98 159 105 98 159 105 98 159 105 98 159 105 98 171 108 95 171 108 95 171 108 95 171 108 95 171 108 95 171 108 95 171 108 95 171 108 95 171 108 95 171 108 95 171 108 95 171 108 95 171 108 95 171 108 95 171 108 95 171 108 95 171 108 95 171 108 95 171 108 95 171 108 95 171 108 95 171 108 95 171 108 95 171 108 95 171 108 95 171 108 95 171 108 95 171 108 95 171 108 95 171 108 95 169 108 96 169 108 96 169 108 96 169 108 96 169 108 96 169 108 96 169 108 96 169 108 96 169 108 96 169 108 96 165 104 94 165 104 94 165 104 94 165 104 94 165 104 94 165 104 94 165 104 94 165 104 94 165 104 94 165 104 94 165 104 94 165 104 94 165 104 94 165 104 94 165 104 94 165 104 94 165 104 94 165 104 94 165 104 94 165 104 94 165 104 94 165 104 94 165 104 94 165 104 94 165 104 94 165 104 94 165 104 94 165 104 94 165 104 94 165 104 94 165 104 94 165 104 94 165 104 94 165 104 94 165 104 94 165 104 94 165 104 94 165 104 94 165 104 94 164 106 100 164 106 100 164 106 100 139 170 182 213 219 211 213 219 211 213 219 211 213 219 211 213 219 211 213 219 211 139 170 182 139 170 182 139 170 182 139 170 182 139 170 182 139 170 182 139 170 182 139 170 182 139 170 182 139 170 182 139 170 182 139 170 182 139 170 182 139 170 182 142 137 132 163 106 100 163 106 100 163 106 100 163 106 100 163 106 100 163 106 100 163 106 100 163 106 100 163 106 100 163 106 100 163 106 100 163 106 100 163 106 100 163 106 100 163 106 100 163 106 100 163 106 100 163 106 100 163 106 100 151 155 149 213 219 211 213 219 211 213 219 211 213 219 211 213 219 211 163 106 100 163 106 100 163 106 100 163 106 100 171 113 108 163 106 100 163 106 100 163 106 100 163 106 100 163 106 100 163 106 100 171 113 108 171 113 108 171 113 108 171 113 108 171 113 108 171 113 108 171 113 108 171 113 108 171 113 108 171 113 108 171 113 108 171 113 108 171 113 108 171 113 108 171 113 108 171 113 108 171 113 108 171 113 108 171 113 108 171 113 108 171 113 108 171 113 108 171 113 108 171 113 108 171 113 108 171 113 108 171 113 108 171 113 108 171 113 108 171 113 108 171 113 108 115 93 101 112 69 83 112 69 83 115 93 101 115 93 101 115 93 101 115 93 101 115 93 101 115 93 101 115 93 101 115 93 101 115 93 101 115 93 101 115 93 101 115 93 101 115 93 101 159 196 217 159 196 217 159 196 217 159 196 217 159 196 217 159 196 217 159 196 217 159 196 217 159 196 217 159 196 217 159 196 217 159 196 217 159 196 217 159 196 217 159 196 217 159 196 217 159 196 217 159 196 217 159 196 217 159 196 217 159 196 217 159 196 217 159 196 217 159 196 217 159 196 217 159 196 217 159 196 217 159 196 217 159 196 217 159 196 217 159 196 217 159 196 217 159 196 217 159 196 217 181 172 166 98 66 73 159 105 98 159 105 98 159 105 98 159 105 98 159 105 98 159 105 98 159 105 98 159 105 98 159 105 98 159 105 98 159 105 98 159 105 98 159 105 98 159 105 98 159 105 98 159 105 98 159 105 98 159 105 98 159 105 98 159 105 98 181 172 166 214 223 216 214 223 216 181 172 166 159 105 98 159 105 98 159 105 98 159 105 98 159 105 98 159 105 98 159 105 98 171 108 95 171 108 95 171 108 95 171 108 95 171 108 95 171 108 95 171 108 95 171 108 95 171 108 95 171 108 95 171 108 95 171 108 95 171 108 95 171 108 95 171 108 95 171 108 95 171 108 95 171 108 95 171 108 95 171 108 95 171 108 95 171 108 95 171 108 95 171 108 95 171 108 95 171 108 95 171 108 95 171 108 95 171 108 95 171 108 95 171 108 95 171 108 95 171 108 95 171 108 95 169 108 96 169 108 96 169 108 96 169 108 96 169 108 96 169 108 96 169 108 96 169 108 96 165 104 94 169 108 96 165 104 94 165 104 94 165 104 94 165 104 94 165 104 94 165 104 94 165 104 94 165 104 94 165 104 94 165 104 94 165 104 94 165 104 94 165 104 94 165 104 94 165 104 94 165 104 94 165 104 94 165 104 94 165 104 94 165 104 94 165 104 94 165 104 94 165 104 94 165 104 94 165 104 94 165 104 94 165 104 94 165 104 94 165 104 94 165 104 94 165 104 94 165 104 94 165 104 94 165 104 94 165 104 94 165 104 94 165 104 94 165 104 94 165 104 94 164 106 100 139 170 182 213 219 211 213 219 211 213 219 211 213 219 211 213 219 211 213 219 211 139 170 182 139 170 182 139 170 182 139 170 182 139 170 182 139 170 182 139 170 182 139 170 182 139 170 182 139 170 182 139 170 182 139 170 182 139 170 182 139 170 182 142 137 132 163 106 100 163 106 100 163 106 100 163 106 100 163 106 100 163 106 100 163 106 100 163 106 100 163 106 100 163 106 100 163 106 100 163 106 100 163 106 100 163 106 100 163 106 100 163 106 100 163 106 100 163 106 100 163 106 100 151 155 149 213 219 211 213 219 211 213 219 211 213 219 211 213 219 211 163 106 100 163 106 100 163 106 100 163 106 100 171 113 108 171 113 108 171 113 108 171 113 108 171 113 108 171 113 108 171 113 108 171 113 108 171 113 108 171 113 108 171 113 108 171 113 108 171 113 108 171 113 108 171 113 108 171 113 108 171 113 108 171 113 108 171 113 108 171 113 108 171 113 108 171 113 108 171 113 108 171 113 108 171 113 108 171 113 108 171 113 108 171 113 108 171 113 108 171 113 108 171 113 108 171 113 108 112 69 83 112 69 83 115 93 101 115 93 101 115 93 101 115 93 101 115 93 101 115 93 101 115 93 101 115 93 101 115 93 101 115 93 101 115 93 101 115 93 101 115 93 101 115 93 101 115 93 101 115 93 101 115 93 101 115 93 101 171 113 108 115 93 101 159 196 217 159 196 217 159 196 217 159 196 217 159 196 217 159 196 217 159 196 217 159 196 217 159 196 217 159 196 217 159 196 217 159 196 217 159 196 217 159 196 217 159 196 217 159 196 217 159 196 217 159 196 217 159 196 217 159 196 217 159 196 217 159 196 217 159 196 217 159 196 217 159 196 217 159 196 217 159 196 217 159 196 217 159 196 217 159 196 217 159 196 217 159 196 217 159 196 217 159 196 217 181 172 166 98 66 73 159 105 98 159 105 98 159 105 98 159 105 98 159 105 98 159 105 98 159 105 98 159 105 98 159 105 98 159 105 98 159 105 98 159 105 98 159 105 98 159 105 98 159 105 98 159 105 98 159 105 98 159 105 98 159 105 98 159 105 98 181 172 166 214 223 216 214 223 216 181 172 166 159 105 98 159 105 98 159 105 98 159 105 98 159 105 98 171 108 95 171 108 95 171 108 95 171 108 95 171 108 95 171 108 95 171 108 95 171 108 95 171 108 95 171 108 95 171 108 95 171 108 95 171 108 95 171 108 95 171 108 95 171 108 95 171 108 95 171 108 95 171 108 95 171 108 95 171 108 95 171 108 95 171 108 95 171 108 95 171 108 95 171 108 95 171 108 95 171 108 95 171 108 95 171 108 95 171 108 95 171 108 95 171 108 95 171 108 95 171 108 95 171 108 95 171 108 95 171 108 95 169 108 96 169 108 96 169 108 96 169 108 96 169 108 96 165 104 94 169 108 96 165 104 94 165 104 94 165 104 94 165 104 94 165 104 94 165 104 94 165 104 94 165 104 94 165 104 94 165 104 94 165 104 94 165 104 94 165 104 94 165 104 94 165 104 94 165 104 94 165 104 94 165 104 94 165 104 94 165 104 94 165 104 94 165 104 94 165 104 94 165 104 94 165 104 94 165 104 94 165 104 94 165 104 94 165 104 94 165 104 94 165 104 94 165 104 94 165 104 94 165 104 94 165 104 94 165 104 94 165 104 94 165 104 94 165 104 94 165 104 94 164 106 100 139 170 182 213 219 211 213 219 211 213 219 211 213 219 211 213 219 211 139 170 182 139 170 182 139 170 182 139 170 182 139 170 182 139 170 182 139 170 182 139 170 182 139 170 182 139 170 182 139 170 182 139 170 182 139 170 182 139 170 182 139 170 182 142 137 132 163 106 100 163 106 100 163 106 100 163 106 100 163 106 100 163 106 100 163 106 100 163 106 100 163 106 100 163 106 100 163 106 100 163 106 100 163 106 100 163 106 100 163 106 100 163 106 100 163 106 100 163 106 100 163 106 100 151 155 149 213 219 211 213 219 211 213 219 211 213 219 211 213 219 211 163 106 100 163 106 100 163 106 100 163 106 100 163 106 100 163 106 100 163 106 100 163 106 100 171 113 108 171 113 108 171 113 108 171 113 108 171 113 108 171 113 108 171 113 108 171 113 108 171 113 108 171 113 108 171 113 108 171 113 108 171 113 108 171 113 108 171 113 108 171 113 108 171 113 108 171 113 108 171 113 108 171 113 108 171 113 108 171 113 108 171 113 108 171 113 108 171 113 108 171 113 108 171 113 108 171 113 108 115 93 101 112 69 83 115 93 101 115 93 101 115 93 101 115 93 101 115 93 101 115 93 101 115 93 101 115 93 101 115 93 101 115 93 101 115 93 101 115 93 101 115 93 101 115 93 101 115 93 101 115 93 101 115 93 101 115 93 101 115 93 101 115 93 101 159 196 217 159 196 217 159 196 217 159 196 217 159 196 217 159 196 217 159 196 217 159 196 217 159 196 217 159 196 217 159 196 217 159 196 217 159 196 217 159 196 217 159 196 217 159 196 217 159 196 217 159 196 217 159 196 217 159 196 217 159 196 217 159 196 217 159 196 217 159 196 217 159 196 217 159 196 217 159 196 217 159 196 217 159 196 217 159 196 217 159 196 217 159 196 217 159 196 217 159 196 217 181 172 166 159 105 98 159 105 98 159 105 98 159 105 98 159 105 98 159 105 98 159 105 98 159 105 98 159 105 98 159 105 98 159 105 98 159 105 98 159 105 98 159 105 98 159 105 98 159 105 98 159 105 98 159 105 98 159 105 98 159 105 98 159 105 98 181 172 166 214 223 216 181 172 166 159 105 98 159 105 98 159 105 98 159 105 98 159 105 98 159 105 98 159 105 98 159 105 98 159 105 98 171 108 95 171 108 95 171 108 95 171 108 95 171 108 95 171 108 95 171 108 95 171 108 95 171 108 95 171 108 95 171 108 95 171 108 95 171 108 95 171 108 95 171 108 95 171 108 95 171 108 95 171 108 95 171 108 95 171 108 95 171 108 95 171 108 95 171 108 95 171 108 95 171 108 95 171 108 95 171 108 95 171 108 95 171 108 95 171 108 95 171 108 95 171 108 95 171 108 95 171 108 95 171 108 95 165 104 94 165 104 94 169 108 96 169 108 96 165 104 94 165 104 94 165 104 94 165 104 94 165 104 94 165 104 94 165 104 94 165 104 94 165 104 94 165 104 94 165 104 94 165 104 94 165 104 94 165 104 94 165 104 94 165 104 94 165 104 94 165 104 94 165 104 94 165 104 94 165 104 94 165 104 94 165 104 94 165 104 94 165 104 94 165 104 94 165 104 94 165 104 94 165 104 94 165 104 94 165 104 94 165 104 94 165 104 94 165 104 94 165 104 94 165 104 94 165 104 94 165 104 94 165 104 94 165 104 94 165 104 94 165 104 94 164 106 100 164 106 100 213 219 211 213 219 211 213 219 211 213 219 211 213 219 211 213 219 211 139 170 182 139 170 182 139 170 182 139 170 182 139 170 182 139 170 182 139 170 182 139 170 182 139 170 182 139 170 182 139 170 182 139 170 182 139 170 182 139 170 182 139 170 182 163 106 100 163 106 100 163 106 100 163 106 100 163 106 100 163 106 100 163 106 100 163 106 100 163 106 100 163 106 100 163 106 100 163 106 100 163 106 100 163 106 100 163 106 100 163 106 100 163 106 100 163 106 100 163 106 100 163 106 100 151 155 149 213 219 211 213 219 211 213 219 211 213 219 211 213 219 211 163 106 100 163 106 100 163 106 100 163 106 100 163 106 100 171 113 108 163 106 100 163 106 100 163 106 100 163 106 100 163 106 100 171 113 108 171 113 108 171 113 108 171 113 108 171 113 108 171 113 108 171 113 108 171 113 108 171 113 108 171 113 108 171 113 108 171 113 108 171 113 108 171 113 108 171 113 108 171 113 108 171 113 108 171 113 108 115 93 101 112 69 83 115 93 101 115 93 101 115 93 101 115 93 101 115 93 101 115 93 101 115 93 101 115 93 101 115 93 101 115 93 101 115 93 101 115 93 101 115 93 101 115 93 101 115 93 101 115 93 101 115 93 101 115 93 101 115 93 101 115 93 101 115 93 101 115 93 101 115 93 101 171 113 108 115 93 101 115 93 101 115 93 101 159 196 217 159 196 217 159 196 217 159 196 217 159 196 217 159 196 217 159 196 217 159 196 217 159 196 217 159 196 217 159 196 217 159 196 217 159 196 217 159 196 217 159 196 217 159 196 217 159 196 217 159 196 217 159 196 217 159 196 217 159 196 217 159 196 217 159 196 217 159 196 217 159 196 217 159 196 217 159 196 217 159 196 217 159 196 217 159 196 217 159 196 217 159 196 217 159 196 217 159 196 217 181 172 166 159 105 98 159 105 98 159 105 98 159 105 98 159 105 98 159 105 98 159 105 98 159 105 98 159 105 98 159 105 98 159 105 98 159 105 98 159 105 98 159 105 98 159 105 98 159 105 98 159 105 98 159 105 98 181 172 166 181 172 166 181 172 166 181 172 166 214 223 216 181 172 166 159 105 98 159 105 98 159 105 98 159 105 98 159 105 98 159 105 98 171 108 95 171 108 95 171 108 95 171 108 95 171 108 95 171 108 95 171 108 95 171 108 95 171 108 95 171 108 95 171 108 95 171 108 95 171 108 95 171 108 95 171 108 95 171 108 95 171 108 95 171 108 95 171 108 95 171 108 95 171 108 95 171 108 95 171 108 95 171 108 95 171 108 95 171 108 95 171 108 95 171 108 95 171 108 95 171 108 95 171 108 95 171 108 95 171 108 95 171 108 95 171 108 95 171 108 95 171 108 95 171 108 95 171 108 95 171 108 95 171 108 95 171 108 95 165 104 94 165 104 94 165 104 94 165 104 94 165 104 94 165 104 94 165 104 94 165 104 94 165 104 94 165 104 94 165 104 94 165 104 94 165 104 94 165 104 94 165 104 94 165 104 94 165 104 94 165 104 94 165 104 94 165 104 94 165 104 94 165 104 94 165 104 94 165 104 94 165 104 94 165 104 94 165 104 94 165 104 94 165 104 94 165 104 94 165 104 94 165 104 94 165 104 94 165 104 94 165 104 94 165 104 94 165 104 94 165 104 94 165 104 94 165 104 94 165 104 94 165 104 94 165 104 94 164 106 100 139 170 182 213 219 211 213 219 211 213 219 211 213 219 211 213 219 211 139 170 182 139 170 182 139 170 182 139 170 182 139 170 182 139 170 182 139 170 182 139 170 182 139 170 182 139 170 182 139 170 182 139 170 182 139 170 182 139 170 182 139 170 182 142 137 132 163 106 100 163 106 100 163 106 100 163 106 100 163 106 100 163 106 100 163 106 100 163 106 100 163 106 100 163 106 100 163 106 100 163 106 100 163 106 100 163 106 100 163 106 100 163 106 100 163 106 100 163 106 100 163 106 100 151 155 149 213 219 211 213 219 211 213 219 211 213 219 211 151 155 149 163 106 100 163 106 100 163 106 100 163 106 100 163 106 100 163 106 100 163 106 100 171 113 108 171 113 108 171 113 108 171 113 108 171 113 108 171 113 108 171 113 108 171 113 108 171 113 108 171 113 108 171 113 108 171 113 108 171 113 108 171 113 108 171 113 108 171 113 108 171 113 108 171 113 108 171 113 108 171 113 108 171 113 108 171 113 108 115 93 101 115 93 101 115 93 101 115 93 101 115 93 101 115 93 101 115 93 101 115 93 101 115 93 101 115 93 101 115 93 101 115 93 101 115 93 101 115 93 101 115 93 101 115 93 101 115 93 101 115 93 101 115 93 101 115 93 101 171 113 108 171 113 108 115 93 101 115 93 101 115 93 101 115 93 101 115 93 101 115 93 101 115 93 101 159 196 217 159 196 217 159 196 217 159 196 217 159 196 217 159 196 217 159 196 217 159 196 217 159 196 217 159 196 217 159 196 217 159 196 217 159 196 217 159 196 217 159 196 217 159 196 217 159 196 217 159 196 217 159 196 217 159 196 217 159 196 217 159 196 217 159 196 217 159 196 217 159 196 217 159 196 217 159 196 217 159 196 217 159 196 217 159 196 217 159 196 217 159 196 217 159 196 217 159 196 217 181 172 166 159 105 98 159 105 98 159 105 98 159 105 98 159 105 98 159 105 98 159 105 98 159 105 98 159 105 98 159 105 98 159 105 98 159 105 98 159 105 98 159 105 98 159 105 98 159 105 98 159 105 98 159 105 98 181 172 166 181 172 166 181 172 166 181 172 166 181 172 166 181 172 166 159 105 98 159 105 98 159 105 98 159 105 98 171 108 95 171 108 95 171 108 95 171 108 95 171 108 95 171 108 95 171 108 95 171 108 95 171 108 95 171 108 95 171 108 95 171 108 95 171 108 95 171 108 95 171 108 95 171 108 95 171 108 95 171 108 95 171 108 95 171 108 95 171 108 95 171 108 95 171 108 95 171 108 95 171 108 95 171 108 95 171 108 95 171 108 95 171 108 95 171 108 95 171 108 95 171 108 95 171 108 95 171 108 95 171 108 95 171 108 95 171 108 95 171 108 95 171 108 95 171 108 95 171 108 95 171 108 95 171 108 95 171 108 95 165 104 94 165 104 94 165 104 94 165 104 94 165 104 94 165 104 94 165 104 94 165 104 94 165 104 94 165 104 94 165 104 94 165 104 94 165 104 94 165 104 94 165 104 94 165 104 94 165 104 94 165 104 94 165 104 94 165 104 94 165 104 94 165 104 94 165 104 94 165 104 94 165 104 94 165 104 94 165 104 94 165 104 94 165 104 94 165 104 94 165 104 94 165 104 94 165 104 94 165 104 94 165 104 94 165 104 94 165 104 94 165 104 94 165 104 94 165 104 94 165 104 94 165 104 94 165 104 94 164 106 100 139 170 182 213 219 211 213 219 211 213 219 211 213 219 211 213 219 211 139 170 182 139 170 182 139 170 182 139 170 182 139 170 182 139 170 182 139 170 182 139 170 182 139 170 182 139 170 182 139 170 182 139 170 182 139 170 182 139 170 182 139 170 182 163 106 100 163 106 100 163 106 100 163 106 100 163 106 100 163 106 100 163 106 100 163 106 100 163 106 100 163 106 100 163 106 100 163 106 100 163 106 100 163 106 100 163 106 100 163 106 100 163 106 100 163 106 100 163 106 100 163 106 100 151 155 149 213 219 211 213 219 211 213 219 211 213 219 211 151 155 149 163 106 100 163 106 100 163 106 100 163 106 100 163 106 100 163 106 100 163 106 100 163 106 100 171 113 108 163 106 100 171 113 108 171 113 108 171 113 108 171 113 108 171 113 108 171 113 108 171 113 108 171 113 108 171 113 108 171 113 108 171 113 108 171 113 108 115 93 101 115 93 101 115 93 101 115 93 101 115 93 101 115 93 101 171 113 108 115 93 101 115 93 101 115 93 101 115 93 101 115 93 101 115 93 101 115 93 101 115 93 101 115 93 101 115 93 101 115 93 101 115 93 101 115 93 101 115 93 101 115 93 101 115 93 101 171 113 108 171 113 108 115 93 101 115 93 101 115 93 101 115 93 101 115 93 101 115 93 101 115 93 101 115 93 101 115 93 101 115 93 101 115 93 101 159 196 217 159 196 217 159 196 217 159 196 217 159 196 217 159 196 217 159 196 217 159 196 217 159 196 217 159 196 217 159 196 217 159 196 217 159 196 217 159 196 217 159 196 217 159 196 217 159 196 217 159 196 217 159 196 217 159 196 217 159 196 217 159 196 217 159 196 217 159 196 217 159 196 217 159 196 217 159 196 217 159 196 217 159 196 217 159 196 217 159 196 217 159 196 217 159 196 217 159 196 217 181 172 166 159 105 98 159 105 98 159 105 98 159 105 98 159 105 98 159 105 98 159 105 98 159 105 98 159 105 98 159 105 98 159 105 98 159 105 98 159 105 98 159 105 98 159 105 98 159 105 98 159 105 98 159 105 98 181 172 166 181 172 166 181 172 166 181 172 166 181 172 166 159 105 98 159 105 98 159 105 98 159 105 98 159 105 98 159 105 98 159 105 98 171 108 95 171 108 95 171 108 95 171 108 95 171 108 95 171 108 95 171 108 95 171 108 95 171 108 95 171 108 95 171 108 95 171 108 95 171 108 95 171 108 95 171 108 95 171 108 95 171 108 95 171 108 95 171 108 95 171 108 95 171 108 95 171 108 95 171 108 95 171 108 95 171 108 95 171 108 95 171 108 95 171 108 95 171 108 95 171 108 95 171 108 95 171 108 95 171 108 95 171 108 95 171 108 95 171 108 95 165 104 94 171 108 95 171 108 95 171 108 95 171 108 95 165 104 94 165 104 94 165 104 94 165 104 94 165 104 94 165 104 94 165 104 94 165 104 94 165 104 94 165 104 94 165 104 94 165 104 94 165 104 94 165 104 94 165 104 94 165 104 94 165 104 94 165 104 94 165 104 94 165 104 94 165 104 94 165 104 94 165 104 94 165 104 94 165 104 94 165 104 94 165 104 94 165 104 94 165 104 94 165 104 94 165 104 94 165 104 94 165 104 94 165 104 94 165 104 94 165 104 94 165 104 94 165 104 94 165 104 94 165 104 94 165 104 94 165 104 94 165 104 94 165 104 94 142 137 132 139 170 182 213 219 211 213 219 211 213 219 211 213 219 211 213 219 211 139 170 182 139 170 182 139 170 182 139 170 182 139 170 182 139 170 182 139 170 182 139 170 182 139 170 182 139 170 182 139 170 182 139 170 182 139 170 182 139 170 182 139 170 182 163 106 100 163 106 100 163 106 100 163 106 100 163 106 100 163 106 100 163 106 100 163 106 100 163 106 100 163 106 100 163 106 100 163 106 100 163 106 100 163 106 100 163 106 100 163 106 100 163 106 100 163 106 100 163 106 100 163 106 100 151 155 149 213 219 211 213 219 211 213 219 211 213 219 211 151 155 149 163 106 100 163 106 100 163 106 100 163 106 100 163 106 100 163 106 100 163 106 100 163 106 100 163 106 100 171 113 108 163 106 100 163 106 100 171 113 108 171 113 108 171 113 108 171 113 108 171 113 108 171 113 108 171 113 108 171 113 108 171 113 108 171 113 108 115 93 101 115 93 101 115 93 101 115 93 101 115 93 101 115 93 101 115 93 101 115 93 101 115 93 101 115 93 101 115 93 101 115 93 101 115 93 101 115 93 101 115 93 101 115 93 101 115 93 101 115 93 101 115 93 101 115 93 101 171 113 108 171 113 108 115 93 101 115 93 101 115 93 101 115 93 101 115 93 101 115 93 101 115 93 101 115 93 101 115 93 101 115 93 101 115 93 101 115 93 101 115 93 101 115 93 101 159 196 217 159 196 217 159 196 217 159 196 217 159 196 217 159 196 217 159 196 217 159 196 217 159 196 217 159 196 217 159 196 217 159 196 217 159 196 217 159 196 217 159 196 217 159 196 217 159 196 217 159 196 217 159 196 217 159 196 217 159 196 217 159 196 217 159 196 217 159 196 217 159 196 217 159 196 217 159 196 217 159 196 217 159 196 217 159 196 217 159 196 217 159 196 217 159 196 217 159 196 217 181 172 166 159 105 98 159 105 98 159 105 98 159 105 98 159 105 98 159 105 98 159 105 98 159 105 98 159 105 98 159 105 98 159 105 98 159 105 98 159 105 98 159 105 98 159 105 98 159 105 98 159 105 98 159 105 98 181 172 166 181 172 166 181 172 166 159 105 98 159 105 98 159 105 98 159 105 98 159 105 98 159 105 98 171 108 95 171 108 95 171 108 95 171 108 95 171 108 95 171 108 95 171 108 95 171 108 95 171 108 95 171 108 95 171 108 95 171 108 95 171 108 95 171 108 95 171 108 95 171 108 95 171 108 95 171 108 95 171 108 95 171 108 95 171 108 95 171 108 95 171 108 95 171 108 95 171 108 95 171 108 95 171 108 95 171 108 95 171 108 95 171 108 95 171 108 95 171 108 95 171 108 95 171 108 95 171 108 95 171 108 95 171 108 95 171 108 95 171 108 95 171 108 95 171 108 95 171 108 95 171 108 95 171 108 95 171 108 95 165 104 94 165 104 94 165 104 94 165 104 94 165 104 94 165 104 94 165 104 94 165 104 94 165 104 94 165 104 94 165 104 94 165 104 94 165 104 94 165 104 94 165 104 94 165 104 94 165 104 94 165 104 94 165 104 94 165 104 94 165 104 94 165 104 94 165 104 94 165 104 94 165 104 94 165 104 94 165 104 94 165 104 94 165 104 94 165 104 94 165 104 94 165 104 94 165 104 94 165 104 94 165 104 94 165 104 94 165 104 94 165 104 94 165 104 94 165 104 94 165 104 94 165 104 94 165 104 94 165 104 94 139 170 182 213 219 211 213 219 211 213 219 211 213 219 211 213 219 211 139 170 182 139 170 182 139 170 182 139 170 182 139 170 182 139 170 182 139 170 182 139 170 182 139 170 182 139 170 182 139 170 182 139 170 182 139 170 182 139 170 182 139 170 182 163 106 100 163 106 100 163 106 100 163 106 100 163 106 100 163 106 100 163 106 100 163 106 100 163 106 100 163 106 100 163 106 100 163 106 100 163 106 100 163 106 100 163 106 100 163 106 100 163 106 100 163 106 100 163 106 100 163 106 100 151 155 149 213 219 211 213 219 211 213 219 211 213 219 211 151 155 149 163 106 100 163 106 100 163 106 100 163 106 100 171 113 108 171 113 108 163 106 100 171 113 108 171 113 108 171 113 108 171 113 108 171 113 108 171 113 108 171 113 108 171 113 108 115 93 101 115 93 101 115 93 101 115 93 101 115 93 101 115 93 101 115 93 101 115 93 101 115 93 101 115 93 101 115 93 101 115 93 101 115 93 101 115 93 101 115 93 101 115 93 101 115 93 101 115 93 101 115 93 101 115 93 101 115 93 101 115 93 101 115 93 101 115 93 101 115 93 101 115 93 101 115 93 101 115 93 101 115 93 101 115 93 101 115 93 101 115 93 101 115 93 101 115 93 101 115 93 101 115 93 101 115 93 101 115 93 101 115 93 101 115 93 101 115 93 101 115 93 101 115 93 101 159 196 217 159 196 217 159 196 217 159 196 217 159 196 217 159 196 217 159 196 217 159 196 217 159 196 217 159 196 217 159 196 217 159 196 217 159 196 217 159 196 217 159 196 217 159 196 217 159 196 217 159 196 217 159 196 217 159 196 217 159 196 217 159 196 217 159 196 217 159 196 217 159 196 217 159 196 217 159 196 217 159 196 217 159 196 217 159 196 217 159 196 217 159 196 217 159 196 217 159 196 217 181 172 166 159 105 98 159 105 98 159 105 98 159 105 98 159 105 98 159 105 98 159 105 98 159 105 98 159 105 98 159 105 98 159 105 98 159 105 98 159 105 98 159 105 98 159 105 98 159 105 98 159 105 98 159 105 98 159 105 98 159 105 98 159 105 98 159 105 98 159 105 98 159 105 98 159 105 98 171 108 95 171 108 95 171 108 95 171 108 95 171 108 95 171 108 95 171 108 95 171 108 95 171 108 95 171 108 95 171 108 95 171 108 95 171 108 95 171 108 95 171 108 95 171 108 95 171 108 95 171 108 95 171 108 95 171 108 95 171 108 95 171 108 95 171 108 95 171 108 95 171 108 95 171 108 95 171 108 95 171 108 95 171 108 95 171 108 95 171 108 95 171 108 95 171 108 95 171 108 95 171 108 95 171 108 95 171 108 95 171 108 95 171 108 95 171 108 95 171 108 95 171 108 95 171 108 95 171 108 95 171 108 95 171 108 95 171 108 95 165 104 94 165 104 94 165 104 94 165 104 94 165 104 94 165 104 94 165 104 94 165 104 94 165 104 94 165 104 94 165 104 94 165 104 94 165 104 94 165 104 94 165 104 94 165 104 94 165 104 94 165 104 94 165 104 94 165 104 94 165 104 94 165 104 94 165 104 94 165 104 94 165 104 94 165 104 94 165 104 94 165 104 94 165 104 94 165 104 94 165 104 94 165 104 94 165 104 94 165 104 94 165 104 94 165 104 94 165 104 94 165 104 94 165 104 94 165 104 94 165 104 94 165 104 94 165 104 94 165 104 94 213 219 211 213 219 211 213 219 211 213 219 211 213 219 211 213 219 211 139 170 182 139 170 182 139 170 182 139 170 182 139 170 182 139 170 182 139 170 182 139 170 182 139 170 182 139 170 182 139 170 182 139 170 182 139 170 182 139 170 182 139 170 182 163 106 100 163 106 100 163 106 100 163 106 100 163 106 100 163 106 100 163 106 100 163 106 100 163 106 100 163 106 100 163 106 100 163 106 100 163 106 100 163 106 100 163 106 100 163 106 100 163 106 100 163 106 100 163 106 100 163 106 100 213 219 211 213 219 211 213 219 211 213 219 211 213 219 211 151 155 149 163 106 100 163 106 100 163 106 100 163 106 100 163 106 100 163 106 100 163 106 100 163 106 100 171 113 108 163 106 100 171 113 108 171 113 108 171 113 108 171 113 108 171 113 108 115 93 101 115 93 101 115 93 101 115 93 101 115 93 101 115 93 101 115 93 101 115 93 101 115 93 101 115 93 101 115 93 101 115 93 101 115 93 101 115 93 101 115 93 101 115 93 101 115 93 101 115 93 101 115 93 101 171 113 108 115 93 101 115 93 101 115 93 101 115 93 101 115 93 101 115 93 101 115 93 101 115 93 101 115 93 101 115 93 101 115 93 101 115 93 101 115 93 101 115 93 101 115 93 101 115 93 101 115 93 101 115 93 101 115 93 101 115 93 101 115 93 101 115 93 101 115 93 101 159 196 217 159 196 217 159 196 217 159 196 217 159 196 217 159 196 217 159 196 217 159 196 217 159 196 217 159 196 217 159 196 217 159 196 217 159 196 217 159 196 217 159 196 217 159 196 217 159 196 217 159 196 217 159 196 217 159 196 217 159 196 217 159 196 217 159 196 217 159 196 217 159 196 217 159 196 217 159 196 217 159 196 217 159 196 217 159 196 217 159 196 217 159 196 217 159 196 217 159 196 217 181 172 166 159 105 98 159 105 98 159 105 98 159 105 98 159 105 98 159 105 98 159 105 98 159 105 98 159 105 98 159 105 98 159 105 98 159 105 98 159 105 98 159 105 98 159 105 98 159 105 98 159 105 98 159 105 98 159 105 98 159 105 98 159 105 98 159 105 98 159 105 98 159 105 98 159 105 98 159 105 98 159 105 98 159 105 98 171 108 95 171 108 95 171 108 95 171 108 95 171 108 95 171 108 95 171 108 95 171 108 95 171 108 95 171 108 95 171 108 95 171 108 95 171 108 95 171 108 95 171 108 95 171 108 95 171 108 95 171 108 95 171 108 95 171 108 95 171 108 95 171 108 95 171 108 95 171 108 95 171 108 95 171 108 95 171 108 95 171 108 95 171 108 95 171 108 95 171 108 95 171 108 95 171 108 95 171 108 95 171 108 95 171 108 95 171 108 95 171 108 95 171 108 95 171 108 95 165 104 94 171 108 95 171 108 95 165 104 94 165 104 94 165 104 94 165 104 94 165 104 94 165 104 94 165 104 94 165 104 94 165 104 94 165 104 94 165 104 94 165 104 94 165 104 94 165 104 94 165 104 94 165 104 94 165 104 94 165 104 94 165 104 94 165 104 94 165 104 94 165 104 94 165 104 94 165 104 94 165 104 94 165 104 94 165 104 94 165 104 94 165 104 94 165 104 94 165 104 94 165 104 94 165 104 94 165 104 94 165 104 94 165 104 94 165 104 94 165 104 94 165 104 94 165 104 94 165 104 94 165 104 94 165 104 94 165 104 94 165 104 94 213 219 211 213 219 211 213 219 211 213 219 211 213 219 211 213 219 211 139 170 182 139 170 182 139 170 182 139 170 182 139 170 182 139 170 182 139 170 182 139 170 182 139 170 182 139 170 182 139 170 182 139 170 182 139 170 182 139 170 182 139 170 182 163 106 100 163 106 100 163 106 100 163 106 100 163 106 100 163 106 100 163 106 100 163 106 100 163 106 100 163 106 100 163 106 100 163 106 100 163 106 100 163 106 100 163 106 100 163 106 100 163 106 100 163 106 100 163 106 100 163 106 100 213 219 211 213 219 211 213 219 211 213 219 211 213 219 211 151 155 149 163 106 100 163 106 100 171 113 108 171 113 108 171 113 108 163 106 100 163 106 100 171 113 108 163 106 100 115 93 101 115 93 101 115 93 101 115 93 101 115 93 101 115 93 101 115 93 101 115 93 101 115 93 101 115 93 101 115 93 101 115 93 101 115 93 101 115 93 101 115 93 101 115 93 101 115 93 101 115 93 101 115 93 101 115 93 101 115 93 101 115 93 101 115 93 101 171 113 108 115 93 101 115 93 101 115 93 101 115 93 101 115 93 101 115 93 101 115 93 101 115 93 101 115 93 101 115 93 101 115 93 101 115 93 101 115 93 101 115 93 101 115 93 101 115 93 101 115 93 101 115 93 101 115 93 101 115 93 101 115 93 101 115 93 101 115 93 101 115 93 101 115 93 101 159 196 217 159 196 217 159 196 217 159 196 217 159 196 217 159 196 217 159 196 217 159 196 217 159 196 217 159 196 217 159 196 217 159 196 217 159 196 217 159 196 217 159 196 217 159 196 217 159 196 217 159 196 217 159 196 217 159 196 217 159 196 217 159 196 217 159 196 217 159 196 217 159 196 217 159 196 217 159 196 217 159 196 217 159 196 217 159 196 217 159 196 217 159 196 217 159 196 217 159 196 217 181 172 166 159 105 98 159 105 98 159 105 98 159 105 98 159 105 98 159 105 98 159 105 98 159 105 98 159 105 98 159 105 98 159 105 98 159 105 98 159 105 98 159 105 98 159 105 98 159 105 98 159 105 98 159 105 98 159 105 98 159 105 98 159 105 98 159 105 98 159 105 98 159 105 98 159 105 98 159 105 98 171 108 95 171 108 95 171 108 95 171 108 95 171 108 95 171 108 95 171 108 95 171 108 95 171 108 95 171 108 95 171 108 95 171 108 95 171 108 95 171 108 95 171 108 95 171 108 95 171 108 95 171 108 95 171 108 95 171 108 95 171 108 95 171 108 95 171 108 95 171 108 95 171 108 95 171 108 95 171 108 95 171 108 95 171 108 95 171 108 95 171 108 95 171 108 95 171 108 95 171 108 95 171 108 95 171 108 95 171 108 95 171 108 95 171 108 95 171 108 95 171 108 95 171 108 95 171 108 95 171 108 95 171 108 95 171 108 95 165 104 94 165 104 94 165 104 94 165 104 94 165 104 94 165 104 94 165 104 94 165 104 94 165 104 94 165 104 94 165 104 94 165 104 94 165 104 94 165 104 94 165 104 94 165 104 94 165 104 94 165 104 94 165 104 94 165 104 94 165 104 94 165 104 94 165 104 94 165 104 94 165 104 94 165 104 94 165 104 94 165 104 94 165 104 94 165 104 94 165 104 94 165 104 94 165 104 94 165 104 94 165 104 94 165 104 94 165 104 94 165 104 94 165 104 94 165 104 94 165 104 94 165 104 94 165 104 94 165 104 94 213 219 211 213 219 211 213 219 211 213 219 211 213 219 211 213 219 211 139 170 182 139 170 182 139 170 182 139 170 182 139 170 182 139 170 182 139 170 182 139 170 182 139 170 182 139 170 182 139 170 182 139 170 182 139 170 182 139 170 182 139 170 182 163 106 100 163 106 100 163 106 100 163 106 100 163 106 100 163 106 100 163 106 100 163 106 100 163 106 100 163 106 100 163 106 100 163 106 100 163 106 100 163 106 100 163 106 100 163 106 100 163 106 100 163 106 100 163 106 100 163 106 100 213 219 211 213 219 211 213 219 211 213 219 211 213 219 211 151 155 149 163 106 100 163 106 100 163 106 100 163 106 100 163 106 100 171 113 108 171 113 108 171 113 108 163 106 100 115 93 101 115 93 101 115 93 101 115 93 101 115 93 101 115 93 101 115 93 101 115 93 101 115 93 101 115 93 101 115 93 101 115 93 101 115 93 101 115 93 101 115 93 101 115 93 101 115 93 101 115 93 101 115 93 101 115 93 101 115 93 101 115 93 101 115 93 101 115 93 101 115 93 101 115 93 101 115 93 101 115 93 101 115 93 101 115 93 101 115 93 101 115 93 101 115 93 101 115 93 101 115 93 101 115 93 101 115 93 101 115 93 101 115 93 101 115 93 101 115 93 101 115 93 101 115 93 101 115 93 101 115 93 101 115 93 101 115 93 101 115 93 101 115 93 101 159 196 217 159 196 217 159 196 217 159 196 217 159 196 217 159 196 217 159 196 217 159 196 217 159 196 217 159 196 217 159 196 217 159 196 217 159 196 217 159 196 217 159 196 217 159 196 217 159 196 217 159 196 217 159 196 217 159 196 217 159 196 217 159 196 217 159 196 217 159 196 217 159 196 217 159 196 217 159 196 217 159 196 217 159 196 217 159 196 217 159 196 217 159 196 217 159 196 217 159 196 217 181 172 166 159 105 98 159 105 98 159 105 98 159 105 98 159 105 98 159 105 98 159 105 98 159 105 98 159 105 98 159 105 98 159 105 98 159 105 98 159 105 98 159 105 98 159 105 98 165 107 96 159 105 98 165 107 96 159 105 98 159 105 98 159 105 98 165 107 96 165 107 96 165 107 96 159 105 98 159 105 98 171 108 95 171 108 95 159 105 98 171 108 95 171 108 95 171 108 95 171 108 95 171 108 95 171 108 95 171 108 95 171 108 95 171 108 95 171 108 95 171 108 95 171 108 95 171 108 95 171 108 95 171 108 95 171 108 95 171 108 95 171 108 95 171 108 95 171 108 95 171 108 95 171 108 95 171 108 95 171 108 95 171 108 95 171 108 95 171 108 95 171 108 95 171 108 95 171 108 95 171 108 95 171 108 95 171 108 95 171 108 95 171 108 95 171 108 95 171 108 95 171 108 95 171 108 95 165 104 94 171 108 95 171 108 95 165 104 94 165 104 94 165 104 94 165 104 94 165 104 94 165 104 94 165 104 94 165 104 94 165 104 94 165 104 94 165 104 94 165 104 94 165 104 94 165 104 94 165 104 94 165 104 94 165 104 94 165 104 94 165 104 94 165 104 94 165 104 94 165 104 94 165 104 94 165 104 94 165 104 94 165 104 94 165 104 94 165 104 94 165 104 94 165 104 94 165 104 94 165 104 94 165 104 94 165 104 94 165 104 94 165 104 94 165 104 94 165 104 94 165 104 94 165 104 94 165 104 94 165 104 94 165 104 94 165 104 94 142 137 132 213 219 211 213 219 211 213 219 211 213 219 211 213 219 211 213 219 211 139 170 182 139 170 182 139 170 182 139 170 182 139 170 182 139 170 182 139 170 182 139 170 182 139 170 182 139 170 182 139 170 182 139 170 182 139 170 182 139 170 182 139 170 182 163 106 100 163 106 100 163 106 100 163 106 100 163 106 100 163 106 100 163 106 100 163 106 100 163 106 100 163 106 100 163 106 100 163 106 100 163 106 100 163 106 100 163 106 100 163 106 100 163 106 100 163 106 100 163 106 100 163 106 100 213 219 211 213 219 211 213 219 211 213 219 211 213 219 211 151 155 149 163 106 100 163 106 100 112 92 94 112 92 94 112 92 94 115 93 101 115 93 101 115 93 101 115 93 101 115 93 101 115 93 101 115 93 101 115 93 101 115 93 101 115 93 101 115 93 101 115 93 101 115 93 101 115 93 101 115 93 101 115 93 101 115 93 101 115 93 101 115 93 101 115 93 101 115 93 101 115 93 101 115 93 101 115 93 101 115 93 101 115 93 101 115 93 101 115 93 101 115 93 101 115 93 101 115 93 101 115 93 101 115 93 101 115 93 101 115 93 101 115 93 101 115 93 101 115 93 101 115 93 101 115 93 101 115 93 101 115 93 101 115 93 101 115 93 101 115 93 101 115 93 101 115 93 101 115 93 101 115 93 101 115 93 101 115 93 101 115 93 101 115 93 101 159 196 217 159 196 217 159 196 217 159 196 217 159 196 217 159 196 217 159 196 217 159 196 217 159 196 217 159 196 217 159 196 217 159 196 217 159 196 217 159 196 217 159 196 217 159 196 217 159 196 217 159 196 217 159 196 217 159 196 217 159 196 217 159 196 217 159 196 217 159 196 217 159 196 217 159 196 217 159 196 217 159 196 217 159 196 217 159 196 217 159 196 217 159 196 217 159 196 217 159 196 217 181 172 166 159 105 98 159 105 98 159 105 98 159 105 98 159 105 98 159 105 98 159 105 98 159 105 98 159 105 98 159 105 98 165 107 96 165 107 96 165 107 96 165 107 96 165 107 96 165 107 96 165 107 96 165 107 96 165 107 96 165 107 96 165 107 96 165 107 96 165 107 96 165 107 96 159 105 98 159 105 98 165 107 96 171 108 95 171 108 95 171 108 95 171 108 95 171 108 95 171 108 95 171 108 95 171 108 95 171 108 95 171 108 95 171 108 95 171 108 95 171 108 95 171 108 95 171 108 95 171 108 95 171 108 95 171 108 95 171 108 95 171 108 95 171 108 95 171 108 95 171 108 95 171 108 95 171 108 95 171 108 95 171 108 95 171 108 95 171 108 95 171 108 95 171 108 95 171 108 95 171 108 95 171 108 95 171 108 95 171 108 95 171 108 95 171 108 95 171 108 95 171 108 95 171 108 95 171 108 95 171 108 95 171 108 95 165 104 94 165 104 94 165 104 94 165 104 94 165 104 94 165 104 94 165 104 94 165 104 94 165 104 94 165 104 94 165 104 94 165 104 94 165 104 94 165 104 94 165 104 94 165 104 94 165 104 94 165 104 94 165 104 94 165 104 94 165 104 94 165 104 94 165 104 94 165 104 94 165 104 94 165 104 94 165 104 94 165 104 94 165 104 94 165 104 94 165 104 94 165 104 94 165 104 94 165 104 94 165 104 94 165 104 94 165 104 94 165 104 94 165 104 94 165 104 94 165 104 94 165 104 94 165 104 94 165 104 94 165 104 94 213 219 211 213 219 211 213 219 211 213 219 211 213 219 211 213 219 211 139 170 182 139 170 182 139 170 182 139 170 182 139 170 182 139 170 182 139 170 182 139 170 182 139 170 182 139 170 182 139 170 182 139 170 182 139 170 182 139 170 182 139 170 182 163 106 100 163 106 100 163 106 100 163 106 100 163 106 100 163 106 100 163 106 100 163 106 100 163 106 100 163 106 100 163 106 100 163 106 100 163 106 100 163 106 100 163 106 100 163 106 100 163 106 100 163 106 100 163 106 100 163 106 100 213 219 211 213 219 211 213 219 211 213 219 211 213 219 211 151 155 149 163 106 100 112 92 94 112 92 94 112 92 94 112 92 94 112 92 94 115 93 101 115 93 101 115 93 101 115 93 101 115 93 101 115 93 101 115 93 101 115 93 101 115 93 101 115 93 101 115 93 101 115 93 101 115 93 101 115 93 101 115 93 101 115 93 101 115 93 101 115 93 101 115 93 101 115 93 101 115 93 101 115 93 101 115 93 101 115 93 101 115 93 101 115 93 101 115 93 101 115 93 101 115 93 101 115 93 101 115 93 101 115 93 101 115 93 101 115 93 101 115 93 101 115 93 101 115 93 101 115 93 101 115 93 101 115 93 101 115 93 101 115 93 101 115 93 101 115 93 101 115 93 101 115 93 101 115 93 101 115 93 101 115 93 101 115 93 101 115 93 101 115 93 101 159 196 217 159 196 217 159 196 217 159 196 217 159 196 217 159 196 217 159 196 217 159 196 217 159 196 217 159 196 217 159 196 217 159 196 217 159 196 217 159 196 217 159 196 217 159 196 217 159 196 217 159 196 217 159 196 217 159 196 217 159 196 217 159 196 217 159 196 217 159 196 217 159 196 217 159 196 217 159 196 217 159 196 217 159 196 217 159 196 217 159 196 217 159 196 217 159 196 217 159 196 217 181 172 166 159 105 98 159 105 98 159 105 98 165 107 96 165 107 96 165 107 96 165 107 96 165 107 96 165 107 96 165 107 96 165 107 96 165 107 96 165 107 96 165 107 96 165 107 96 165 107 96 165 107 96 165 107 96 165 107 96 165 107 96 165 107 96 165 107 96 165 107 96 165 107 96 165 107 96 165 107 96 165 107 96 165 107 96 171 108 95 171 108 95 171 108 95 171 108 95 171 108 95 171 108 95 171 108 95 171 108 95 171 108 95 171 108 95 171 108 95 171 108 95 171 108 95 171 108 95 171 108 95 171 108 95 171 108 95 171 108 95 171 108 95 171 108 95 171 108 95 171 108 95 171 108 95 171 108 95 171 108 95 171 108 95 171 108 95 171 108 95 171 108 95 171 108 95 171 108 95 171 108 95 171 108 95 171 108 95 171 108 95 171 108 95 171 108 95 171 108 95 171 108 95 171 108 95 171 108 95 171 108 95 171 108 95 171 108 95 165 104 94 165 104 94 165 104 94 165 104 94 165 104 94 165 104 94 165 104 94 165 104 94 165 104 94 165 104 94 165 104 94 165 104 94 165 104 94 165 104 94 165 104 94 165 104 94 165 104 94 165 104 94 165 104 94 165 104 94 165 104 94 165 104 94 165 104 94 165 104 94 165 104 94 165 104 94 165 104 94 165 104 94 165 104 94 165 104 94 165 104 94 165 104 94 165 104 94 165 104 94 165 104 94 165 104 94 165 104 94 165 104 94 165 104 94 165 104 94 165 104 94 165 104 94 165 104 94 165 104 94 213 219 211 213 219 211 213 219 211 213 219 211 213 219 211 213 219 211 139 170 182 139 170 182 139 170 182 139 170 182 139 170 182 139 170 182 139 170 182 139 170 182 139 170 182 139 170 182 139 170 182 139 170 182 139 170 182 139 170 182 139 170 182 163 106 100 163 106 100 163 106 100 163 106 100 163 106 100 163 106 100 163 106 100 163 106 100 163 106 100 163 106 100 163 106 100 163 106 100 163 106 100 163 106 100 163 106 100 163 106 100 163 106 100 163 106 100 163 106 100 163 106 100 213 219 211 213 219 211 213 219 211 213 219 211 213 219 211 151 155 149 112 92 94 112 92 94 112 92 94 112 92 94 112 92 94 112 92 94 115 93 101 115 93 101 115 93 101 115 93 101 115 93 101 115 93 101 115 93 101 115 93 101 115 93 101 115 93 101 115 93 101 115 93 101 171 113 108 171 113 108 115 93 101 115 93 101 115 93 101 115 93 101 115 93 101 115 93 101 115 93 101 115 93 101 115 93 101 115 93 101 115 93 101 115 93 101 115 93 101 115 93 101 115 93 101 115 93 101 115 93 101 115 93 101 115 93 101 115 93 101 115 93 101 115 93 101 115 93 101 115 93 101 115 93 101 115 93 101 115 93 101 115 93 101 115 93 101 115 93 101 115 93 101 115 93 101 115 93 101 115 93 101 115 93 101 115 93 101 115 93 101 115 93 101 159 196 217 159 196 217 159 196 217 159 196 217 159 196 217 159 196 217 159 196 217 159 196 217 159 196 217 159 196 217 159 196 217 159 196 217 159 196 217 159 196 217 159 196 217 159 196 217 159 196 217 159 196 217 159 196 217 159 196 217 159 196 217 159 196 217 159 196 217 159 196 217 159 196 217 159 196 217 159 196 217 159 196 217 159 196 217 159 196 217 159 196 217 159 196 217 159 196 217 159 196 217 181 172 166 165 107 96 165 107 96 165 107 96 165 107 96 165 107 96 165 107 96 165 107 96 165 107 96 165 107 96 165 107 96 165 107 96 165 107 96 165 107 96 165 107 96 165 107 96 165 107 96 165 107 96 165 107 96 165 107 96 165 107 96 165 107 96 165 107 96 165 107 96 165 107 96 165 107 96 165 107 96 165 107 96 165 107 96 165 107 96 171 108 95 171 108 95 171 108 95 171 108 95 171 108 95 171 108 95 171 108 95 171 108 95 171 108 95 171 108 95 171 108 95 171 108 95 171 108 95 171 108 95 171 108 95 171 108 95 171 108 95 171 108 95 171 108 95 171 108 95 171 108 95 171 108 95 171 108 95 171 108 95 171 108 95 171 108 95 171 108 95 171 108 95 171 108 95 171 108 95 171 108 95 171 108 95 171 108 95 171 108 95 171 108 95 171 108 95 171 108 95 171 108 95 171 108 95 165 104 94 171 108 95 171 108 95 165 104 94 165 104 94 165 104 94 165 104 94 165 104 94 165 104 94 165 104 94 165 104 94 165 104 94 165 104 94 165 104 94 165 104 94 165 104 94 165 104 94 165 104 94 165 104 94 165 104 94 165 104 94 165 104 94 165 104 94 165 104 94 165 104 94 165 104 94 165 104 94 165 104 94 165 104 94 165 104 94 165 104 94 165 104 94 165 104 94 165 104 94 165 104 94 165 104 94 165 104 94 165 104 94 165 104 94 165 104 94 165 104 94 165 104 94 165 104 94 165 104 94 165 104 94 165 104 94 165 104 94 142 137 132 213 219 211 213 219 211 213 219 211 213 219 211 213 219 211 213 219 211 139 170 182 139 170 182 139 170 182 139 170 182 139 170 182 139 170 182 139 170 182 139 170 182 139 170 182 139 170 182 139 170 182 139 170 182 139 170 182 139 170 182 139 170 182 163 106 100 163 106 100 163 106 100 163 106 100 163 106 100 163 106 100 163 106 100 163 106 100 163 106 100 163 106 100 163 106 100 163 106 100 163 106 100 163 106 100 163 106 100 163 106 100 163 106 100 163 106 100 163 106 100 163 106 100 151 155 149 213 219 211 213 219 211 213 219 211 213 219 211 213 219 211 112 92 94 112 92 94 112 92 94 112 92 94 112 92 94 115 93 101 112 92 94 115 93 101 115 93 101 115 93 101 115 93 101 115 93 101 115 93 101 115 93 101 115 93 101 115 93 101 115 93 101 115 93 101 115 93 101 115 93 101 115 93 101 115 93 101 115 93 101 115 93 101 115 93 101 115 93 101 115 93 101 115 93 101 115 93 101 115 93 101 115 93 101 115 93 101 115 93 101 115 93 101 115 93 101 115 93 101 115 93 101 115 93 101 115 93 101 115 93 101 115 93 101 115 93 101 115 93 101 115 93 101 115 93 101 115 93 101 115 93 101 115 93 101 115 93 101 115 93 101 115 93 101 115 93 101 115 93 101 115 93 101 115 93 101 115 93 101 115 93 101 115 93 101 159 196 217 159 196 217 159 196 217 159 196 217 159 196 217 159 196 217 159 196 217 159 196 217 159 196 217 159 196 217 159 196 217 159 196 217 159 196 217 159 196 217 159 196 217 159 196 217 159 196 217 159 196 217 159 196 217 159 196 217 159 196 217 159 196 217 159 196 217 159 196 217 159 196 217 159 196 217 159 196 217 159 196 217 159 196 217 159 196 217 159 196 217 159 196 217 159 196 217 159 196 217 165 107 96 165 107 96 165 107 96 165 107 96 165 107 96 165 107 96 165 107 96 165 107 96 165 107 96 165 107 96 165 107 96 165 107 96 165 107 96 165 107 96 165 107 96 165 107 96 165 107 96 165 107 96 165 107 96 165 107 96 165 107 96 165 107 96 165 107 96 165 107 96 165 107 96 165 107 96 165 107 96 165 107 96 165 107 96 171 108 95 171 108 95 171 108 95 171 108 95 171 108 95 171 108 95 171 108 95 171 108 95 171 108 95 171 108 95 171 108 95 171 108 95 171 108 95 171 108 95 171 108 95 171 108 95 171 108 95 171 108 95 171 108 95 171 108 95 171 108 95 171 108 95 171 108 95 171 108 95 171 108 95 171 108 95 171 108 95 171 108 95 171 108 95 171 108 95 171 108 95 171 108 95 171 108 95 171 108 95 171 108 95 171 108 95 171 108 95 171 108 95 171 108 95 171 108 95 171 108 95 171 108 95 171 108 95 171 108 95 165 104 94 165 104 94 165 104 94 165 104 94 165 104 94 165 104 94 165 104 94 165 104 94 165 104 94 165 104 94 165 104 94 165 104 94 165 104 94 165 104 94 165 104 94 165 104 94 165 104 94 165 104 94 165 104 94 165 104 94 165 104 94 165 104 94 165 104 94 165 104 94 165 104 94 165 104 94 165 104 94 165 104 94 165 104 94 165 104 94 165 104 94 165 104 94 165 104 94 165 104 94 165 104 94 165 104 94 165 104 94 165 104 94 165 104 94 165 104 94 165 104 94 165 104 94 165 104 94 165 104 94 213 219 211 213 219 211 213 219 211 213 219 211 213 219 211 213 219 211 139 170 182 139 170 182 139 170 182 139 170 182 139 170 182 139 170 182 139 170 182 139 170 182 139 170 182 139 170 182 139 170 182 139 170 182 139 170 182 139 170 182 139 170 182 163 106 100 163 106 100 163 106 100 163 106 100 163 106 100 163 106 100 163 106 100 163 106 100 163 106 100 163 106 100 163 106 100 163 106 100 163 106 100 163 106 100 163 106 100 163 106 100 112 92 94 112 92 94 112 92 94 112 92 94 163 106 100 213 219 211 213 219 211 213 219 211 213 219 211 213 219 211 151 155 149 112 92 94 112 92 94 112 92 94 112 92 94 112 92 94 112 92 94 112 92 94 115 93 101 115 93 101 115 93 101 115 93 101 115 93 101 115 93 101 115 93 101 115 93 101 115 93 101 115 93 101 115 93 101 115 93 101 115 93 101 115 93 101 115 93 101 115 93 101 115 93 101 115 93 101 115 93 101 115 93 101 115 93 101 115 93 101 115 93 101 115 93 101 115 93 101 115 93 101 115 93 101 115 93 101 151 155 149 171 113 108 115 93 101 115 93 101 115 93 101 115 93 101 115 93 101 115 93 101 115 93 101 115 93 101 115 93 101 115 93 101 115 93 101 115 93 101 115 93 101 115 93 101 115 93 101 115 93 101 115 93 101 115 93 101 115 93 101 115 93 101 159 196 217 159 196 217 159 196 217 159 196 217 159 196 217 159 196 217 159 196 217 159 196 217 159 196 217 159 196 217 159 196 217 159 196 217 159 196 217 159 196 217 159 196 217 159 196 217 159 196 217 159 196 217 159 196 217 159 196 217 159 196 217 159 196 217 159 196 217 159 196 217 159 196 217 159 196 217 159 196 217 159 196 217 159 196 217 159 196 217 159 196 217 159 196 217 159 196 217 159 196 217 165 107 96 165 107 96 165 107 96 165 107 96 165 107 96 165 107 96 165 107 96 165 107 96 165 107 96 165 107 96 165 107 96 165 107 96 165 107 96 165 107 96 165 107 96 165 107 96 165 107 96 165 107 96 165 107 96 165 107 96 165 107 96 165 107 96 165 107 96 165 107 96 165 107 96 165 107 96 165 107 96 165 107 96 165 107 96 165 107 96 171 108 95 171 108 95 171 108 95 171 108 95 171 108 95 171 108 95 171 108 95 171 108 95 171 108 95 171 108 95 171 108 95 171 108 95 171 108 95 171 108 95 171 108 95 171 108 95 171 108 95 171 108 95 171 108 95 171 108 95 171 108 95 171 108 95 171 108 95 171 108 95 171 108 95 171 108 95 171 108 95 171 108 95 171 108 95 171 108 95 171 108 95 171 108 95 171 108 95 171 108 95 171 108 95 168 105 92 168 105 92 171 108 95 171 108 95 171 108 95 171 108 95 171 108 95 165 104 94 165 104 94 165 104 94 165 104 94 165 104 94 165 104 94 165 104 94 165 104 94 165 104 94 165 104 94 165 104 94 165 104 94 165 104 94 165 104 94 165 104 94 165 104 94 165 104 94 165 104 94 165 104 94 165 104 94 165 104 94 165 104 94 165 104 94 165 104 94 165 104 94 165 104 94 165 104 94 165 104 94 165 104 94 165 104 94 165 104 94 165 104 94 165 104 94 165 104 94 165 104 94 165 104 94 165 104 94 165 104 94 165 104 94 165 104 94 165 104 94 165 104 94 165 104 94 165 104 94 165 104 94 213 219 211 213 219 211 213 219 211 213 219 211 213 219 211 213 219 211 139 170 182 139 170 182 139 170 182 139 170 182 139 170 182 139 170 182 139 170 182 139 170 182 139 170 182 139 170 182 139 170 182 139 170 182 139 170 182 139 170 182 139 170 182 163 106 100 163 106 100 163 106 100 163 106 100 163 106 100 163 106 100 163 106 100 163 106 100 163 106 100 163 106 100 163 106 100 163 106 100 163 106 100 163 106 100 163 106 100 163 106 100 112 92 94 112 92 94 112 92 94 112 92 94 112 92 94 213 219 211 213 219 211 213 219 211 213 219 211 213 219 211 163 106 100 112 92 94 112 92 94 112 92 94 112 92 94 112 92 94 112 92 94 115 93 101 115 93 101 115 93 101 115 93 101 115 93 101 115 93 101 115 93 101 115 93 101 115 93 101 115 93 101 115 93 101 115 93 101 115 93 101 115 93 101 115 93 101 115 93 101 115 93 101 115 93 101 115 93 101 115 93 101 115 93 101 115 93 101 115 93 101 115 93 101 115 93 101 115 93 101 115 93 101 115 93 101 115 93 101 171 113 108 115 93 101 115 93 101 115 93 101 115 93 101 115 93 101 115 93 101 115 93 101 115 93 101 115 93 101 115 93 101 115 93 101 115 93 101 115 93 101 115 93 101 115 93 101 115 93 101 115 93 101 115 93 101 115 93 101 115 93 101 115 93 101 159 196 217 159 196 217 159 196 217 159 196 217 159 196 217 159 196 217 159 196 217 159 196 217 159 196 217 159 196 217 159 196 217 159 196 217 159 196 217 159 196 217 159 196 217 159 196 217 159 196 217 159 196 217 159 196 217 159 196 217 159 196 217 159 196 217 159 196 217 159 196 217 159 196 217 159 196 217 159 196 217 159 196 217 159 196 217 159 196 217 159 196 217 159 196 217 159 196 217 159 196 217 165 107 96 165 107 96 165 107 96 165 107 96 165 107 96 165 107 96 165 107 96 165 107 96 165 107 96 165 107 96 165 107 96 165 107 96 165 107 96 165 107 96 165 107 96 165 107 96 165 107 96 165 107 96 165 107 96 165 107 96 165 107 96 165 107 96 165 107 96 165 107 96 165 107 96 165 107 96 165 107 96 165 107 96 165 107 96 171 108 95 171 108 95 171 108 95 171 108 95 171 108 95 171 108 95 171 108 95 171 108 95 171 108 95 171 108 95 171 108 95 171 108 95 171 108 95 171 108 95 171 108 95 171 108 95 171 108 95 171 108 95 171 108 95 171 108 95 171 108 95 171 108 95 171 108 95 171 108 95 171 108 95 171 108 95 171 108 95 171 108 95 171 108 95 171 108 95 171 108 95 171 108 95 171 108 95 171 108 95 171 108 95 171 108 95 171 108 95 171 108 95 171 108 95 171 108 95 168 105 92 171 108 95 171 108 95 165 104 94 165 104 94 165 104 94 165 104 94 165 104 94 165 104 94 165 104 94 165 104 94 165 104 94 165 104 94 165 104 94 165 104 94 165 104 94 165 104 94 165 104 94 165 104 94 165 104 94 165 104 94 165 104 94 165 104 94 165 104 94 165 104 94 165 104 94 165 104 94 165 104 94 165 104 94 165 104 94 165 104 94 165 104 94 165 104 94 165 104 94 165 104 94 165 104 94 165 104 94 165 104 94 165 104 94 165 104 94 165 104 94 165 104 94 165 104 94 165 104 94 165 104 94 165 104 94 165 104 94 142 137 132 213 219 211 213 219 211 213 219 211 213 219 211 213 219 211 213 219 211 139 170 182 139 170 182 139 170 182 139 170 182 139 170 182 139 170 182 139 170 182 139 170 182 139 170 182 139 170 182 139 170 182 139 170 182 139 170 182 139 170 182 139 170 182 163 106 100 163 106 100 163 106 100 163 106 100 163 106 100 163 106 100 163 106 100 163 106 100 163 106 100 163 106 100 163 106 100 163 106 100 163 106 100 163 106 100 163 106 100 112 92 94 112 92 94 112 92 94 112 92 94 112 92 94 87 56 68 151 155 149 213 219 211 213 219 211 213 219 211 151 155 149 87 56 68 65 33 59 112 92 94 112 92 94 115 93 101 115 93 101 115 93 101 115 93 101 115 93 101 115 93 101 115 93 101 115 93 101 115 93 101 115 93 101 115 93 101 115 93 101 115 93 101 115 93 101 115 93 101 115 93 101 115 93 101 115 93 101 115 93 101 115 93 101 115 93 101 115 93 101 115 93 101 115 93 101 115 93 101 115 93 101 115 93 101 115 93 101 115 93 101 115 93 101 115 93 101 115 93 101 115 93 101 115 93 101 115 93 101 115 93 101 115 93 101 115 93 101 115 93 101 115 93 101 115 93 101 115 93 101 115 93 101 115 93 101 115 93 101 115 93 101 115 93 101 115 93 101 115 93 101 115 93 101 115 93 101 115 93 101 115 93 101 115 93 101 159 196 217 159 196 217 159 196 217 159 196 217 159 196 217 159 196 217 159 196 217 159 196 217 159 196 217 159 196 217 159 196 217 159 196 217 159 196 217 159 196 217 159 196 217 159 196 217 159 196 217 159 196 217 159 196 217 159 196 217 159 196 217 159 196 217 159 196 217 159 196 217 159 196 217 159 196 217 159 196 217 159 196 217 159 196 217 159 196 217 159 196 217 159 196 217 159 196 217 159 196 217 165 107 96 165 107 96 165 107 96 165 107 96 165 107 96 165 107 96 165 107 96 165 107 96 165 107 96 165 107 96 165 107 96 165 107 96 165 107 96 165 107 96 165 107 96 165 107 96 165 107 96 165 107 96 165 107 96 165 107 96 165 107 96 165 107 96 165 107 96 165 107 96 165 107 96 165 107 96 165 107 96 165 107 96 165 107 96 165 107 96 165 107 96 165 107 96 171 108 95 171 108 95 171 108 95 171 108 95 171 108 95 171 108 95 171 108 95 171 108 95 171 108 95 171 108 95 171 108 95 171 108 95 171 108 95 171 108 95 171 108 95 171 108 95 171 108 95 171 108 95 171 108 95 171 108 95 171 108 95 171 108 95 171 108 95 171 108 95 171 108 95 171 108 95 171 108 95 171 108 95 171 108 95 171 108 95 171 108 95 171 108 95 171 108 95 171 108 95 171 108 95 171 108 95 168 105 92 168 105 92 171 108 95 171 108 95 165 104 94 165 104 94 165 104 94 165 104 94 165 104 94 165 104 94 165 104 94 165 104 94 165 104 94 165 104 94 165 104 94 165 104 94 165 104 94 165 104 94 165 104 94 165 104 94 165 104 94 165 104 94 165 104 94 165 104 94 165 104 94 165 104 94 165 104 94 165 104 94 165 104 94 165 104 94 165 104 94 165 104 94 165 104 94 165 104 94 165 104 94 165 104 94 165 104 94 165 104 94 165 104 94 165 104 94 165 104 94 165 104 94 165 104 94 165 104 94 165 104 94 165 104 94 165 104 94 165 104 94 142 137 132 213 219 211 213 219 211 213 219 211 213 219 211 213 219 211 213 219 211 139 170 182 139 170 182 139 170 182 139 170 182 139 170 182 139 170 182 139 170 182 139 170 182 139 170 182 139 170 182 139 170 182 139 170 182 139 170 182 139 170 182 139 170 182 142 137 132 163 106 100 163 106 100 163 106 100 163 106 100 163 106 100 163 106 100 163 106 100 163 106 100 163 106 100 112 92 94 112 92 94 112 92 94 112 92 94 112 92 94 112 92 94 112 92 94 112 92 94 112 92 94 87 56 68 87 56 68 87 56 68 151 155 149 151 155 149 151 155 149 112 92 94 87 56 68 87 56 68 112 92 94 112 92 94 112 92 94 115 93 101 115 93 101 115 93 101 115 93 101 115 93 101 115 93 101 115 93 101 115 93 101 115 93 101 115 93 101 115 93 101 115 93 101 115 93 101 115 93 101 115 93 101 115 93 101 115 93 101 115 93 101 115 93 101 115 93 101 115 93 101 115 93 101 115 93 101 115 93 101 115 93 101 115 93 101 115 93 101 115 93 101 115 93 101 115 93 101 115 93 101 115 93 101 115 93 101 115 93 101 115 93 101 115 93 101 115 93 101 115 93 101 115 93 101 115 93 101 115 93 101 115 93 101 115 93 101 115 93 101 115 93 101 115 93 101 115 93 101 115 93 101 115 93 101 115 93 101 115 93 101 115 93 101 115 93 101 159 196 217 159 196 217 159 196 217 159 196 217 159 196 217 159 196 217 159 196 217 159 196 217 159 196 217 159 196 217 159 196 217 159 196 217 159 196 217 159 196 217 159 196 217 159 196 217 159 196 217 159 196 217 159 196 217 159 196 217 159 196 217 159 196 217 159 196 217 159 196 217 159 196 217 159 196 217 159 196 217 159 196 217 159 196 217 159 196 217 159 196 217 159 196 217 159 196 217 159 196 217 165 107 96 165 107 96 165 107 96 165 107 96 165 107 96 165 107 96 165 107 96 165 107 96 165 107 96 165 107 96 165 107 96 165 107 96 165 107 96 165 107 96 165 107 96 165 107 96 165 107 96 165 107 96 165 107 96 165 107 96 165 107 96 165 107 96 165 107 96 165 107 96 165 107 96 165 107 96 165 107 96 165 107 96 165 107 96 165 107 96 165 107 96 171 108 95 171 108 95 171 108 95 171 108 95 171 108 95 171 108 95 171 108 95 171 108 95 171 108 95 171 108 95 171 108 95 171 108 95 171 108 95 171 108 95 171 108 95 171 108 95 171 108 95 171 108 95 171 108 95 171 108 95 171 108 95 171 108 95 171 108 95 171 108 95 171 108 95 171 108 95 171 108 95 171 108 95 171 108 95 171 108 95 171 108 95 168 105 92 171 108 95 168 105 92 168 105 92 168 105 92 168 105 92 168 105 92 168 105 92 168 105 92 168 105 92 165 104 94 165 104 94 165 104 94 165 104 94 165 104 94 165 104 94 165 104 94 165 104 94 165 104 94 165 104 94 165 104 94 165 104 94 165 104 94 165 104 94 165 104 94 165 104 94 165 104 94 165 104 94 165 104 94 165 104 94 165 104 94 165 104 94 165 104 94 165 104 94 165 104 94 165 104 94 165 104 94 165 104 94 165 104 94 165 104 94 165 104 94 165 104 94 165 104 94 165 104 94 165 104 94 165 104 94 165 104 94 165 104 94 165 104 94 165 104 94 165 104 94 165 104 94 165 104 94 165 104 94 142 137 132 213 219 211 213 219 211 213 219 211 213 219 211 213 219 211 213 219 211 139 170 182 139 170 182 139 170 182 139 170 182 139 170 182 139 170 182 139 170 182 139 170 182 139 170 182 139 170 182 139 170 182 139 170 182 139 170 182 139 170 182 139 170 182 142 137 132 163 106 100 112 92 94 112 92 94 112 92 94 112 92 94 112 92 94 112 92 94 112 92 94 112 92 94 112 92 94 112 92 94 112 92 94 112 92 94 112 92 94 112 92 94 112 92 94 112 92 94 112 92 94 112 92 94 112 92 94 112 92 94 112 92 94 112 92 94 112 92 94 112 92 94 112 92 94 112 92 94 112 92 94 112 92 94 112 92 94 112 92 94 115 93 101 115 93 101 115 93 101 115 93 101 115 93 101 115 93 101 115 93 101 115 93 101 115 93 101 115 93 101 115 93 101 115 93 101 115 93 101 115 93 101 115 93 101 115 93 101 115 93 101 115 93 101 115 93 101 115 93 101 115 93 101 115 93 101 115 93 101 115 93 101 115 93 101 115 93 101 115 93 101 115 93 101 115 93 101 115 93 101 115 93 101 115 93 101 115 93 101 115 93 101 115 93 101 115 93 101 115 93 101 115 93 101 115 93 101 115 93 101 115 93 101 115 93 101 115 93 101 115 93 101 115 93 101 115 93 101 115 93 101 115 93 101 115 93 101 115 93 101 115 93 101 115 93 101 159 196 217 159 196 217 159 196 217 159 196 217 159 196 217 159 196 217 159 196 217 159 196 217 159 196 217 159 196 217 159 196 217 159 196 217 159 196 217 159 196 217 159 196 217 159 196 217 159 196 217 159 196 217 159 196 217 159 196 217 159 196 217 159 196 217 159 196 217 159 196 217 159 196 217 159 196 217 159 196 217 159 196 217 159 196 217 159 196 217 159 196 217 159 196 217 159 196 217 159 196 217 165 107 96 165 107 96 165 107 96 165 107 96 165 107 96 165 107 96 165 107 96 165 107 96 165 107 96 165 107 96 165 107 96 165 107 96 165 107 96 165 107 96 165 107 96 165 107 96 165 107 96 165 107 96 165 107 96 165 107 96 165 107 96 165 107 96 165 107 96 165 107 96 165 107 96 165 107 96 165 107 96 165 107 96 165 107 96 165 107 96 165 107 96 171 108 95 165 107 96 171 108 95 171 108 95 171 108 95 171 108 95 171 108 95 171 108 95 171 108 95 171 108 95 171 108 95 171 108 95 171 108 95 171 108 95 171 108 95 171 108 95 171 108 95 171 108 95 171 108 95 171 108 95 171 108 95 171 108 95 171 108 95 171 108 95 171 108 95 171 108 95 171 108 95 171 108 95 171 108 95 171 108 95 168 105 92 171 108 95 171 108 95 171 108 95 171 108 95 168 105 92 171 108 95 168 105 92 168 105 92 171 108 95 171 108 95 168 105 92 165 104 94 165 104 94 165 104 94 165 104 94 165 104 94 165 104 94 165 104 94 165 104 94 165 104 94 165 104 94 165 104 94 165 104 94 165 104 94 165 104 94 165 104 94 165 104 94 165 104 94 165 104 94 165 104 94 165 104 94 165 104 94 165 104 94 165 104 94 165 104 94 165 104 94 165 104 94 165 104 94 165 104 94 165 104 94 165 104 94 165 104 94 165 104 94 165 104 94 165 104 94 165 104 94 165 104 94 165 104 94 165 104 94 165 104 94 165 104 94 165 104 94 165 104 94 165 104 94 142 137 132 213 219 211 213 219 211 213 219 211 213 219 211 213 219 211 213 219 211 139 170 182 139 170 182 139 170 182 139 170 182 139 170 182 139 170 182 139 170 182 139 170 182 139 170 182 139 170 182 139 170 182 139 170 182 139 170 182 139 170 182 139 170 182 112 92 94 112 92 94 112 92 94 112 92 94 112 92 94 112 92 94 112 92 94 112 92 94 112 92 94 112 92 94 112 92 94 112 92 94 112 92 94 112 92 94 112 92 94 112 92 94 112 92 94 112 92 94 112 92 94 112 92 94 112 92 94 163 106 100 112 92 94 112 92 94 112 92 94 112 92 94 112 92 94 112 92 94 112 92 94 112 92 94 112 92 94 112 92 94 112 92 94 115 93 101 115 93 101 115 93 101 115 93 101 115 93 101 115 93 101 115 93 101 115 93 101 115 93 101 115 93 101 115 93 101 115 93 101 115 93 101 115 93 101 115 93 101 115 93 101 115 93 101 115 93 101 115 93 101 115 93 101 115 93 101 115 93 101 115 93 101 115 93 101 115 93 101 115 93 101 115 93 101 115 93 101 115 93 101 115 93 101 115 93 101 115 93 101 115 93 101 115 93 101 115 93 101 115 93 101 115 93 101 115 93 101 115 93 101 115 93 101 115 93 101 115 93 101 115 93 101 115 93 101 115 93 101 115 93 101 115 93 101 115 93 101 115 93 101 115 93 101 115 93 101 159 196 217 159 196 217 159 196 217 159 196 217 159 196 217 159 196 217 159 196 217 159 196 217 159 196 217 159 196 217 159 196 217 159 196 217 159 196 217 159 196 217 159 196 217 159 196 217 159 196 217 159 196 217 159 196 217 159 196 217 159 196 217 159 196 217 159 196 217 159 196 217 159 196 217 159 196 217 159 196 217 159 196 217 159 196 217 159 196 217 159 196 217 159 196 217 159 196 217 159 196 217 165 107 96 165 107 96 165 107 96 165 107 96 165 107 96 165 107 96 165 107 96 165 107 96 165 107 96 165 107 96 165 107 96 165 107 96 165 107 96 165 107 96 165 107 96 165 107 96 165 107 96 165 107 96 165 107 96 165 107 96 165 107 96 165 107 96 165 107 96 165 107 96 165 107 96 165 107 96 165 107 96 165 107 96 165 107 96 165 107 96 165 107 96 165 107 96 165 107 96 171 108 95 171 108 95 171 108 95 171 108 95 171 108 95 171 108 95 171 108 95 171 108 95 171 108 95 171 108 95 171 108 95 171 108 95 171 108 95 171 108 95 171 108 95 171 108 95 171 108 95 171 108 95 171 108 95 171 108 95 171 108 95 171 108 95 171 108 95 171 108 95 171 108 95 171 108 95 171 108 95 171 108 95 168 105 92 168 105 92 168 105 92 168 105 92 168 105 92 168 105 92 168 105 92 168 105 92 168 105 92 171 108 95 168 105 92 168 105 92 168 105 92 165 104 94 165 104 94 165 104 94 165 104 94 165 104 94 165 104 94 165 104 94 165 104 94 165 104 94 165 104 94 165 104 94 165 104 94 165 104 94 165 104 94 165 104 94 165 104 94 165 104 94 165 104 94 165 104 94 165 104 94 165 104 94 165 104 94 165 104 94 165 104 94 165 104 94 165 104 94 165 104 94 165 104 94 165 104 94 165 104 94 165 104 94 165 104 94 165 104 94 165 104 94 165 104 94 165 104 94 165 104 94 165 104 94 165 104 94 165 104 94 165 104 94 165 104 94 142 137 132 213 219 211 213 219 211 213 219 211 213 219 211 213 219 211 213 219 211 139 170 182 139 170 182 139 170 182 139 170 182 139 170 182 139 170 182 139 170 182 139 170 182 139 170 182 139 170 182 139 170 182 139 170 182 139 170 182 139 170 182 139 170 182 112 92 94 112 92 94 112 92 94 112 92 94 112 92 94 112 92 94 112 92 94 112 92 94 112 92 94 112 92 94 112 92 94 112 92 94 112 92 94 112 92 94 112 92 94 112 92 94 87 56 68 87 56 68 112 92 94 112 92 94 112 92 94 112 92 94 112 92 94 112 92 94 112 92 94 112 92 94 112 92 94 112 92 94 112 92 94 112 92 94 112 92 94 112 92 94 112 92 94 115 93 101 115 93 101 115 93 101 115 93 101 115 93 101 115 93 101 115 93 101 115 93 101 115 93 101 115 93 101 115 93 101 115 93 101 115 93 101 115 93 101 115 93 101 115 93 101 115 93 101 115 93 101 115 93 101 115 93 101 115 93 101 115 93 101 115 93 101 115 93 101 115 93 101 115 93 101 115 93 101 115 93 101 115 93 101 115 93 101 115 93 101 115 93 101 115 93 101 115 93 101 115 93 101 115 93 101 115 93 101 115 93 101 115 93 101 115 93 101 115 93 101 115 93 101 115 93 101 115 93 101 115 93 101 115 93 101 151 155 149 115 93 101 115 93 101 115 93 101 115 93 101 158 194 216 158 194 216 158 194 216 158 194 216 158 194 216 158 194 216 158 194 216 158 194 216 158 194 216 159 196 217 159 196 217 159 196 217 159 196 217 159 196 217 159 196 217 159 196 217 159 196 217 159 196 217 159 196 217 159 196 217 159 196 217 159 196 217 159 196 217 159 196 217 159 196 217 159 196 217 159 196 217 159 196 217 159 196 217 159 196 217 159 196 217 159 196 217 159 196 217 181 172 166 165 107 96 165 107 96 165 107 96 165 107 96 165 107 96 165 107 96 165 107 96 165 107 96 165 107 96 165 107 96 165 107 96 165 107 96 165 107 96 165 107 96 165 107 96 165 107 96 165 107 96 165 107 96 165 107 96 165 107 96 165 107 96 165 107 96 165 107 96 165 107 96 165 107 96 165 107 96 165 107 96 165 107 96 165 107 96 165 107 96 165 107 96 165 107 96 165 107 96 171 108 95 171 108 95 171 108 95 171 108 95 171 108 95 171 108 95 171 108 95 171 108 95 171 108 95 171 108 95 171 108 95 171 108 95 171 108 95 171 108 95 171 108 95 171 108 95 171 108 95 171 108 95 171 108 95 171 108 95 171 108 95 171 108 95 171 108 95 171 108 95 171 108 95 171 108 95 171 108 95 171 108 95 168 105 92 168 105 92 168 105 92 168 105 92 168 105 92 168 105 92 168 105 92 168 105 92 168 105 92 168 105 92 168 105 92 168 105 92 168 105 92 168 105 92 165 104 94 165 104 94 165 104 94 165 104 94 165 104 94 165 104 94 165 104 94 165 104 94 165 104 94 165 104 94 165 104 94 165 104 94 165 104 94 165 104 94 165 104 94 165 104 94 165 104 94 165 104 94 165 104 94 165 104 94 165 104 94 165 104 94 165 104 94 165 104 94 165 104 94 165 104 94 165 104 94 165 104 94 165 104 94 165 104 94 165 104 94 165 104 94 165 104 94 165 104 94 165 104 94 165 104 94 165 104 94 165 104 94 165 104 94 165 104 94 142 137 132 142 137 132 213 219 211 213 219 211 213 219 211 213 219 211 213 219 211 213 219 211 139 170 182 139 170 182 139 170 182 139 170 182 139 170 182 139 170 182 139 170 182 139 170 182 139 170 182 139 170 182 139 170 182 139 170 182 139 170 182 139 170 182 139 170 182 112 92 94 112 92 94 112 92 94 112 92 94 112 92 94 112 92 94 112 92 94 112 92 94 112 92 94 112 92 94 112 92 94 112 92 94 112 92 94 112 92 94 112 92 94 112 92 94 112 92 94 112 92 94 112 92 94 112 92 94 112 92 94 112 92 94 112 92 94 112 92 94 112 92 94 112 92 94 112 92 94 112 92 94 112 92 94 112 92 94 112 92 94 112 92 94 115 93 101 115 93 101 115 93 101 115 93 101 115 93 101 115 93 101 115 93 101 115 93 101 115 93 101 115 93 101 115 93 101 115 93 101 115 93 101 115 93 101 115 93 101 115 93 101 115 93 101 115 93 101 115 93 101 115 93 101 115 93 101 115 93 101 115 93 101 115 93 101 115 93 101 115 93 101 115 93 101 115 93 101 115 93 101 115 93 101 115 93 101 115 93 101 115 93 101 115 93 101 115 93 101 115 93 101 115 93 101 115 93 101 115 93 101 115 93 101 115 93 101 151 155 149 151 155 149 151 155 149 151 155 149 151 155 149 151 155 149 151 155 149 151 155 149 151 155 149 151 155 149 151 155 149 158 194 216 158 194 216 158 194 216 158 194 216 158 194 216 158 194 216 158 194 216 158 194 216 158 194 216 158 194 216 158 194 216 158 194 216 158 194 216 158 194 216 158 194 216 158 194 216 158 194 216 158 194 216 159 196 217 159 196 217 159 196 217 159 196 217 159 196 217 159 196 217 159 196 217 159 196 217 159 196 217 159 196 217 159 196 217 159 196 217 159 196 217 159 196 217 159 196 217 181 172 166 165 107 96 165 107 96 165 107 96 165 107 96 165 107 96 165 107 96 165 107 96 165 107 96 165 107 96 165 107 96 165 107 96 165 107 96 165 107 96 165 107 96 165 107 96 165 107 96 165 107 96 165 107 96 165 107 96 165 107 96 165 107 96 165 107 96 165 107 96 165 107 96 165 107 96 165 107 96 165 107 96 165 107 96 165 107 96 165 107 96 165 107 96 165 107 96 165 107 96 165 107 96 165 107 96 171 108 95 171 108 95 171 108 95 171 108 95 171 108 95 171 108 95 171 108 95 171 108 95 171 108 95 171 108 95 171 108 95 171 108 95 171 108 95 171 108 95 171 108 95 171 108 95 171 108 95 171 108 95 171 108 95 171 108 95 171 108 95 171 108 95 171 108 95 171 108 95 171 108 95 168 105 92 168 105 92 168 105 92 168 105 92 168 105 92 168 105 92 168 105 92 168 105 92 168 105 92 168 105 92 168 105 92 168 105 92 168 105 92 168 105 92 168 105 92 168 105 92 165 104 94 165 104 94 165 104 94 165 104 94 165 104 94 165 104 94 165 104 94 165 104 94 165 104 94 165 104 94 165 104 94 165 104 94 165 104 94 165 104 94 165 104 94 165 104 94 165 104 94 165 104 94 165 104 94 165 104 94 165 104 94 165 104 94 165 104 94 165 104 94 165 104 94 165 104 94 165 104 94 165 104 94 165 104 94 165 104 94 165 104 94 165 104 94 165 104 94 165 104 94 165 104 94 165 104 94 165 104 94 165 104 94 165 104 94 142 137 132 142 137 132 213 219 211 213 219 211 213 219 211 213 219 211 213 219 211 213 219 211 139 170 182 139 170 182 139 170 182 139 170 182 139 170 182 139 170 182 139 170 182 139 170 182 139 170 182 139 170 182 139 170 182 139 170 182 139 170 182 139 170 182 142 137 132 112 92 94 112 92 94 112 92 94 142 137 132 112 92 94 142 137 132 112 92 94 112 92 94 112 92 94 112 92 94 112 92 94 112 92 94 112 92 94 112 92 94 112 92 94 112 92 94 112 92 94 112 92 94 112 92 94 112 92 94 112 92 94 112 92 94 112 92 94 112 92 94 112 92 94 112 92 94 112 92 94 112 92 94 112 92 94 112 92 94 112 92 94 112 92 94 112 92 94 115 93 101 115 93 101 115 93 101 115 93 101 115 93 101 115 93 101 115 93 101 115 93 101 115 93 101 115 93 101 115 93 101 115 93 101 115 93 101 115 93 101 115 93 101 115 93 101 115 93 101 115 93 101 115 93 101 115 93 101 115 93 101 115 93 101 115 93 101 115 93 101 115 93 101 115 93 101 115 93 101 115 93 101 115 93 101 115 93 101 115 93 101 115 93 101 115 93 101 151 155 149 151 155 149 151 155 149 151 155 149 151 155 149 151 155 149 213 219 211 151 155 149 151 155 149 151 155 149 151 155 149 151 155 149 151 155 149 151 155 149 151 155 149 213 219 211 213 219 211 213 219 211 158 194 216 158 194 216 158 194 216 158 194 216 158 194 216 158 194 216 158 194 216 158 194 216 158 194 216 158 194 216 158 194 216 158 194 216 158 194 216 158 194 216 158 194 216 158 194 216 158 194 216 158 194 216 158 194 216 158 194 216 158 194 216 158 194 216 158 194 216 158 194 216 159 196 217 159 196 217 159 196 217 159 196 217 159 196 217 159 196 217 159 196 217 159 196 217 159 196 217 181 172 166 165 107 96 165 107 96 165 107 96 165 107 96 165 107 96 165 107 96 165 107 96 165 107 96 165 107 96 165 107 96 165 107 96 165 107 96 165 107 96 165 107 96 165 107 96 165 107 96 165 107 96 165 107 96 165 107 96 165 107 96 165 107 96 165 107 96 165 107 96 165 107 96 165 107 96 165 107 96 165 107 96 165 107 96 165 107 96 165 107 96 165 107 96 165 107 96 165 107 96 165 107 96 171 108 95 171 108 95 171 108 95 171 108 95 171 108 95 171 108 95 171 108 95 171 108 95 171 108 95 171 108 95 171 108 95 171 108 95 171 108 95 171 108 95 171 108 95 171 108 95 171 108 95 171 108 95 171 108 95 171 108 95 171 108 95 171 108 95 171 108 95 171 108 95 171 108 95 168 105 92 168 105 92 168 105 92 168 105 92 168 105 92 168 105 92 168 105 92 168 105 92 168 105 92 168 105 92 168 105 92 168 105 92 168 105 92 168 105 92 168 105 92 168 105 92 168 105 92 165 104 94 165 104 94 165 104 94 165 104 94 165 104 94 165 104 94 165 104 94 165 104 94 165 104 94 165 104 94 165 104 94 165 104 94 165 104 94 165 104 94 165 104 94 165 104 94 165 104 94 165 104 94 165 104 94 165 104 94 165 104 94 165 104 94 165 104 94 165 104 94 165 104 94 165 104 94 165 104 94 165 104 94 165 104 94 165 104 94 165 104 94 165 104 94 165 104 94 165 104 94 165 104 94 165 104 94 165 104 94 165 104 94 165 104 94 142 137 132 142 137 132 213 219 211 213 219 211 213 219 211 213 219 211 213 219 211 213 219 211 139 170 182 139 170 182 139 170 182 139 170 182 139 170 182 139 170 182 139 170 182 139 170 182 139 170 182 139 170 182 139 170 182 142 137 132 142 137 132 112 92 94 112 92 94 112 92 94 112 92 94 112 92 94 112 92 94 112 92 94 112 92 94 112 92 94 112 92 94 112 92 94 112 92 94 112 92 94 112 92 94 112 92 94 112 92 94 112 92 94 112 92 94 112 92 94 112 92 94 112 92 94 112 92 94 112 92 94 112 92 94 112 92 94 112 92 94 112 92 94 112 92 94 112 92 94 112 92 94 112 92 94 112 92 94 112 92 94 112 92 94 112 92 94 112 92 94 112 92 94 112 92 94 115 93 101 115 93 101 115 93 101 115 93 101 115 93 101 115 93 101 115 93 101 115 93 101 115 93 101 115 93 101 115 93 101 115 93 101 115 93 101 115 93 101 115 93 101 115 93 101 115 93 101 115 93 101 115 93 101 115 93 101 115 93 101 115 93 101 115 93 101 151 155 149 151 155 149 151 155 149 151 155 149 151 155 149 151 155 149 151 155 149 151 155 149 213 219 211 151 155 149 151 155 149 151 155 149 151 155 149 151 155 149 151 155 149 151 155 149 151 155 149 151 155 149 151 155 149 151 155 149 151 155 149 151 155 149 213 219 211 213 219 211 213 219 211 158 194 216 158 194 216 158 194 216 158 194 216 158 194 216 158 194 216 158 194 216 158 194 216 158 194 216 158 194 216 158 194 216 158 194 216 158 194 216 158 194 216 158 194 216 158 194 216 158 194 216 158 194 216 158 194 216 158 194 216 158 194 216 158 194 216 158 194 216 158 194 216 158 194 216 158 194 216 158 194 216 158 194 216 158 194 216 158 194 216 158 194 216 159 196 217 159 196 217 181 172 166 165 107 96 165 107 96 165 107 96 165 107 96 165 107 96 165 107 96 165 107 96 165 107 96 165 107 96 165 107 96 165 107 96 165 107 96 165 107 96 165 107 96 165 107 96 165 107 96 165 107 96 165 107 96 165 107 96 165 107 96 165 107 96 165 107 96 165 107 96 165 107 96 165 107 96 165 107 96 165 107 96 165 107 96 165 107 96 165 107 96 165 107 96 165 107 96 165 107 96 165 107 96 165 107 96 171 108 95 165 107 96 165 107 96 171 108 95 171 108 95 171 108 95 171 108 95 171 108 95 171 108 95 171 108 95 171 108 95 171 108 95 171 108 95 171 108 95 171 108 95 168 105 92 168 105 92 168 105 92 168 105 92 171 108 95 171 108 95 171 108 95 171 108 95 168 105 92 168 105 92 168 105 92 168 105 92 168 105 92 168 105 92 168 105 92 168 105 92 168 105 92 168 105 92 168 105 92 168 105 92 168 105 92 168 105 92 168 105 92 168 105 92 168 105 92 168 105 92 165 104 94 165 104 94 165 104 94 165 104 94 165 104 94 165 104 94 165 104 94 165 104 94 165 104 94 165 104 94 165 104 94 165 104 94 165 104 94 165 104 94 165 104 94 165 104 94 165 104 94 165 104 94 165 104 94 165 104 94 165 104 94 165 104 94 165 104 94 165 104 94 165 104 94 165 104 94 165 104 94 165 104 94 165 104 94 165 104 94 165 104 94 165 104 94 165 104 94 165 104 94 165 104 94 165 104 94 165 104 94 165 104 94 165 104 94 142 137 132 142 137 132 213 219 211 213 219 211 213 219 211 213 219 211 213 219 211 213 219 211 213 219 211 139 170 182 139 170 182 139 170 182 139 170 182 139 170 182 139 170 182 139 170 182 142 137 132 112 92 94 112 92 94 142 137 132 112 92 94 112 92 94 112 92 94 112 92 94 112 92 94 112 92 94 112 92 94 112 92 94 112 92 94 112 92 94 112 92 94 112 92 94 112 92 94 112 92 94 112 92 94 112 92 94 112 92 94 112 92 94 112 92 94 112 92 94 112 92 94 112 92 94 112 92 94 112 92 94 112 92 94 112 92 94 112 92 94 112 92 94 112 92 94 112 92 94 112 92 94 112 92 94 112 92 94 112 92 94 112 92 94 112 92 94 112 92 94 112 92 94 115 93 101 115 93 101 115 93 101 115 93 101 115 93 101 115 93 101 115 93 101 115 93 101 115 93 101 115 93 101 115 93 101 115 93 101 115 93 101 115 93 101 115 93 101 115 93 101 115 93 101 151 155 149 151 155 149 151 155 149 151 155 149 151 155 149 151 155 149 213 219 211 213 219 211 213 219 211 213 219 211 151 155 149 151 155 149 151 155 149 151 155 149 151 155 149 151 155 149 151 155 149 151 155 149 151 155 149 151 155 149 151 155 149 151 155 149 151 155 149 151 155 149 151 155 149 151 155 149 151 155 149 151 155 149 151 155 149 151 155 149 213 219 211 213 219 211 158 194 216 158 194 216 158 194 216 158 194 216 158 194 216 158 194 216 158 194 216 158 194 216 158 194 216 158 194 216 158 194 216 158 194 216 158 194 216 158 194 216 158 194 216 158 194 216 158 194 216 158 194 216 158 194 216 158 194 216 158 194 216 158 194 216 158 194 216 158 194 216 158 194 216 158 194 216 158 194 216 158 194 216 158 194 216 158 194 216 158 194 216 158 194 216 158 194 216 181 172 166 165 107 96 165 107 96 165 107 96 165 107 96 165 107 96 165 107 96 165 107 96 165 107 96 165 107 96 165 107 96 165 107 96 165 107 96 165 107 96 165 107 96 165 107 96 165 107 96 165 107 96 165 107 96 165 107 96 165 107 96 165 107 96 165 107 96 165 107 96 165 107 96 165 107 96 165 107 96 165 107 96 165 107 96 165 107 96 165 107 96 165 107 96 165 107 96 165 107 96 165 107 96 165 107 96 165 107 96 171 108 95 171 108 95 171 108 95 171 108 95 171 108 95 171 108 95 171 108 95 171 108 95 171 108 95 171 108 95 168 105 92 171 108 95 171 108 95 171 108 95 168 105 92 168 105 92 168 105 92 171 108 95 168 105 92 171 108 95 171 108 95 168 105 92 168 105 92 168 105 92 168 105 92 168 105 92 168 105 92 168 105 92 168 105 92 168 105 92 168 105 92 168 105 92 168 105 92 168 105 92 168 105 92 168 105 92 168 105 92 168 105 92 168 105 92 168 105 92 168 105 92 165 104 94 165 104 94 165 104 94 165 104 94 165 104 94 165 104 94 165 104 94 165 104 94 165 104 94 165 104 94 165 104 94 165 104 94 165 104 94 165 104 94 165 104 94 165 104 94 165 104 94 165 104 94 165 104 94 165 104 94 165 104 94 165 104 94 165 104 94 165 104 94 165 104 94 165 104 94 165 104 94 165 104 94 165 104 94 165 104 94 165 104 94 165 104 94 165 104 94 165 104 94 165 104 94 165 104 94 165 104 94 165 104 94 165 104 94 142 137 132 213 219 211 213 219 211 213 219 211 213 219 211 213 219 211 213 219 211 139 170 182 139 170 182 139 170 182 142 137 132 142 137 132 142 137 132 142 137 132 112 92 94 112 92 94 112 92 94 112 92 94 112 92 94 112 92 94 112 92 94 112 92 94 112 92 94 112 92 94 112 92 94 112 92 94 112 92 94 112 92 94 112 92 94 112 92 94 112 92 94 112 92 94 112 92 94 112 92 94 112 92 94 112 92 94 112 92 94 112 92 94 112 92 94 112 92 94 112 92 94 112 92 94 112 92 94 112 92 94 112 92 94 112 92 94 112 92 94 112 92 94 112 92 94 112 92 94 112 92 94 112 92 94 112 92 94 112 92 94 112 92 94 112 92 94 112 92 94 112 92 94 87 56 68 87 56 68 115 93 101 115 93 101 115 93 101 115 93 101 115 93 101 115 93 101 115 93 101 115 93 101 151 155 149 151 155 149 151 155 149 151 155 149 151 155 149 213 219 211 213 219 211 213 219 211 213 219 211 151 155 149 151 155 149 151 155 149 151 155 149 151 155 149 151 155 149 151 155 149 151 155 149 151 155 149 151 155 149 151 155 149 151 155 149 151 155 149 151 155 149 151 155 149 151 155 149 151 155 149 151 155 149 151 155 149 151 155 149 151 155 149 151 155 149 151 155 149 151 155 149 151 155 149 151 155 149 151 155 149 213 219 211 213 219 211 158 194 216 158 194 216 158 194 216 158 194 216 158 194 216 158 194 216 158 194 216 158 194 216 158 194 216 158 194 216 158 194 216 158 194 216 158 194 216 158 194 216 158 194 216 158 194 216 158 194 216 158 194 216 158 194 216 158 194 216 158 194 216 158 194 216 158 194 216 158 194 216 158 194 216 158 194 216 158 194 216 158 194 216 158 194 216 158 194 216 158 194 216 158 194 216 158 194 216 181 172 166 165 107 96 165 107 96 165 107 96 165 107 96 165 107 96 165 107 96 165 107 96 165 107 96 165 107 96 165 107 96 165 107 96 165 107 96 165 107 96 165 107 96 165 107 96 165 107 96 165 107 96 165 107 96 165 107 96 165 107 96 165 107 96 165 107 96 165 107 96 165 107 96 165 107 96 165 107 96 165 107 96 165 107 96 165 107 96 165 107 96 165 107 96 165 107 96 165 107 96 165 107 96 165 107 96 165 107 96 165 107 96 171 108 95 165 107 96 171 108 95 171 108 95 171 108 95 171 108 95 171 108 95 171 108 95 171 108 95 171 108 95 171 108 95 171 108 95 171 108 95 171 108 95 171 108 95 168 105 92 168 105 92 171 108 95 171 108 95 171 108 95 168 105 92 168 105 92 168 105 92 168 105 92 168 105 92 168 105 92 168 105 92 168 105 92 168 105 92 168 105 92 168 105 92 168 105 92 168 105 92 168 105 92 168 105 92 168 105 92 168 105 92 168 105 92 168 105 92 168 105 92 168 105 92 165 104 94 165 104 94 165 104 94 165 104 94 165 104 94 165 104 94 165 104 94 165 104 94 165 104 94 165 104 94 165 104 94 165 104 94 165 104 94 165 104 94 165 104 94 165 104 94 165 104 94 165 104 94 165 104 94 165 104 94 165 104 94 165 104 94 165 104 94 165 104 94 165 104 94 165 104 94 165 104 94 165 104 94 165 104 94 165 104 94 165 104 94 165 104 94 165 104 94 165 104 94 165 104 94 165 104 94 165 104 94 142 137 132 142 137 132 213 219 211 213 219 211 213 219 211 213 219 211 213 219 211 213 219 211 139 170 182 142 137 132 142 137 132 112 92 94 112 92 94 112 92 94 112 92 94 112 92 94 112 92 94 112 92 94 112 92 94 112 92 94 112 92 94 112 92 94 112 92 94 112 92 94 112 92 94 112 92 94 112 92 94 112 92 94 112 92 94 112 92 94 112 92 94 112 92 94 112 92 94 112 92 94 112 92 94 112 92 94 112 92 94 112 92 94 112 92 94 112 92 94 112 92 94 112 92 94 112 92 94 112 92 94 112 92 94 112 92 94 112 92 94 112 92 94 112 92 94 112 92 94 112 92 94 112 92 94 112 92 94 112 92 94 112 92 94 112 92 94 87 56 68 87 56 68 87 56 68 112 92 94 115 93 101 115 93 101 151 155 149 151 155 149 151 155 149 151 155 149 151 155 149 213 219 211 213 219 211 213 219 211 213 219 211 213 219 211 151 155 149 151 155 149 151 155 149 151 155 149 151 155 149 151 155 149 151 155 149 151 155 149 151 155 149 151 155 149 151 155 149 151 155 149 151 155 149 151 155 149 151 155 149 151 155 149 151 155 149 151 155 149 151 155 149 151 155 149 151 155 149 151 155 149 151 155 149 151 155 149 151 155 149 151 155 149 151 155 149 151 155 149 151 155 149 115 93 101 115 93 101 115 93 101 115 93 101 151 155 149 151 155 149 158 194 216 158 194 216 158 194 216 158 194 216 158 194 216 158 194 216 158 194 216 158 194 216 158 194 216 158 194 216 158 194 216 158 194 216 158 194 216 158 194 216 158 194 216 158 194 216 158 194 216 158 194 216 158 194 216 158 194 216 158 194 216 158 194 216 158 194 216 158 194 216 158 194 216 158 194 216 158 194 216 158 194 216 158 194 216 158 194 216 158 194 216 158 194 216 158 194 216 181 172 166 165 107 96 165 107 96 165 107 96 165 107 96 165 107 96 165 107 96 165 107 96 165 107 96 165 107 96 165 107 96 165 107 96 165 107 96 165 107 96 165 107 96 165 107 96 165 107 96 165 107 96 165 107 96 165 107 96 165 107 96 165 107 96 165 107 96 165 107 96 165 107 96 165 107 96 165 107 96 165 107 96 165 107 96 165 107 96 165 107 96 165 107 96 165 107 96 165 107 96 165 107 96 165 107 96 165 107 96 165 107 96 165 107 96 171 108 95 171 108 95 171 108 95 171 108 95 171 108 95 171 108 95 171 108 95 171 108 95 171 108 95 171 108 95 168 105 92 168 105 92 168 105 92 168 105 92 168 105 92 168 105 92 168 105 92 168 105 92 168 105 92 168 105 92 168 105 92 168 105 92 168 105 92 168 105 92 168 105 92 168 105 92 168 105 92 168 105 92 168 105 92 168 105 92 168 105 92 168 105 92 168 105 92 168 105 92 168 105 92 168 105 92 168 105 92 168 105 92 168 105 92 168 105 92 165 104 94 165 104 94 165 104 94 165 104 94 165 104 94 165 104 94 165 104 94 165 104 94 165 104 94 165 104 94 165 104 94 165 104 94 165 104 94 165 104 94 165 104 94 165 104 94 165 104 94 165 104 94 165 104 94 165 104 94 165 104 94 165 104 94 165 104 94 165 104 94 165 104 94 165 104 94 165 104 94 165 104 94 165 104 94 165 104 94 165 104 94 165 104 94 165 104 94 165 104 94 165 104 94 165 104 94 165 104 94 142 137 132 142 137 132 213 219 211 213 219 211 213 219 211 213 219 211 213 219 211 142 137 132 142 137 132 112 92 94 112 92 94 112 92 94 112 92 94 112 92 94 112 92 94 112 92 94 112 92 94 112 92 94 112 92 94 112 92 94 112 92 94 112 92 94 112 92 94 112 92 94 112 92 94 112 92 94 112 92 94 112 92 94 112 92 94 112 92 94 112 92 94 112 92 94 112 92 94 112 92 94 112 92 94 112 92 94 112 92 94 112 92 94 112 92 94 112 92 94 112 92 94 112 92 94 112 92 94 112 92 94 112 92 94 112 92 94 112 92 94 112 92 94 112 92 94 112 92 94 112 92 94 112 92 94 112 92 94 112 92 94 115 93 101 151 155 149 151 155 149 151 155 149 151 155 149 213 219 211 213 219 211 213 219 211 213 219 211 213 219 211 213 219 211 151 155 149 151 155 149 151 155 149 151 155 149 151 155 149 151 155 149 151 155 149 151 155 149 151 155 149 151 155 149 151 155 149 151 155 149 151 155 149 151 155 149 151 155 149 151 155 149 151 155 149 151 155 149 151 155 149 151 155 149 151 155 149 151 155 149 151 155 149 151 155 149 151 155 149 151 155 149 151 155 149 151 155 149 115 93 101 115 93 101 115 93 101 115 93 101 115 93 101 115 93 101 115 93 101 115 93 101 96 66 77 115 93 101 115 93 101 115 93 101 115 93 101 151 155 149 158 194 216 158 194 216 158 194 216 158 194 216 158 194 216 158 194 216 158 194 216 158 194 216 158 194 216 158 194 216 158 194 216 158 194 216 158 194 216 158 194 216 158 194 216 158 194 216 158 194 216 158 194 216 158 194 216 158 194 216 158 194 216 158 194 216 158 194 216 158 194 216 158 194 216 158 194 216 158 194 216 158 194 216 158 194 216 158 194 216 158 194 216 158 194 216 158 194 216 181 172 166 165 107 96 165 107 96 165 107 96 165 107 96 165 107 96 165 107 96 165 107 96 165 107 96 165 107 96 165 107 96 165 107 96 165 107 96 165 107 96 165 107 96 165 107 96 165 107 96 165 107 96 165 107 96 165 107 96 165 107 96 165 107 96 165 107 96 165 107 96 165 107 96 165 107 96 165 107 96 165 107 96 165 107 96 165 107 96 165 107 96 165 107 96 165 107 96 165 107 96 165 107 96 165 107 96 165 107 96 165 107 96 165 107 96 165 107 96 171 108 95 171 108 95 171 108 95 171 108 95 171 108 95 168 105 92 171 108 95 171 108 95 171 108 95 168 105 92 168 105 92 168 105 92 168 105 92 168 105 92 168 105 92 171 108 95 168 105 92 168 105 92 168 105 92 168 105 92 168 105 92 168 105 92 168 105 92 168 105 92 168 105 92 168 105 92 168 105 92 168 105 92 168 105 92 168 105 92 168 105 92 168 105 92 168 105 92 168 105 92 168 105 92 168 105 92 168 105 92 168 105 92 168 105 92 168 105 92 165 104 94 165 104 94 165 104 94 165 104 94 165 104 94 165 104 94 165 104 94 165 104 94 165 104 94 165 104 94 165 104 94 165 104 94 165 104 94 165 104 94 165 104 94 165 104 94 165 104 94 165 104 94 165 104 94 165 104 94 165 104 94 165 104 94 165 104 94 165 104 94 165 104 94 165 104 94 165 104 94 165 104 94 165 104 94 165 104 94 165 104 94 165 104 94 165 104 94 165 104 94 165 104 94 165 104 94 142 137 132 142 137 132 213 219 211 213 219 211 142 137 132 142 137 132 142 137 132 112 92 94 112 92 94 112 92 94 112 92 94 112 92 94 112 92 94 112 92 94 112 92 94 112 92 94 112 92 94 112 92 94 112 92 94 112 92 94 112 92 94 112 92 94 112 92 94 112 92 94 112 92 94 112 92 94 112 92 94 112 92 94 112 92 94 112 92 94 112 92 94 112 92 94 112 92 94 112 92 94 112 92 94 112 92 94 112 92 94 112 92 94 112 92 94 112 92 94 112 92 94 112 92 94 112 92 94 112 92 94 112 92 94 112 92 94 112 92 94 112 92 94 151 155 149 151 155 149 151 155 149 151 155 149 151 155 149 213 219 211 213 219 211 213 219 211 213 219 211 213 219 211 213 219 211 151 155 149 151 155 149 151 155 149 151 155 149 151 155 149 151 155 149 151 155 149 151 155 149 151 155 149 151 155 149 151 155 149 151 155 149 151 155 149 151 155 149 151 155 149 151 155 149 151 155 149 151 155 149 151 155 149 151 155 149 151 155 149 151 155 149 151 155 149 151 155 149 151 155 149 151 155 149 151 155 149 115 93 101 115 93 101 115 93 101 151 155 149 151 155 149 151 155 149 151 155 149 115 93 101 115 93 101 96 66 77 115 93 101 115 93 101 115 93 101 115 93 101 115 93 101 115 93 101 115 93 101 151 155 149 151 155 149 151 155 149 151 155 149 158 194 216 158 194 216 158 194 216 158 194 216 158 194 216 158 194 216 158 194 216 158 194 216 158 194 216 158 194 216 158 194 216 158 194 216 158 194 216 158 194 216 158 194 216 158 194 216 158 194 216 158 194 216 158 194 216 158 194 216 158 194 216 158 194 216 158 194 216 158 194 216 158 194 216 158 194 216 158 194 216 158 194 216 158 194 216 158 194 216 158 194 216 158 194 216 158 194 216 181 172 166 165 107 96 165 107 96 165 107 96 165 107 96 165 107 96 165 107 96 165 107 96 165 107 96 165 107 96 165 107 96 165 107 96 165 107 96 165 107 96 165 107 96 165 107 96 165 107 96 165 107 96 165 107 96 165 107 96 165 107 96 165 107 96 165 107 96 165 107 96 165 107 96 165 107 96 165 107 96 165 107 96 165 107 96 165 107 96 165 107 96 165 107 96 165 107 96 165 107 96 165 107 96 165 107 96 165 107 96 165 107 96 165 107 96 165 107 96 165 107 96 171 108 95 171 108 95 171 108 95 171 108 95 171 108 95 171 108 95 168 105 92 168 105 92 168 105 92 168 105 92 168 105 92 168 105 92 168 105 92 168 105 92 168 105 92 168 105 92 168 105 92 168 105 92 168 105 92 168 105 92 168 105 92 168 105 92 168 105 92 168 105 92 168 105 92 168 105 92 168 105 92 168 105 92 168 105 92 168 105 92 168 105 92 168 105 92 168 105 92 168 105 92 168 105 92 168 105 92 168 105 92 168 105 92 168 105 92 168 105 92 165 104 94 165 104 94 165 104 94 165 104 94 165 104 94 165 104 94 165 104 94 165 104 94 165 104 94 165 104 94 165 104 94 165 104 94 165 104 94 165 104 94 165 104 94 165 104 94 165 104 94 165 104 94 165 104 94 165 104 94 165 104 94 165 104 94 165 104 94 165 104 94 165 104 94 165 104 94 165 104 94 165 104 94 165 104 94 165 104 94 165 104 94 165 104 94 165 104 94 165 104 94 165 104 94 165 104 94 165 104 94 142 137 132 142 137 132 112 92 94 112 92 94 112 92 94 112 92 94 112 92 94 112 92 94 112 92 94 112 92 94 112 92 94 112 92 94 112 92 94 112 92 94 112 92 94 112 92 94 112 92 94 112 92 94 112 92 94 112 92 94 112 92 94 112 92 94 112 92 94 112 92 94 112 92 94 112 92 94 112 92 94 112 92 94 112 92 94 112 92 94 112 92 94 112 92 94 112 92 94 87 56 68 87 56 68 112 92 94 112 92 94 112 92 94 112 92 94 142 137 132 151 155 149 151 155 149 151 155 149 213 219 211 213 219 211 213 219 211 213 219 211 213 219 211 213 219 211 151 155 149 151 155 149 151 155 149 151 155 149 151 155 149 151 155 149 151 155 149 151 155 149 151 155 149 151 155 149 151 155 149 151 155 149 151 155 149 151 155 149 151 155 149 151 155 149 151 155 149 151 155 149 151 155 149 151 155 149 151 155 149 151 155 149 151 155 149 151 155 149 151 155 149 151 155 149 151 155 149 151 155 149 115 93 101 115 93 101 115 93 101 115 93 101 115 93 101 115 93 101 115 93 101 115 93 101 115 93 101 115 93 101 151 155 149 213 219 211 213 219 211 213 219 211 151 155 149 115 93 101 115 93 101 151 155 149 151 155 149 151 155 149 151 155 149 151 155 149 151 155 149 151 155 149 151 155 149 115 93 101 115 93 101 115 93 101 158 194 216 158 194 216 158 194 216 158 194 216 158 194 216 158 194 216 158 194 216 158 194 216 158 194 216 158 194 216 158 194 216 158 194 216 158 194 216 158 194 216 158 194 216 158 194 216 158 194 216 158 194 216 158 194 216 158 194 216 158 194 216 158 194 216 158 194 216 158 194 216 158 194 216 158 194 216 158 194 216 158 194 216 158 194 216 158 194 216 158 194 216 158 194 216 158 194 216 181 172 166 165 107 96 165 107 96 165 107 96 165 107 96 165 107 96 165 107 96 165 107 96 165 107 96 165 107 96 165 107 96 165 107 96 165 107 96 165 107 96 165 107 96 165 107 96 165 107 96 165 107 96 165 107 96 165 107 96 165 107 96 165 107 96 165 107 96 165 107 96 165 107 96 165 107 96 165 107 96 165 107 96 165 107 96 165 107 96 165 107 96 165 107 96 165 107 96 165 107 96 165 107 96 165 107 96 165 107 96 165 107 96 165 107 96 165 107 96 171 108 95 171 108 95 171 108 95 171 108 95 171 108 95 171 108 95 168 105 92 168 105 92 168 105 92 168 105 92 168 105 92 168 105 92 168 105 92 168 105 92 168 105 92 168 105 92 168 105 92 168 105 92 168 105 92 168 105 92 168 105 92 168 105 92 168 105 92 168 105 92 168 105 92 168 105 92 168 105 92 168 105 92 168 105 92 168 105 92 168 105 92 168 105 92 168 105 92 168 105 92 168 105 92 168 105 92 168 105 92 168 105 92 168 105 92 168 105 92 168 105 92 165 104 94 165 104 94 165 104 94 165 104 94 165 104 94 165 104 94 165 104 94 165 104 94 165 104 94 165 104 94 165 104 94 165 104 94 165 104 94 165 104 94 165 104 94 165 104 94 165 104 94 165 104 94 165 104 94 165 104 94 165 104 94 165 104 94 165 104 94 165 104 94 165 104 94 165 104 94 165 104 94 165 104 94 165 104 94 165 104 94 165 104 94 165 104 94 165 104 94 165 104 94 165 104 94 165 104 94 112 92 94 112 92 94 112 92 94 112 92 94 112 92 94 112 92 94 112 92 94 112 92 94 112 92 94 112 92 94 112 92 94 112 92 94 112 92 94 112 92 94 112 92 94 112 92 94 112 92 94 112 92 94 112 92 94 112 92 94 112 92 94 112 92 94 112 92 94 112 92 94 112 92 94 112 92 94 112 92 94 112 92 94 112 92 94 112 92 94 112 92 94 112 92 94 142 137 132 142 137 132 151 155 149 151 155 149 151 155 149 213 219 211 213 219 211 213 219 211 213 219 211 213 219 211 213 219 211 213 219 211 151 155 149 151 155 149 151 155 149 151 155 149 151 155 149 151 155 149 151 155 149 151 155 149 151 155 149 151 155 149 151 155 149 151 155 149 151 155 149 151 155 149 151 155 149 151 155 149 151 155 149 151 155 149 151 155 149 151 155 149 151 155 149 151 155 149 151 155 149 151 155 149 151 155 149 151 155 149 151 155 149 115 93 101 115 93 101 115 93 101 115 93 101 115 93 101 115 93 101 115 93 101 115 93 101 115 93 101 115 93 101 115 93 101 115 93 101 115 93 101 115 93 101 115 93 101 115 93 101 151 155 149 151 155 149 213 219 211 213 219 211 213 219 211 151 155 149 151 155 149 115 93 101 151 155 149 115 93 101 115 93 101 115 93 101 115 93 101 115 93 101 115 93 101 96 66 77 96 66 77 66 37 60 66 37 60 158 194 216 158 194 216 158 194 216 158 194 216 158 194 216 158 194 216 158 194 216 158 194 216 158 194 216 158 194 216 158 194 216 158 194 216 158 194 216 158 194 216 158 194 216 158 194 216 158 194 216 158 194 216 158 194 216 158 194 216 158 194 216 158 194 216 158 194 216 158 194 216 158 194 216 158 194 216 158 194 216 158 194 216 158 194 216 158 194 216 158 194 216 158 194 216 158 194 216 181 172 166 165 107 96 165 107 96 165 107 96 165 107 96 165 107 96 165 107 96 165 107 96 165 107 96 165 107 96 165 107 96 165 107 96 165 107 96 165 107 96 165 107 96 165 107 96 165 107 96 165 107 96 165 107 96 165 107 96 165 107 96 165 107 96 165 107 96 165 107 96 165 107 96 165 107 96 165 107 96 165 107 96 165 107 96 165 107 96 165 107 96 165 107 96 165 107 96 165 107 96 165 107 96 165 107 96 165 107 96 165 107 96 165 107 96 165 107 96 165 107 96 165 107 96 168 105 92 168 105 92 168 105 92 171 108 95 171 108 95 168 105 92 168 105 92 168 105 92 168 105 92 168 105 92 168 105 92 168 105 92 168 105 92 168 105 92 168 105 92 168 105 92 168 105 92 168 105 92 168 105 92 168 105 92 168 105 92 168 105 92 168 105 92 168 105 92 168 105 92 168 105 92 168 105 92 168 105 92 168 105 92 168 105 92 168 105 92 168 105 92 168 105 92 168 105 92 168 105 92 168 105 92 168 105 92 168 105 92 168 105 92 168 105 92 168 105 92 165 104 94 165 104 94 165 104 94 165 104 94 165 104 94 165 104 94 165 104 94 165 104 94 165 104 94 165 104 94 165 104 94 165 104 94 165 104 94 165 104 94 165 104 94 165 104 94 165 104 94 165 104 94 165 104 94 165 104 94 165 104 94 165 104 94 165 104 94 165 104 94 165 104 94 165 104 94 165 104 94 165 104 94 165 104 94 165 104 94 112 92 94 112 92 94 112 92 94 112 92 94 112 92 94 112 92 94 112 92 94 112 92 94 112 92 94 112 92 94 112 92 94 112 92 94 112 92 94 112 92 94 112 92 94 112 92 94 112 92 94 112 92 94 112 92 94 112 92 94 112 92 94 112 92 94 112 92 94 112 92 94 93 58 70 93 58 70 112 92 94 112 92 94 112 92 94 112 92 94 142 137 132 142 137 132 151 155 149 213 219 211 213 219 211 213 219 211 213 219 211 213 219 211 213 219 211 213 219 211 213 219 211 139 170 182 151 155 149 151 155 149 151 155 149 151 155 149 151 155 149 151 155 149 151 155 149 151 155 149 151 155 149 151 155 149 151 155 149 151 155 149 151 155 149 151 155 149 151 155 149 151 155 149 151 155 149 151 155 149 151 155 149 151 155 149 151 155 149 151 155 149 151 155 149 151 155 149 151 155 149 115 93 101 115 93 101 115 93 101 115 93 101 115 93 101 115 93 101 115 93 101 115 93 101 115 93 101 115 93 101 115 93 101 115 93 101 115 93 101 115 93 101 115 93 101 151 155 149 151 155 149 151 155 149 151 155 149 151 155 149 151 155 149 151 155 149 151 155 149 151 155 149 151 155 149 151 155 149 213 219 211 213 219 211 213 219 211 151 155 149 151 155 149 96 66 77 115 93 101 96 66 77 66 37 60 96 66 77 66 37 60 66 37 60 66 37 60 66 37 60 66 37 60 66 37 60 66 37 60 158 194 216 158 194 216 158 194 216 158 194 216 158 194 216 158 194 216 158 194 216 158 194 216 158 194 216 158 194 216 158 194 216 158 194 216 158 194 216 158 194 216 158 194 216 158 194 216 158 194 216 158 194 216 158 194 216 158 194 216 158 194 216 158 194 216 158 194 216 158 194 216 158 194 216 158 194 216 158 194 216 158 194 216 158 194 216 158 194 216 158 194 216 158 194 216 158 194 216 181 172 166 165 107 96 165 107 96 165 107 96 165 107 96 165 107 96 165 107 96 165 107 96 165 107 96 165 107 96 165 107 96 165 107 96 165 107 96 165 107 96 165 107 96 165 107 96 165 107 96 165 107 96 165 107 96 165 107 96 165 107 96 165 107 96 165 107 96 165 107 96 165 107 96 165 107 96 165 107 96 165 107 96 165 107 96 165 107 96 165 107 96 165 107 96 165 107 96 165 107 96 165 107 96 165 107 96 165 107 96 165 107 96 165 107 96 165 107 96 165 107 96 165 107 96 168 105 92 171 108 95 168 105 92 168 105 92 168 105 92 168 105 92 168 105 92 168 105 92 168 105 92 168 105 92 168 105 92 168 105 92 168 105 92 168 105 92 168 105 92 168 105 92 168 105 92 168 105 92 168 105 92 168 105 92 168 105 92 168 105 92 168 105 92 168 105 92 168 105 92 168 105 92 168 105 92 168 105 92 168 105 92 168 105 92 168 105 92 168 105 92 168 105 92 168 105 92 168 105 92 168 105 92 168 105 92 168 105 92 168 105 92 168 105 92 168 105 92 165 104 94 165 104 94 165 104 94 165 104 94 165 104 94 165 104 94 165 104 94 165 104 94 165 104 94 165 104 94 165 104 94 165 104 94 165 104 94 165 104 94 165 104 94 165 104 94 165 104 94 165 104 94 165 104 94 165 104 94 165 104 94 165 104 94 165 104 94 165 104 94 112 92 94 112 92 94 112 92 94 112 92 94 112 92 94 112 92 94 112 92 94 112 92 94 112 92 94 112 92 94 112 92 94 112 92 94 112 92 94 112 92 94 112 92 94 112 92 94 112 92 94 112 92 94 112 92 94 112 92 94 112 92 94 112 92 94 93 58 70 112 92 94 112 92 94 112 92 94 112 92 94 112 92 94 142 137 132 142 137 132 142 137 132 139 170 182 213 219 211 213 219 211 213 219 211 213 219 211 213 219 211 213 219 211 213 219 211 213 219 211 139 170 182 139 170 182 151 155 149 151 155 149 151 155 149 151 155 149 151 155 149 151 155 149 151 155 149 151 155 149 151 155 149 151 155 149 151 155 149 151 155 149 151 155 149 151 155 149 151 155 149 151 155 149 151 155 149 151 155 149 151 155 149 151 155 149 151 155 149 151 155 149 151 155 149 151 155 149 115 93 101 115 93 101 115 93 101 115 93 101 115 93 101 115 93 101 115 93 101 115 93 101 115 93 101 115 93 101 115 93 101 115 93 101 115 93 101 115 93 101 115 93 101 151 155 149 151 155 149 151 155 149 151 155 149 151 155 149 151 155 149 151 155 149 151 155 149 151 155 149 151 155 149 151 155 149 115 93 101 115 93 101 115 93 101 115 93 101 115 93 101 115 93 101 151 155 149 213 219 211 213 219 211 213 219 211 151 155 149 151 155 149 96 66 77 96 66 77 66 37 60 96 66 77 96 66 77 96 66 77 96 66 77 96 66 77 96 66 77 96 66 77 96 66 77 96 66 77 158 194 216 158 194 216 158 194 216 158 194 216 158 194 216 158 194 216 158 194 216 158 194 216 158 194 216 158 194 216 158 194 216 158 194 216 158 194 216 158 194 216 158 194 216 158 194 216 158 194 216 158 194 216 158 194 216 158 194 216 158 194 216 158 194 216 158 194 216 158 194 216 158 194 216 158 194 216 158 194 216 158 194 216 158 194 216 158 194 216 158 194 216 158 194 216 158 194 216 181 172 166 165 107 96 165 107 96 165 107 96 165 107 96 165 107 96 165 107 96 165 107 96 165 107 96 165 107 96 165 107 96 165 107 96 165 107 96 165 107 96 165 107 96 165 107 96 165 107 96 165 107 96 165 107 96 165 107 96 165 107 96 165 107 96 165 107 96 165 107 96 165 107 96 165 107 96 165 107 96 165 107 96 165 107 96 165 107 96 165 107 96 165 107 96 165 107 96 165 107 96 165 107 96 165 107 96 165 107 96 165 107 96 165 107 96 165 107 96 165 107 96 165 107 96 168 105 92 168 105 92 168 105 92 168 105 92 168 105 92 168 105 92 168 105 92 168 105 92 168 105 92 168 105 92 168 105 92 168 105 92 168 105 92 168 105 92 168 105 92 168 105 92 168 105 92 168 105 92 168 105 92 168 105 92 168 105 92 168 105 92 168 105 92 168 105 92 168 105 92 168 105 92 168 105 92 168 105 92 168 105 92 168 105 92 168 105 92 168 105 92 168 105 92 168 105 92 168 105 92 168 105 92 168 105 92 168 105 92 168 105 92 168 105 92 168 105 92 168 105 92 165 104 94 165 104 94 165 104 94 165 104 94 165 104 94 165 104 94 165 104 94 165 104 94 165 104 94 165 104 94 165 104 94 165 104 94 165 104 94 165 104 94 165 104 94 165 104 94 165 104 94 165 104 94 165 104 94 165 104 94 165 104 94 165 104 94 112 92 94 112 92 94 112 92 94 112 92 94 112 92 94 112 92 94 112 92 94 112 92 94 112 92 94 112 92 94 112 92 94 112 92 94 112 92 94 93 58 70 112 92 94 112 92 94 112 92 94 112 92 94 112 92 94 112 92 94 112 92 94 142 137 132 142 137 132 142 137 132 142 137 132 139 170 182 213 219 211 213 219 211 213 219 211 213 219 211 213 219 211 213 219 211 213 219 211 139 170 182 139 170 182 139 170 182 139 170 182 142 137 132 142 137 132 142 137 132 142 137 132 142 137 132 151 155 149 151 155 149 151 155 149 151 155 149 151 155 149 151 155 149 142 137 132 151 155 149 151 155 149 151 155 149 151 155 149 142 137 132 151 155 149 151 155 149 151 155 149 151 155 149 151 155 149 112 92 94 112 92 94 112 92 94 112 92 94 112 92 94 112 92 94 112 92 94 112 92 94 112 92 94 112 92 94 115 93 101 115 93 101 115 93 101 115 93 101 115 93 101 115 93 101 151 155 149 151 155 149 151 155 149 151 155 149 151 155 149 151 155 149 151 155 149 151 155 149 151 155 149 151 155 149 151 155 149 115 93 101 115 93 101 115 93 101 115 93 101 115 93 101 115 93 101 115 93 101 115 93 101 96 66 77 87 56 68 87 56 68 66 37 60 96 66 77 115 93 101 151 155 149 151 155 149 151 155 149 213 219 211 151 155 149 115 93 101 96 66 77 96 66 77 96 66 77 96 66 77 96 66 77 96 66 77 96 66 77 96 66 77 96 66 77 66 37 60 66 37 60 158 194 216 158 194 216 158 194 216 158 194 216 158 194 216 158 194 216 158 194 216 158 194 216 158 194 216 158 194 216 158 194 216 158 194 216 158 194 216 158 194 216 158 194 216 158 194 216 158 194 216 158 194 216 158 194 216 158 194 216 158 194 216 158 194 216 158 194 216 158 194 216 158 194 216 158 194 216 158 194 216 158 194 216 158 194 216 158 194 216 158 194 216 158 194 216 158 194 216 181 172 166 165 107 96 165 107 96 165 107 96 165 107 96 165 107 96 165 107 96 165 107 96 165 107 96 165 107 96 165 107 96 165 107 96 165 107 96 165 107 96 165 107 96 165 107 96 165 107 96 165 107 96 165 107 96 165 107 96 165 107 96 165 107 96 165 107 96 165 107 96 165 107 96 165 107 96 165 107 96 165 107 96 165 107 96 165 107 96 165 107 96 165 107 96 165 107 96 165 107 96 165 107 96 165 107 96 165 107 96 165 107 96 165 107 96 165 107 96 165 107 96 168 105 92 168 105 92 168 105 92 168 105 92 168 105 92 168 105 92 168 105 92 168 105 92 168 105 92 168 105 92 168 105 92 168 105 92 168 105 92 168 105 92 168 105 92 168 105 92 168 105 92 168 105 92 168 105 92 168 105 92 168 105 92 168 105 92 168 105 92 168 105 92 168 105 92 168 105 92 168 105 92 168 105 92 168 105 92 168 105 92 168 105 92 168 105 92 168 105 92 168 105 92 168 105 92 168 105 92 168 105 92 168 105 92 168 105 92 168 105 92 168 105 92 168 105 92 168 105 92 168 105 92 165 104 94 165 104 94 165 104 94 165 104 94 165 104 94 165 104 94 165 104 94 165 104 94 165 104 94 165 104 94 165 104 94 165 104 94 165 104 94 165 104 94 165 104 94 165 104 94 165 104 94 112 92 94 112 92 94 112 92 94 112 92 94 112 92 94 112 92 94 112 92 94 112 92 94 112 92 94 112 92 94 112 92 94 112 92 94 93 58 70 93 58 70 112 92 94 112 92 94 112 92 94 112 92 94 142 137 132 142 137 132 142 137 132 142 137 132 139 170 182 139 170 182 213 219 211 213 219 211 213 219 211 213 219 211 213 219 211 213 219 211 139 170 182 139 170 182 139 170 182 142 137 132 142 137 132 142 137 132 142 137 132 142 137 132 142 137 132 142 137 132 142 137 132 142 137 132 142 137 132 142 137 132 142 137 132 142 137 132 142 137 132 142 137 132 142 137 132 142 137 132 142 137 132 142 137 132 142 137 132 142 137 132 142 137 132 142 137 132 142 137 132 112 92 94 112 92 94 112 92 94 112 92 94 112 92 94 112 92 94 112 92 94 112 92 94 112 92 94 112 92 94 112 92 94 112 92 94 112 92 94 115 93 101 151 155 149 151 155 149 151 155 149 151 155 149 151 155 149 151 155 149 151 155 149 151 155 149 151 155 149 151 155 149 151 155 149 115 93 101 115 93 101 115 93 101 115 93 101 115 93 101 87 56 68 87 56 68 87 56 68 87 56 68 87 56 68 87 56 68 87 56 68 87 56 68 87 56 68 87 56 68 87 56 68 96 66 77 115 93 101 96 66 77 96 66 77 115 93 101 115 93 101 151 155 149 151 155 149 151 155 149 213 219 211 151 155 149 151 155 149 115 93 101 115 93 101 96 66 77 66 37 60 66 37 60 66 37 60 66 37 60 66 37 60 66 37 60 66 37 60 66 37 60 158 194 216 158 194 216 158 194 216 158 194 216 158 194 216 158 194 216 158 194 216 158 194 216 158 194 216 158 194 216 158 194 216 158 194 216 158 194 216 158 194 216 158 194 216 158 194 216 158 194 216 158 194 216 158 194 216 158 194 216 158 194 216 158 194 216 158 194 216 158 194 216 158 194 216 158 194 216 158 194 216 158 194 216 158 194 216 158 194 216 158 194 216 158 194 216 158 194 216 181 172 166 165 107 96 165 107 96 165 107 96 165 107 96 165 107 96 165 107 96 165 107 96 165 107 96 165 107 96 165 107 96 165 107 96 165 107 96 165 107 96 165 107 96 165 107 96 165 107 96 165 107 96 165 107 96 165 107 96 165 107 96 165 107 96 165 107 96 165 107 96 165 107 96 165 107 96 165 107 96 165 107 96 165 107 96 165 107 96 165 107 96 165 107 96 165 107 96 165 107 96 165 107 96 165 107 96 165 107 96 165 107 96 165 107 96 165 107 96 165 107 96 165 107 96 168 105 92 168 105 92 168 105 92 168 105 92 168 105 92 168 105 92 168 105 92 168 105 92 168 105 92 168 105 92 168 105 92 168 105 92 168 105 92 168 105 92 168 105 92 168 105 92 168 105 92 168 105 92 168 105 92 168 105 92 168 105 92 168 105 92 168 105 92 168 105 92 168 105 92 168 105 92 168 105 92 168 105 92 168 105 92 168 105 92 168 105 92 168 105 92 168 105 92 168 105 92 168 105 92 168 105 92 168 105 92 168 105 92 168 105 92 168 105 92 168 105 92 168 105 92 168 105 92 165 104 94 165 104 94 165 104 94 165 104 94 165 104 94 165 104 94 165 104 94 165 104 94 165 104 94 165 104 94 165 104 94 165 104 94 165 104 94 165 104 94 165 104 94 112 92 94 112 92 94 112 92 94 112 92 94 112 92 94 93 58 70 93 58 70 93 58 70 93 58 70 93 58 70 112 92 94 112 92 94 112 92 94 142 137 132 142 137 132 142 137 132 139 170 182 139 170 182 213 219 211 213 219 211 213 219 211 213 219 211 213 219 211 213 219 211 213 219 211 139 170 182 139 170 182 139 170 182 142 137 132 142 137 132 142 137 132 142 137 132 142 137 132 142 137 132 142 137 132 142 137 132 142 137 132 142 137 132 142 137 132 142 137 132 142 137 132 142 137 132 142 137 132 142 137 132 142 137 132 142 137 132 142 137 132 142 137 132 142 137 132 142 137 132 142 137 132 112 92 94 112 92 94 112 92 94 112 92 94 112 92 94 112 92 94 112 92 94 112 92 94 112 92 94 112 92 94 112 92 94 112 92 94 112 92 94 112 92 94 112 92 94 112 92 94 151 155 149 151 155 149 151 155 149 151 155 149 151 155 149 151 155 149 151 155 149 151 155 149 151 155 149 115 93 101 115 93 101 115 93 101 115 93 101 115 93 101 115 93 101 87 56 68 87 56 68 87 56 68 87 56 68 87 56 68 87 56 68 87 56 68 87 56 68 87 56 68 87 56 68 87 56 68 87 56 68 96 66 77 96 66 77 87 56 68 96 66 77 115 93 101 96 66 77 96 66 77 115 93 101 96 66 77 115 93 101 96 66 77 96 66 77 115 93 101 151 155 149 151 155 149 151 155 149 151 155 149 151 155 149 151 155 149 115 93 101 115 93 101 66 37 60 66 37 60 66 37 60 66 37 60 66 37 60 66 37 60 66 37 60 66 37 60 158 194 216 158 194 216 158 194 216 158 194 216 158 194 216 158 194 216 158 194 216 158 194 216 158 194 216 158 194 216 158 194 216 158 194 216 158 194 216 158 194 216 158 194 216 158 194 216 158 194 216 158 194 216 158 194 216 158 194 216 158 194 216 158 194 216 158 194 216 158 194 216 158 194 216 158 194 216 158 194 216 158 194 216 158 194 216 158 194 216 158 194 216 158 194 216 158 194 216 165 107 96 165 107 96 165 107 96 165 107 96 165 107 96 165 107 96 165 107 96 165 107 96 165 107 96 165 107 96 165 107 96 165 107 96 165 107 96 165 107 96 165 107 96 165 107 96 165 107 96 165 107 96 165 107 96 165 107 96 165 107 96 165 107 96 165 107 96 165 107 96 165 107 96 165 107 96 165 107 96 165 107 96 165 107 96 165 107 96 165 107 96 165 107 96 165 107 96 165 107 96 165 107 96 165 107 96 165 107 96 165 107 96 165 107 96 165 107 96 165 107 96 165 107 96 168 105 92 168 105 92 168 105 92 168 105 92 168 105 92 168 105 92 168 105 92 168 105 92 168 105 92 168 105 92 168 105 92 168 105 92 168 105 92 168 105 92 168 105 92 168 105 92 168 105 92 168 105 92 168 105 92 168 105 92 168 105 92 168 105 92 168 105 92 168 105 92 168 105 92 168 105 92 168 105 92 168 105 92 168 105 92 168 105 92 168 105 92 168 105 92 168 105 92 168 105 92 168 105 92 168 105 92 168 105 92 168 105 92 168 105 92 168 105 92 168 105 92 168 105 92 168 105 92 168 105 92 168 105 92 165 104 94 165 104 94 165 104 94 165 104 94 165 104 94 165 104 94 165 104 94 165 104 94 165 104 94 93 58 70 93 58 70 93 58 70 93 58 70 93 58 70 93 58 70 93 58 70 112 92 94 112 92 94 142 137 132 142 137 132 142 137 132 142 137 132 142 137 132 139 170 182 213 219 211 213 219 211 213 219 211 213 219 211 213 219 211 213 219 211 139 170 182 139 170 182 139 170 182 142 137 132 142 137 132 142 137 132 142 137 132 142 137 132 142 137 132 142 137 132 142 137 132 142 137 132 142 137 132 142 137 132 142 137 132 142 137 132 142 137 132 142 137 132 142 137 132 142 137 132 142 137 132 142 137 132 142 137 132 142 137 132 142 137 132 142 137 132 142 137 132 142 137 132 112 92 94 112 92 94 112 92 94 112 92 94 112 92 94 112 92 94 112 92 94 112 92 94 112 92 94 112 92 94 112 92 94 112 92 94 112 92 94 112 92 94 142 137 132 142 137 132 151 155 149 151 155 149 151 155 149 151 155 149 151 155 149 151 155 149 151 155 149 151 155 149 112 92 94 112 92 94 112 92 94 112 92 94 112 92 94 87 56 68 87 56 68 87 56 68 87 56 68 87 56 68 87 56 68 87 56 68 87 56 68 87 56 68 87 56 68 87 56 68 87 56 68 87 56 68 87 56 68 87 56 68 87 56 68 87 56 68 87 56 68 87 56 68 87 56 68 87 56 68 96 66 77 96 66 77 87 56 68 87 56 68 87 56 68 87 56 68 66 37 60 66 37 60 66 37 60 66 37 60 66 37 60 66 37 60 115 93 101 151 155 149 151 155 149 151 155 149 151 155 149 151 155 149 151 155 149 151 155 149 151 155 149 115 93 101 115 93 101 66 37 60 66 37 60 66 37 60 66 37 60 66 37 60 158 194 216 158 194 216 158 194 216 158 194 216 158 194 216 158 194 216 158 194 216 158 194 216 158 194 216 158 194 216 158 194 216 158 194 216 158 194 216 158 194 216 158 194 216 158 194 216 158 194 216 158 194 216 158 194 216 158 194 216 158 194 216 158 194 216 158 194 216 158 194 216 158 194 216 158 194 216 158 194 216 158 194 216 158 194 216 158 194 216 158 194 216 158 194 216 158 194 216 165 107 96 165 107 96 165 107 96 165 107 96 165 107 96 165 107 96 165 107 96 165 107 96 165 107 96 165 107 96 165 107 96 165 107 96 165 107 96 165 107 96 165 107 96 165 107 96 165 107 96 165 107 96 165 107 96 165 107 96 165 107 96 165 107 96 165 107 96 165 107 96 165 107 96 165 107 96 165 107 96 165 107 96 165 107 96 165 107 96 165 107 96 165 107 96 165 107 96 165 107 96 165 107 96 165 107 96 165 107 96 165 107 96 165 107 96 165 107 96 165 107 96 165 107 96 168 105 92 168 105 92 168 105 92 168 105 92 168 105 92 168 105 92 168 105 92 168 105 92 168 105 92 168 105 92 168 105 92 168 105 92 168 105 92 168 105 92 168 105 92 168 105 92 168 105 92 168 105 92 168 105 92 168 105 92 168 105 92 168 105 92 168 105 92 168 105 92 168 105 92 168 105 92 168 105 92 168 105 92 168 105 92 168 105 92 168 105 92 168 105 92 168 105 92 168 105 92 168 105 92 168 105 92 168 105 92 168 105 92 168 105 92 168 105 92 168 105 92 168 105 92 168 105 92 168 105 92 168 105 92 165 104 94 165 104 94 165 104 94 165 104 94 93 58 70 93 58 70 93 58 70 93 58 70 93 58 70 93 58 70 112 92 94 142 137 132 142 137 132 142 137 132 142 137 132 139 170 182 213 219 211 213 219 211 213 219 211 213 219 211 213 219 211 213 219 211 213 219 211 139 170 182 139 170 182 142 137 132 142 137 132 142 137 132 142 137 132 142 137 132 142 137 132 142 137 132 142 137 132 142 137 132 142 137 132 142 137 132 142 137 132 142 137 132 142 137 132 142 137 132 142 137 132 142 137 132 142 137 132 142 137 132 142 137 132 142 137 132 142 137 132 142 137 132 142 137 132 142 137 132 112 92 94 112 92 94 112 92 94 112 92 94 112 92 94 112 92 94 112 92 94 112 92 94 112 92 94 112 92 94 112 92 94 112 92 94 112 92 94 112 92 94 142 137 132 142 137 132 142 137 132 142 137 132 142 137 132 142 137 132 151 155 149 142 137 132 142 137 132 142 137 132 112 92 94 112 92 94 112 92 94 112 92 94 112 92 94 112 92 94 87 56 68 87 56 68 87 56 68 87 56 68 87 56 68 87 56 68 87 56 68 87 56 68 87 56 68 87 56 68 87 56 68 87 56 68 87 56 68 87 56 68 87 56 68 87 56 68 87 56 68 87 56 68 87 56 68 87 56 68 87 56 68 87 56 68 87 56 68 87 56 68 87 56 68 87 56 68 66 37 60 66 37 60 66 37 60 66 37 60 66 37 60 66 37 60 66 37 60 66 37 60 66 37 60 66 37 60 66 37 60 66 37 60 66 37 60 66 37 60 66 37 60 115 93 101 115 93 101 151 155 149 151 155 149 151 155 149 151 155 149 151 155 149 151 155 149 151 155 149 151 155 149 115 93 101 115 93 101 115 93 101 66 37 60 66 37 60 158 194 216 158 194 216 158 194 216 158 194 216 158 194 216 158 194 216 158 194 216 158 194 216 158 194 216 158 194 216 158 194 216 158 194 216 158 194 216 158 194 216 158 194 216 158 194 216 158 194 216 158 194 216 158 194 216 158 194 216 158 194 216 158 194 216 158 194 216 158 194 216 158 194 216 158 194 216 158 194 216 158 194 216 158 194 216 158 194 216 158 194 216 158 194 216 158 194 216 165 107 96 165 107 96 165 107 96 165 107 96 165 107 96 165 107 96 165 107 96 165 107 96 165 107 96 165 107 96 165 107 96 165 107 96 165 107 96 165 107 96 165 107 96 165 107 96 165 107 96 165 107 96 165 107 96 165 107 96 165 107 96 165 107 96 165 107 96 165 107 96 165 107 96 165 107 96 165 107 96 165 107 96 165 107 96 165 107 96 165 107 96 165 107 96 165 107 96 165 107 96 165 107 96 165 107 96 165 107 96 165 107 96 165 107 96 165 107 96 165 107 96 165 107 96 168 105 92 168 105 92 168 105 92 168 105 92 168 105 92 168 105 92 168 105 92 168 105 92 168 105 92 168 105 92 168 105 92 168 105 92 168 105 92 168 105 92 168 105 92 168 105 92 168 105 92 168 105 92 168 105 92 168 105 92 168 105 92 168 105 92 168 105 92 168 105 92 168 105 92 168 105 92 168 105 92 168 105 92 168 105 92 168 105 92 168 105 92 168 105 92 168 105 92 168 105 92 168 105 92 168 105 92 168 105 92 168 105 92 168 105 92 168 105 92 168 105 92 168 105 92 168 105 92 168 105 92 168 105 92 165 104 94 165 104 94 165 104 94 142 137 132 142 137 132 142 137 132 142 137 132 142 137 132 139 170 182 213 219 211 213 219 211 213 219 211 213 219 211 213 219 211 213 219 211 213 219 211 139 170 182 139 170 182 139 170 182 142 137 132 142 137 132 142 137 132 142 137 132 142 137 132 142 137 132 142 137 132 142 137 132 142 137 132 142 137 132 142 137 132 142 137 132 142 137 132 142 137 132 142 137 132 142 137 132 142 137 132 142 137 132 142 137 132 142 137 132 142 137 132 142 137 132 142 137 132 142 137 132 142 137 132 112 92 94 112 92 94 112 92 94 112 92 94 112 92 94 112 92 94 112 92 94 112 92 94 112 92 94 112 92 94 112 92 94 112 92 94 112 92 94 142 137 132 142 137 132 142 137 132 142 137 132 142 137 132 142 137 132 142 137 132 142 137 132 142 137 132 142 137 132 142 137 132 112 92 94 112 92 94 112 92 94 112 92 94 87 56 68 87 56 68 87 56 68 87 56 68 87 56 68 87 56 68 87 56 68 87 56 68 87 56 68 87 56 68 87 56 68 87 56 68 87 56 68 87 56 68 87 56 68 87 56 68 87 56 68 87 56 68 87 56 68 87 56 68 87 56 68 87 56 68 87 56 68 87 56 68 87 56 68 87 56 68 87 56 68 87 56 68 87 56 68 66 37 60 66 37 60 66 37 60 66 37 60 66 37 60 66 37 60 66 37 60 66 37 60 66 37 60 66 37 60 66 37 60 66 37 60 66 37 60 66 37 60 66 37 60 66 37 60 66 37 60 66 37 60 66 37 60 66 37 60 66 37 60 96 66 77 115 93 101 115 93 101 115 93 101 115 93 101 151 155 149 151 155 149 151 155 149 151 155 149 151 155 149 151 155 149 151 155 149 115 93 101 115 93 101 158 194 216 158 194 216 158 194 216 158 194 216 158 194 216 158 194 216 158 194 216 158 194 216 158 194 216 158 194 216 158 194 216 158 194 216 158 194 216 158 194 216 158 194 216 158 194 216 158 194 216 158 194 216 158 194 216 158 194 216 158 194 216 158 194 216 158 194 216 158 194 216 158 194 216 158 194 216 158 194 216 158 194 216 158 194 216 158 194 216 158 194 216 158 194 216 172 191 200 165 107 96 165 107 96 165 107 96 165 107 96 165 107 96 165 107 96 165 107 96 165 107 96 165 107 96 165 107 96 165 107 96 165 107 96 165 107 96 165 107 96 165 107 96 165 107 96 165 107 96 165 107 96 165 107 96 165 107 96 165 107 96 165 107 96 165 107 96 165 107 96 165 107 96 165 107 96 165 107 96 165 107 96 165 107 96 165 107 96 165 107 96 165 107 96 165 107 96 165 107 96 165 107 96 165 107 96 165 107 96 165 107 96 165 107 96 165 107 96 165 107 96 165 107 96 168 105 92 168 105 92 168 105 92 168 105 92 168 105 92 168 105 92 168 105 92 168 105 92 168 105 92 168 105 92 168 105 92 168 105 92 168 105 92 168 105 92 168 105 92 168 105 92 168 105 92 168 105 92 168 105 92 168 105 92 168 105 92 168 105 92 168 105 92 168 105 92 168 105 92 168 105 92 168 105 92 168 105 92 168 105 92 168 105 92 168 105 92 168 105 92 168 105 92 168 105 92 168 105 92 168 105 92 168 105 92 168 105 92 168 105 92 168 105 92 168 105 92 168 105 92 168 105 92 142 137 132 142 137 132 142 137 132 213 219 211 213 219 211 213 219 211 213 219 211 213 219 211 213 219 211 213 219 211 213 219 211 139 170 182 142 137 132 142 137 132 142 137 132 142 137 132 142 137 132 142 137 132 142 137 132 142 137 132 142 137 132 142 137 132 142 137 132 142 137 132 142 137 132 142 137 132 142 137 132 142 137 132 142 137 132 142 137 132 142 137 132 142 137 132 142 137 132 142 137 132 142 137 132 142 137 132 142 137 132 142 137 132 112 92 94 112 92 94 112 92 94 112 92 94 112 92 94 112 92 94 112 92 94 112 92 94 112 92 94 112 92 94 112 92 94 112 92 94 142 137 132 142 137 132 142 137 132 142 137 132 142 137 132 142 137 132 142 137 132 142 137 132 142 137 132 142 137 132 142 137 132 112 92 94 112 92 94 112 92 94 112 92 94 112 92 94 112 92 94 87 56 68 87 56 68 87 56 68 87 56 68 87 56 68 87 56 68 87 56 68 87 56 68 87 56 68 87 56 68 87 56 68 87 56 68 87 56 68 87 56 68 87 56 68 87 56 68 87 56 68 87 56 68 87 56 68 87 56 68 87 56 68 87 56 68 87 56 68 87 56 68 87 56 68 87 56 68 87 56 68 87 56 68 66 37 60 66 37 60 66 37 60 66 37 60 66 37 60 66 37 60 66 37 60 66 37 60 66 37 60 66 37 60 66 37 60 66 37 60 66 37 60 66 37 60 66 37 60 66 37 60 66 37 60 66 37 60 66 37 60 66 37 60 66 37 60 66 37 60 66 37 60 66 37 60 66 37 60 66 37 60 66 37 60 66 37 60 66 37 60 66 37 60 66 37 60 66 37 60 66 37 60 96 66 77 115 93 101 115 93 101 151 155 149 151 155 149 151 155 149 151 155 149 151 155 149 151 155 149 151 155 149 158 194 216 158 194 216 158 194 216 158 194 216 158 194 216 158 194 216 158 194 216 158 194 216 158 194 216 158 194 216 158 194 216 158 194 216 158 194 216 158 194 216 158 194 216 158 194 216 158 194 216 158 194 216 158 194 216 158 194 216 158 194 216 158 194 216 158 194 216 158 194 216 158 194 216 158 194 216 158 194 216 158 194 216 158 194 216 158 194 216 158 194 216 158 194 216 172 191 200 165 107 96 165 107 96 165 107 96 165 107 96 165 107 96 165 107 96 165 107 96 165 107 96 165 107 96 165 107 96 165 107 96 165 107 96 165 107 96 165 107 96 165 107 96 165 107 96 165 107 96 165 107 96 165 107 96 165 107 96 165 107 96 165 107 96 165 107 96 165 107 96 165 107 96 165 107 96 165 107 96 165 107 96 165 107 96 165 107 96 165 107 96 165 107 96 165 107 96 165 107 96 165 107 96 165 107 96 165 107 96 165 107 96 165 107 96 165 107 96 165 107 96 165 107 96 165 107 96 168 105 92 168 105 92 168 105 92 168 105 92 168 105 92 168 105 92 168 105 92 168 105 92 168 105 92 168 105 92 168 105 92 168 105 92 168 105 92 168 105 92 168 105 92 168 105 92 168 105 92 168 105 92 168 105 92 168 105 92 168 105 92 168 105 92 168 105 92 168 105 92 168 105 92 168 105 92 168 105 92 168 105 92 168 105 92 168 105 92 168 105 92 168 105 92 168 105 92 168 105 92 168 105 92 168 105 92 168 105 92 168 105 92 168 105 92 168 105 92 168 105 92 142 137 132 213 219 211 213 219 211 213 219 211 139 170 182 139 170 182 142 137 132 142 137 132 142 137 132 142 137 132 142 137 132 142 137 132 142 137 132 142 137 132 142 137 132 142 137 132 142 137 132 142 137 132 142 137 132 142 137 132 142 137 132 142 137 132 142 137 132 142 137 132 142 137 132 142 137 132 142 137 132 142 137 132 142 137 132 142 137 132 142 137 132 142 137 132 142 137 132 112 92 94 112 92 94 112 92 94 112 92 94 112 92 94 112 92 94 112 92 94 112 92 94 112 92 94 112 92 94 112 92 94 112 92 94 142 137 132 142 137 132 142 137 132 142 137 132 142 137 132 142 137 132 142 137 132 142 137 132 142 137 132 142 137 132 112 92 94 112 92 94 112 92 94 112 92 94 112 92 94 93 58 70 87 56 68 87 56 68 87 56 68 87 56 68 87 56 68 87 56 68 65 33 59 87 56 68 87 56 68 87 56 68 87 56 68 87 56 68 87 56 68 87 56 68 87 56 68 112 92 94 87 56 68 87 56 68 87 56 68 87 56 68 87 56 68 87 56 68 87 56 68 87 56 68 87 56 68 87 56 68 87 56 68 87 56 68 87 56 68 66 37 60 66 37 60 66 37 60 66 37 60 66 37 60 66 37 60 66 37 60 66 37 60 66 37 60 66 37 60 66 37 60 66 37 60 66 37 60 66 37 60 66 37 60 66 37 60 66 37 60 66 37 60 66 37 60 66 37 60 66 37 60 66 37 60 66 37 60 66 37 60 66 37 60 66 37 60 66 37 60 66 37 60 66 37 60 66 37 60 66 37 60 66 37 60 66 37 60 66 37 60 66 37 60 66 37 60 66 37 60 66 37 60 66 37 60 66 37 60 66 37 60 96 66 77 115 93 101 115 93 101 115 93 101 115 93 101 151 155 149 151 155 149 151 155 149 158 194 216 158 194 216 158 194 216 158 194 216 158 194 216 158 194 216 158 194 216 158 194 216 158 194 216 158 194 216 158 194 216 158 194 216 158 194 216 158 194 216 158 194 216 158 194 216 158 194 216 158 194 216 158 194 216 158 194 216 158 194 216 158 194 216 158 194 216 158 194 216 158 194 216 158 194 216 158 194 216 158 194 216 158 194 216 158 194 216 158 194 216 158 194 216 172 191 200 165 107 96 165 107 96 165 107 96 165 107 96 165 107 96 165 107 96 165 107 96 165 107 96 165 107 96 165 107 96 165 107 96 165 107 96 165 107 96 165 107 96 165 107 96 165 107 96 165 107 96 165 107 96 165 107 96 165 107 96 165 107 96 165 107 96 165 107 96 165 107 96 165 107 96 165 107 96 165 107 96 165 107 96 165 107 96 165 107 96 165 107 96 165 107 96 165 107 96 165 107 96 165 107 96 165 107 96 165 107 96 165 107 96 165 107 96 165 107 96 165 107 96 165 107 96 168 105 92 168 105 92 168 105 92 168 105 92 168 105 92 168 105 92 168 105 92 168 105 92 168 105 92 168 105 92 168 105 92 168 105 92 168 105 92 168 105 92 168 105 92 168 105 92 168 105 92 168 105 92 168 105 92 168 105 92 168 105 92 168 105 92 168 105 92 168 105 92 168 105 92 168 105 92 168 105 92 168 105 92 168 105 92 168 105 92 168 105 92 168 105 92 168 105 92 168 105 92 168 105 92 168 105 92 168 105 92 168 105 92 168 105 92 168 105 92 168 105 92 168 105 92 142 137 132 142 137 132 142 137 132 142 137 132 142 137 132 142 137 132 142 137 132 142 137 132 142 137 132 142 137 132 142 137 132 142 137 132 142 137 132 142 137 132 142 137 132 142 137 132 142 137 132 142 137 132 142 137 132 142 137 132 142 137 132 142 137 132 142 137 132 142 137 132 112 92 94 112 92 94 112 92 94 112 92 94 112 92 94 112 92 94 112 92 94 112 92 94 112 92 94 112 92 94 112 92 94 142 137 132 142 137 132 142 137 132 142 137 132 142 137 132 142 137 132 142 137 132 142 137 132 142 137 132 142 137 132 142 137 132 142 137 132 112 92 94 112 92 94 112 92 94 112 92 94 112 92 94 93 58 70 93 58 70 93 58 70 93 58 70 93 58 70 93 58 70 93 58 70 93 58 70 93 58 70 87 56 68 87 56 68 87 56 68 87 56 68 87 56 68 112 92 94 87 56 68 112 92 94 87 56 68 87 56 68 87 56 68 112 92 94 112 92 94 87 56 68 87 56 68 87 56 68 87 56 68 87 56 68 87 56 68 87 56 68 87 56 68 65 33 59 65 33 59 65 33 59 65 33 59 65 33 59 65 33 59 65 33 59 66 37 60 66 37 60 66 37 60 66 37 60 66 37 60 66 37 60 66 37 60 66 37 60 66 37 60 66 37 60 66 37 60 66 37 60 66 37 60 66 37 60 66 37 60 66 37 60 66 37 60 66 37 60 66 37 60 66 37 60 66 37 60 66 37 60 66 37 60 66 37 60 66 37 60 66 37 60 66 37 60 66 37 60 66 37 60 66 37 60 66 37 60 66 37 60 66 37 60 66 37 60 66 37 60 66 37 60 66 37 60 66 37 60 66 37 60 66 37 60 66 37 60 66 37 60 66 37 60 66 37 60 66 37 60 96 66 77 96 66 77 115 93 101 115 93 101 115 93 101 158 194 216 158 194 216 158 194 216 158 194 216 158 194 216 158 194 216 158 194 216 158 194 216 158 194 216 158 194 216 158 194 216 158 194 216 158 194 216 158 194 216 158 194 216 158 194 216 158 194 216 158 194 216 158 194 216 158 194 216 158 194 216 158 194 216 158 194 216 158 194 216 158 194 216 158 194 216 158 194 216 158 194 216 158 194 216 158 194 216 158 194 216 158 194 216 172 191 200 165 107 96 165 107 96 165 107 96 165 107 96 165 107 96 165 107 96 165 107 96 165 107 96 165 107 96 165 107 96 165 107 96 165 107 96 165 107 96 165 107 96 165 107 96 165 107 96 165 107 96 165 107 96 165 107 96 165 107 96 165 107 96 165 107 96 165 107 96 165 107 96 165 107 96 165 107 96 165 107 96 165 107 96 165 107 96 165 107 96 165 107 96 165 107 96 165 107 96 165 107 96 165 107 96 165 107 96 165 107 96 165 107 96 165 107 96 165 107 96 165 107 96 168 105 92 168 105 92 168 105 92 168 105 92 168 105 92 168 105 92 168 105 92 168 105 92 168 105 92 168 105 92 168 105 92 168 105 92 168 105 92 168 105 92 168 105 92 168 105 92 168 105 92 168 105 92 168 105 92 168 105 92 168 105 92 168 105 92 168 105 92 168 105 92 168 105 92 168 105 92 168 105 92 168 105 92 168 105 92 168 105 92 168 105 92 168 105 92 168 105 92 168 105 92 168 105 92 168 105 92 168 105 92 168 105 92 168 105 92 168 105 92 168 105 92 168 105 92 168 105 92 168 105 92 142 137 132 142 137 132 142 137 132 142 137 132 142 137 132 142 137 132 142 137 132 142 137 132 142 137 132 142 137 132 142 137 132 142 137 132 142 137 132 142 137 132 142 137 132 142 137 132 112 92 94 112 92 94 112 92 94 112 92 94 112 92 94 112 92 94 112 92 94 112 92 94 112 92 94 112 92 94 112 92 94 142 137 132 142 137 132 142 137 132 142 137 132 142 137 132 142 137 132 142 137 132 142 137 132 142 137 132 142 137 132 142 137 132 112 92 94 112 92 94 112 92 94 93 58 70 112 92 94 93 58 70 93 58 70 93 58 70 93 58 70 93 58 70 93 58 70 93 58 70 93 58 70 93 58 70 93 58 70 93 58 70 93 58 70 93 58 70 93 58 70 93 58 70 93 58 70 93 58 70 112 92 94 93 58 70 93 58 70 112 92 94 87 56 68 87 56 68 87 56 68 87 56 68 87 56 68 87 56 68 87 56 68 65 33 59 65 33 59 65 33 59 65 33 59 65 33 59 65 33 59 65 33 59 65 33 59 65 33 59 65 33 59 65 33 59 65 33 59 65 33 59 65 33 59 65 33 59 65 33 59 65 33 59 65 33 59 66 37 60 66 37 60 66 37 60 66 37 60 66 37 60 66 37 60 66 37 60 66 37 60 66 37 60 66 37 60 66 37 60 66 37 60 66 37 60 66 37 60 66 37 60 66 37 60 66 37 60 66 37 60 66 37 60 66 37 60 66 37 60 66 37 60 66 37 60 66 37 60 66 37 60 66 37 60 66 37 60 66 37 60 66 37 60 66 37 60 66 37 60 66 37 60 66 37 60 66 37 60 66 37 60 66 37 60 66 37 60 66 37 60 66 37 60 66 37 60 66 37 60 66 37 60 66 37 60 66 37 60 66 37 60 66 37 60 66 37 60 96 66 77 96 66 77 158 194 216 158 194 216 158 194 216 158 194 216 158 194 216 158 194 216 158 194 216 158 194 216 158 194 216 158 194 216 158 194 216 158 194 216 158 194 216 158 194 216 158 194 216 158 194 216 158 194 216 158 194 216 158 194 216 158 194 216 158 194 216 158 194 216 158 194 216 158 194 216 158 194 216 158 194 216 158 194 216 158 194 216 158 194 216 158 194 216 158 194 216 158 194 216 172 191 200 165 107 96 165 107 96 165 107 96 165 107 96 165 107 96 165 107 96 165 107 96 165 107 96 165 107 96 165 107 96 165 107 96 165 107 96 165 107 96 165 107 96 165 107 96 165 107 96 165 107 96 165 107 96 165 107 96 165 107 96 165 107 96 165 107 96 165 107 96 165 107 96 165 107 96 165 107 96 165 107 96 165 107 96 165 107 96 165 107 96 165 107 96 165 107 96 165 107 96 165 107 96 165 107 96 165 107 96 165 107 96 165 107 96 165 107 96 165 107 96 165 107 96 165 107 96 168 105 92 168 105 92 168 105 92 168 105 92 168 105 92 168 105 92 168 105 92 168 105 92 168 105 92 168 105 92 168 105 92 168 105 92 168 105 92 168 105 92 168 105 92 168 105 92 168 105 92 168 105 92 168 105 92 168 105 92 168 105 92 168 105 92 168 105 92 168 105 92 168 105 92 168 105 92 168 105 92 168 105 92 168 105 92 168 105 92 168 105 92 168 105 92 168 105 92 168 105 92 168 105 92 168 105 92 168 105 92 168 105 92 168 105 92 168 105 92 168 105 92 168 105 92 168 105 92 168 105 92 142 137 132 142 137 132 142 137 132 142 137 132 142 137 132 142 137 132 142 137 132 142 137 132 112 92 94 112 92 94 93 58 70 93 58 70 93 58 70 93 58 70 112 92 94 112 92 94 112 92 94 112 92 94 142 137 132 142 137 132 142 137 132 142 137 132 142 137 132 142 137 132 142 137 132 142 137 132 142 137 132 142 137 132 142 137 132 142 137 132 112 92 94 112 92 94 112 92 94 93 58 70 93 58 70 93 58 70 93 58 70 93 58 70 93 58 70 93 58 70 93 58 70 93 58 70 93 58 70 93 58 70 93 58 70 93 58 70 93 58 70 93 58 70 93 58 70 93 58 70 93 58 70 93 58 70 93 58 70 93 58 70 93 58 70 93 58 70 93 58 70 93 58 70 93 58 70 93 58 70 87 56 68 65 33 59 65 33 59 65 33 59 65 33 59 65 33 59 65 33 59 65 33 59 65 33 59 65 33 59 65 33 59 65 33 59 65 33 59 65 33 59 65 33 59 65 33 59 65 33 59 65 33 59 65 33 59 65 33 59 65 33 59 65 33 59 65 33 59 65 33 59 65 33 59 65 33 59 65 33 59 66 37 60 87 56 68 66 37 60 66 37 60 66 37 60 66 37 60 66 37 60 66 37 60 66 37 60 66 37 60 66 37 60 66 37 60 66 37 60 66 37 60 66 37 60 66 37 60 66 37 60 66 37 60 66 37 60 66 37 60 66 37 60 66 37 60 66 37 60 66 37 60 66 37 60 66 37 60 66 37 60 66 37 60 66 37 60 66 37 60 66 37 60 66 37 60 66 37 60 66 37 60 66 37 60 66 37 60 66 37 60 66 37 60 66 37 60 66 37 60 66 37 60 66 37 60 66 37 60 66 37 60 66 37 60 66 37 60 66 37 60 66 37 60 66 37 60 96 66 77 158 194 216 158 194 216 158 194 216 158 194 216 158 194 216 158 194 216 158 194 216 158 194 216 158 194 216 158 194 216 158 194 216 158 194 216 158 194 216 158 194 216 158 194 216 158 194 216 158 194 216 158 194 216 158 194 216 158 194 216 158 194 216 158 194 216 158 194 216 158 194 216 158 194 216 158 194 216 158 194 216 158 194 216 158 194 216 158 194 216 172 191 200 172 191 200 165 107 96 111 103 104 165 107 96 165 107 96 165 107 96 165 107 96 165 107 96 165 107 96 165 107 96 165 107 96 165 107 96 165 107 96 165 107 96 165 107 96 165 107 96 165 107 96 165 107 96 165 107 96 165 107 96 165 107 96 165 107 96 165 107 96 165 107 96 165 107 96 165 107 96 165 107 96 165 107 96 165 107 96 165 107 96 165 107 96 165 107 96 165 107 96 165 107 96 165 107 96 165 107 96 165 107 96 165 107 96 165 107 96 165 107 96 165 107 96 165 107 96 165 107 96 168 105 92 168 105 92 168 105 92 168 105 92 168 105 92 168 105 92 168 105 92 168 105 92 168 105 92 168 105 92 168 105 92 168 105 92 168 105 92 168 105 92 168 105 92 168 105 92 168 105 92 168 105 92 168 105 92 168 105 92 168 105 92 168 105 92 168 105 92 168 105 92 168 105 92 168 105 92 168 105 92 168 105 92 168 105 92 168 105 92 168 105 92 168 105 92 168 105 92 168 105 92 168 105 92 168 105 92 168 105 92 168 105 92 168 105 92 168 105 92 168 105 92 168 105 92 168 105 92 168 105 92 168 105 92 167 105 93 167 105 93 167 105 93 167 105 93 112 92 94 93 58 70 93 58 70 112 92 94 93 58 70 112 92 94 112 92 94 112 92 94 142 137 132 142 137 132 142 137 132 142 137 132 142 137 132 142 137 132 142 137 132 142 137 132 142 137 132 142 137 132 142 137 132 142 137 132 142 137 132 112 92 94 112 92 94 112 92 94 112 92 94 112 92 94 93 58 70 93 58 70 93 58 70 93 58 70 93 58 70 93 58 70 93 58 70 93 58 70 93 58 70 93 58 70 93 58 70 93 58 70 93 58 70 93 58 70 93 58 70 93 58 70 93 58 70 93 58 70 93 58 70 93 58 70 93 58 70 93 58 70 93 58 70 65 33 59 65 33 59 65 33 59 65 33 59 65 33 59 65 33 59 65 33 59 65 33 59 65 33 59 65 33 59 65 33 59 65 33 59 65 33 59 65 33 59 65 33 59 65 33 59 65 33 59 65 33 59 65 33 59 65 33 59 65 33 59 65 33 59 65 33 59 65 33 59 65 33 59 65 33 59 65 33 59 65 33 59 65 33 59 65 33 59 65 33 59 65 33 59 65 33 59 65 33 59 66 37 60 66 37 60 66 37 60 66 37 60 87 56 68 87 56 68 66 37 60 66 37 60 66 37 60 66 37 60 66 37 60 66 37 60 66 37 60 66 37 60 66 37 60 66 37 60 66 37 60 66 37 60 66 37 60 66 37 60 66 37 60 66 37 60 66 37 60 66 37 60 66 37 60 66 37 60 66 37 60 66 37 60 66 37 60 66 37 60 66 37 60 66 37 60 66 37 60 66 37 60 66 37 60 66 37 60 66 37 60 66 37 60 66 37 60 66 37 60 66 37 60 66 37 60 66 37 60 66 37 60 66 37 60 66 37 60 66 37 60 66 37 60 66 37 60 66 37 60 158 194 216 158 194 216 158 194 216 158 194 216 158 194 216 158 194 216 158 194 216 158 194 216 158 194 216 158 194 216 158 194 216 158 194 216 158 194 216 158 194 216 158 194 216 158 194 216 158 194 216 158 194 216 158 194 216 158 194 216 158 194 216 158 194 216 158 194 216 158 194 216 158 194 216 158 194 216 172 191 200 172 191 200 111 103 104 111 103 104 111 103 104 111 103 104 111 103 104 165 107 96 165 107 96 165 107 96 165 107 96 165 107 96 165 107 96 165 107 96 165 107 96 165 107 96 165 107 96 165 107 96 165 107 96 165 107 96 165 107 96 165 107 96 165 107 96 165 107 96 165 107 96 165 107 96 165 107 96 165 107 96 165 107 96 165 107 96 165 107 96 165 107 96 165 107 96 165 107 96 165 107 96 165 107 96 165 107 96 165 107 96 165 107 96 165 107 96 165 107 96 165 107 96 165 107 96 165 107 96 165 107 96 165 107 96 165 107 96 165 107 96 168 105 92 168 105 92 168 105 92 168 105 92 168 105 92 168 105 92 168 105 92 168 105 92 168 105 92 168 105 92 168 105 92 168 105 92 168 105 92 168 105 92 168 105 92 168 105 92 168 105 92 168 105 92 168 105 92 168 105 92 168 105 92 168 105 92 168 105 92 168 105 92 168 105 92 168 105 92 168 105 92 168 105 92 168 105 92 168 105 92 168 105 92 168 105 92 168 105 92 168 105 92 168 105 92 168 105 92 168 105 92 168 105 92 168 105 92 168 105 92 168 105 92 168 105 92 168 105 92 168 105 92 168 105 92 167 105 93 167 105 93 167 105 93 167 105 93 167 105 93 167 105 93 167 105 93 142 137 132 142 137 132 142 137 132 142 137 132 142 137 132 142 137 132 142 137 132 142 137 132 112 92 94 112 92 94 112 92 94 93 58 70 93 58 70 112 92 94 112 92 94 112 92 94 112 92 94 112 92 94 112 92 94 112 92 94 112 92 94 93 58 70 93 58 70 93 58 70 93 58 70 93 58 70 93 58 70 93 58 70 93 58 70 93 58 70 93 58 70 93 58 70 93 58 70 93 58 70 93 58 70 93 58 70 93 58 70 93 58 70 93 58 70 65 33 59 65 33 59 65 33 59 65 33 59 65 33 59 65 33 59 65 33 59 65 33 59 65 33 59 65 33 59 65 33 59 65 33 59 65 33 59 65 33 59 65 33 59 65 33 59 65 33 59 65 33 59 65 33 59 65 33 59 65 33 59 65 33 59 65 33 59 65 33 59 65 33 59 65 33 59 65 33 59 65 33 59 65 33 59 65 33 59 65 33 59 65 33 59 65 33 59 65 33 59 65 33 59 65 33 59 65 33 59 65 33 59 65 33 59 65 33 59 87 56 68 66 37 60 66 37 60 66 37 60 66 37 60 66 37 60 66 37 60 66 37 60 66 37 60 66 37 60 66 37 60 66 37 60 66 37 60 66 37 60 66 37 60 66 37 60 66 37 60 66 37 60 66 37 60 66 37 60 66 37 60 66 37 60 66 37 60 66 37 60 66 37 60 66 37 60 66 37 60 66 37 60 66 37 60 66 37 60 66 37 60 66 37 60 66 37 60 66 37 60 66 37 60 66 37 60 66 37 60 66 37 60 66 37 60 66 37 60 66 37 60 66 37 60 66 37 60 66 37 60 66 37 60 66 37 60 66 37 60 66 37 60 66 37 60 66 37 60 66 37 60 158 194 216 158 194 216 158 194 216 158 194 216 158 194 216 158 194 216 158 194 216 158 194 216 158 194 216 158 194 216 158 194 216 158 194 216 158 194 216 158 194 216 158 194 216 158 194 216 158 194 216 158 194 216 158 194 216 158 194 216 158 194 216 158 194 216 158 194 216 172 191 200 172 191 200 111 103 104 111 103 104 111 103 104 111 103 104 111 103 104 111 103 104 111 103 104 111 103 104 164 105 94 165 107 96 165 107 96 165 107 96 165 107 96 165 107 96 165 107 96 165 107 96 165 107 96 165 107 96 165 107 96 165 107 96 165 107 96 165 107 96 165 107 96 165 107 96 165 107 96 165 107 96 165 107 96 165 107 96 165 107 96 165 107 96 165 107 96 165 107 96 165 107 96 165 107 96 165 107 96 165 107 96 165 107 96 165 107 96 165 107 96 165 107 96 165 107 96 165 107 96 165 107 96 165 107 96 165 107 96 165 107 96 165 107 96 165 107 96 168 105 92 168 105 92 168 105 92 168 105 92 168 105 92 168 105 92 168 105 92 168 105 92 168 105 92 168 105 92 168 105 92 168 105 92 168 105 92 168 105 92 168 105 92 168 105 92 168 105 92 168 105 92 168 105 92 168 105 92 168 105 92 168 105 92 168 105 92 168 105 92 168 105 92 168 105 92 168 105 92 168 105 92 168 105 92 168 105 92 168 105 92 168 105 92 168 105 92 168 105 92 168 105 92 168 105 92 168 105 92 168 105 92 168 105 92 168 105 92 168 105 92 168 105 92 168 105 92 168 105 92 168 105 92 167 105 93 167 105 93 167 105 93 167 105 93 167 105 93 167 105 93 167 105 93 167 105 93 167 105 93 167 105 93 112 92 94 93 58 70 93 58 70 93 58 70 93 58 70 93 58 70 93 58 70 93 58 70 93 58 70 93 58 70 93 58 70 93 58 70 93 58 70 93 58 70 93 58 70 93 58 70 93 58 70 93 58 70 93 58 70 93 58 70 93 58 70 93 58 70 93 58 70 93 58 70 93 58 70 93 58 70 93 58 70 93 58 70 65 33 59 65 33 59 65 33 59 65 33 59 65 33 59 65 33 59 65 33 59 65 33 59 65 33 59 65 33 59 65 33 59 65 33 59 65 33 59 65 33 59 65 33 59 65 33 59 65 33 59 65 33 59 65 33 59 65 33 59 65 33 59 65 33 59 65 33 59 65 33 59 65 33 59 65 33 59 65 33 59 65 33 59 65 33 59 65 33 59 65 33 59 65 33 59 65 33 59 65 33 59 65 33 59 65 33 59 65 33 59 65 33 59 65 33 59 65 33 59 65 33 59 65 33 59 65 33 59 65 33 59 65 33 59 65 33 59 65 33 59 65 33 59 65 33 59 65 33 59 66 37 60 66 37 60 66 37 60 66 37 60 66 37 60 87 56 68 87 56 68 66 37 60 66 37 60 66 37 60 66 37 60 66 37 60 66 37 60 66 37 60 66 37 60 66 37 60 66 37 60 66 37 60 66 37 60 66 37 60 66 37 60 66 37 60 66 37 60 66 37 60 66 37 60 66 37 60 66 37 60 66 37 60 66 37 60 66 37 60 66 37 60 66 37 60 66 37 60 66 37 60 66 37 60 66 37 60 66 37 60 66 37 60 66 37 60 66 37 60 66 37 60 66 37 60 66 37 60 66 37 60 66 37 60 66 37 60 66 37 60 66 37 60 66 37 60 66 37 60 158 194 216 158 194 216 158 194 216 158 194 216 158 194 216 158 194 216 158 194 216 158 194 216 158 194 216 158 194 216 158 194 216 158 194 216 158 194 216 158 194 216 158 194 216 158 194 216 158 194 216 158 194 216 158 194 216 172 191 200 172 191 200 111 103 104 111 103 104 111 103 104 111 103 104 111 103 104 111 103 104 111 103 104 111 103 104 111 103 104 111 103 104 111 103 104 111 103 104 164 105 94 165 107 96 165 107 96 165 107 96 165 107 96 165 107 96 165 107 96 164 105 94 164 105 94 165 107 96 165 107 96 165 107 96 165 107 96 165 107 96 165 107 96 165 107 96 165 107 96 165 107 96 165 107 96 165 107 96 165 107 96 165 107 96 165 107 96 165 107 96 165 107 96 165 107 96 165 107 96 165 107 96 165 107 96 165 107 96 165 107 96 165 107 96 165 107 96 165 107 96 165 107 96 165 107 96 165 107 96 165 107 96 165 107 96 168 105 92 168 105 92 168 105 92 168 105 92 168 105 92 168 105 92 168 105 92 168 105 92 168 105 92 168 105 92 168 105 92 168 105 92 168 105 92 168 105 92 168 105 92 168 105 92 168 105 92 168 105 92 168 105 92 168 105 92 168 105 92 168 105 92 168 105 92 168 105 92 168 105 92 168 105 92 168 105 92 168 105 92 168 105 92 168 105 92 168 105 92 168 105 92 168 105 92 168 105 92 168 105 92 168 105 92 168 105 92 168 105 92 168 105 92 168 105 92 168 105 92 168 105 92 168 105 92 168 105 92 168 105 92 167 105 93 167 105 93 167 105 93 167 105 93 167 105 93 167 105 93 167 105 93 167 105 93 167 105 93 167 105 93 167 105 93 167 105 93 167 105 93 167 105 93 167 105 93 167 105 93 93 58 70 93 58 70 93 58 70 93 58 70 93 58 70 93 58 70 93 58 70 93 58 70 93 58 70 93 58 70 93 58 70 93 58 70 93 58 70 93 58 70 93 58 70 93 58 70 65 33 59 65 33 59 65 33 59 65 33 59 65 33 59 65 33 59 65 33 59 65 33 59 65 33 59 65 33 59 65 33 59 65 33 59 65 33 59 65 33 59 65 33 59 65 33 59 65 33 59 65 33 59 65 33 59 65 33 59 65 33 59 65 33 59 65 33 59 65 33 59 65 33 59 65 33 59 65 33 59 65 33 59 65 33 59 65 33 59 65 33 59 65 33 59 65 33 59 65 33 59 65 33 59 65 33 59 65 33 59 65 33 59 65 33 59 65 33 59 65 33 59 65 33 59 65 33 59 65 33 59 65 33 59 65 33 59 65 33 59 65 33 59 65 33 59 65 33 59 65 33 59 65 33 59 65 33 59 87 56 68 87 56 68 87 56 68 87 56 68 66 37 60 66 37 60 66 37 60 66 37 60 87 56 68 87 56 68 87 56 68 66 37 60 66 37 60 66 37 60 66 37 60 66 37 60 66 37 60 66 37 60 66 37 60 66 37 60 66 37 60 87 56 68 66 37 60 66 37 60 66 37 60 66 37 60 66 37 60 66 37 60 66 37 60 66 37 60 66 37 60 66 37 60 66 37 60 66 37 60 66 37 60 66 37 60 66 37 60 66 37 60 66 37 60 66 37 60 66 37 60 66 37 60 66 37 60 66 37 60 66 37 60 96 66 77 66 37 60 66 37 60 66 37 60 66 37 60 66 37 60 66 37 60 66 37 60 66 37 60 158 194 216 158 194 216 158 194 216 158 194 216 158 194 216 158 194 216 158 194 216 158 194 216 158 194 216 158 194 216 158 194 216 158 194 216 158 194 216 158 194 216 158 194 216 158 194 216 172 191 200 172 191 200 111 103 104 111 103 104 111 103 104 111 103 104 111 103 104 111 103 104 111 103 104 111 103 104 111 103 104 111 103 104 111 103 104 57 41 58 57 41 58 57 41 58 57 41 58 111 103 104 164 105 94 164 105 94 164 105 94 164 105 94 165 107 96 165 107 96 165 107 96 165 107 96 165 107 96 165 107 96 165 107 96 165 107 96 165 107 96 165 107 96 165 107 96 165 107 96 165 107 96 165 107 96 165 107 96 165 107 96 165 107 96 165 107 96 165 107 96 165 107 96 165 107 96 165 107 96 165 107 96 165 107 96 165 107 96 165 107 96 165 107 96 165 107 96 165 107 96 165 107 96 165 107 96 165 107 96 165 107 96 165 107 96 165 107 96 168 105 92 168 105 92 168 105 92 168 105 92 168 105 92 168 105 92 168 105 92 168 105 92 168 105 92 168 105 92 168 105 92 168 105 92 168 105 92 168 105 92 168 105 92 168 105 92 168 105 92 168 105 92 168 105 92 168 105 92 168 105 92 168 105 92 168 105 92 168 105 92 168 105 92 168 105 92 168 105 92 168 105 92 168 105 92 168 105 92 168 105 92 168 105 92 168 105 92 168 105 92 168 105 92 168 105 92 168 105 92 168 105 92 168 105 92 168 105 92 168 105 92 168 105 92 168 105 92 168 105 92 167 105 93 167 105 93 167 105 93 167 105 93 167 105 93 167 105 93 167 105 93 167 105 93 167 105 93 167 105 93 167 105 93 167 105 93 167 105 93 167 105 93 167 105 93 167 105 93 167 105 93 167 105 93 167 105 93 167 105 93 167 105 93 167 105 93 167 105 93 167 105 93 112 92 94 112 92 94 93 58 70 112 92 94 93 58 70 93 58 70 93 58 70 93 58 70 65 33 59 65 33 59 65 33 59 65 33 59 65 33 59 65 33 59 65 33 59 65 33 59 65 33 59 65 33 59 65 33 59 65 33 59 65 33 59 65 33 59 65 33 59 65 33 59 65 33 59 65 33 59 65 33 59 65 33 59 65 33 59 65 33 59 65 33 59 65 33 59 65 33 59 65 33 59 65 33 59 65 33 59 65 33 59 65 33 59 65 33 59 65 33 59 65 33 59 65 33 59 65 33 59 65 33 59 65 33 59 65 33 59 65 33 59 65 33 59 65 33 59 65 33 59 65 33 59 65 33 59 65 33 59 65 33 59 65 33 59 65 33 59 65 33 59 87 56 68 65 33 59 87 56 68 87 56 68 87 56 68 87 56 68 87 56 68 87 56 68 87 56 68 87 56 68 87 56 68 87 56 68 87 56 68 87 56 68 87 56 68 66 37 60 66 37 60 87 56 68 66 37 60 87 56 68 87 56 68 66 37 60 66 37 60 66 37 60 66 37 60 66 37 60 87 56 68 66 37 60 87 56 68 66 37 60 66 37 60 66 37 60 66 37 60 66 37 60 66 37 60 66 37 60 66 37 60 66 37 60 66 37 60 66 37 60 66 37 60 66 37 60 66 37 60 66 37 60 66 37 60 66 37 60 66 37 60 66 37 60 96 66 77 96 66 77 66 37 60 66 37 60 66 37 60 66 37 60 66 37 60 66 37 60 66 37 60 66 37 60 158 194 216 158 194 216 158 194 216 158 194 216 158 194 216 158 194 216 158 194 216 158 194 216 158 194 216 158 194 216 158 194 216 172 191 200 172 191 200 172 191 200 111 103 104 111 103 104 111 103 104 111 103 104 111 103 104 111 103 104 111 103 104 111 103 104 111 103 104 111 103 104 111 103 104 111 103 104 57 41 58 57 41 58 57 41 58 57 41 58 57 41 58 57 41 58 111 103 104 164 105 94 164 105 94 164 105 94 164 105 94 164 105 94 164 105 94 164 105 94 164 105 94 164 105 94 164 105 94 164 105 94 164 105 94 164 105 94 164 105 94 164 105 94 164 105 94 165 107 96 165 107 96 164 105 94 164 105 94 164 105 94 165 107 96 164 105 94 164 105 94 164 105 94 164 105 94 164 105 94 165 107 96 165 107 96 165 107 96 165 107 96 165 107 96 165 107 96 165 107 96 165 107 96 165 107 96 165 107 96 165 107 96 165 107 96 165 104 92 165 104 92 165 104 92 165 104 92 168 105 92 165 104 92 168 105 92 168 105 92 168 105 92 168 105 92 168 105 92 168 105 92 168 105 92 168 105 92 168 105 92 168 105 92 168 105 92 168 105 92 168 105 92 168 105 92 168 105 92 168 105 92 168 105 92 168 105 92 168 105 92 168 105 92 168 105 92 168 105 92 168 105 92 168 105 92 168 105 92 168 105 92 168 105 92 168 105 92 168 105 92 168 105 92 168 105 92 168 105 92 168 105 92 168 105 92 168 105 92 168 105 92 168 105 92 168 105 92 167 105 93 167 105 93 167 105 93 167 105 93 167 105 93 167 105 93 167 105 93 167 105 93 167 105 93 167 105 93 167 105 93 167 105 93 167 105 93 167 105 93 167 105 93 167 105 93 167 105 93 167 105 93 167 105 93 167 105 93 167 105 93 167 105 93 167 105 93 167 105 93 167 105 93 167 105 93 167 105 93 167 105 93 167 105 93 167 105 93 167 105 93 167 105 93 112 92 94 93 58 70 65 33 59 65 33 59 65 33 59 65 33 59 65 33 59 65 33 59 65 33 59 65 33 59 65 33 59 65 33 59 65 33 59 65 33 59 65 33 59 65 33 59 65 33 59 65 33 59 65 33 59 65 33 59 65 33 59 65 33 59 65 33 59 65 33 59 65 33 59 65 33 59 65 33 59 65 33 59 65 33 59 65 33 59 65 33 59 65 33 59 65 33 59 87 56 68 65 33 59 65 33 59 65 33 59 65 33 59 65 33 59 65 33 59 65 33 59 65 33 59 65 33 59 65 33 59 65 33 59 87 56 68 65 33 59 87 56 68 65 33 59 87 56 68 87 56 68 87 56 68 87 56 68 87 56 68 87 56 68 87 56 68 87 56 68 87 56 68 87 56 68 87 56 68 87 56 68 87 56 68 87 56 68 87 56 68 87 56 68 87 56 68 87 56 68 87 56 68 66 37 60 66 37 60 87 56 68 87 56 68 66 37 60 87 56 68 87 56 68 87 56 68 87 56 68 87 56 68 87 56 68 66 37 60 87 56 68 66 37 60 66 37 60 66 37 60 66 37 60 66 37 60 66 37 60 66 37 60 66 37 60 66 37 60 66 37 60 66 37 60 66 37 60 66 37 60 66 37 60 66 37 60 66 37 60 96 66 77 96 66 77 66 37 60 66 37 60 66 37 60 66 37 60 66 37 60 66 37 60 66 37 60 66 37 60 96 66 77 158 194 216 158 194 216 158 194 216 158 194 216 158 194 216 158 194 216 158 194 216 158 194 216 172 191 200 172 191 200 172 191 200 111 103 104 111 103 104 111 103 104 111 103 104 111 103 104 111 103 104 111 103 104 111 103 104 111 103 104 111 103 104 111 103 104 111 103 104 111 103 104 111 103 104 111 103 104 111 103 104 57 41 58 57 41 58 57 41 58 57 41 58 57 41 58 111 103 104 164 105 94 164 105 94 164 105 94 164 105 94 164 105 94 164 105 94 164 105 94 164 105 94 164 105 94 164 105 94 164 105 94 164 105 94 164 105 94 164 105 94 164 105 94 164 105 94 164 105 94 164 105 94 164 105 94 164 105 94 164 105 94 164 105 94 164 105 94 164 105 94 164 105 94 164 105 94 164 105 94 164 105 94 164 105 94 164 105 94 164 105 94 164 105 94 164 105 94 164 105 94 164 105 94 164 105 94 164 105 94 164 105 94 165 104 92 165 104 92 165 104 92 165 104 92 165 104 92 165 104 92 165 104 92 165 104 92 168 105 92 168 105 92 168 105 92 168 105 92 168 105 92 168 105 92 168 105 92 168 105 92 168 105 92 168 105 92 168 105 92 168 105 92 168 105 92 168 105 92 168 105 92 168 105 92 168 105 92 168 105 92 168 105 92 168 105 92 168 105 92 168 105 92 168 105 92 168 105 92 168 105 92 168 105 92 168 105 92 168 105 92 168 105 92 168 105 92 168 105 92 168 105 92 168 105 92 168 105 92 168 105 92 168 105 92 167 105 93 167 105 93 167 105 93 167 105 93 167 105 93 167 105 93 167 105 93 167 105 93 167 105 93 167 105 93 167 105 93 167 105 93 167 105 93 167 105 93 167 105 93 167 105 93 167 105 93 167 105 93 167 105 93 167 105 93 167 105 93 167 105 93 167 105 93 167 105 93 167 105 93 167 105 93 167 105 93 167 105 93 167 105 93 167 105 93 167 105 93 167 105 93 167 105 93 167 105 93 93 58 70 65 33 59 65 33 59 65 33 59 65 33 59 65 33 59 65 33 59 65 33 59 65 33 59 65 33 59 93 58 70 65 33 59 65 33 59 65 33 59 65 33 59 65 33 59 65 33 59 65 33 59 65 33 59 65 33 59 65 33 59 65 33 59 65 33 59 65 33 59 65 33 59 65 33 59 65 33 59 65 33 59 65 33 59 65 33 59 65 33 59 65 33 59 65 33 59 65 33 59 65 33 59 65 33 59 65 33 59 65 33 59 65 33 59 65 33 59 65 33 59 65 33 59 65 33 59 65 33 59 87 56 68 65 33 59 87 56 68 65 33 59 65 33 59 87 56 68 87 56 68 65 33 59 87 56 68 87 56 68 87 56 68 87 56 68 87 56 68 87 56 68 87 56 68 87 56 68 87 56 68 87 56 68 87 56 68 87 56 68 87 56 68 87 56 68 87 56 68 87 56 68 87 56 68 87 56 68 87 56 68 87 56 68 87 56 68 87 56 68 87 56 68 87 56 68 66 37 60 87 56 68 66 37 60 87 56 68 66 37 60 66 37 60 66 37 60 66 37 60 66 37 60 66 37 60 66 37 60 66 37 60 66 37 60 66 37 60 66 37 60 66 37 60 66 37 60 96 66 77 96 66 77 96 66 77 96 66 77 96 66 77 66 37 60 66 37 60 66 37 60 66 37 60 66 37 60 66 37 60 66 37 60 66 37 60 96 66 77 158 194 216 158 194 216 158 194 216 158 194 216 158 194 216 158 194 216 172 191 200 172 191 200 111 103 104 111 103 104 111 103 104 111 103 104 111 103 104 111 103 104 111 103 104 111 103 104 111 103 104 111 103 104 111 103 104 111 103 104 111 103 104 111 103 104 111 103 104 111 103 104 111 103 104 111 103 104 111 103 104 111 103 104 57 41 58 57 41 58 57 41 58 57 41 58 111 103 104 164 105 94 164 105 94 164 105 94 164 105 94 164 105 94 164 105 94 164 105 94 164 105 94 164 105 94 164 105 94 164 105 94 164 105 94 164 105 94 164 105 94 164 105 94 164 105 94 164 105 94 164 105 94 164 105 94 164 105 94 164 105 94 164 105 94 164 105 94 164 105 94 164 105 94 164 105 94 164 105 94 164 105 94 164 105 94 164 105 94 164 105 94 164 105 94 164 105 94 164 105 94 164 105 94 164 105 94 165 107 96 165 107 96 165 104 92 165 104 92 165 104 92 165 104 92 165 104 92 165 104 92 165 104 92 165 104 92 165 104 92 165 104 92 165 104 92 168 105 92 168 105 92 168 105 92 168 105 92 168 105 92 168 105 92 168 105 92 168 105 92 168 105 92 168 105 92 168 105 92 168 105 92 168 105 92 168 105 92 168 105 92 168 105 92 168 105 92 168 105 92 168 105 92 168 105 92 168 105 92 168 105 92 168 105 92 168 105 92 168 105 92 168 105 92 168 105 92 168 105 92 168 105 92 168 105 92 168 105 92 168 105 92 167 105 93 167 105 93 167 105 93 167 105 93 167 105 93 167 105 93 167 105 93 167 105 93 167 105 93 167 105 93 167 105 93 167 105 93 167 105 93 167 105 93 167 105 93 167 105 93 167 105 93 167 105 93 167 105 93 167 105 93 167 105 93 167 105 93 167 105 93 167 105 93 167 105 93 167 105 93 167 105 93 167 105 93 167 105 93 167 105 93 167 105 93 167 105 93 167 105 93 167 105 93 142 137 132 93 58 70 65 33 59 65 33 59 65 33 59 65 33 59 65 33 59 65 33 59 65 33 59 65 33 59 65 33 59 65 33 59 65 33 59 65 33 59 65 33 59 65 33 59 65 33 59 65 33 59 65 33 59 65 33 59 65 33 59 65 33 59 65 33 59 65 33 59 65 33 59 65 33 59 65 33 59 65 33 59 65 33 59 65 33 59 65 33 59 65 33 59 65 33 59 65 33 59 65 33 59 65 33 59 65 33 59 65 33 59 65 33 59 65 33 59 65 33 59 65 33 59 65 33 59 87 56 68 65 33 59 65 33 59 65 33 59 87 56 68 87 56 68 65 33 59 87 56 68 65 33 59 65 33 59 87 56 68 87 56 68 87 56 68 87 56 68 87 56 68 87 56 68 87 56 68 87 56 68 87 56 68 87 56 68 87 56 68 87 56 68 87 56 68 87 56 68 87 56 68 87 56 68 87 56 68 87 56 68 87 56 68 87 56 68 87 56 68 87 56 68 87 56 68 87 56 68 87 56 68 66 37 60 66 37 60 87 56 68 66 37 60 87 56 68 66 37 60 66 37 60 66 37 60 66 37 60 66 37 60 66 37 60 66 37 60 66 37 60 66 37 60 66 37 60 66 37 60 96 66 77 96 66 77 151 155 149 151 155 149 115 93 101 66 37 60 66 37 60 66 37 60 66 37 60 66 37 60 66 37 60 66 37 60 66 37 60 96 66 77 158 194 216 158 194 216 172 191 200 172 191 200 111 103 104 111 103 104 111 103 104 111 103 104 111 103 104 111 103 104 111 103 104 111 103 104 111 103 104 111 103 104 111 103 104 111 103 104 111 103 104 111 103 104 111 103 104 111 103 104 111 103 104 111 103 104 111 103 104 111 103 104 111 103 104 111 103 104 111 103 104 57 41 58 57 41 58 57 41 58 57 41 58 57 41 58 111 103 104 164 105 94 164 105 94 164 105 94 164 105 94 164 105 94 164 105 94 164 105 94 164 105 94 164 105 94 164 105 94 164 105 94 164 105 94 164 105 94 164 105 94 164 105 94 164 105 94 164 105 94 164 105 94 164 105 94 164 105 94 164 105 94 164 105 94 164 105 94 164 105 94 164 105 94 164 105 94 164 105 94 164 105 94 164 105 94 164 105 94 164 105 94 164 105 94 164 105 94 164 105 94 164 105 94 164 105 94 164 105 94 164 105 94 165 104 92 165 104 92 165 104 92 165 104 92 165 104 92 165 104 92 165 104 92 165 104 92 165 104 92 165 104 92 165 104 92 165 104 92 165 104 92 168 105 92 168 105 92 168 105 92 168 105 92 168 105 92 168 105 92 168 105 92 168 105 92 168 105 92 168 105 92 168 105 92 168 105 92 168 105 92 168 105 92 168 105 92 168 105 92 168 105 92 168 105 92 168 105 92 168 105 92 168 105 92 168 105 92 168 105 92 168 105 92 168 105 92 168 105 92 168 105 92 168 105 92 168 105 92 167 105 93 167 105 93 167 105 93 167 105 93 167 105 93 167 105 93 167 105 93 167 105 93 167 105 93 167 105 93 167 105 93 167 105 93 167 105 93 167 105 93 167 105 93 167 105 93 167 105 93 167 105 93 167 105 93 167 105 93 167 105 93 167 105 93 167 105 93 167 105 93 167 105 93 167 105 93 167 105 93 167 105 93 167 105 93 167 105 93 167 105 93 167 105 93 167 105 93 167 105 93 167 105 93 142 137 132 93 58 70 65 33 59 65 33 59 65 33 59 65 33 59 65 33 59 65 33 59 65 33 59 65 33 59 65 33 59 65 33 59 65 33 59 65 33 59 65 33 59 65 33 59 65 33 59 65 33 59 65 33 59 65 33 59 65 33 59 65 33 59 65 33 59 65 33 59 65 33 59 65 33 59 65 33 59 65 33 59 65 33 59 65 33 59 65 33 59 65 33 59 65 33 59 65 33 59 65 33 59 65 33 59 65 33 59 65 33 59 65 33 59 65 33 59 65 33 59 87 56 68 65 33 59 87 56 68 65 33 59 65 33 59 87 56 68 65 33 59 87 56 68 87 56 68 87 56 68 87 56 68 87 56 68 87 56 68 87 56 68 87 56 68 87 56 68 87 56 68 87 56 68 87 56 68 87 56 68 87 56 68 87 56 68 87 56 68 87 56 68 87 56 68 87 56 68 87 56 68 87 56 68 87 56 68 87 56 68 87 56 68 87 56 68 87 56 68 87 56 68 87 56 68 87 56 68 87 56 68 87 56 68 87 56 68 87 56 68 87 56 68 87 56 68 66 37 60 96 66 77 96 66 77 96 66 77 96 66 77 66 37 60 66 37 60 66 37 60 66 37 60 66 37 60 66 37 60 96 66 77 115 93 101 151 155 149 151 155 149 151 155 149 66 37 60 96 66 77 96 66 77 96 66 77 66 37 60 66 37 60 66 37 60 66 37 60 96 66 77 172 191 200 111 103 104 111 103 104 111 103 104 111 103 104 111 103 104 111 103 104 111 103 104 111 103 104 111 103 104 111 103 104 111 103 104 111 103 104 111 103 104 111 103 104 111 103 104 111 103 104 111 103 104 111 103 104 111 103 104 111 103 104 111 103 104 111 103 104 111 103 104 111 103 104 111 103 104 57 41 58 57 41 58 57 41 58 57 41 58 111 103 104 111 103 104 111 103 104 164 105 94 164 105 94 164 105 94 164 105 94 164 105 94 164 105 94 164 105 94 164 105 94 164 105 94 164 105 94 164 105 94 164 105 94 164 105 94 164 105 94 164 105 94 164 105 94 164 105 94 164 105 94 164 105 94 164 105 94 164 105 94 164 105 94 164 105 94 164 105 94 164 105 94 164 105 94 164 105 94 164 105 94 164 105 94 164 105 94 164 105 94 164 105 94 164 105 94 164 105 94 164 105 94 164 105 94 164 105 94 164 105 94 165 104 92 165 104 92 165 104 92 165 104 92 165 104 92 165 104 92 165 104 92 165 104 92 165 104 92 165 104 92 165 104 92 165 104 92 165 104 92 165 104 92 165 104 92 165 104 92 165 104 92 165 104 92 165 104 92 168 105 92 168 105 92 168 105 92 168 105 92 168 105 92 168 105 92 168 105 92 168 105 92 168 105 92 168 105 92 168 105 92 168 105 92 168 105 92 168 105 92 168 105 92 168 105 92 168 105 92 168 105 92 168 105 92 168 105 92 168 105 92 168 105 92 167 105 93 167 105 93 167 105 93 167 105 93 167 105 93 167 105 93 167 105 93 167 105 93 167 105 93 167 105 93 167 105 93 167 105 93 167 105 93 167 105 93 167 105 93 167 105 93 167 105 93 167 105 93 167 105 93 167 105 93 167 105 93 167 105 93 167 105 93 167 105 93 167 105 93 167 105 93 167 105 93 167 105 93 167 105 93 167 105 93 167 105 93 167 105 93 167 105 93 167 105 93 167 105 93 142 137 132 142 137 132 93 58 70 65 33 59 65 33 59 65 33 59 65 33 59 65 33 59 65 33 59 65 33 59 65 33 59 65 33 59 65 33 59 65 33 59 65 33 59 65 33 59 65 33 59 65 33 59 65 33 59 65 33 59 65 33 59 93 58 70 65 33 59 65 33 59 65 33 59 65 33 59 65 33 59 65 33 59 65 33 59 65 33 59 65 33 59 65 33 59 65 33 59 65 33 59 65 33 59 65 33 59 65 33 59 65 33 59 65 33 59 65 33 59 87 56 68 65 33 59 87 56 68 87 56 68 87 56 68 65 33 59 87 56 68 87 56 68 87 56 68 87 56 68 87 56 68 87 56 68 87 56 68 87 56 68 87 56 68 87 56 68 87 56 68 87 56 68 87 56 68 87 56 68 87 56 68 87 56 68 87 56 68 87 56 68 87 56 68 87 56 68 87 56 68 87 56 68 87 56 68 87 56 68 87 56 68 87 56 68 87 56 68 87 56 68 87 56 68 87 56 68 87 56 68 87 56 68 87 56 68 87 56 68 87 56 68 96 66 77 96 66 77 87 56 68 96 66 77 96 66 77 66 37 60 96 66 77 66 37 60 66 37 60 66 37 60 66 37 60 66 37 60 96 66 77 66 37 60 96 66 77 96 66 77 151 155 149 151 155 149 115 93 101 66 37 60 96 66 77 96 66 77 96 66 77 96 66 77 66 37 60 66 37 60 66 37 60 96 66 77 111 103 104 111 103 104 111 103 104 111 103 104 111 103 104 111 103 104 111 103 104 111 103 104 111 103 104 111 103 104 111 103 104 111 103 104 111 103 104 111 103 104 111 103 104 111 103 104 111 103 104 111 103 104 111 103 104 111 103 104 111 103 104 111 103 104 111 103 104 111 103 104 111 103 104 111 103 104 111 103 104 111 103 104 111 103 104 111 103 104 164 105 94 164 105 94 164 105 94 164 105 94 164 105 94 164 105 94 164 105 94 164 105 94 164 105 94 164 105 94 164 105 94 164 105 94 164 105 94 164 105 94 164 105 94 164 105 94 164 105 94 164 105 94 164 105 94 164 105 94 164 105 94 164 105 94 164 105 94 164 105 94 164 105 94 164 105 94 164 105 94 164 105 94 164 105 94 164 105 94 164 105 94 164 105 94 164 105 94 164 105 94 164 105 94 164 105 94 164 105 94 164 105 94 164 105 94 164 105 94 164 105 94 165 104 92 165 104 92 165 104 92 165 104 92 165 104 92 165 104 92 165 104 92 165 104 92 165 104 92 165 104 92 165 104 92 165 104 92 165 104 92 165 104 92 165 104 92 165 104 92 165 104 92 165 104 92 165 104 92 165 104 92 165 104 92 168 105 92 168 105 92 168 105 92 168 105 92 168 105 92 168 105 92 168 105 92 168 105 92 168 105 92 168 105 92 168 105 92 168 105 92 168 105 92 168 105 92 168 105 92 168 105 92 168 105 92 168 105 92 168 105 92 167 105 93 167 105 93 167 105 93 167 105 93 167 105 93 167 105 93 167 105 93 167 105 93 167 105 93 167 105 93 167 105 93 167 105 93 167 105 93 167 105 93 167 105 93 167 105 93 167 105 93 167 105 93 167 105 93 167 105 93 167 105 93 167 105 93 167 105 93 167 105 93 167 105 93 167 105 93 167 105 93 167 105 93 167 105 93 167 105 93 167 105 93 167 105 93 167 105 93 167 105 93 167 105 93 142 137 132 142 137 132 142 137 132 93 58 70 65 33 59 65 33 59 65 33 59 65 33 59 65 33 59 65 33 59 93 58 70 65 33 59 65 33 59 65 33 59 65 33 59 65 33 59 65 33 59 65 33 59 65 33 59 65 33 59 65 33 59 65 33 59 93 58 70 65 33 59 65 33 59 65 33 59 65 33 59 65 33 59 65 33 59 65 33 59 65 33 59 65 33 59 65 33 59 65 33 59 93 58 70 65 33 59 65 33 59 65 33 59 65 33 59 87 56 68 87 56 68 87 56 68 87 56 68 87 56 68 87 56 68 87 56 68 87 56 68 87 56 68 65 33 59 87 56 68 87 56 68 87 56 68 87 56 68 87 56 68 87 56 68 87 56 68 87 56 68 87 56 68 87 56 68 87 56 68 87 56 68 87 56 68 87 56 68 87 56 68 87 56 68 87 56 68 87 56 68 87 56 68 87 56 68 87 56 68 87 56 68 87 56 68 87 56 68 87 56 68 87 56 68 87 56 68 87 56 68 87 56 68 87 56 68 87 56 68 87 56 68 87 56 68 96 66 77 96 66 77 66 37 60 96 66 77 96 66 77 96 66 77 96 66 77 96 66 77 96 66 77 96 66 77 96 66 77 96 66 77 96 66 77 96 66 77 96 66 77 96 66 77 96 66 77 96 66 77 66 37 60 66 37 60 66 37 60 96 66 77 96 66 77 96 66 77 66 37 60 66 37 60 66 37 60 96 66 77 111 103 104 111 103 104 111 103 104 111 103 104 111 103 104 111 103 104 111 103 104 111 103 104 111 103 104 111 103 104 111 103 104 111 103 104 111 103 104 111 103 104 111 103 104 111 103 104 111 103 104 111 103 104 111 103 104 111 103 104 111 103 104 111 103 104 111 103 104 111 103 104 111 103 104 111 103 104 111 103 104 111 103 104 164 105 94 172 191 200 172 191 200 172 191 200 164 105 94 164 105 94 164 105 94 164 105 94 164 105 94 164 105 94 164 105 94 164 105 94 164 105 94 164 105 94 164 105 94 164 105 94 164 105 94 164 105 94 164 105 94 164 105 94 164 105 94 164 105 94 164 105 94 164 105 94 164 105 94 164 105 94 164 105 94 164 105 94 164 105 94 164 105 94 164 105 94 164 105 94 164 105 94 164 105 94 164 105 94 164 105 94 164 105 94 164 105 94 164 105 94 164 105 94 164 105 94 164 105 94 165 104 92 165 104 92 165 104 92 165 104 92 165 104 92 165 104 92 165 104 92 165 104 92 165 104 92 165 104 92 165 104 92 165 104 92 165 104 92 165 104 92 165 104 92 165 104 92 165 104 92 165 104 92 165 104 92 165 104 92 165 104 92 165 104 92 165 104 92 165 104 92 168 105 92 168 105 92 168 105 92 168 105 92 168 105 92 168 105 92 168 105 92 168 105 92 168 105 92 168 105 92 168 105 92 168 105 92 168 105 92 168 105 92 168 105 92 168 105 92 167 105 93 167 105 93 167 105 93 167 105 93 167 105 93 167 105 93 167 105 93 167 105 93 167 105 93 167 105 93 167 105 93 167 105 93 167 105 93 167 105 93 167 105 93 167 105 93 167 105 93 167 105 93 167 105 93 167 105 93 167 105 93 167 105 93 167 105 93 167 105 93 167 105 93 167 105 93 167 105 93 167 105 93 167 105 93 167 105 93 167 105 93 167 105 93 167 105 93 167 105 93 167 105 93 167 105 93 167 105 93 142 137 132 142 137 132 93 58 70 65 33 59 65 33 59 65 33 59 65 33 59 65 33 59 65 33 59 65 33 59 65 33 59 93 58 70 93 58 70 65 33 59 65 33 59 65 33 59 65 33 59 65 33 59 65 33 59 65 33 59 93 58 70 65 33 59 65 33 59 93 58 70 65 33 59 93 58 70 65 33 59 93 58 70 93 58 70 93 58 70 65 33 59 93 58 70 65 33 59 93 58 70 65 33 59 93 58 70 93 58 70 65 33 59 87 56 68 87 56 68 87 56 68 87 56 68 87 56 68 87 56 68 87 56 68 87 56 68 87 56 68 87 56 68 87 56 68 87 56 68 87 56 68 87 56 68 87 56 68 87 56 68 87 56 68 87 56 68 87 56 68 87 56 68 87 56 68 87 56 68 87 56 68 87 56 68 87 56 68 87 56 68 87 56 68 87 56 68 87 56 68 87 56 68 87 56 68 87 56 68 87 56 68 87 56 68 87 56 68 87 56 68 87 56 68 87 56 68 87 56 68 87 56 68 87 56 68 96 66 77 96 66 77 96 66 77 96 66 77 96 66 77 96 66 77 96 66 77 96 66 77 96 66 77 96 66 77 96 66 77 96 66 77 96 66 77 96 66 77 96 66 77 96 66 77 96 66 77 96 66 77 96 66 77 96 66 77 66 37 60 66 37 60 66 37 60 66 37 60 66 37 60 66 37 60 66 37 60 66 37 60 66 37 60 96 66 77 111 103 104 111 103 104 111 103 104 111 103 104 111 103 104 111 103 104 111 103 104 111 103 104 111 103 104 111 103 104 111 103 104 111 103 104 111 103 104 111 103 104 111 103 104 111 103 104 57 41 58 57 41 58 57 41 58 57 41 58 57 41 58 57 41 58 57 41 58 111 103 104 111 103 104 164 105 94 172 191 200 172 191 200 172 191 200 172 191 200 172 191 200 172 191 200 172 191 200 164 105 94 164 105 94 164 105 94 164 105 94 164 105 94 164 105 94 164 105 94 164 105 94 164 105 94 164 105 94 164 105 94 164 105 94 164 105 94 164 105 94 164 105 94 164 105 94 164 105 94 164 105 94 164 105 94 164 105 94 164 105 94 164 105 94 164 105 94 164 105 94 164 105 94 164 105 94 164 105 94 164 105 94 164 105 94 164 105 94 164 105 94 164 105 94 164 105 94 164 105 94 164 105 94 164 105 94 164 105 94 164 105 94 165 104 92 165 104 92 165 104 92 165 104 92 165 104 92 165 104 92 165 104 92 165 104 92 165 104 92 165 104 92 165 104 92 165 104 92 165 104 92 165 104 92 165 104 92 165 104 92 165 104 92 165 104 92 165 104 92 165 104 92 165 104 92 165 104 92 165 104 92 165 104 92 165 104 92 168 105 92 165 104 92 165 104 92 165 104 92 165 104 92 168 105 92 168 105 92 168 105 92 168 105 92 168 105 92 168 105 92 168 105 92 168 105 92 168 105 92 167 105 93 167 105 93 167 105 93 167 105 93 167 105 93 167 105 93 167 105 93 167 105 93 167 105 93 167 105 93 167 105 93 167 105 93 167 105 93 167 105 93 167 105 93 167 105 93 167 105 93 167 105 93 167 105 93 167 105 93 167 105 93 167 105 93 167 105 93 167 105 93 167 105 93 167 105 93 167 105 93 167 105 93 167 105 93 167 105 93 167 105 93 167 105 93 167 105 93 167 105 93 167 105 93 167 105 93 167 105 93 142 137 132 142 137 132 93 58 70 65 33 59 93 58 70 65 33 59 65 33 59 65 33 59 65 33 59 65 33 59 65 33 59 93 58 70 93 58 70 65 33 59 93 58 70 93 58 70 93 58 70 93 58 70 93 58 70 93 58 70 93 58 70 93 58 70 93 58 70 93 58 70 65 33 59 93 58 70 65 33 59 93 58 70 93 58 70 93 58 70 93 58 70 93 58 70 93 58 70 65 33 59 65 33 59 65 33 59 93 58 70 87 56 68 87 56 68 87 56 68 87 56 68 87 56 68 87 56 68 87 56 68 87 56 68 87 56 68 87 56 68 87 56 68 87 56 68 87 56 68 87 56 68 87 56 68 87 56 68 87 56 68 87 56 68 87 56 68 87 56 68 87 56 68 87 56 68 87 56 68 87 56 68 87 56 68 87 56 68 87 56 68 87 56 68 87 56 68 87 56 68 87 56 68 87 56 68 87 56 68 87 56 68 87 56 68 87 56 68 87 56 68 87 56 68 87 56 68 87 56 68 96 66 77 96 66 77 87 56 68 96 66 77 96 66 77 96 66 77 96 66 77 96 66 77 96 66 77 96 66 77 96 66 77 96 66 77 96 66 77 96 66 77 96 66 77 96 66 77 66 37 60 66 37 60 96 66 77 96 66 77 96 66 77 96 66 77 66 37 60 66 37 60 66 37 60 66 37 60 66 37 60 66 37 60 66 37 60 66 37 60 66 37 60 96 66 77 111 103 104 111 103 104 111 103 104 111 103 104 111 103 104 111 103 104 111 103 104 111 103 104 111 103 104 111 103 104 111 103 104 111 103 104 111 103 104 111 103 104 111 103 104 111 103 104 111 103 104 111 103 104 111 103 104 111 103 104 111 103 104 111 103 104 111 103 104 172 191 200 172 191 200 172 191 200 172 191 200 172 191 200 172 191 200 172 191 200 172 191 200 172 191 200 172 191 200 164 105 94 164 105 94 164 105 94 164 105 94 164 105 94 164 105 94 164 105 94 164 105 94 164 105 94 164 105 94 164 105 94 164 105 94 164 105 94 164 105 94 164 105 94 164 105 94 164 105 94 164 105 94 164 105 94 164 105 94 164 105 94 164 105 94 164 105 94 164 105 94 164 105 94 164 105 94 164 105 94 164 105 94 164 105 94 164 105 94 164 105 94 164 105 94 164 105 94 164 105 94 164 105 94 164 105 94 164 105 94 165 104 92 165 104 92 165 104 92 165 104 92 165 104 92 165 104 92 165 104 92 165 104 92 165 104 92 165 104 92 165 104 92 165 104 92 165 104 92 165 104 92 165 104 92 165 104 92 165 104 92 165 104 92 165 104 92 165 104 92 165 104 92 165 104 92 165 104 92 165 104 92 165 104 92 165 104 92 165 104 92 165 104 92 165 104 92 165 104 92 165 104 92 165 104 92 165 104 92 168 105 92 168 105 92 168 105 92 168 105 92 168 105 92 168 105 92 167 105 93 167 105 93 167 105 93 167 105 93 167 105 93 167 105 93 167 105 93 167 105 93 167 105 93 167 105 93 167 105 93 167 105 93 167 105 93 167 105 93 167 105 93 167 105 93 167 105 93 167 105 93 167 105 93 167 105 93 167 105 93 167 105 93 167 105 93 167 105 93 167 105 93 167 105 93 167 105 93 167 105 93 167 105 93 167 105 93 167 105 93 167 105 93 167 105 93 167 105 93 167 105 93 167 105 93 167 105 93 167 105 93 142 137 132 142 137 132 93 58 70 65 33 59 93 58 70 93 58 70 93 58 70 93 58 70 93 58 70 93 58 70 93 58 70 93 58 70 93 58 70 93 58 70 93 58 70 93 58 70 93 58 70 93 58 70 93 58 70 93 58 70 93 58 70 93 58 70 93 58 70 93 58 70 65 33 59 93 58 70 93 58 70 93 58 70 93 58 70 93 58 70 93 58 70 93 58 70 93 58 70 93 58 70 93 58 70 65 33 59 65 33 59 87 56 68 87 56 68 87 56 68 87 56 68 87 56 68 87 56 68 102 61 76 102 61 76 87 56 68 87 56 68 87 56 68 87 56 68 87 56 68 87 56 68 87 56 68 87 56 68 87 56 68 87 56 68 87 56 68 87 56 68 87 56 68 87 56 68 87 56 68 87 56 68 87 56 68 87 56 68 87 56 68 87 56 68 87 56 68 87 56 68 87 56 68 87 56 68 87 56 68 87 56 68 87 56 68 87 56 68 87 56 68 87 56 68 87 56 68 87 56 68 96 66 77 96 66 77 87 56 68 96 66 77 96 66 77 96 66 77 96 66 77 96 66 77 96 66 77 96 66 77 96 66 77 96 66 77 96 66 77 96 66 77 96 66 77 96 66 77 96 66 77 96 66 77 96 66 77 96 66 77 96 66 77 96 66 77 66 37 60 96 66 77 96 66 77 96 66 77 96 66 77 96 66 77 115 93 101 96 66 77 96 66 77 96 66 77 111 103 104 111 103 104 111 103 104 111 103 104 111 103 104 111 103 104 111 103 104 111 103 104 111 103 104 111 103 104 172 191 200 172 191 200 172 191 200 172 191 200 172 191 200 172 191 200 172 191 200 172 191 200 172 191 200 172 191 200 172 191 200 172 191 200 172 191 200 172 191 200 172 191 200 172 191 200 172 191 200 172 191 200 172 191 200 172 191 200 172 191 200 172 191 200 172 191 200 164 105 94 164 105 94 164 105 94 164 105 94 164 105 94 164 105 94 164 105 94 164 105 94 164 105 94 164 105 94 164 105 94 164 105 94 164 105 94 164 105 94 164 105 94 164 105 94 164 105 94 164 105 94 164 105 94 164 105 94 164 105 94 164 105 94 164 105 94 164 105 94 164 105 94 164 105 94 164 105 94 164 105 94 164 105 94 164 105 94 164 105 94 164 105 94 164 105 94 164 105 94 164 105 94 164 105 94 164 105 94 165 104 92 165 104 92 165 104 92 165 104 92 165 104 92 165 104 92 165 104 92 165 104 92 165 104 92 165 104 92 165 104 92 165 104 92 165 104 92 165 104 92 165 104 92 165 104 92 165 104 92 165 104 92 165 104 92 165 104 92 165 104 92 165 104 92 165 104 92 165 104 92 165 104 92 165 104 92 165 104 92 165 104 92 165 104 92 165 104 92 165 104 92 165 104 92 165 104 92 168 105 92 168 105 92 165 104 92 165 104 92 168 105 92 167 105 93 167 105 93 167 105 93 167 105 93 167 105 93 167 105 93 167 105 93 167 105 93 167 105 93 167 105 93 167 105 93 167 105 93 167 105 93 167 105 93 167 105 93 167 105 93 167 105 93 167 105 93 167 105 93 167 105 93 167 105 93 167 105 93 167 105 93 167 105 93 167 105 93 167 105 93 167 105 93 167 105 93 167 105 93 167 105 93 167 105 93 167 105 93 167 105 93 167 105 93 167 105 93 167 105 93 167 105 93 167 105 93 167 105 93 167 105 93 112 92 94 93 58 70 65 33 59 93 58 70 93 58 70 93 58 70 93 58 70 93 58 70 93 58 70 93 58 70 93 58 70 93 58 70 93 58 70 65 33 59 65 33 59 93 58 70 93 58 70 93 58 70 93 58 70 93 58 70 65 33 59 93 58 70 93 58 70 93 58 70 93 58 70 93 58 70 93 58 70 93 58 70 93 58 70 93 58 70 93 58 70 93 58 70 93 58 70 65 33 59 93 58 70 87 56 68 87 56 68 65 33 59 87 56 68 87 56 68 87 56 68 87 56 68 87 56 68 87 56 68 87 56 68 87 56 68 87 56 68 87 56 68 87 56 68 87 56 68 87 56 68 87 56 68 87 56 68 87 56 68 87 56 68 87 56 68 87 56 68 87 56 68 87 56 68 87 56 68 87 56 68 87 56 68 87 56 68 87 56 68 87 56 68 87 56 68 87 56 68 87 56 68 87 56 68 87 56 68 87 56 68 87 56 68 87 56 68 87 56 68 96 66 77 87 56 68 96 66 77 96 66 77 96 66 77 96 66 77 96 66 77 96 66 77 96 66 77 96 66 77 96 66 77 96 66 77 96 66 77 96 66 77 96 66 77 96 66 77 96 66 77 96 66 77 96 66 77 96 66 77 96 66 77 96 66 77 96 66 77 96 66 77 96 66 77 96 66 77 115 93 101 115 93 101 151 155 149 151 155 149 151 155 149 115 93 101 96 66 77 96 66 77 111 103 104 111 103 104 172 191 200 172 191 200 172 191 200 172 191 200 172 191 200 172 191 200 172 191 200 172 191 200 172 191 200 172 191 200 172 191 200 172 191 200 172 191 200 111 103 104 111 103 104 111 103 104 111 103 104 111 103 104 172 191 200 172 191 200 172 191 200 172 191 200 172 191 200 172 191 200 172 191 200 172 191 200 172 191 200 172 191 200 172 191 200 172 191 200 172 191 200 164 105 94 164 105 94 164 105 94 164 105 94 164 105 94 164 105 94 164 105 94 164 105 94 164 105 94 164 105 94 164 105 94 164 105 94 164 105 94 164 105 94 164 105 94 164 105 94 164 105 94 164 105 94 164 105 94 164 105 94 164 105 94 164 105 94 164 105 94 164 105 94 164 105 94 164 105 94 164 105 94 164 105 94 164 105 94 164 105 94 164 105 94 164 105 94 164 105 94 164 105 94 164 105 94 164 105 94 164 105 94 165 104 92 165 104 92 165 104 92 165 104 92 165 104 92 165 104 92 165 104 92 165 104 92 165 104 92 165 104 92 165 104 92 165 104 92 165 104 92 165 104 92 165 104 92 165 104 92 165 104 92 165 104 92 165 104 92 165 104 92 165 104 92 165 104 92 165 104 92 165 104 92 165 104 92 165 104 92 165 104 92 165 104 92 165 104 92 165 104 92 165 104 92 165 104 92 165 104 92 165 104 92 165 104 92 165 104 92 165 104 92 165 104 92 167 105 93 167 105 93 167 105 93 167 105 93 167 105 93 167 105 93 167 105 93 167 105 93 167 105 93 167 105 93 167 105 93 167 105 93 167 105 93 167 105 93 167 105 93 167 105 93 167 105 93 167 105 93 167 105 93 167 105 93 167 105 93 167 105 93 167 105 93 167 105 93 167 105 93 167 105 93 167 105 93 167 105 93 167 105 93 167 105 93 167 105 93 167 105 93 167 105 93 167 105 93 167 105 93 167 105 93 167 105 93 167 105 93 167 105 93 93 58 70 93 58 70 93 58 70 93 58 70 93 58 70 93 58 70 93 58 70 93 58 70 93 58 70 93 58 70 93 58 70 93 58 70 93 58 70 93 58 70 93 58 70 93 58 70 93 58 70 93 58 70 93 58 70 93 58 70 93 58 70 93 58 70 93 58 70 93 58 70 93 58 70 93 58 70 93 58 70 93 58 70 93 58 70 93 58 70 93 58 70 93 58 70 93 58 70 93 58 70 65 33 59 93 58 70 93 58 70 87 56 68 87 56 68 87 56 68 87 56 68 87 56 68 87 56 68 87 56 68 87 56 68 87 56 68 87 56 68 87 56 68 102 61 76 102 61 76 87 56 68 87 56 68 87 56 68 87 56 68 87 56 68 87 56 68 87 56 68 87 56 68 87 56 68 87 56 68 87 56 68 87 56 68 87 56 68 87 56 68 87 56 68 87 56 68 87 56 68 87 56 68 87 56 68 87 56 68 87 56 68 87 56 68 96 66 77 87 56 68 96 66 77 96 66 77 96 66 77 96 66 77 96 66 77 96 66 77 96 66 77 96 66 77 96 66 77 96 66 77 96 66 77 96 66 77 96 66 77 96 66 77 96 66 77 96 66 77 96 66 77 96 66 77 96 66 77 66 37 60 96 66 77 96 66 77 96 66 77 96 66 77 96 66 77 96 66 77 115 93 101 151 155 149 151 155 149 151 155 149 151 155 149 151 155 149 151 155 149 96 66 77 96 66 77 172 191 200 172 191 200 172 191 200 172 191 200 172 191 200 172 191 200 172 191 200 172 191 200 172 191 200 172 191 200 172 191 200 111 103 104 111 103 104 111 103 104 111 103 104 111 103 104 111 103 104 111 103 104 111 103 104 111 103 104 111 103 104 172 191 200 172 191 200 172 191 200 172 191 200 172 191 200 172 191 200 172 191 200 172 191 200 172 191 200 172 191 200 172 191 200 172 191 200 164 105 94 164 105 94 164 105 94 164 105 94 164 105 94 164 105 94 164 105 94 164 105 94 164 105 94 164 105 94 164 105 94 164 105 94 164 105 94 164 105 94 164 105 94 164 105 94 164 105 94 164 105 94 164 105 94 164 105 94 164 105 94 164 105 94 164 105 94 164 105 94 164 105 94 164 105 94 164 105 94 164 105 94 164 105 94 164 105 94 164 105 94 164 105 94 164 105 94 164 105 94 164 105 94 164 105 94 164 105 94 165 104 92 165 104 92 165 104 92 165 104 92 165 104 92 165 104 92 165 104 92 165 104 92 165 104 92 165 104 92 165 104 92 165 104 92 165 104 92 165 104 92 165 104 92 165 104 92 165 104 92 165 104 92 165 104 92 165 104 92 165 104 92 165 104 92 165 104 92 165 104 92 165 104 92 165 104 92 165 104 92 165 104 92 165 104 92 165 104 92 165 104 92 165 104 92 165 104 92 165 104 92 165 104 92 165 104 92 165 104 92 165 104 92 167 105 93 167 105 93 167 105 93 167 105 93 167 105 93 167 105 93 167 105 93 167 105 93 167 105 93 167 105 93 167 105 93 167 105 93 167 105 93 167 105 93 167 105 93 167 105 93 167 105 93 167 105 93 167 105 93 167 105 93 167 105 93 167 105 93 167 105 93 167 105 93 167 105 93 167 105 93 167 105 93 167 105 93 167 105 93 167 105 93 167 105 93 167 105 93 167 105 93 167 105 93 167 105 93 167 105 93 167 105 93 167 105 93 167 105 93 167 105 93 93 58 70 93 58 70 93 58 70 93 58 70 93 58 70 93 58 70 93 58 70 93 58 70 93 58 70 93 58 70 93 58 70 93 58 70 93 58 70 93 58 70 93 58 70 93 58 70 93 58 70 93 58 70 93 58 70 93 58 70 93 58 70 93 58 70 93 58 70 93 58 70 93 58 70 93 58 70 93 58 70 93 58 70 93 58 70 93 58 70 93 58 70 93 58 70 93 58 70 93 58 70 93 58 70 93 58 70 93 58 70 87 56 68 87 56 68 87 56 68 87 56 68 87 56 68 87 56 68 102 61 76 102 61 76 102 61 76 87 56 68 87 56 68 87 56 68 87 56 68 87 56 68 87 56 68 87 56 68 87 56 68 87 56 68 87 56 68 87 56 68 87 56 68 87 56 68 87 56 68 87 56 68 87 56 68 87 56 68 87 56 68 87 56 68 87 56 68 87 56 68 87 56 68 87 56 68 87 56 68 87 56 68 96 66 77 87 56 68 96 66 77 96 66 77 96 66 77 96 66 77 96 66 77 96 66 77 96 66 77 96 66 77 96 66 77 96 66 77 96 66 77 96 66 77 96 66 77 96 66 77 96 66 77 96 66 77 96 66 77 96 66 77 96 66 77 96 66 77 96 66 77 96 66 77 96 66 77 96 66 77 96 66 77 115 93 101 151 155 149 151 155 149 151 155 149 151 155 149 115 93 101 151 155 149 115 93 101 96 66 77 96 66 77 172 191 200 172 191 200 111 103 104 111 103 104 111 103 104 111 103 104 111 103 104 111 103 104 111 103 104 111 103 104 111 103 104 111 103 104 111 103 104 111 103 104 111 103 104 111 103 104 111 103 104 111 103 104 111 103 104 111 103 104 111 103 104 111 103 104 111 103 104 172 191 200 172 191 200 172 191 200 172 191 200 172 191 200 172 191 200 172 191 200 172 191 200 172 191 200 172 191 200 164 105 94 164 105 94 164 105 94 164 105 94 164 105 94 164 105 94 164 105 94 164 105 94 164 105 94 164 105 94 164 105 94 164 105 94 164 105 94 164 105 94 164 105 94 164 105 94 164 105 94 164 105 94 164 105 94 164 105 94 164 105 94 164 105 94 164 105 94 164 105 94 164 105 94 164 105 94 164 105 94 164 105 94 164 105 94 164 105 94 164 105 94 164 105 94 164 105 94 164 105 94 164 105 94 164 105 94 164 105 94 165 104 92 165 104 92 165 104 92 165 104 92 165 104 92 165 104 92 165 104 92 165 104 92 165 104 92 165 104 92 165 104 92 165 104 92 165 104 92 165 104 92 165 104 92 165 104 92 165 104 92 165 104 92 165 104 92 165 104 92 165 104 92 165 104 92 165 104 92 165 104 92 165 104 92 165 104 92 165 104 92 165 104 92 165 104 92 165 104 92 165 104 92 165 104 92 165 104 92 165 104 92 165 104 92 165 104 92 165 104 92 165 104 92 167 105 93 167 105 93 167 105 93 167 105 93 167 105 93 167 105 93 167 105 93 167 105 93 167 105 93 167 105 93 167 105 93 167 105 93 167 105 93 167 105 93 167 105 93 167 105 93 167 105 93 167 105 93 167 105 93 167 105 93 167 105 93 167 105 93 167 105 93 167 105 93 167 105 93 167 105 93 167 105 93 167 105 93 167 105 93 167 105 93 167 105 93 167 105 93 167 105 93 167 105 93 167 105 93 167 105 93 167 105 93 167 105 93 167 105 93 167 105 93 167 105 93 93 58 70 93 58 70 93 58 70 93 58 70 93 58 70 93 58 70 93 58 70 93 58 70 93 58 70 93 58 70 93 58 70 93 58 70 93 58 70 93 58 70 93 58 70 93 58 70 93 58 70 93 58 70 93 58 70 93 58 70 93 58 70 93 58 70 93 58 70 93 58 70 93 58 70 93 58 70 93 58 70 93 58 70 93 58 70 93 58 70 93 58 70 93 58 70 93 58 70 65 33 59 93 58 70 93 58 70 87 56 68 87 56 68 87 56 68 87 56 68 87 56 68 87 56 68 87 56 68 87 56 68 87 56 68 87 56 68 102 61 76 102 61 76 102 61 76 87 56 68 87 56 68 87 56 68 87 56 68 102 61 76 102 61 76 87 56 68 102 61 76 102 61 76 87 56 68 87 56 68 87 56 68 87 56 68 87 56 68 87 56 68 87 56 68 87 56 68 87 56 68 87 56 68 87 56 68 87 56 68 87 56 68 87 56 68 96 66 77 96 66 77 96 66 77 96 66 77 96 66 77 96 66 77 96 66 77 96 66 77 96 66 77 96 66 77 96 66 77 96 66 77 96 66 77 96 66 77 96 66 77 96 66 77 96 66 77 96 66 77 96 66 77 96 66 77 96 66 77 96 66 77 96 66 77 96 66 77 96 66 77 115 93 101 115 93 101 115 93 101 115 93 101 151 155 149 151 155 149 115 93 101 96 66 77 96 66 77 96 66 77 111 103 104 111 103 104 111 103 104 111 103 104 111 103 104 111 103 104 111 103 104 111 103 104 111 103 104 111 103 104 111 103 104 111 103 104 111 103 104 111 103 104 111 103 104 111 103 104 111 103 104 111 103 104 111 103 104 111 103 104 111 103 104 111 103 104 111 103 104 111 103 104 111 103 104 172 191 200 172 191 200 172 191 200 172 191 200 172 191 200 172 191 200 172 191 200 172 191 200 164 105 94 164 105 94 164 105 94 164 105 94 164 105 94 164 105 94 164 105 94 164 105 94 164 105 94 164 105 94 164 105 94 164 105 94 164 105 94 164 105 94 164 105 94 164 105 94 164 105 94 164 105 94 164 105 94 164 105 94 164 105 94 164 105 94 164 105 94 164 105 94 164 105 94 164 105 94 164 105 94 164 105 94 164 105 94 164 105 94 164 105 94 164 105 94 164 105 94 164 105 94 164 105 94 164 105 94 164 105 94 165 104 92 165 104 92 165 104 92 165 104 92 165 104 92 165 104 92 165 104 92 165 104 92 165 104 92 165 104 92 165 104 92 165 104 92 165 104 92 165 104 92 165 104 92 165 104 92 165 104 92 165 104 92 165 104 92 165 104 92 165 104 92 165 104 92 165 104 92 165 104 92 165 104 92 165 104 92 165 104 92 165 104 92 165 104 92 165 104 92 165 104 92 165 104 92 165 104 92 165 104 92 165 104 92 165 104 92 165 104 92 165 104 92 165 104 92 167 105 93 167 105 93 167 105 93 167 105 93 167 105 93 167 105 93 167 105 93 167 105 93 167 105 93 167 105 93 167 105 93 167 105 93 167 105 93 167 105 93 167 105 93 167 105 93 167 105 93 167 105 93 167 105 93 167 105 93 167 105 93 167 105 93 167 105 93 167 105 93 167 105 93 167 105 93 167 105 93 167 105 93 167 105 93 167 105 93 167 105 93 167 105 93 167 105 93 167 105 93 167 105 93 167 105 93 167 105 93 167 105 93 167 105 93 167 105 93 93 58 70 93 58 70 93 58 70 93 58 70 93 58 70 93 58 70 93 58 70 93 58 70 93 58 70 93 58 70 93 58 70 93 58 70 93 58 70 93 58 70 93 58 70 93 58 70 93 58 70 93 58 70 93 58 70 93 58 70 93 58 70 93 58 70 93 58 70 93 58 70 93 58 70 93 58 70 93 58 70 93 58 70 93 58 70 93 58 70 93 58 70 93 58 70 93 58 70 93 58 70 93 58 70 102 61 76 102 61 76 102 61 76 102 61 76 102 61 76 102 61 76 102 61 76 102 61 76 102 61 76 87 56 68 87 56 68 87 56 68 102 61 76 102 61 76 102 61 76 102 61 76 102 61 76 102 61 76 102 61 76 87 56 68 87 56 68 87 56 68 87 56 68 87 56 68 87 56 68 87 56 68 87 56 68 102 61 76 102 61 76 102 61 76 102 61 76 87 56 68 102 61 76 96 66 77 87 56 68 87 56 68 87 56 68 96 66 77 96 66 77 96 66 77 96 66 77 96 66 77 96 66 77 96 66 77 96 66 77 96 66 77 96 66 77 96 66 77 96 66 77 96 66 77 96 66 77 96 66 77 96 66 77 96 66 77 96 66 77 96 66 77 96 66 77 96 66 77 96 66 77 96 66 77 96 66 77 96 66 77 115 93 101 96 66 77 115 93 101 96 66 77 96 66 77 115 93 101 115 93 101 96 66 77 96 66 77 96 66 77 111 103 104 111 103 104 111 103 104 111 103 104 111 103 104 111 103 104 111 103 104 111 103 104 111 103 104 111 103 104 111 103 104 111 103 104 111 103 104 111 103 104 111 103 104 111 103 104 111 103 104 111 103 104 111 103 104 111 103 104 111 103 104 111 103 104 111 103 104 111 103 104 111 103 104 172 191 200 172 191 200 172 191 200 172 191 200 172 191 200 172 191 200 172 191 200 164 105 94 164 105 94 164 105 94 164 105 94 164 105 94 164 105 94 164 105 94 164 105 94 164 105 94 164 105 94 164 105 94 164 105 94 164 105 94 164 105 94 164 105 94 164 105 94 164 105 94 164 105 94 164 105 94 164 105 94 164 105 94 164 105 94 164 105 94 164 105 94 164 105 94 164 105 94 164 105 94 164 105 94 164 105 94 164 105 94 164 105 94 164 105 94 164 105 94 164 105 94 164 105 94 164 105 94 164 105 94 164 105 94 165 104 92 165 104 92 165 104 92 165 104 92 165 104 92 165 104 92 165 104 92 165 104 92 165 104 92 165 104 92 165 104 92 165 104 92 165 104 92 165 104 92 165 104 92 165 104 92 165 104 92 165 104 92 165 104 92 165 104 92 165 104 92 165 104 92 165 104 92 165 104 92 165 104 92 165 104 92 165 104 92 165 104 92 165 104 92 165 104 92 165 104 92 165 104 92 165 104 92 165 104 92 165 104 92 165 104 92 165 104 92 165 104 92 167 105 93 167 105 93 167 105 93 167 105 93 167 105 93 167 105 93 167 105 93 167 105 93 167 105 93 167 105 93 167 105 93 167 105 93 167 105 93 167 105 93 167 105 93 167 105 93 167 105 93 167 105 93 167 105 93 167 105 93 167 105 93 167 105 93 167 105 93 167 105 93 167 105 93 167 105 93 167 105 93 167 105 93 167 105 93 167 105 93 167 105 93 167 105 93 167 105 93 167 105 93 167 105 93 167 105 93 167 105 93 167 105 93 167 105 93 167 105 93 167 105 93 93 58 70 93 58 70 93 58 70 93 58 70 93 58 70 93 58 70 93 58 70 93 58 70 93 58 70 93 58 70 93 58 70 93 58 70 93 58 70 93 58 70 93 58 70 93 58 70 93 58 70 93 58 70 93 58 70 93 58 70 93 58 70 93 58 70 93 58 70 93 58 70 93 58 70 93 58 70 93 58 70 93 58 70 93 58 70 93 58 70 93 58 70 93 58 70 102 61 76 102 61 76 93 58 70 102 61 76 102 61 76 102 61 76 102 61 76 102 61 76 102 61 76 102 61 76 102 61 76 102 61 76 102 61 76 102 61 76 102 61 76 102 61 76 102 61 76 87 56 68 87 56 68 102 61 76 102 61 76 102 61 76 87 56 68 102 61 76 102 61 76 87 56 68 87 56 68 102 61 76 87 56 68 87 56 68 87 56 68 87 56 68 102 61 76 102 61 76 102 61 76 87 56 68 87 56 68 87 56 68 87 56 68 96 66 77 96 66 77 96 66 77 96 66 77 96 66 77 96 66 77 96 66 77 96 66 77 96 66 77 96 66 77 96 66 77 96 66 77 96 66 77 96 66 77 96 66 77 96 66 77 96 66 77 96 66 77 96 66 77 96 66 77 96 66 77 96 66 77 96 66 77 96 66 77 96 66 77 115 93 101 151 155 149 115 93 101 115 93 101 96 66 77 96 66 77 96 66 77 96 66 77 96 66 77 96 66 77 96 66 77 111 103 104 111 103 104 111 103 104 111 103 104 111 103 104 111 103 104 111 103 104 111 103 104 111 103 104 111 103 104 111 103 104 111 103 104 111 103 104 111 103 104 111 103 104 111 103 104 111 103 104 111 103 104 111 103 104 111 103 104 57 41 58 57 41 58 57 41 58 57 41 58 57 41 58 111 103 104 111 103 104 111 103 104 111 103 104 111 103 104 111 103 104 164 105 94 164 105 94 164 105 94 164 105 94 164 105 94 164 105 94 164 105 94 164 105 94 164 105 94 164 105 94 164 105 94 164 105 94 164 105 94 164 105 94 164 105 94 164 105 94 164 105 94 164 105 94 164 105 94 164 105 94 164 105 94 164 105 94 164 105 94 164 105 94 164 105 94 164 105 94 164 105 94 164 105 94 164 105 94 164 105 94 164 105 94 164 105 94 164 105 94 164 105 94 164 105 94 164 105 94 164 105 94 164 105 94 164 105 94 165 104 92 165 104 92 165 104 92 165 104 92 165 104 92 165 104 92 165 104 92 165 104 92 165 104 92 165 104 92 165 104 92 165 104 92 165 104 92 165 104 92 165 104 92 165 104 92 165 104 92 165 104 92 165 104 92 165 104 92 165 104 92 165 104 92 165 104 92 165 104 92 165 104 92 165 104 92 165 104 92 165 104 92 165 104 92 165 104 92 165 104 92 165 104 92 165 104 92 165 104 92 165 104 92 165 104 92 165 104 92 165 104 92 167 105 93 167 105 93 167 105 93 167 105 93 167 105 93 167 105 93 167 105 93 167 105 93 167 105 93 167 105 93 167 105 93 167 105 93 167 105 93 167 105 93 167 105 93 167 105 93 167 105 93 167 105 93 167 105 93 167 105 93 167 105 93 167 105 93 167 105 93 167 105 93 167 105 93 167 105 93 167 105 93 167 105 93 167 105 93 167 105 93 167 105 93 167 105 93 167 105 93 167 105 93 167 105 93 167 105 93 167 105 93 167 105 93 167 105 93 167 105 93 167 105 93 93 58 70 93 58 70 93 58 70 93 58 70 93 58 70 93 58 70 93 58 70 93 58 70 93 58 70 93 58 70 93 58 70 93 58 70 93 58 70 93 58 70 93 58 70 93 58 70 93 58 70 93 58 70 93 58 70 93 58 70 93 58 70 93 58 70 93 58 70 93 58 70 93 58 70 93 58 70 93 58 70 93 58 70 93 58 70 93 58 70 93 58 70 93 58 70 93 58 70 102 61 76 102 61 76 93 58 70 93 58 70 102 61 76 102 61 76 102 61 76 102 61 76 102 61 76 102 61 76 102 61 76 102 61 76 102 61 76 102 61 76 102 61 76 102 61 76 102 61 76 102 61 76 102 61 76 102 61 76 102 61 76 102 61 76 102 61 76 102 61 76 102 61 76 102 61 76 102 61 76 102 61 76 102 61 76 87 56 68 87 56 68 102 61 76 102 61 76 102 61 76 102 61 76 87 56 68 87 56 68 87 56 68 87 56 68 96 66 77 96 66 77 96 66 77 96 66 77 96 66 77 96 66 77 96 66 77 96 66 77 96 66 77 96 66 77 96 66 77 96 66 77 96 66 77 96 66 77 96 66 77 96 66 77 96 66 77 96 66 77 96 66 77 96 66 77 96 66 77 96 66 77 96 66 77 96 66 77 115 93 101 151 155 149 115 93 101 96 66 77 96 66 77 96 66 77 96 66 77 96 66 77 96 66 77 96 66 77 96 66 77 111 103 104 111 103 104 111 103 104 111 103 104 111 103 104 111 103 104 111 103 104 111 103 104 111 103 104 111 103 104 111 103 104 111 103 104 111 103 104 111 103 104 57 41 58 57 41 58 57 41 58 57 41 58 57 41 58 57 41 58 57 41 58 57 41 58 57 41 58 57 41 58 57 41 58 57 41 58 111 103 104 111 103 104 111 103 104 111 103 104 164 105 94 172 191 200 164 105 94 164 105 94 164 105 94 164 105 94 164 105 94 164 105 94 164 105 94 164 105 94 164 105 94 164 105 94 164 105 94 164 105 94 164 105 94 164 105 94 164 105 94 164 105 94 164 105 94 164 105 94 164 105 94 164 105 94 164 105 94 164 105 94 164 105 94 164 105 94 164 105 94 164 105 94 164 105 94 164 105 94 164 105 94 164 105 94 164 105 94 164 105 94 164 105 94 164 105 94 164 105 94 164 105 94 164 105 94 164 105 94 165 104 92 165 104 92 165 104 92 165 104 92 165 104 92 165 104 92 165 104 92 165 104 92 165 104 92 165 104 92 165 104 92 165 104 92 165 104 92 165 104 92 165 104 92 165 104 92 165 104 92 165 104 92 165 104 92 165 104 92 165 104 92 165 104 92 165 104 92 165 104 92 165 104 92 165 104 92 165 104 92 165 104 92 165 104 92 165 104 92 165 104 92 165 104 92 165 104 92 165 104 92 165 104 92 165 104 92 165 104 92 165 104 92 167 105 93 167 105 93 167 105 93 167 105 93 167 105 93 167 105 93 167 105 93 167 105 93 167 105 93 167 105 93 167 105 93 167 105 93 167 105 93 167 105 93 167 105 93 167 105 93 167 105 93 167 105 93 167 105 93 167 105 93 167 105 93 167 105 93 167 105 93 167 105 93 167 105 93 167 105 93 167 105 93 167 105 93 167 105 93 167 105 93 167 105 93 167 105 93 167 105 93 167 105 93 167 105 93 167 105 93 167 105 93 167 105 93 167 105 93 167 105 93 167 105 93 93 58 70 93 58 70 93 58 70 93 58 70 93 58 70 93 58 70 93 58 70 93 58 70 93 58 70 93 58 70 93 58 70 93 58 70 93 58 70 93 58 70 93 58 70 93 58 70 93 58 70 93 58 70 93 58 70 93 58 70 93 58 70 93 58 70 93 58 70 93 58 70 93 58 70 93 58 70 93 58 70 93 58 70 93 58 70 93 58 70 93 58 70 93 58 70 93 58 70 93 58 70 102 61 76 102 61 76 102 61 76 102 61 76 102 61 76 102 61 76 102 61 76 102 61 76 102 61 76 102 61 76 102 61 76 102 61 76 102 61 76 102 61 76 102 61 76 102 61 76 102 61 76 102 61 76 102 61 76 102 61 76 102 61 76 102 61 76 102 61 76 102 61 76 102 61 76 87 56 68 102 61 76 102 61 76 102 61 76 102 61 76 102 61 76 102 61 76 102 61 76 102 61 76 102 61 76 96 66 77 96 66 77 96 66 77 96 66 77 96 66 77 96 66 77 96 66 77 96 66 77 96 66 77 96 66 77 96 66 77 96 66 77 96 66 77 96 66 77 96 66 77 96 66 77 96 66 77 96 66 77 96 66 77 96 66 77 96 66 77 96 66 77 96 66 77 96 66 77 96 66 77 96 66 77 96 66 77 96 66 77 151 155 149 96 66 77 96 66 77 96 66 77 96 66 77 96 66 77 96 66 77 96 66 77 96 66 77 96 66 77 111 103 104 111 103 104 111 103 104 111 103 104 111 103 104 111 103 104 111 103 104 57 41 58 57 41 58 57 41 58 57 41 58 57 41 58 57 41 58 57 41 58 57 41 58 57 41 58 57 41 58 57 41 58 111 103 104 111 103 104 111 103 104 111 103 104 111 103 104 111 103 104 111 103 104 111 103 104 111 103 104 111 103 104 111 103 104 111 103 104 172 191 200 172 191 200 164 105 94 164 105 94 164 105 94 164 105 94 164 105 94 164 105 94 164 105 94 164 105 94 164 105 94 164 105 94 164 105 94 164 105 94 164 105 94 164 105 94 164 105 94 164 105 94 164 105 94 164 105 94 164 105 94 164 105 94 164 105 94 164 105 94 164 105 94 164 105 94 164 105 94 164 105 94 164 105 94 164 105 94 164 105 94 164 105 94 164 105 94 164 105 94 164 105 94 164 105 94 164 105 94 164 105 94 164 105 94 164 105 94 165 104 92 165 104 92 165 104 92 165 104 92 165 104 92 165 104 92 165 104 92 165 104 92 165 104 92 165 104 92 165 104 92 165 104 92 165 104 92 165 104 92 165 104 92 165 104 92 165 104 92 165 104 92 165 104 92 165 104 92 165 104 92 165 104 92 165 104 92 165 104 92 165 104 92 165 104 92 165 104 92 165 104 92 165 104 92 165 104 92 165 104 92 165 104 92 165 104 92 165 104 92 165 104 92 165 104 92 165 104 92 165 104 92 167 105 93 167 105 93 167 105 93 167 105 93 167 105 93 167 105 93 167 105 93 167 105 93 167 105 93 167 105 93 167 105 93 167 105 93 167 105 93 167 105 93 167 105 93 167 105 93 167 105 93 167 105 93 167 105 93 167 105 93 167 105 93 167 105 93 167 105 93 167 105 93 167 105 93 167 105 93 167 105 93 167 105 93 167 105 93 167 105 93 167 105 93 167 105 93 167 105 93 167 105 93 167 105 93 167 105 93 167 105 93 167 105 93 167 105 93 167 105 93 167 105 93 93 58 70 93 58 70 93 58 70 93 58 70 93 58 70 93 58 70 93 58 70 93 58 70 93 58 70 93 58 70 93 58 70 93 58 70 93 58 70 93 58 70 93 58 70 93 58 70 93 58 70 93 58 70 93 58 70 93 58 70 93 58 70 93 58 70 93 58 70 93 58 70 93 58 70 93 58 70 93 58 70 93 58 70 93 58 70 93 58 70 93 58 70 93 58 70 93 58 70 93 58 70 102 61 76 102 61 76 102 61 76 102 61 76 102 61 76 102 61 76 102 61 76 102 61 76 102 61 76 102 61 76 102 61 76 102 61 76 102 61 76 102 61 76 102 61 76 102 61 76 102 61 76 102 61 76 102 61 76 102 61 76 102 61 76 102 61 76 102 61 76 102 61 76 102 61 76 102 61 76 102 61 76 102 61 76 102 61 76 102 61 76 102 61 76 102 61 76 102 61 76 102 61 76 102 61 76 96 66 77 96 66 77 96 66 77 96 66 77 96 66 77 96 66 77 96 66 77 96 66 77 96 66 77 96 66 77 96 66 77 96 66 77 96 66 77 96 66 77 96 66 77 96 66 77 96 66 77 96 66 77 96 66 77 96 66 77 96 66 77 96 66 77 96 66 77 96 66 77 96 66 77 96 66 77 96 66 77 96 66 77 96 66 77 96 66 77 96 66 77 96 66 77 96 66 77 96 66 77 96 66 77 96 66 77 115 93 101 96 66 77 57 41 58 57 41 58 57 41 58 57 41 58 57 41 58 57 41 58 57 41 58 57 41 58 57 41 58 111 103 104 111 103 104 111 103 104 111 103 104 111 103 104 111 103 104 111 103 104 111 103 104 111 103 104 111 103 104 111 103 104 111 103 104 111 103 104 111 103 104 111 103 104 111 103 104 111 103 104 111 103 104 111 103 104 111 103 104 164 105 94 172 191 200 172 191 200 164 105 94 164 105 94 164 105 94 164 105 94 164 105 94 164 105 94 164 105 94 164 105 94 164 105 94 164 105 94 164 105 94 164 105 94 164 105 94 164 105 94 164 105 94 164 105 94 164 105 94 164 105 94 164 105 94 164 105 94 164 105 94 164 105 94 164 105 94 164 105 94 164 105 94 164 105 94 164 105 94 164 105 94 164 105 94 164 105 94 164 105 94 164 105 94 164 105 94 164 105 94 164 105 94 164 105 94 164 105 94 164 105 94 165 104 92 165 104 92 165 104 92 165 104 92 165 104 92 165 104 92 165 104 92 165 104 92 165 104 92 165 104 92 165 104 92 165 104 92 165 104 92 165 104 92 165 104 92 165 104 92 165 104 92 165 104 92 165 104 92 165 104 92 165 104 92 165 104 92 165 104 92 165 104 92 165 104 92 165 104 92 165 104 92 165 104 92 165 104 92 165 104 92 165 104 92 165 104 92 165 104 92 165 104 92 165 104 92 165 104 92 165 104 92 165 104 92 165 104 92 167 105 93 167 105 93 167 105 93 167 105 93 167 105 93 167 105 93 167 105 93 167 105 93 167 105 93 167 105 93 167 105 93 167 105 93 167 105 93 167 105 93 167 105 93 167 105 93 167 105 93 167 105 93 167 105 93 167 105 93 167 105 93 167 105 93 167 105 93 167 105 93 167 105 93 167 105 93 167 105 93 167 105 93 167 105 93 167 105 93 167 105 93 167 105 93 167 105 93 167 105 93 167 105 93 167 105 93 167 105 93 167 105 93 167 105 93 167 105 93 93 58 70 93 58 70 93 58 70 93 58 70 93 58 70 93 58 70 93 58 70 93 58 70 93 58 70 93 58 70 93 58 70 93 58 70 93 58 70 93 58 70 93 58 70 93 58 70 93 58 70 93 58 70 93 58 70 93 58 70 93 58 70 93 58 70 93 58 70 93 58 70 93 58 70 93 58 70 93 58 70 93 58 70 93 58 70 93 58 70 93 58 70 93 58 70 102 61 76 102 61 76 102 61 76 102 61 76 102 61 76 102 61 76 102 61 76 102 61 76 102 61 76 102 61 76 102 61 76 102 61 76 102 61 76 102 61 76 102 61 76 102 61 76 102 61 76 102 61 76 102 61 76 102 61 76 102 61 76 102 61 76 102 61 76 102 61 76 102 61 76 102 61 76 102 61 76 102 61 76 102 61 76 102 61 76 102 61 76 102 61 76 102 61 76 102 61 76 102 61 76 87 56 68 102 61 76 102 61 76 96 66 77 96 66 77 96 66 77 96 66 77 96 66 77 96 66 77 96 66 77 96 66 77 96 66 77 96 66 77 96 66 77 96 66 77 96 66 77 96 66 77 96 66 77 96 66 77 96 66 77 96 66 77 96 66 77 96 66 77 96 66 77 96 66 77 96 66 77 96 66 77 96 66 77 96 66 77 96 66 77 96 66 77 96 66 77 96 66 77 96 66 77 66 37 60 96 66 77 115 93 101 151 155 149 151 155 149 115 93 101 111 103 104 111 103 104 111 103 104 111 103 104 111 103 104 111 103 104 111 103 104 111 103 104 111 103 104 111 103 104 111 103 104 111 103 104 111 103 104 111 103 104 111 103 104 111 103 104 111 103 104 111 103 104 111 103 104 111 103 104 111 103 104 111 103 104 111 103 104 111 103 104 111 103 104 111 103 104 111 103 104 111 103 104 111 103 104 172 191 200 172 191 200 172 191 200 164 105 94 164 105 94 164 105 94 164 105 94 164 105 94 164 105 94 164 105 94 164 105 94 164 105 94 164 105 94 164 105 94 164 105 94 164 105 94 164 105 94 164 105 94 164 105 94 164 105 94 164 105 94 164 105 94 164 105 94 164 105 94 164 105 94 164 105 94 164 105 94 164 105 94 164 105 94 164 105 94 164 105 94 164 105 94 164 105 94 164 105 94 164 105 94 164 105 94 164 105 94 164 105 94 164 105 94 164 105 94 165 104 92 165 104 92 165 104 92 165 104 92 165 104 92 165 104 92 165 104 92 165 104 92 165 104 92 165 104 92 165 104 92 165 104 92 165 104 92 165 104 92 165 104 92 165 104 92 165 104 92 165 104 92 165 104 92 165 104 92 165 104 92 165 104 92 165 104 92 165 104 92 165 104 92 165 104 92 165 104 92 165 104 92 165 104 92 165 104 92 165 104 92 165 104 92 165 104 92 165 104 92 165 104 92 165 104 92 165 104 92 165 104 92 165 104 92 167 105 93 167 105 93 167 105 93 167 105 93 167 105 93 167 105 93 167 105 93 167 105 93 167 105 93 167 105 93 167 105 93 167 105 93 167 105 93 167 105 93 167 105 93 167 105 93 167 105 93 167 105 93 167 105 93 167 105 93 167 105 93 167 105 93 167 105 93 167 105 93 167 105 93 167 105 93 167 105 93 167 105 93 167 105 93 167 105 93 167 105 93 167 105 93 167 105 93 167 105 93 167 105 93 167 105 93 167 105 93 167 105 93 167 105 93 167 105 93 167 105 93 93 58 70 93 58 70 93 58 70 93 58 70 93 58 70 93 58 70 93 58 70 93 58 70 93 58 70 93 58 70 93 58 70 93 58 70 93 58 70 93 58 70 93 58 70 93 58 70 93 58 70 93 58 70 93 58 70 93 58 70 93 58 70 93 58 70 93 58 70 93 58 70 93 58 70 93 58 70 93 58 70 93 58 70 93 58 70 93 58 70 93 58 70 93 58 70 93 58 70 93 58 70 102 61 76 102 61 76 102 61 76 102 61 76 102 61 76 102 61 76 102 61 76 102 61 76 102 61 76 102 61 76 102 61 76 102 61 76 102 61 76 102 61 76 102 61 76 102 61 76 102 61 76 102 61 76 102 61 76 102 61 76 102 61 76 102 61 76 102 61 76 102 61 76 102 61 76 102 61 76 102 61 76 102 61 76 102 61 76 102 61 76 102 61 76 102 61 76 102 61 76 102 61 76 102 61 76 102 61 76 96 66 77 96 66 77 96 66 77 96 66 77 96 66 77 96 66 77 96 66 77 96 66 77 96 66 77 96 66 77 96 66 77 96 66 77 96 66 77 96 66 77 96 66 77 96 66 77 96 66 77 96 66 77 96 66 77 96 66 77 96 66 77 96 66 77 96 66 77 96 66 77 96 66 77 96 66 77 96 66 77 96 66 77 96 66 77 96 66 77 96 66 77 66 37 60 66 37 60 96 66 77 115 93 101 115 93 101 151 155 149 111 103 104 111 103 104 111 103 104 111 103 104 111 103 104 111 103 104 111 103 104 111 103 104 111 103 104 111 103 104 111 103 104 111 103 104 111 103 104 111 103 104 111 103 104 111 103 104 111 103 104 111 103 104 111 103 104 111 103 104 111 103 104 111 103 104 111 103 104 111 103 104 111 103 104 111 103 104 111 103 104 111 103 104 111 103 104 111 103 104 164 105 94 164 105 94 164 105 94 164 105 94 164 105 94 164 105 94 164 105 94 164 105 94 164 105 94 164 105 94 164 105 94 164 105 94 164 105 94 164 105 94 164 105 94 164 105 94 164 105 94 164 105 94 164 105 94 164 105 94 164 105 94 164 105 94 164 105 94 164 105 94 164 105 94 164 105 94 164 105 94 164 105 94 164 105 94 164 105 94 164 105 94 164 105 94 164 105 94 164 105 94 164 105 94 164 105 94 164 105 94 164 105 94 164 105 94 165 104 92 165 104 92 165 104 92 165 104 92 165 104 92 165 104 92 165 104 92 165 104 92 165 104 92 165 104 92 165 104 92 165 104 92 165 104 92 165 104 92 165 104 92 165 104 92 165 104 92 165 104 92 165 104 92 165 104 92 165 104 92 165 104 92 165 104 92 165 104 92 165 104 92 165 104 92 165 104 92 165 104 92 165 104 92 165 104 92 165 104 92 165 104 92 165 104 92 165 104 92 165 104 92 165 104 92 165 104 92 165 104 92 165 104 92 167 105 93 167 105 93 167 105 93 167 105 93 167 105 93 167 105 93 167 105 93 167 105 93 167 105 93 167 105 93 167 105 93 167 105 93 167 105 93 167 105 93 167 105 93 167 105 93 167 105 93 167 105 93 167 105 93 167 105 93 167 105 93 167 105 93 167 105 93 167 105 93 167 105 93 167 105 93 167 105 93 167 105 93 167 105 93 167 105 93 167 105 93 167 105 93 167 105 93 167 105 93 167 105 93 167 105 93 167 105 93 167 105 93 167 105 93 167 105 93 167 105 93 93 58 70 93 58 70 93 58 70 93 58 70 93 58 70 93 58 70 93 58 70 93 58 70 93 58 70 93 58 70 93 58 70 93 58 70 93 58 70 93 58 70 93 58 70 93 58 70 93 58 70 93 58 70 93 58 70 93 58 70 93 58 70 93 58 70 93 58 70 93 58 70 93 58 70 93 58 70 93 58 70 93 58 70 93 58 70 93 58 70 93 58 70 93 58 70 93 58 70 102 61 76 102 61 76 102 61 76 102 61 76 102 61 76 102 61 76 102 61 76 102 61 76 102 61 76 102 61 76 102 61 76 102 61 76 102 61 76 102 61 76 102 61 76 102 61 76 102 61 76 102 61 76 102 61 76 102 61 76 102 61 76 102 61 76 102 61 76 102 61 76 102 61 76 102 61 76 102 61 76 102 61 76 102 61 76 102 61 76 102 61 76 102 61 76 102 61 76 102 61 76 102 61 76 102 61 76 102 61 76 96 66 77 96 66 77 96 66 77 96 66 77 96 66 77 96 66 77 96 66 77 96 66 77 96 66 77 96 66 77 96 66 77 96 66 77 96 66 77 96 66 77 96 66 77 96 66 77 96 66 77 96 66 77 96 66 77 96 66 77 96 66 77 96 66 77 96 66 77 96 66 77 96 66 77 96 66 77 96 66 77 96 66 77 96 66 77 96 66 77 96 66 77 96 66 77 66 37 60 66 37 60 96 66 77 96 66 77 151 155 149 111 103 104 111 103 104 111 103 104 111 103 104 111 103 104 111 103 104 111 103 104 111 103 104 111 103 104 111 103 104 111 103 104 111 103 104 111 103 104 111 103 104 111 103 104 111 103 104 111 103 104 111 103 104 111 103 104 111 103 104 111 103 104 57 41 58 57 41 58 57 41 58 57 41 58 57 41 58 57 41 58 57 41 58 57 41 58 57 41 58 57 41 58 57 41 58 164 105 94 164 105 94 164 105 94 164 105 94 164 105 94 164 105 94 164 105 94 164 105 94 164 105 94 164 105 94 164 105 94 164 105 94 164 105 94 164 105 94 164 105 94 164 105 94 164 105 94 164 105 94 164 105 94 164 105 94 164 105 94 164 105 94 164 105 94 164 105 94 164 105 94 164 105 94 164 105 94 164 105 94 164 105 94 164 105 94 164 105 94 164 105 94 164 105 94 164 105 94 164 105 94 164 105 94 164 105 94 165 104 92 165 104 92 165 104 92 165 104 92 165 104 92 165 104 92 165 104 92 165 104 92 165 104 92 165 104 92 165 104 92 165 104 92 165 104 92 165 104 92 165 104 92 165 104 92 165 104 92 165 104 92 165 104 92 165 104 92 165 104 92 165 104 92 165 104 92 165 104 92 165 104 92 165 104 92 165 104 92 165 104 92 165 104 92 165 104 92 165 104 92 165 104 92 165 104 92 165 104 92 165 104 92 165 104 92 165 104 92 165 104 92 165 104 92 165 104 92 167 105 93 167 105 93 167 105 93 167 105 93 167 105 93 167 105 93 167 105 93 167 105 93 167 105 93 167 105 93 167 105 93 167 105 93 167 105 93 167 105 93 167 105 93 167 105 93 167 105 93 167 105 93 167 105 93 167 105 93 167 105 93 167 105 93 167 105 93 167 105 93 167 105 93 167 105 93 167 105 93 167 105 93 167 105 93 167 105 93 167 105 93 167 105 93 167 105 93 167 105 93 167 105 93 167 105 93 167 105 93 167 105 93 167 105 93 167 105 93 93 58 70 93 58 70 93 58 70 93 58 70 93 58 70 93 58 70 93 58 70 93 58 70 93 58 70 93 58 70 93 58 70 93 58 70 93 58 70 93 58 70 93 58 70 93 58 70 93 58 70 93 58 70 93 58 70 93 58 70 93 58 70 93 58 70 93 58 70 93 58 70 93 58 70 93 58 70 93 58 70 93 58 70 93 58 70 93 58 70 93 58 70 93 58 70 93 58 70 102 61 76 102 61 76 102 61 76 102 61 76 102 61 76 102 61 76 102 61 76 102 61 76 102 61 76 102 61 76 102 61 76 102 61 76 102 61 76 102 61 76 102 61 76 102 61 76 102 61 76 102 61 76 102 61 76 102 61 76 102 61 76 102 61 76 102 61 76 102 61 76 102 61 76 102 61 76 102 61 76 102 61 76 102 61 76 102 61 76 102 61 76 102 61 76 102 61 76 102 61 76 102 61 76 102 61 76 102 61 76 96 66 77 96 66 77 96 66 77 96 66 77 96 66 77 96 66 77 96 66 77 96 66 77 96 66 77 96 66 77 96 66 77 96 66 77 96 66 77 96 66 77 96 66 77 96 66 77 96 66 77 96 66 77 96 66 77 96 66 77 96 66 77 96 66 77 96 66 77 96 66 77 96 66 77 96 66 77 96 66 77 96 66 77 96 66 77 96 66 77 96 66 77 96 66 77 66 37 60 66 37 60 96 66 77 96 66 77 115 93 101 111 103 104 111 103 104 111 103 104 111 103 104 111 103 104 111 103 104 111 103 104 111 103 104 111 103 104 111 103 104 111 103 104 111 103 104 111 103 104 57 41 58 57 41 58 57 41 58 57 41 58 57 41 58 57 41 58 57 41 58 57 41 58 57 41 58 57 41 58 57 41 58 57 41 58 57 41 58 57 41 58 57 41 58 57 41 58 57 41 58 57 41 58 111 103 104 164 105 94 164 105 94 164 105 94 164 105 94 164 105 94 164 105 94 164 105 94 164 105 94 164 105 94 164 105 94 164 105 94 164 105 94 164 105 94 164 105 94 164 105 94 164 105 94 164 105 94 164 105 94 164 105 94 164 105 94 164 105 94 164 105 94 164 105 94 164 105 94 164 105 94 164 105 94 164 105 94 164 105 94 164 105 94 164 105 94 164 105 94 164 105 94 164 105 94 164 105 94 164 105 94 164 105 94 164 105 94 165 104 92 165 104 92 165 104 92 165 104 92 165 104 92 165 104 92 165 104 92 165 104 92 165 104 92 165 104 92 165 104 92 165 104 92 165 104 92 165 104 92 165 104 92 165 104 92 165 104 92 165 104 92 165 104 92 165 104 92 165 104 92 165 104 92 165 104 92 165 104 92 165 104 92 165 104 92 165 104 92 165 104 92 165 104 92 165 104 92 165 104 92 165 104 92 165 104 92 165 104 92 165 104 92 165 104 92 165 104 92 165 104 92 165 104 92 167 105 93 167 105 93 167 105 93 167 105 93 167 105 93 167 105 93 167 105 93 167 105 93 167 105 93 167 105 93 167 105 93 167 105 93 167 105 93 167 105 93 167 105 93 167 105 93 167 105 93 167 105 93 167 105 93 167 105 93 167 105 93 167 105 93 167 105 93 167 105 93 167 105 93 167 105 93 167 105 93 167 105 93 167 105 93 167 105 93 167 105 93 167 105 93 167 105 93 167 105 93 167 105 93 167 105 93 167 105 93 167 105 93 167 105 93 167 105 93 167 105 93 93 58 70 93 58 70 93 58 70 93 58 70 93 58 70 93 58 70 93 58 70 93 58 70 93 58 70 93 58 70 93 58 70 93 58 70 93 58 70 93 58 70 93 58 70 93 58 70 93 58 70 93 58 70 93 58 70 93 58 70 93 58 70 93 58 70 93 58 70 93 58 70 93 58 70 93 58 70 93 58 70 93 58 70 93 58 70 93 58 70 93 58 70 93 58 70 102 61 76 102 61 76 102 61 76 102 61 76 102 61 76 102 61 76 102 61 76 102 61 76 102 61 76 102 61 76 102 61 76 102 61 76 102 61 76 102 61 76 102 61 76 102 61 76 102 61 76 102 61 76 102 61 76 102 61 76 102 61 76 102 61 76 102 61 76 102 61 76 102 61 76 102 61 76 102 61 76 102 61 76 102 61 76 102 61 76 102 61 76 102 61 76 102 61 76 102 61 76 102 61 76 102 61 76 102 61 76 102 61 76 96 66 77 96 66 77 96 66 77 96 66 77 96 66 77 96 66 77 96 66 77 96 66 77 96 66 77 96 66 77 96 66 77 96 66 77 96 66 77 96 66 77 96 66 77 96 66 77 96 66 77 96 66 77 96 66 77 96 66 77 96 66 77 96 66 77 96 66 77 96 66 77 96 66 77 96 66 77 96 66 77 96 66 77 96 66 77 96 66 77 96 66 77 66 37 60 66 37 60 66 37 60 96 66 77 96 66 77 96 66 77 111 103 104 111 103 104 111 103 104 57 41 58 57 41 58 57 41 58 57 41 58 57 41 58 57 41 58 57 41 58 57 41 58 57 41 58 57 41 58 57 41 58 57 41 58 57 41 58 57 41 58 57 41 58 57 41 58 57 41 58 57 41 58 57 41 58 57 41 58 57 41 58 57 41 58 57 41 58 57 41 58 57 41 58 57 41 58 57 41 58 57 41 58 57 41 58 164 105 94 164 105 94 164 105 94 164 105 94 164 105 94 164 105 94 164 105 94 164 105 94 164 105 94 164 105 94 164 105 94 164 105 94 164 105 94 164 105 94 164 105 94 164 105 94 164 105 94 164 105 94 164 105 94 164 105 94 164 105 94 164 105 94 164 105 94 164 105 94 164 105 94 164 105 94 164 105 94 164 105 94 164 105 94 164 105 94 164 105 94 164 105 94 164 105 94 164 105 94 164 105 94 164 105 94 164 105 94 165 104 92 165 104 92 165 104 92 165 104 92 165 104 92 165 104 92 165 104 92 165 104 92 165 104 92 165 104 92 165 104 92 165 104 92 165 104 92 165 104 92 165 104 92 165 104 92 165 104 92 165 104 92 165 104 92 165 104 92 165 104 92 165 104 92 165 104 92 165 104 92 165 104 92 165 104 92 165 104 92 165 104 92 165 104 92 165 104 92 165 104 92 165 104 92 165 104 92 165 104 92 165 104 92 165 104 92 165 104 92 165 104 92 165 104 92 165 104 92 167 105 93 167 105 93 167 105 93 167 105 93 167 105 93 167 105 93 167 105 93 167 105 93 167 105 93 167 105 93 167 105 93 167 105 93 167 105 93 167 105 93 167 105 93 167 105 93 167 105 93 167 105 93 167 105 93 167 105 93 167 105 93 167 105 93 167 105 93 167 105 93 167 105 93 167 105 93 167 105 93 167 105 93 167 105 93 167 105 93 167 105 93 167 105 93 167 105 93 167 105 93 167 105 93 167 105 93 167 105 93 167 105 93 167 105 93 167 105 93 93 58 70 93 58 70 93 58 70 93 58 70 93 58 70 93 58 70 93 58 70 93 58 70 93 58 70 93 58 70 93 58 70 93 58 70 93 58 70 93 58 70 93 58 70 93 58 70 93 58 70 93 58 70 93 58 70 93 58 70 93 58 70 93 58 70 93 58 70 93 58 70 93 58 70 93 58 70 93 58 70 93 58 70 93 58 70 102 61 76 102 61 76 102 61 76 102 61 76 102 61 76 102 61 76 102 61 76 102 61 76 102 61 76 102 61 76 102 61 76 102 61 76 102 61 76 102 61 76 102 61 76 102 61 76 102 61 76 102 61 76 102 61 76 102 61 76 102 61 76 102 61 76 102 61 76 102 61 76 102 61 76 102 61 76 102 61 76 102 61 76 102 61 76 102 61 76 102 61 76 102 61 76 102 61 76 102 61 76 102 61 76 102 61 76 102 61 76 102 61 76 102 61 76 102 61 76 102 61 76 96 66 77 96 66 77 96 66 77 96 66 77 96 66 77 96 66 77 96 66 77 96 66 77 96 66 77 96 66 77 96 66 77 96 66 77 96 66 77 96 66 77 96 66 77 96 66 77 96 66 77 96 66 77 96 66 77 96 66 77 96 66 77 96 66 77 96 66 77 96 66 77 96 66 77 96 66 77 96 66 77 96 66 77 96 66 77 96 66 77 96 66 77 96 66 77 66 37 60 96 66 77 96 66 77 96 66 77 96 66 77 57 41 58 57 41 58 57 41 58 57 41 58 57 41 58 57 41 58 57 41 58 57 41 58 57 41 58 57 41 58 57 41 58 57 41 58 57 41 58 57 41 58 57 41 58 57 41 58 57 41 58 57 41 58 57 41 58 57 41 58 57 41 58 57 41 58 57 41 58 57 41 58 57 41 58 57 41 58 57 41 58 57 41 58 57 41 58 57 41 58 57 41 58 57 41 58 164 105 94 164 105 94 164 105 94 164 105 94 164 105 94 164 105 94 164 105 94 164 105 94 164 105 94 164 105 94 164 105 94 164 105 94 164 105 94 164 105 94 164 105 94 164 105 94 164 105 94 164 105 94 164 105 94 164 105 94 164 105 94 164 105 94 164 105 94 164 105 94 164 105 94 164 105 94 164 105 94 164 105 94 164 105 94 164 105 94 164 105 94 164 105 94 164 105 94 164 105 94 164 105 94 164 105 94 164 105 94 165 104 92 165 104 92 165 104 92 165 104 92 165 104 92 165 104 92 165 104 92 165 104 92 165 104 92 165 104 92 165 104 92 165 104 92 165 104 92 165 104 92 165 104 92 165 104 92 165 104 92 165 104 92 165 104 92 165 104 92 165 104 92 165 104 92 165 104 92 165 104 92 165 104 92 165 104 92 165 104 92 165 104 92 165 104 92 165 104 92 165 104 92 165 104 92 165 104 92 165 104 92 165 104 92 165 104 92 165 104 92 165 104 92 165 104 92 165 104 92 167 105 93 167 105 93 167 105 93 167 105 93 167 105 93 167 105 93 167 105 93 167 105 93 167 105 93 167 105 93 167 105 93 167 105 93 167 105 93 167 105 93 167 105 93 167 105 93 167 105 93 167 105 93 167 105 93 167 105 93 167 105 93 167 105 93 167 105 93 167 105 93 167 105 93 167 105 93 167 105 93 167 105 93 167 105 93 167 105 93 167 105 93 167 105 93 167 105 93 167 105 93 167 105 93 167 105 93 167 105 93 167 105 93 167 105 93 167 105 93 93 58 70 93 58 70 93 58 70 93 58 70 93 58 70 93 58 70 93 58 70 93 58 70 93 58 70 93 58 70 93 58 70 93 58 70 93 58 70 93 58 70 93 58 70 93 58 70 93 58 70 93 58 70 93 58 70 93 58 70 93 58 70 93 58 70 93 58 70 93 58 70 93 58 70 93 58 70 93 58 70 93 58 70 93 58 70 93 58 70 102 61 76 102 61 76 102 61 76 102 61 76 102 61 76 102 61 76 102 61 76 102 61 76 102 61 76 102 61 76 102 61 76 102 61 76 102 61 76 102 61 76 102 61 76 102 61 76 102 61 76 102 61 76 102 61 76 102 61 76 102 61 76 102 61 76 102 61 76 102 61 76 102 61 76 102 61 76 102 61 76 102 61 76 102 61 76 102 61 76 102 61 76 102 61 76 102 61 76 102 61 76 102 61 76 102 61 76 102 61 76 102 61 76 102 61 76 102 61 76 102 61 76 96 66 77 96 66 77 96 66 77 96 66 77 96 66 77 96 66 77 96 66 77 96 66 77 96 66 77 96 66 77 96 66 77 96 66 77 96 66 77 96 66 77 96 66 77 96 66 77 96 66 77 96 66 77 96 66 77 96 66 77 96 66 77 96 66 77 96 66 77 96 66 77 96 66 77 96 66 77 96 66 77 96 66 77 96 66 77 96 66 77 96 66 77 96 66 77 96 66 77 115 93 101 151 155 149 151 155 149 57 41 58 57 41 58 57 41 58 57 41 58 57 41 58 57 41 58 57 41 58 57 41 58 57 41 58 57 41 58 57 41 58 57 41 58 57 41 58 57 41 58 57 41 58 57 41 58 57 41 58 57 41 58 57 41 58 57 41 58 57 41 58 57 41 58 57 41 58 57 41 58 57 41 58 57 41 58 57 41 58 57 41 58 57 41 58 57 41 58 57 41 58 111 103 104 164 105 94 164 105 94 164 105 94 164 105 94 164 105 94 164 105 94 164 105 94 164 105 94 164 105 94 164 105 94 164 105 94 164 105 94 164 105 94 164 105 94 164 105 94 164 105 94 164 105 94 164 105 94 164 105 94 164 105 94 164 105 94 164 105 94 164 105 94 164 105 94 164 105 94 164 105 94 164 105 94 164 105 94 164 105 94 164 105 94 164 105 94 164 105 94 164 105 94 164 105 94 164 105 94 164 105 94 164 105 94 165 104 92 165 104 92 165 104 92 165 104 92 165 104 92 165 104 92 165 104 92 165 104 92 165 104 92 165 104 92 165 104 92 165 104 92 165 104 92 165 104 92 165 104 92 165 104 92 165 104 92 165 104 92 165 104 92 165 104 92 165 104 92 165 104 92 165 104 92 165 104 92 165 104 92 165 104 92 165 104 92 165 104 92 165 104 92 165 104 92 165 104 92 165 104 92 165 104 92 165 104 92 165 104 92 165 104 92 165 104 92 165 104 92 165 104 92 165 104 92 167 105 93 167 105 93 167 105 93 167 105 93 167 105 93 167 105 93 167 105 93 167 105 93 167 105 93 167 105 93 167 105 93 167 105 93 167 105 93 167 105 93 167 105 93 167 105 93 167 105 93 167 105 93 167 105 93 167 105 93 167 105 93 167 105 93 167 105 93 167 105 93 167 105 93 167 105 93 167 105 93 167 105 93 167 105 93 167 105 93 167 105 93 167 105 93 167 105 93 167 105 93 167 105 93 167 105 93 167 105 93 167 105 93 167 105 93 93 58 70 93 58 70 93 58 70 93 58 70 93 58 70 93 58 70 93 58 70 93 58 70 93 58 70 93 58 70 93 58 70 93 58 70 93 58 70 93 58 70 93 58 70 93 58 70 93 58 70 93 58 70 93 58 70 93 58 70 93 58 70 93 58 70 93 58 70 93 58 70 93 58 70 93 58 70 93 58 70 93 58 70 93 58 70 93 58 70 93 58 70 93 58 70 102 61 76 102 61 76 102 61 76 102 61 76 102 61 76 102 61 76 102 61 76 102 61 76 102 61 76 102 61 76 102 61 76 102 61 76 102 61 76 102 61 76 102 61 76 102 61 76 102 61 76 102 61 76 102 61 76 102 61 76 102 61 76 102 61 76 102 61 76 102 61 76 102 61 76 102 61 76 102 61 76 102 61 76 102 61 76 102 61 76 102 61 76 102 61 76 102 61 76 102 61 76 102 61 76 102 61 76 102 61 76 102 61 76 102 61 76 102 61 76 96 66 77 96 66 77 96 66 77 96 66 77 96 66 77 96 66 77 96 66 77 96 66 77 96 66 77 96 66 77 96 66 77 96 66 77 96 66 77 96 66 77 96 66 77 96 66 77 96 66 77 96 66 77 96 66 77 96 66 77 96 66 77 96 66 77 96 66 77 96 66 77 96 66 77 96 66 77 96 66 77 96 66 77 96 66 77 96 66 77 96 66 77 96 66 77 96 66 77 96 66 77 96 66 77 96 66 77 111 103 104 111 103 104 111 103 104 111 103 104 111 103 104 111 103 104 57 41 58 57 41 58 57 41 58 57 41 58 57 41 58 57 41 58 57 41 58 57 41 58 57 41 58 57 41 58 57 41 58 57 41 58 57 41 58 57 41 58 57 41 58 57 41 58 57 41 58 57 41 58 57 41 58 57 41 58 57 41 58 57 41 58 57 41 58 57 41 58 57 41 58 57 41 58 164 105 94 164 105 94 164 105 94 164 105 94 164 105 94 164 105 94 164 105 94 164 105 94 164 105 94 164 105 94 164 105 94 164 105 94 164 105 94 164 105 94 164 105 94 164 105 94 164 105 94 164 105 94 164 105 94 164 105 94 164 105 94 164 105 94 164 105 94 164 105 94 164 105 94 164 105 94 164 105 94 164 105 94 164 105 94 164 105 94 164 105 94 164 105 94 164 105 94 164 105 94 164 105 94 164 105 94 164 105 94 165 104 92 165 104 92 165 104 92 165 104 92 165 104 92 165 104 92 165 104 92 165 104 92 165 104 92 165 104 92 165 104 92 165 104 92 165 104 92 165 104 92 165 104 92 165 104 92 165 104 92 165 104 92 165 104 92 165 104 92 165 104 92 165 104 92 165 104 92 165 104 92 165 104 92 165 104 92 165 104 92 165 104 92 165 104 92 165 104 92 165 104 92 165 104 92 165 104 92 165 104 92 165 104 92 165 104 92 165 104 92 165 104 92 165 104 92 165 104 92 165 104 92 167 105 93 167 105 93 167 105 93 167 105 93 167 105 93 167 105 93 167 105 93 167 105 93 167 105 93 167 105 93 167 105 93 167 105 93 167 105 93 167 105 93 167 105 93 167 105 93 167 105 93 167 105 93 167 105 93 167 105 93 167 105 93 167 105 93 167 105 93 167 105 93 167 105 93 167 105 93 167 105 93 167 105 93 167 105 93 167 105 93 167 105 93 167 105 93 167 105 93 167 105 93 167 105 93 167 105 93 167 105 93 167 105 93 167 105 93 93 58 70 93 58 70 93 58 70 93 58 70 93 58 70 93 58 70 93 58 70 93 58 70 93 58 70 93 58 70 93 58 70 93 58 70 93 58 70 93 58 70 93 58 70 93 58 70 93 58 70 93 58 70 93 58 70 93 58 70 93 58 70 93 58 70 93 58 70 93 58 70 93 58 70 93 58 70 93 58 70 102 61 76 93 58 70 93 58 70 102 61 76 102 61 76 102 61 76 102 61 76 102 61 76 102 61 76 102 61 76 102 61 76 102 61 76 102 61 76 102 61 76 102 61 76 102 61 76 102 61 76 102 61 76 102 61 76 102 61 76 102 61 76 102 61 76 102 61 76 102 61 76 102 61 76 102 61 76 102 61 76 102 61 76 102 61 76 102 61 76 102 61 76 102 61 76 102 61 76 102 61 76 102 61 76 102 61 76 102 61 76 102 61 76 102 61 76 102 61 76 102 61 76 102 61 76 102 61 76 102 61 76 96 66 77 96 66 77 96 66 77 96 66 77 96 66 77 96 66 77 96 66 77 96 66 77 96 66 77 96 66 77 96 66 77 96 66 77 96 66 77 96 66 77 96 66 77 96 66 77 96 66 77 96 66 77 96 66 77 96 66 77 96 66 77 96 66 77 96 66 77 96 66 77 96 66 77 96 66 77 96 66 77 96 66 77 96 66 77 96 66 77 96 66 77 96 66 77 96 66 77 96 66 77 96 66 77 96 66 77 172 191 200 172 191 200 172 191 200 172 191 200 172 191 200 172 191 200 172 191 200 172 191 200 172 191 200 172 191 200 111 103 104 111 103 104 111 103 104 111 103 104 111 103 104 111 103 104 111 103 104 111 103 104 57 41 58 57 41 58 57 41 58 57 41 58 57 41 58 57 41 58 57 41 58 57 41 58 57 41 58 57 41 58 57 41 58 57 41 58 57 41 58 111 103 104 164 105 94 164 105 94 164 105 94 164 105 94 164 105 94 164 105 94 164 105 94 164 105 94 164 105 94 164 105 94 164 105 94 164 105 94 164 105 94 164 105 94 164 105 94 164 105 94 164 105 94 164 105 94 164 105 94 164 105 94 164 105 94 164 105 94 164 105 94 164 105 94 164 105 94 164 105 94 164 105 94 164 105 94 164 105 94 164 105 94 164 105 94 164 105 94 164 105 94 164 105 94 164 105 94 164 105 94 164 105 94 165 104 92 165 104 92 165 104 92 165 104 92 165 104 92 165 104 92 165 104 92 165 104 92 165 104 92 165 104 92 165 104 92 165 104 92 165 104 92 165 104 92 165 104 92 165 104 92 165 104 92 165 104 92 165 104 92 165 104 92 165 104 92 165 104 92 165 104 92 165 104 92 165 104 92 165 104 92 165 104 92 165 104 92 165 104 92 165 104 92 165 104 92 165 104 92 165 104 92 165 104 92 165 104 92 165 104 92 165 104 92 165 104 92 165 104 92 165 104 92 167 105 93 167 105 93 167 105 93 167 105 93 167 105 93 167 105 93 167 105 93 167 105 93 167 105 93 167 105 93 167 105 93 167 105 93 167 105 93 167 105 93 167 105 93 167 105 93 167 105 93 167 105 93 167 105 93 167 105 93 167 105 93 167 105 93 167 105 93 167 105 93 167 105 93 167 105 93 167 105 93 167 105 93 167 105 93 167 105 93 167 105 93 167 105 93 167 105 93 167 105 93 167 105 93 167 105 93 167 105 93 167 105 93 167 105 93 93 58 70 93 58 70 93 58 70 93 58 70 93 58 70 93 58 70 93 58 70 93 58 70 93 58 70 93 58 70 93 58 70 93 58 70 93 58 70 93 58 70 93 58 70 93 58 70 93 58 70 93 58 70 93 58 70 93 58 70 93 58 70 93 58 70 93 58 70 93 58 70 93 58 70 93 58 70 93 58 70 102 61 76 93 58 70 93 58 70 93 58 70 102 61 76 102 61 76 93 58 70 102 61 76 102 61 76 102 61 76 102 61 76 102 61 76 102 61 76 102 61 76 102 61 76 102 61 76 102 61 76 102 61 76 102 61 76 102 61 76 102 61 76 102 61 76 102 61 76 102 61 76 102 61 76 102 61 76 102 61 76 102 61 76 102 61 76 102 61 76 102 61 76 102 61 76 102 61 76 102 61 76 102 61 76 102 61 76 102 61 76 102 61 76 102 61 76 102 61 76 102 61 76 102 61 76 102 61 76 102 61 76 102 61 76 96 66 77 96 66 77 96 66 77 96 66 77 96 66 77 96 66 77 96 66 77 96 66 77 96 66 77 96 66 77 96 66 77 96 66 77 96 66 77 96 66 77 96 66 77 96 66 77 96 66 77 96 66 77 96 66 77 96 66 77 96 66 77 96 66 77 96 66 77 96 66 77 96 66 77 96 66 77 96 66 77 96 66 77 96 66 77 96 66 77 96 66 77 96 66 77 96 66 77 96 66 77 115 93 101 151 155 149 172 191 200 172 191 200 172 191 200 172 191 200 172 191 200 172 191 200 172 191 200 172 191 200 172 191 200 172 191 200 172 191 200 172 191 200 172 191 200 172 191 200 172 191 200 172 191 200 172 191 200 172 191 200 172 191 200 172 191 200 172 191 200 172 191 200 111 103 104 111 103 104 111 103 104 111 103 104 111 103 104 111 103 104 111 103 104 57 41 58 57 41 58 111 103 104 164 105 94 164 105 94 164 105 94 164 105 94 164 105 94 164 105 94 164 105 94 164 105 94 164 105 94 164 105 94 164 105 94 164 105 94 164 105 94 164 105 94 164 105 94 164 105 94 164 105 94 164 105 94 164 105 94 164 105 94 164 105 94 164 105 94 164 105 94 164 105 94 164 105 94 164 105 94 164 105 94 164 105 94 164 105 94 164 105 94 164 105 94 164 105 94 164 105 94 164 105 94 164 105 94 164 105 94 164 105 94 165 104 92 165 104 92 165 104 92 165 104 92 165 104 92 165 104 92 165 104 92 165 104 92 165 104 92 165 104 92 165 104 92 165 104 92 165 104 92 165 104 92 165 104 92 165 104 92 165 104 92 165 104 92 165 104 92 165 104 92 165 104 92 165 104 92 165 104 92 165 104 92 165 104 92 165 104 92 165 104 92 165 104 92 165 104 92 165 104 92 165 104 92 165 104 92 165 104 92 165 104 92 165 104 92 165 104 92 165 104 92 165 104 92 165 104 92 165 104 92 167 105 93 167 105 93 167 105 93 167 105 93 167 105 93 167 105 93 167 105 93 167 105 93 167 105 93 167 105 93 167 105 93 167 105 93 167 105 93 167 105 93 167 105 93 167 105 93 167 105 93 167 105 93 167 105 93 167 105 93 167 105 93 167 105 93 167 105 93 167 105 93 167 105 93 167 105 93 167 105 93 167 105 93 167 105 93 167 105 93 167 105 93 167 105 93 167 105 93 167 105 93 167 105 93 167 105 93 167 105 93 167 105 93 167 105 93 93 58 70 93 58 70 93 58 70 93 58 70 93 58 70 93 58 70 93 58 70 93 58 70 93 58 70 93 58 70 93 58 70 93 58 70 93 58 70 93 58 70 93 58 70 93 58 70 93 58 70 93 58 70 93 58 70 93 58 70 93 58 70 93 58 70 93 58 70 93 58 70 93 58 70 93 58 70 93 58 70 93 58 70 93 58 70 93 58 70 102 61 76 102 61 76 102 61 76 102 61 76 102 61 76 102 61 76 102 61 76 102 61 76 102 61 76 102 61 76 102 61 76 102 61 76 102 61 76 102 61 76 102 61 76 102 61 76 102 61 76 102 61 76 102 61 76 102 61 76 102 61 76 102 61 76 102 61 76 102 61 76 102 61 76 102 61 76 102 61 76 102 61 76 102 61 76 102 61 76 102 61 76 102 61 76 102 61 76 102 61 76 102 61 76 102 61 76 102 61 76 102 61 76 102 61 76 102 61 76 102 61 76 102 61 76 102 61 76 96 66 77 96 66 77 96 66 77 96 66 77 96 66 77 96 66 77 96 66 77 96 66 77 96 66 77 96 66 77 96 66 77 96 66 77 96 66 77 96 66 77 96 66 77 96 66 77 96 66 77 96 66 77 96 66 77 96 66 77 96 66 77 96 66 77 96 66 77 96 66 77 96 66 77 96 66 77 96 66 77 96 66 77 96 66 77 96 66 77 96 66 77 96 66 77 151 155 149 151 155 149 151 155 149 172 191 200 172 191 200 172 191 200 172 191 200 172 191 200 172 191 200 172 191 200 172 191 200 172 191 200 172 191 200 172 191 200 172 191 200 172 191 200 172 191 200 172 191 200 172 191 200 172 191 200 172 191 200 172 191 200 172 191 200 172 191 200 172 191 200 172 191 200 172 191 200 172 191 200 172 191 200 172 191 200 172 191 200 172 191 200 172 191 200 172 191 200 164 105 94 164 105 94 164 105 94 164 105 94 164 105 94 164 105 94 164 105 94 164 105 94 164 105 94 164 105 94 164 105 94 164 105 94 164 105 94 164 105 94 164 105 94 164 105 94 164 105 94 164 105 94 164 105 94 164 105 94 164 105 94 164 105 94 164 105 94 164 105 94 164 105 94 164 105 94 164 105 94 164 105 94 164 105 94 164 105 94 164 105 94 164 105 94 164 105 94 164 105 94 164 105 94 164 105 94 164 105 94 164 105 94 165 104 92 165 104 92 165 104 92 165 104 92 165 104 92 165 104 92 165 104 92 165 104 92 165 104 92 165 104 92 165 104 92 165 104 92 165 104 92 165 104 92 165 104 92 165 104 92 165 104 92 165 104 92 165 104 92 165 104 92 165 104 92 165 104 92 165 104 92 165 104 92 165 104 92 165 104 92 165 104 92 165 104 92 165 104 92 165 104 92 165 104 92 165 104 92 165 104 92 165 104 92 165 104 92 165 104 92 165 104 92 165 104 92 165 104 92 165 104 92 167 105 93 167 105 93 167 105 93 167 105 93 167 105 93 167 105 93 167 105 93 167 105 93 167 105 93 167 105 93 167 105 93 167 105 93 167 105 93 167 105 93 167 105 93 167 105 93 167 105 93 167 105 93 167 105 93 167 105 93 167 105 93 167 105 93 167 105 93 167 105 93 167 105 93 167 105 93 167 105 93 167 105 93 167 105 93 167 105 93 167 105 93 167 105 93 167 105 93 167 105 93 167 105 93 167 105 93 167 105 93 167 105 93 167 105 93 93 58 70 93 58 70 93 58 70 93 58 70 93 58 70 93 58 70 93 58 70 93 58 70 93 58 70 93 58 70 93 58 70 93 58 70 93 58 70 93 58 70 93 58 70 93 58 70 93 58 70 93 58 70 93 58 70 93 58 70 93 58 70 93 58 70 93 58 70 93 58 70 93 58 70 93 58 70 93 58 70 93 58 70 102 61 76 102 61 76 102 61 76 102 61 76 102 61 76 102 61 76 102 61 76 102 61 76 102 61 76 102 61 76 102 61 76 102 61 76 102 61 76 102 61 76 102 61 76 102 61 76 102 61 76 102 61 76 102 61 76 102 61 76 102 61 76 102 61 76 102 61 76 102 61 76 102 61 76 102 61 76 102 61 76 102 61 76 102 61 76 102 61 76 102 61 76 102 61 76 102 61 76 102 61 76 102 61 76 102 61 76 102 61 76 102 61 76 102 61 76 102 61 76 102 61 76 102 61 76 102 61 76 102 61 76 102 61 76 96 66 77 96 66 77 96 66 77 96 66 77 96 66 77 96 66 77 96 66 77 96 66 77 96 66 77 96 66 77 96 66 77 96 66 77 96 66 77 96 66 77 96 66 77 96 66 77 96 66 77 96 66 77 96 66 77 96 66 77 96 66 77 96 66 77 96 66 77 96 66 77 96 66 77 96 66 77 96 66 77 96 66 77 96 66 77 96 66 77 96 66 77 151 155 149 96 66 77 96 66 77 151 155 149 172 191 200 172 191 200 172 191 200 172 191 200 172 191 200 172 191 200 172 191 200 172 191 200 172 191 200 172 191 200 172 191 200 172 191 200 172 191 200 172 191 200 172 191 200 172 191 200 172 191 200 172 191 200 172 191 200 172 191 200 172 191 200 172 191 200 172 191 200 172 191 200 172 191 200 172 191 200 172 191 200 172 191 200 172 191 200 172 191 200 172 191 200 164 105 94 164 105 94 164 105 94 164 105 94 164 105 94 164 105 94 164 105 94 164 105 94 164 105 94 164 105 94 164 105 94 164 105 94 164 105 94 164 105 94 164 105 94 164 105 94 164 105 94 164 105 94 164 105 94 164 105 94 164 105 94 164 105 94 164 105 94 164 105 94 164 105 94 164 105 94 164 105 94 164 105 94 164 105 94 164 105 94 164 105 94 164 105 94 164 105 94 164 105 94 164 105 94 164 105 94 164 105 94 164 105 94 165 104 92 165 104 92 165 104 92 165 104 92 165 104 92 165 104 92 165 104 92 165 104 92 165 104 92 165 104 92 165 104 92 165 104 92 165 104 92 165 104 92 165 104 92 165 104 92 165 104 92 165 104 92 165 104 92 165 104 92 165 104 92 165 104 92 165 104 92 165 104 92 165 104 92 165 104 92 165 104 92 165 104 92 165 104 92 165 104 92 165 104 92 165 104 92 165 104 92 165 104 92 165 104 92 165 104 92 165 104 92 165 104 92 165 104 92 165 104 92 167 105 93 167 105 93 167 105 93 167 105 93 167 105 93 167 105 93 167 105 93 167 105 93 167 105 93 167 105 93 167 105 93 167 105 93 167 105 93 167 105 93 167 105 93 167 105 93 167 105 93 167 105 93 167 105 93 167 105 93 167 105 93 167 105 93 167 105 93 167 105 93 167 105 93 167 105 93 167 105 93 167 105 93 167 105 93 167 105 93 167 105 93 167 105 93 167 105 93 167 105 93 167 105 93 167 105 93 167 105 93 167 105 93 167 105 93 93 58 70 93 58 70 93 58 70 93 58 70 93 58 70 93 58 70 93 58 70 93 58 70 93 58 70 93 58 70 93 58 70 93 58 70 93 58 70 93 58 70 93 58 70 93 58 70 93 58 70 93 58 70 93 58 70 93 58 70 93 58 70 93 58 70 93 58 70 93 58 70 93 58 70 93 58 70 93 58 70 93 58 70 102 61 76 102 61 76 102 61 76 102 61 76 102 61 76 102 61 76 102 61 76 102 61 76 102 61 76 102 61 76 102 61 76 102 61 76 102 61 76 102 61 76 102 61 76 102 61 76 102 61 76 102 61 76 102 61 76 102 61 76 102 61 76 102 61 76 102 61 76 102 61 76 102 61 76 102 61 76 102 61 76 102 61 76 102 61 76 102 61 76 102 61 76 102 61 76 102 61 76 102 61 76 102 61 76 102 61 76 102 61 76 102 61 76 102 61 76 102 61 76 102 61 76 102 61 76 102 61 76 102 61 76 102 61 76 96 66 77 96 66 77 96 66 77 96 66 77 96 66 77 96 66 77 96 66 77 96 66 77 96 66 77 96 66 77 96 66 77 96 66 77 96 66 77 96 66 77 96 66 77 96 66 77 96 66 77 96 66 77 96 66 77 96 66 77 96 66 77 96 66 77 96 66 77 96 66 77 96 66 77 96 66 77 96 66 77 96 66 77 96 66 77 96 66 77 96 66 77 96 66 77 96 66 77 96 66 77 96 66 77 172 191 200 172 191 200 172 191 200 172 191 200 172 191 200 172 191 200 172 191 200 172 191 200 172 191 200 172 191 200 172 191 200 172 191 200 172 191 200 172 191 200 172 191 200 172 191 200 172 191 200 172 191 200 172 191 200 172 191 200 172 191 200 172 191 200 172 191 200 172 191 200 172 191 200 172 191 200 172 191 200 172 191 200 172 191 200 172 191 200 172 191 200 172 191 200 164 105 94 164 105 94 164 105 94 164 105 94 164 105 94 164 105 94 164 105 94 164 105 94 164 105 94 164 105 94 164 105 94 164 105 94 164 105 94 164 105 94 164 105 94 164 105 94 164 105 94 164 105 94 164 105 94 164 105 94 164 105 94 164 105 94 164 105 94 164 105 94 164 105 94 164 105 94 164 105 94 164 105 94 164 105 94 164 105 94 164 105 94 164 105 94 164 105 94 164 105 94 164 105 94 164 105 94 164 105 94 165 104 92 165 104 92 165 104 92 165 104 92 165 104 92 165 104 92 165 104 92 165 104 92 165 104 92 165 104 92 165 104 92 165 104 92 165 104 92 165 104 92 165 104 92 165 104 92 165 104 92 165 104 92 165 104 92 165 104 92 165 104 92 165 104 92 165 104 92 165 104 92 165 104 92 165 104 92 165 104 92 165 104 92 165 104 92 165 104 92 165 104 92 165 104 92 165 104 92 165 104 92 165 104 92 165 104 92 165 104 92 165 104 92 165 104 92 165 104 92 165 104 92 167 105 93 167 105 93 167 105 93 167 105 93 167 105 93 167 105 93 167 105 93 167 105 93 167 105 93 167 105 93 167 105 93 167 105 93 167 105 93 167 105 93 167 105 93 167 105 93 167 105 93 167 105 93 167 105 93 167 105 93 167 105 93 167 105 93 167 105 93 167 105 93 167 105 93 167 105 93 167 105 93 167 105 93 167 105 93 167 105 93 167 105 93 167 105 93 167 105 93 167 105 93 167 105 93 167 105 93 167 105 93 167 105 93 93 58 70 93 58 70 93 58 70 93 58 70 93 58 70 93 58 70 93 58 70 93 58 70 93 58 70 93 58 70 93 58 70 93 58 70 93 58 70 93 58 70 93 58 70 93 58 70 93 58 70 93 58 70 93 58 70 93 58 70 93 58 70 93 58 70 93 58 70 93 58 70 93 58 70 93 58 70 93 58 70 102 61 76 102 61 76 102 61 76 102 61 76 102 61 76 102 61 76 102 61 76 102 61 76 102 61 76 102 61 76 102 61 76 102 61 76 102 61 76 102 61 76 102 61 76 102 61 76 102 61 76 102 61 76 102 61 76 102 61 76 102 61 76 102 61 76 102 61 76 102 61 76 102 61 76 102 61 76 102 61 76 102 61 76 102 61 76 102 61 76 102 61 76 102 61 76 102 61 76 102 61 76 102 61 76 102 61 76 102 61 76 102 61 76 102 61 76 102 61 76 102 61 76 102 61 76 102 61 76 102 61 76 102 61 76 102 61 76 96 66 77 96 66 77 96 66 77 96 66 77 96 66 77 96 66 77 96 66 77 96 66 77 96 66 77 96 66 77 96 66 77 96 66 77 96 66 77 96 66 77 96 66 77 96 66 77 96 66 77 96 66 77 96 66 77 96 66 77 96 66 77 96 66 77 96 66 77 96 66 77 96 66 77 96 66 77 96 66 77 96 66 77 96 66 77 96 66 77 96 66 77 96 66 77 96 66 77 96 66 77 151 155 149 172 191 200 172 191 200 172 191 200 172 191 200 172 191 200 172 191 200 172 191 200 172 191 200 172 191 200 172 191 200 172 191 200 172 191 200 172 191 200 172 191 200 172 191 200 172 191 200 172 191 200 172 191 200 172 191 200 172 191 200 172 191 200 172 191 200 172 191 200 172 191 200 172 191 200 172 191 200 172 191 200 172 191 200 172 191 200 172 191 200 172 191 200 164 105 94 164 105 94 164 105 94 164 105 94 164 105 94 164 105 94 164 105 94 164 105 94 164 105 94 164 105 94 164 105 94 164 105 94 164 105 94 164 105 94 164 105 94 164 105 94 164 105 94 164 105 94 164 105 94 164 105 94 164 105 94 164 105 94 164 105 94 164 105 94 164 105 94 164 105 94 164 105 94 164 105 94 164 105 94 164 105 94 164 105 94 164 105 94 164 105 94 164 105 94 164 105 94 164 105 94 164 105 94 165 104 92 165 104 92 165 104 92 165 104 92 165 104 92 165 104 92 165 104 92 165 104 92 165 104 92 165 104 92 165 104 92 165 104 92 165 104 92 165 104 92 165 104 92 165 104 92 165 104 92 165 104 92 165 104 92 165 104 92 165 104 92 165 104 92 165 104 92 165 104 92 165 104 92 165 104 92 165 104 92 165 104 92 165 104 92 165 104 92 165 104 92 165 104 92 165 104 92 165 104 92 165 104 92 165 104 92 165 104 92 165 104 92 165 104 92 165 104 92 165 104 92 167 105 93 167 105 93 167 105 93 167 105 93 167 105 93 167 105 93 167 105 93 167 105 93 167 105 93 167 105 93 167 105 93 167 105 93 167 105 93 167 105 93 167 105 93 167 105 93 167 105 93 167 105 93 167 105 93 167 105 93 167 105 93 167 105 93 167 105 93 167 105 93 167 105 93 167 105 93 167 105 93 167 105 93 167 105 93 167 105 93 167 105 93 167 105 93 167 105 93 167 105 93 167 105 93 167 105 93 167 105 93 167 105 93 167 105 93 93 58 70 93 58 70 93 58 70 93 58 70 93 58 70 93 58 70 93 58 70 93 58 70 93 58 70 93 58 70 93 58 70 93 58 70 93 58 70 93 58 70 93 58 70 93 58 70 93 58 70 93 58 70 93 58 70 93 58 70 93 58 70 93 58 70 93 58 70 93 58 70 93 58 70 102 61 76 102 61 76 102 61 76 102 61 76 102 61 76 102 61 76 102 61 76 102 61 76 102 61 76 102 61 76 102 61 76 102 61 76 102 61 76 102 61 76 102 61 76 102 61 76 102 61 76 102 61 76 102 61 76 102 61 76 102 61 76 102 61 76 102 61 76 102 61 76 102 61 76 102 61 76 102 61 76 102 61 76 102 61 76 102 61 76 102 61 76 102 61 76 102 61 76 102 61 76 102 61 76 102 61 76 102 61 76 102 61 76 102 61 76 102 61 76 102 61 76 102 61 76 102 61 76 102 61 76 102 61 76 102 61 76 102 61 76 102 61 76 96 66 77 96 66 77 96 66 77 96 66 77 96 66 77 96 66 77 96 66 77 96 66 77 96 66 77 96 66 77 96 66 77 96 66 77 96 66 77 96 66 77 96 66 77 96 66 77 96 66 77 96 66 77 96 66 77 96 66 77 96 66 77 96 66 77 96 66 77 96 66 77 96 66 77 96 66 77 96 66 77 96 66 77 96 66 77 96 66 77 96 66 77 96 66 77 96 66 77 96 66 77 151 155 149 172 191 200 172 191 200 172 191 200 172 191 200 172 191 200 172 191 200 172 191 200 172 191 200 172 191 200 172 191 200 172 191 200 172 191 200 172 191 200 172 191 200 172 191 200 172 191 200 172 191 200 172 191 200 172 191 200 172 191 200 172 191 200 172 191 200 172 191 200 172 191 200 172 191 200 172 191 200 172 191 200 172 191 200 172 191 200 172 191 200 172 191 200 164 105 94 164 105 94 164 105 94 164 105 94 164 105 94 164 105 94 164 105 94 164 105 94 164 105 94 164 105 94 164 105 94 164 105 94 164 105 94 164 105 94 164 105 94 164 105 94 164 105 94 164 105 94 164 105 94 164 105 94 164 105 94 164 105 94 164 105 94 164 105 94 164 105 94 164 105 94 164 105 94 164 105 94 164 105 94 164 105 94 164 105 94 164 105 94 164 105 94 164 105 94 164 105 94 164 105 94 164 105 94 164 105 94 165 104 92 165 104 92 165 104 92 165 104 92 165 104 92 165 104 92 165 104 92 165 104 92 165 104 92 165 104 92 165 104 92 165 104 92 165 104 92 165 104 92 165 104 92 165 104 92 165 104 92 165 104 92 165 104 92 165 104 92 165 104 92 165 104 92 165 104 92 165 104 92 165 104 92 165 104 92 165 104 92 165 104 92 165 104 92 165 104 92 165 104 92 165 104 92 165 104 92 165 104 92 165 104 92 165 104 92 165 104 92 165 104 92 165 104 92 165 104 92 167 105 93 167 105 93 167 105 93 167 105 93 167 105 93 167 105 93 167 105 93 167 105 93 167 105 93 167 105 93 167 105 93 167 105 93 167 105 93 167 105 93 167 105 93 167 105 93 167 105 93 167 105 93 167 105 93 167 105 93 167 105 93 167 105 93 167 105 93 167 105 93 167 105 93 167 105 93 167 105 93 167 105 93 167 105 93 167 105 93 167 105 93 167 105 93 167 105 93 167 105 93 167 105 93 167 105 93 167 105 93 167 105 93 167 105 93 93 58 70 93 58 70 93 58 70 93 58 70 93 58 70 93 58 70 93 58 70 93 58 70 93 58 70 93 58 70 93 58 70 93 58 70 93 58 70 93 58 70 93 58 70 93 58 70 93 58 70 93 58 70 93 58 70 93 58 70 93 58 70 93 58 70 93 58 70 93 58 70 93 58 70 102 61 76 93 58 70 93 58 70 102 61 76 102 61 76 102 61 76 102 61 76 102 61 76 102 61 76 102 61 76 102 61 76 102 61 76 102 61 76 102 61 76 102 61 76 102 61 76 102 61 76 102 61 76 102 61 76 102 61 76 102 61 76 102 61 76 102 61 76 102 61 76 102 61 76 102 61 76 102 61 76 102 61 76 102 61 76 102 61 76 102 61 76 102 61 76 102 61 76 102 61 76 102 61 76 102 61 76 102 61 76 102 61 76 102 61 76 102 61 76 102 61 76 102 61 76 102 61 76 102 61 76 102 61 76 102 61 76 102 61 76 102 61 76 96 66 77 96 66 77 96 66 77 96 66 77 96 66 77 96 66 77 96 66 77 96 66 77 96 66 77 96 66 77 96 66 77 96 66 77 96 66 77 96 66 77 96 66 77 96 66 77 96 66 77 96 66 77 96 66 77 96 66 77 96 66 77 96 66 77 96 66 77 96 66 77 96 66 77 96 66 77 96 66 77 96 66 77 96 66 77 96 66 77 96 66 77 96 66 77 96 66 77 96 66 77 151 155 149 172 191 200 172 191 200 172 191 200 172 191 200 172 191 200 172 191 200 172 191 200 172 191 200 172 191 200 172 191 200 172 191 200 172 191 200 172 191 200 172 191 200 172 191 200 172 191 200 172 191 200 172 191 200 172 191 200 172 191 200 172 191 200 172 191 200 172 191 200 172 191 200 172 191 200 172 191 200 172 191 200 172 191 200 172 191 200 172 191 200 172 191 200 164 105 94 164 105 94 164 105 94 164 105 94 164 105 94 164 105 94 164 105 94 164 105 94 164 105 94 164 105 94 164 105 94 164 105 94 164 105 94 164 105 94 164 105 94 164 105 94 164 105 94 164 105 94 164 105 94 164 105 94 164 105 94 164 105 94 164 105 94 164 105 94 164 105 94 164 105 94 164 105 94 164 105 94 164 105 94 164 105 94 164 105 94 164 105 94 164 105 94 164 105 94 164 105 94 164 105 94 164 105 94 164 105 94 165 104 92 165 104 92 165 104 92 165 104 92 165 104 92 165 104 92 165 104 92 165 104 92 165 104 92 165 104 92 165 104 92 165 104 92 165 104 92 165 104 92 165 104 92 165 104 92 165 104 92 165 104 92 165 104 92 165 104 92 165 104 92 165 104 92 165 104 92 165 104 92 165 104 92 165 104 92 165 104 92 165 104 92 165 104 92 165 104 92 165 104 92 165 104 92 165 104 92 165 104 92 165 104 92 165 104 92 165 104 92 165 104 92 165 104 92 165 104 92 165 104 92 167 105 93 167 105 93 167 105 93 167 105 93 167 105 93 167 105 93 167 105 93 167 105 93 167 105 93 167 105 93 167 105 93 167 105 93 167 105 93 167 105 93 167 105 93 167 105 93 167 105 93 167 105 93 167 105 93 167 105 93 167 105 93 167 105 93 167 105 93 167 105 93 167 105 93 167 105 93 167 105 93 167 105 93 167 105 93 167 105 93 167 105 93 167 105 93 167 105 93 167 105 93 167 105 93 167 105 93 167 105 93 167 105 93 93 58 70 93 58 70 93 58 70 93 58 70 93 58 70 93 58 70 93 58 70 93 58 70 93 58 70 93 58 70 93 58 70 93 58 70 93 58 70 93 58 70 93 58 70 93 58 70 93 58 70 93 58 70 93 58 70 93 58 70 93 58 70 93 58 70 93 58 70 93 58 70 93 58 70 93 58 70 93 58 70 93 58 70 102 61 76 102 61 76 102 61 76 102 61 76 102 61 76 102 61 76 102 61 76 102 61 76 102 61 76 102 61 76 102 61 76 102 61 76 102 61 76 102 61 76 102 61 76 102 61 76 102 61 76 102 61 76 102 61 76 102 61 76 102 61 76 102 61 76 102 61 76 102 61 76 102 61 76 102 61 76 102 61 76 102 61 76 102 61 76 102 61 76 102 61 76 102 61 76 102 61 76 102 61 76 102 61 76 102 61 76 102 61 76 102 61 76 102 61 76 102 61 76 102 61 76 102 61 76 102 61 76 102 61 76 102 61 76 96 66 77 96 66 77 96 66 77 96 66 77 96 66 77 96 66 77 96 66 77 96 66 77 96 66 77 96 66 77 96 66 77 96 66 77 96 66 77 96 66 77 96 66 77 96 66 77 96 66 77 96 66 77 151 155 149 96 66 77 96 66 77 96 66 77 96 66 77 96 66 77 96 66 77 96 66 77 96 66 77 96 66 77 96 66 77 96 66 77 96 66 77 96 66 77 96 66 77 96 66 77 151 155 149 172 191 200 172 191 200 172 191 200 172 191 200 172 191 200 172 191 200 172 191 200 172 191 200 172 191 200 172 191 200 172 191 200 172 191 200 172 191 200 172 191 200 172 191 200 172 191 200 172 191 200 172 191 200 172 191 200 172 191 200 172 191 200 172 191 200 172 191 200 172 191 200 172 191 200 172 191 200 172 191 200 172 191 200 172 191 200 172 191 200 172 191 200 164 105 94 164 105 94 164 105 94 164 105 94 164 105 94 164 105 94 164 105 94 164 105 94 164 105 94 164 105 94 164 105 94 164 105 94 164 105 94 164 105 94 164 105 94 164 105 94 164 105 94 164 105 94 164 105 94 164 105 94 164 105 94 164 105 94 164 105 94 164 105 94 164 105 94 164 105 94 164 105 94 164 105 94 164 105 94 164 105 94 164 105 94 164 105 94 164 105 94 164 105 94 164 105 94 164 105 94 164 105 94 165 104 92 165 104 92 165 104 92 165 104 92 165 104 92 165 104 92 165 104 92 165 104 92 165 104 92 165 104 92 165 104 92 165 104 92 165 104 92 165 104 92 165 104 92 165 104 92 165 104 92 165 104 92 165 104 92 165 104 92 165 104 92 165 104 92 165 104 92 165 104 92 165 104 92 165 104 92 165 104 92 165 104 92 165 104 92 165 104 92 165 104 92 165 104 92 165 104 92 165 104 92 165 104 92 165 104 92 165 104 92 165 104 92 165 104 92 165 104 92 165 104 92 167 105 93 167 105 93 167 105 93 167 105 93 167 105 93 167 105 93 167 105 93 167 105 93 167 105 93 167 105 93 167 105 93 167 105 93 167 105 93 167 105 93 167 105 93 167 105 93 167 105 93 167 105 93 167 105 93 167 105 93 167 105 93 167 105 93 167 105 93 167 105 93 167 105 93 167 105 93 167 105 93 167 105 93 167 105 93 167 105 93 167 105 93 167 105 93 167 105 93 167 105 93 167 105 93 167 105 93 167 105 93 167 105 93 167 105 93 93 58 70 93 58 70 93 58 70 93 58 70 93 58 70 93 58 70 93 58 70 93 58 70 93 58 70 93 58 70 93 58 70 93 58 70 93 58 70 93 58 70 93 58 70 93 58 70 93 58 70 93 58 70 93 58 70 93 58 70 93 58 70 93 58 70 93 58 70 93 58 70 102 61 76 102 61 76 102 61 76 102 61 76 102 61 76 102 61 76 102 61 76 102 61 76 102 61 76 102 61 76 102 61 76 102 61 76 102 61 76 102 61 76 102 61 76 102 61 76 102 61 76 102 61 76 102 61 76 102 61 76 102 61 76 102 61 76 102 61 76 102 61 76 102 61 76 102 61 76 102 61 76 102 61 76 102 61 76 102 61 76 102 61 76 102 61 76 102 61 76 102 61 76 102 61 76 102 61 76 102 61 76 102 61 76 102 61 76 102 61 76 102 61 76 102 61 76 102 61 76 102 61 76 102 61 76 102 61 76 102 61 76 102 61 76 102 61 76 96 66 77 96 66 77 96 66 77 96 66 77 96 66 77 96 66 77 96 66 77 96 66 77 96 66 77 96 66 77 96 66 77 96 66 77 96 66 77 96 66 77 96 66 77 96 66 77 96 66 77 151 155 149 151 155 149 151 155 149 96 66 77 96 66 77 96 66 77 96 66 77 96 66 77 96 66 77 96 66 77 96 66 77 96 66 77 96 66 77 96 66 77 96 66 77 96 66 77 96 66 77 151 155 149 