P3
256 256
255
153 152 98 153 152 98 153 152 98 153 152 98 153 152 98 153 152 98
153 152 98 153 152 98 153 152 98 153 152 98 153 152 98 153 152 98
153 152 98 153 152 98 153 152 98 153 152 98 153 152 98 153 152 98
153 152 98 153 152 98 153 152 98 153 152 98 153 152 98 153 152 98
153 152 98 155 152 99 153 150 97 152 149 94 156 155 99 162 165 108
166 171 113 165 173 114 164 169 111 164 169 111 164 169 111
164 169 111 164 169 111 164 169 111 164 169 111 164 169 111
164 169 111 164 169 111 164 169 111 164 169 111 164 169 111
164 169 111 164 169 111 164 169 111 161 169 110 166 171 113
166 171 113 164 169 111 163 168 110 165 173 116 170 178 121
173 182 125 172 181 124 172 181 124 172 181 124 172 181 124
172 181 124 172 181 124 172 181 124 172 181 124 172 181 124
172 181 124 172 181 124 172 181 124 172 181 124 172 181 124
172 181 124 172 181 124 172 181 124 172 181 124 172 181 124
172 181 124 172 181 124 172 181 124 172 181 124 172 181 124
172 181 124 171 180 123 172 181 124 174 183 128 176 185 130
177 186 133 177 186 133 177 185 134 177 186 133 177 186 133
177 186 133 177 186 133 177 186 133 177 186 133 177 186 133
177 186 133 177 186 133 177 186 133 177 186 133 177 186 133
177 186 133 177 186 133 177 186 133 177 186 133 175 183 132
180 189 136 173 182 127 155 164 107 147 157 97 152 162 101
154 164 101 150 161 95 151 160 97 153 161 101 153 161 101 151 159 100
151 159 99 153 162 99 153 162 97 151 160 93 152 161 96 152 160 101
177 184 132 177 184 133 176 183 131 177 184 130 177 184 132
177 184 133 177 184 132 177 184 132 177 184 132 177 184 132
177 184 132 177 184 132 177 184 132 177 184 132 177 184 132
177 184 132 177 184 132 177 184 132 177 184 132 177 184 132
177 184 132 177 184 132 177 184 132 177 184 132 177 184 132
177 184 132 177 184 132 177 184 132 177 184 132 177 184 132
177 184 133 177 184 132 177 184 132 177 184 132 177 184 132
178 185 134 179 185 137 179 185 137 179 185 137 179 185 137
179 185 137 179 185 137 179 185 137 179 185 137 179 185 137
179 185 137 179 185 137 179 185 137 179 185 137 179 185 137
179 185 137 179 185 137 179 185 137 179 185 137 179 185 137
179 185 137 179 185 137 179 185 137 179 185 137 179 185 137
179 185 137 179 185 137 179 185 137 179 185 137 179 185 137
179 185 137 179 185 137 179 185 137 179 185 137 179 185 137
178 184 136 180 186 138 180 186 138 177 183 135 176 180 130
176 180 130 175 179 129 175 179 129 175 179 129 175 179 129
175 179 129 175 179 129 175 179 129 175 179 129 175 179 129
175 179 129 175 179 129 175 179 129 175 179 129 175 179 129
175 179 129 175 179 129 175 179 129 175 179 129 175 179 129
175 179 129 175 179 129 175 179 129 175 179 129 175 179 129
175 179 129 175 179 129 176 180 130 174 178 128 176 180 130
177 181 131 175 179 129 176 178 129 176 178 129 174 176 127
168 166 118 168 166 118 168 166 118 168 166 118 168 166 118
168 166 118 168 166 118 168 166 118 168 166 118 168 166 118
168 166 118 168 166 118 168 166 118 168 166 118 168 166 118
168 166 118 168 166 118 168 166 118 168 166 118 168 166 118
168 166 118 168 166 118 168 166 118 168 166 118 153 152 98 153 152 98
153 152 98 153 152 98 153 152 98 153 152 98 153 152 98 153 152 98
153 152 98 153 152 98 153 152 98 153 152 98 153 152 98 153 152 98
153 152 98 153 152 98 153 152 98 153 152 98 153 152 98 153 152 98
153 152 98 153 152 98 153 152 98 153 152 98 153 152 98 154 153 99
155 152 99 153 152 96 158 157 101 162 165 108 164 169 111 161 169 110
164 169 111 164 169 111 164 169 111 164 169 111 164 169 111
164 169 111 164 169 111 164 169 111 164 169 111 164 169 111
164 169 111 164 169 111 164 169 111 164 169 111 164 169 111
164 169 111 162 170 111 164 169 111 164 169 111 165 170 112
164 169 111 161 169 112 165 173 116 171 180 123 172 181 124
172 181 124 172 181 124 172 181 124 172 181 124 172 181 124
172 181 124 172 181 124 172 181 124 172 181 124 172 181 124
172 181 124 172 181 124 172 181 124 172 181 124 172 181 124
172 181 124 172 181 124 172 181 124 172 181 124 172 181 124
172 181 124 172 181 124 172 181 124 172 181 124 172 181 124
172 181 124 174 183 128 176 185 130 177 186 133 177 186 133
177 185 134 177 186 133 177 186 133 177 186 133 177 186 133
177 186 133 177 186 133 177 186 133 177 186 133 177 186 133
177 186 133 177 186 133 177 186 133 177 186 133 177 186 133
177 186 133 177 186 133 178 186 135 177 186 133 176 185 130
171 180 123 159 169 109 149 159 98 148 158 95 154 164 101 152 161 96
152 161 98 152 160 100 151 159 99 151 159 99 152 161 98 152 161 96
151 160 95 152 161 96 152 160 101 177 184 132 177 184 133 176 183 131
177 184 130 177 184 132 177 184 133 177 184 132 177 184 132
177 184 132 177 184 132 177 184 132 177 184 132 177 184 132
177 184 132 177 184 132 177 184 132 177 184 132 177 184 132
177 184 132 177 184 132 177 184 132 177 184 132 177 184 132
177 184 132 177 184 132 177 184 132 177 184 132 177 184 132
177 184 132 177 184 132 177 184 133 177 184 132 177 184 132
177 184 132 177 184 132 178 185 134 179 185 137 179 185 137
179 185 137 179 185 137 179 185 137 179 185 137 179 185 137
179 185 137 179 185 137 179 185 137 179 185 137 179 185 137
179 185 137 179 185 137 179 185 137 179 185 137 179 185 137
179 185 137 179 185 137 179 185 137 179 185 137 179 185 137
179 185 137 179 185 137 179 185 137 179 185 137 179 185 137
179 185 137 179 185 137 179 185 137 179 185 137 179 185 137
179 185 137 179 185 137 178 184 136 180 186 138 179 185 137
176 182 134 175 179 129 175 179 129 175 179 129 175 179 129
175 179 129 175 179 129 175 179 129 175 179 129 175 179 129
175 179 129 175 179 129 175 179 129 175 179 129 175 179 129
175 179 129 175 179 129 175 179 129 175 179 129 175 179 129
175 179 129 175 179 129 175 179 129 175 179 129 175 179 129
175 179 129 175 179 129 175 179 129 175 179 129 177 181 131
174 178 128 175 179 129 177 181 131 175 179 129 176 178 129
178 180 131 176 178 129 168 166 118 168 166 118 168 166 118
168 166 118 168 166 118 168 166 118 168 166 118 168 166 118
168 166 118 168 166 118 168 166 118 168 166 118 168 166 118
168 166 118 168 166 118 168 166 118 168 166 118 168 166 118
168 166 118 168 166 118 168 166 118 168 166 118 168 166 118
168 166 118 153 152 98 153 152 98 153 152 98 153 152 98 153 152 98
153 152 98 153 152 98 153 152 98 153 152 98 153 152 98 153 152 98
153 152 98 153 152 98 153 152 98 153 152 98 153 152 98 153 152 98
153 152 98 153 152 98 153 152 98 153 152 98 153 152 98 153 152 98
153 152 98 154 153 99 154 153 99 153 152 98 152 151 95 156 157 100
162 165 108 164 169 111 161 169 110 164 169 111 164 169 111
164 169 111 164 169 111 164 169 111 164 169 111 164 169 111
164 169 111 164 169 111 164 169 111 164 169 111 164 169 111
164 169 111 164 169 111 164 169 111 164 169 111 163 171 112
162 167 109 162 167 109 166 171 113 165 170 112 160 168 111
164 172 115 170 179 122 172 181 124 172 181 124 172 181 124
172 181 124 172 181 124 172 181 124 172 181 124 172 181 124
172 181 124 172 181 124 172 181 124 172 181 124 172 181 124
172 181 124 172 181 124 172 181 124 172 181 124 172 181 124
172 181 124 172 181 124 172 181 124 172 181 124 172 181 124
172 181 124 172 181 124 172 181 124 173 182 125 175 184 129
176 185 130 177 186 133 177 186 133 177 185 134 177 186 133
177 186 133 177 186 133 177 186 133 177 186 133 177 186 133
177 186 133 177 186 133 177 186 133 177 186 133 177 186 133
177 186 133 177 186 133 177 186 133 177 186 133 177 186 133
178 187 134 176 185 132 178 187 132 180 189 132 172 182 122
156 166 106 148 158 97 150 160 97 153 162 97 152 161 96 152 161 98
152 161 98 152 161 98 151 160 97 151 160 97 152 161 96 152 161 96
152 160 101 177 184 132 177 184 133 176 183 131 177 184 130
177 184 132 177 184 133 177 184 132 177 184 132 177 184 132
177 184 132 177 184 132 177 184 132 177 184 132 177 184 132
177 184 132 177 184 132 177 184 132 177 184 132 177 184 132
177 184 132 177 184 132 177 184 132 177 184 132 177 184 132
177 184 132 177 184 132 177 184 132 177 184 132 177 184 132
177 184 132 177 184 133 177 184 132 177 184 132 177 184 132
177 184 132 178 185 134 179 185 137 179 185 137 179 185 137
179 185 137 179 185 137 179 185 137 179 185 137 179 185 137
179 185 137 179 185 137 179 185 137 179 185 137 179 185 137
179 185 137 179 185 137 179 185 137 179 185 137 179 185 137
179 185 137 179 185 137 179 185 137 179 185 137 179 185 137
179 185 137 179 185 137 179 185 137 179 185 137 179 185 137
179 185 137 179 185 137 179 185 137 179 185 137 179 185 137
179 185 137 178 184 136 179 185 137 179 185 137 175 181 133
175 179 129 175 179 129 175 179 129 175 179 129 175 179 129
175 179 129 175 179 129 175 179 129 175 179 129 175 179 129
175 179 129 175 179 129 175 179 129 175 179 129 175 179 129
175 179 129 175 179 129 175 179 129 175 179 129 175 179 129
175 179 129 175 179 129 175 179 129 175 179 129 175 179 129
175 179 129 175 179 129 175 179 129 177 181 131 174 178 128
175 179 129 176 180 130 174 178 128 177 179 130 179 181 132
176 178 129 168 166 118 168 166 118 168 166 118 168 166 118
168 166 118 168 166 118 168 166 118 168 166 118 168 166 118
168 166 118 168 166 118 168 166 118 168 166 118 168 166 118
168 166 118 168 166 118 168 166 118 168 166 118 168 166 118
168 166 118 168 166 118 168 166 118 168 166 118 168 166 118
153 152 98 153 152 98 153 152 98 153 152 98 153 152 98 153 152 98
153 152 98 153 152 98 153 152 98 153 152 98 153 152 98 153 152 98
153 152 98 153 152 98 153 152 98 153 152 98 153 152 98 153 152 98
153 152 98 153 152 98 153 152 98 153 152 98 153 152 98 153 152 98
153 152 98 153 152 98 151 151 97 150 151 94 154 157 100 162 165 108
165 170 112 165 170 112 164 169 111 164 169 111 164 169 111
164 169 111 164 169 111 164 169 111 164 169 111 164 169 111
164 169 111 164 169 111 164 169 111 164 169 111 164 169 111
164 169 111 164 169 111 164 169 111 163 171 112 162 167 109
163 168 110 165 170 112 166 171 113 165 173 116 169 177 120
173 182 125 172 181 124 172 181 124 172 181 124 172 181 124
172 181 124 172 181 124 172 181 124 172 181 124 172 181 124
172 181 124 172 181 124 172 181 124 172 181 124 172 181 124
172 181 124 172 181 124 172 181 124 172 181 124 172 181 124
172 181 124 172 181 124 172 181 124 172 181 124 172 181 124
172 181 124 172 181 124 174 183 126 175 184 129 177 186 131
177 186 133 177 186 133 177 185 134 177 186 133 177 186 133
177 186 133 177 186 133 177 186 133 177 186 133 177 186 133
177 186 133 177 186 133 177 186 133 177 186 133 177 186 133
177 186 133 177 186 133 177 186 133 177 186 133 176 185 132
178 187 134 178 187 132 176 185 130 176 185 128 172 182 122
159 169 109 146 156 96 153 162 97 152 161 96 152 161 96 154 163 100
153 162 99 151 160 97 151 160 97 152 161 98 152 161 96 152 160 101
177 184 132 177 184 133 176 183 131 177 184 130 177 184 132
177 184 133 177 184 132 177 184 132 177 184 132 177 184 132
177 184 132 177 184 132 177 184 132 177 184 132 177 184 132
177 184 132 177 184 132 177 184 132 177 184 132 177 184 132
177 184 132 177 184 132 177 184 132 177 184 132 177 184 132
177 184 132 177 184 132 177 184 132 177 184 132 177 184 132
177 184 133 177 184 132 177 184 132 177 184 132 177 184 132
178 185 134 179 185 137 179 185 137 179 185 137 179 185 137
179 185 137 179 185 137 179 185 137 179 185 137 179 185 137
179 185 137 179 185 137 179 185 137 179 185 137 179 185 137
179 185 137 179 185 137 179 185 137 179 185 137 179 185 137
179 185 137 179 185 137 179 185 137 179 185 137 179 185 137
179 185 137 179 185 137 179 185 137 179 185 137 179 185 137
179 185 137 179 185 137 179 185 137 179 185 137 179 185 137
178 184 136 179 185 137 178 184 136 174 180 132 174 178 128
174 178 128 175 179 129 175 179 129 175 179 129 175 179 129
175 179 129 175 179 129 175 179 129 175 179 129 175 179 129
175 179 129 175 179 129 175 179 129 175 179 129 175 179 129
175 179 129 175 179 129 175 179 129 175 179 129 175 179 129
175 179 129 175 179 129 175 179 129 175 179 129 175 179 129
175 179 129 175 179 129 176 180 130 174 178 128 175 179 129
176 180 130 174 178 128 177 179 130 177 179 130 173 175 126
168 166 118 168 166 118 168 166 118 168 166 118 168 166 118
168 166 118 168 166 118 168 166 118 168 166 118 168 166 118
168 166 118 168 166 118 168 166 118 168 166 118 168 166 118
168 166 118 168 166 118 168 166 118 168 166 118 168 166 118
168 166 118 168 166 118 168 166 118 168 166 118 153 152 98 153 152 98
153 152 98 153 152 98 153 152 98 153 152 98 153 152 98 153 152 98
153 152 98 153 152 98 153 152 98 153 152 98 153 152 98 153 152 98
153 152 98 153 152 98 153 152 98 153 152 98 153 152 98 153 152 98
153 152 98 153 152 98 153 152 98 153 152 98 152 151 97 153 153 99
155 155 101 153 156 99 158 161 104 164 169 111 166 171 113
165 170 112 164 169 111 164 169 111 164 169 111 164 169 111
164 169 111 164 169 111 164 169 111 164 169 111 164 169 111
164 169 111 164 169 111 164 169 111 164 169 111 164 169 111
164 169 111 164 169 111 161 169 110 165 170 112 164 169 111
162 167 109 165 170 112 169 177 120 174 182 125 174 183 126
172 181 124 172 181 124 172 181 124 172 181 124 172 181 124
172 181 124 172 181 124 172 181 124 172 181 124 172 181 124
172 181 124 172 181 124 172 181 124 172 181 124 172 181 124
172 181 124 172 181 124 172 181 124 172 181 124 172 181 124
172 181 124 172 181 124 172 181 124 172 181 124 171 180 123
173 182 125 174 183 126 176 185 130 177 186 131 177 186 133
177 186 133 177 185 134 177 186 133 177 186 133 177 186 133
177 186 133 177 186 133 177 186 133 177 186 133 177 186 133
177 186 133 177 186 133 177 186 133 177 186 133 177 186 133
177 186 133 177 186 133 177 186 133 175 184 131 179 188 135
177 186 133 173 182 127 176 185 130 180 189 132 171 180 123
156 165 108 152 161 98 151 160 97 151 160 95 153 162 97 153 162 97
152 161 98 152 161 98 153 162 99 152 161 96 152 160 101 177 184 132
177 184 133 176 183 131 177 184 130 177 184 132 177 184 133
177 184 132 177 184 132 177 184 132 177 184 132 177 184 132
177 184 132 177 184 132 177 184 132 177 184 132 177 184 132
177 184 132 177 184 132 177 184 132 177 184 132 177 184 132
177 184 132 177 184 132 177 184 132 177 184 132 177 184 132
177 184 132 177 184 132 177 184 132 177 184 132 177 184 133
177 184 132 177 184 132 177 184 132 177 184 132 178 185 134
179 185 137 179 185 137 179 185 137 179 185 137 179 185 137
179 185 137 179 185 137 179 185 137 179 185 137 179 185 137
179 185 137 179 185 137 179 185 137 179 185 137 179 185 137
179 185 137 179 185 137 179 185 137 179 185 137 179 185 137
179 185 137 179 185 137 179 185 137 179 185 137 179 185 137
179 185 137 179 185 137 179 185 137 179 185 137 179 185 137
179 185 137 179 185 137 179 185 137 179 185 137 178 184 136
179 185 137 178 184 136 174 180 132 174 178 128 174 178 128
175 179 129 175 179 129 175 179 129 175 179 129 175 179 129
175 179 129 175 179 129 175 179 129 175 179 129 175 179 129
175 179 129 175 179 129 175 179 129 175 179 129 175 179 129
175 179 129 175 179 129 175 179 129 175 179 129 175 179 129
175 179 129 175 179 129 175 179 129 175 179 129 175 179 129
175 179 129 175 179 129 174 178 128 176 180 130 176 180 130
174 178 128 176 178 129 175 177 128 168 170 121 168 166 118
168 166 118 168 166 118 168 166 118 168 166 118 168 166 118
168 166 118 168 166 118 168 166 118 168 166 118 168 166 118
168 166 118 168 166 118 168 166 118 168 166 118 168 166 118
168 166 118 168 166 118 168 166 118 168 166 118 168 166 118
168 166 118 168 166 118 168 166 118 153 152 98 153 152 98 153 152 98
153 152 98 153 152 98 153 152 98 153 152 98 153 152 98 153 152 98
153 152 98 153 152 98 153 152 98 153 152 98 153 152 98 153 152 98
153 152 98 153 152 98 153 152 98 153 152 98 153 152 98 153 152 98
153 152 98 153 152 98 153 152 98 151 151 97 158 158 104 161 164 109
162 167 109 164 169 111 166 171 113 166 169 112 163 166 109
164 169 111 164 169 111 164 169 111 164 169 111 164 169 111
164 169 111 164 169 111 164 169 111 164 169 111 164 169 111
164 169 111 164 169 111 164 169 111 164 169 111 164 169 111
164 169 111 161 169 110 166 171 113 165 170 112 161 166 108
164 169 111 171 179 122 175 183 126 172 181 124 172 181 124
172 181 124 172 181 124 172 181 124 172 181 124 172 181 124
172 181 124 172 181 124 172 181 124 172 181 124 172 181 124
172 181 124 172 181 124 172 181 124 172 181 124 172 181 124
172 181 124 172 181 124 172 181 124 172 181 124 172 181 124
172 181 124 172 181 124 172 181 124 171 180 123 173 182 125
175 184 127 177 186 131 177 186 131 177 186 133 177 186 133
177 185 134 177 186 133 177 186 133 177 186 133 177 186 133
177 186 133 177 186 133 177 186 133 177 186 133 177 186 133
177 186 133 177 186 133 177 186 133 177 186 133 177 186 133
177 186 133 177 186 133 176 185 132 177 186 133 178 187 134
177 186 133 177 186 131 177 186 131 176 185 130 174 183 128
156 164 105 156 164 104 154 162 102 151 160 97 151 160 97 152 161 98
153 162 99 153 162 99 152 161 96 152 160 101 177 184 132 177 184 133
176 183 131 177 184 130 177 184 132 177 184 133 177 184 132
177 184 132 177 184 132 177 184 132 177 184 132 177 184 132
177 184 132 177 184 132 177 184 132 177 184 132 177 184 132
177 184 132 177 184 132 177 184 132 177 184 132 177 184 132
177 184 132 177 184 132 177 184 132 177 184 132 177 184 132
177 184 132 177 184 132 177 184 132 177 184 133 177 184 132
177 184 132 177 184 132 177 184 132 178 185 134 179 185 137
179 185 137 179 185 137 179 185 137 179 185 137 179 185 137
179 185 137 179 185 137 179 185 137 179 185 137 179 185 137
179 185 137 179 185 137 179 185 137 179 185 137 179 185 137
179 185 137 179 185 137 179 185 137 179 185 137 179 185 137
179 185 137 179 185 137 179 185 137 179 185 137 179 185 137
179 185 137 179 185 137 179 185 137 179 185 137 179 185 137
179 185 137 179 185 137 179 185 137 178 184 136 179 185 137
179 185 137 175 181 133 175 179 129 175 179 129 175 179 129
175 179 129 175 179 129 175 179 129 175 179 129 175 179 129
175 179 129 175 179 129 175 179 129 175 179 129 175 179 129
175 179 129 175 179 129 175 179 129 175 179 129 175 179 129
175 179 129 175 179 129 175 179 129 175 179 129 175 179 129
175 179 129 175 179 129 175 179 129 175 179 129 175 179 129
174 178 128 174 178 128 176 180 130 176 180 130 174 178 128
176 178 129 173 175 126 165 167 118 168 166 118 168 166 118
168 166 118 168 166 118 168 166 118 168 166 118 168 166 118
168 166 118 168 166 118 168 166 118 168 166 118 168 166 118
168 166 118 168 166 118 168 166 118 168 166 118 168 166 118
168 166 118 168 166 118 168 166 118 168 166 118 168 166 118
168 166 118 168 166 118 153 152 98 153 152 98 153 152 98 153 152 98
153 152 98 153 152 98 153 152 98 153 152 98 153 152 98 153 152 98
153 152 98 153 152 98 153 152 98 153 152 98 153 152 98 153 152 98
153 152 98 153 152 98 153 152 98 153 152 98 153 152 98 153 152 98
153 152 98 153 152 98 154 154 100 162 162 108 166 169 114 166 171 113
166 171 113 166 171 113 166 169 112 163 166 109 164 169 111
164 169 111 164 169 111 164 169 111 164 169 111 164 169 111
164 169 111 164 169 111 164 169 111 164 169 111 164 169 111
164 169 111 164 169 111 164 169 111 164 169 111 164 169 111
162 170 111 165 170 112 164 169 111 164 169 111 168 173 115
172 180 123 174 182 125 172 181 124 172 181 124 172 181 124
172 181 124 172 181 124 172 181 124 172 181 124 172 181 124
172 181 124 172 181 124 172 181 124 172 181 124 172 181 124
172 181 124 172 181 124 172 181 124 172 181 124 172 181 124
172 181 124 172 181 124 172 181 124 172 181 124 172 181 124
172 181 124 172 181 124 171 180 123 173 182 125 176 185 128
177 186 131 177 186 131 177 186 133 177 186 133 177 185 134
177 186 133 177 186 133 177 186 133 177 186 133 177 186 133
177 186 133 177 186 133 177 186 133 177 186 133 177 186 133
177 186 133 177 186 133 177 186 133 177 186 133 177 186 133
177 186 133 177 186 133 177 186 133 177 186 133 179 188 135
177 186 133 176 185 132 177 186 133 180 189 136 169 176 122
169 177 120 163 171 112 153 161 101 149 158 95 153 162 99 154 163 100
151 160 97 152 161 96 152 160 101 177 184 132 177 184 133 176 183 131
177 184 130 177 184 132 177 184 133 177 184 132 177 184 132
177 184 132 177 184 132 177 184 132 177 184 132 177 184 132
177 184 132 177 184 132 177 184 132 177 184 132 177 184 132
177 184 132 177 184 132 177 184 132 177 184 132 177 184 132
177 184 132 177 184 132 177 184 132 177 184 132 177 184 132
177 184 132 177 184 132 177 184 133 177 184 132 177 184 132
177 184 132 177 184 132 178 185 134 179 185 137 179 185 137
179 185 137 179 185 137 179 185 137 179 185 137 179 185 137
179 185 137 179 185 137 179 185 137 179 185 137 179 185 137
179 185 137 179 185 137 179 185 137 179 185 137 179 185 137
179 185 137 179 185 137 179 185 137 179 185 137 179 185 137
179 185 137 179 185 137 179 185 137 179 185 137 179 185 137
179 185 137 179 185 137 179 185 137 179 185 137 179 185 137
179 185 137 179 185 137 178 184 136 180 186 138 179 185 137
176 182 134 175 179 129 175 179 129 175 179 129 175 179 129
175 179 129 175 179 129 175 179 129 175 179 129 175 179 129
175 179 129 175 179 129 175 179 129 175 179 129 175 179 129
175 179 129 175 179 129 175 179 129 175 179 129 175 179 129
175 179 129 175 179 129 175 179 129 175 179 129 175 179 129
175 179 129 175 179 129 175 179 129 175 179 129 175 179 129
174 178 128 176 180 130 175 179 129 174 178 128 177 179 130
174 176 127 165 167 118 168 166 118 168 166 118 168 166 118
168 166 118 168 166 118 168 166 118 168 166 118 168 166 118
168 166 118 168 166 118 168 166 118 168 166 118 168 166 118
168 166 118 168 166 118 168 166 118 168 166 118 168 166 118
168 166 118 168 166 118 168 166 118 168 166 118 168 166 118
168 166 118 153 152 98 153 152 98 153 152 98 153 152 98 153 152 98
153 152 98 153 152 98 153 152 98 153 152 98 153 152 98 153 152 98
153 152 98 153 152 98 153 152 98 153 152 98 153 152 98 153 152 98
153 152 98 153 152 98 153 152 98 153 152 98 153 152 98 153 152 98
153 152 98 155 155 101 163 163 109 166 171 115 165 170 112
161 169 110 164 169 111 166 169 112 166 169 112 164 169 111
164 169 111 164 169 111 164 169 111 164 169 111 164 169 111
164 169 111 164 169 111 164 169 111 164 169 111 164 169 111
164 169 111 164 169 111 164 169 111 164 169 111 164 169 111
162 170 111 163 168 110 164 169 111 168 173 115 172 177 119
172 180 123 174 182 125 173 182 125 172 181 124 172 181 124
172 181 124 172 181 124 172 181 124 172 181 124 172 181 124
172 181 124 172 181 124 172 181 124 172 181 124 172 181 124
172 181 124 172 181 124 172 181 124 172 181 124 172 181 124
172 181 124 172 181 124 172 181 124 172 181 124 172 181 124
172 181 124 172 181 124 171 180 123 173 182 125 176 185 128
178 187 132 178 187 132 177 186 133 177 186 133 177 185 134
177 186 133 177 186 133 177 186 133 177 186 133 177 186 133
177 186 133 177 186 133 177 186 133 177 186 133 177 186 133
177 186 133 177 186 133 177 186 133 177 186 133 177 186 133
177 186 133 177 186 133 177 186 133 176 185 132 175 184 131
177 186 133 179 188 135 178 186 135 174 182 131 183 190 139
182 189 137 171 179 122 156 164 104 149 158 95 153 162 99 154 163 100
150 159 96 152 161 96 152 160 101 177 184 132 177 184 133 176 183 131
177 184 130 177 184 132 177 184 133 177 184 132 177 184 132
177 184 132 177 184 132 177 184 132 177 184 132 177 184 132
177 184 132 177 184 132 177 184 132 177 184 132 177 184 132
177 184 132 177 184 132 177 184 132 177 184 132 177 184 132
177 184 132 177 184 132 177 184 132 177 184 132 177 184 132
177 184 132 177 184 132 177 184 133 177 184 132 177 184 132
177 184 132 177 184 132 178 185 134 179 185 137 179 185 137
179 185 137 179 185 137 179 185 137 179 185 137 179 185 137
179 185 137 179 185 137 179 185 137 179 185 137 179 185 137
179 185 137 179 185 137 179 185 137 179 185 137 179 185 137
179 185 137 179 185 137 179 185 137 179 185 137 179 185 137
179 185 137 179 185 137 179 185 137 179 185 137 179 185 137
179 185 137 179 185 137 179 185 137 179 185 137 179 185 137
179 185 137 179 185 137 178 184 136 180 186 138 180 186 138
177 183 135 176 180 130 176 180 130 175 179 129 175 179 129
175 179 129 175 179 129 175 179 129 175 179 129 175 179 129
175 179 129 175 179 129 175 179 129 175 179 129 175 179 129
175 179 129 175 179 129 175 179 129 175 179 129 175 179 129
175 179 129 175 179 129 175 179 129 175 179 129 175 179 129
175 179 129 175 179 129 175 179 129 175 179 129 175 179 129
175 179 129 176 180 130 175 179 129 174 178 128 178 180 131
176 178 129 167 169 120 168 166 118 168 166 118 168 166 118
168 166 118 168 166 118 168 166 118 168 166 118 168 166 118
168 166 118 168 166 118 168 166 118 168 166 118 168 166 118
168 166 118 168 166 118 168 166 118 168 166 118 168 166 118
168 166 118 168 166 118 168 166 118 168 166 118 168 166 118
168 166 118 153 152 98 153 152 98 153 152 98 153 152 98 153 152 98
153 152 98 153 152 98 153 152 98 153 152 98 153 152 98 153 152 98
153 152 98 153 152 98 153 152 98 153 152 98 153 152 98 150 150 96
150 150 96 153 152 98 156 153 100 154 153 97 151 150 94 151 152 95
152 155 98 164 169 111 164 169 111 164 169 111 164 169 111
164 169 111 164 169 111 164 169 111 164 169 111 164 169 111
164 169 111 164 169 111 164 169 111 164 169 111 164 169 111
164 169 111 164 169 111 164 169 111 164 169 111 164 169 111
164 169 111 164 169 111 164 169 111 164 169 111 164 169 111
163 168 110 162 170 111 165 175 115 170 180 120 171 182 124
171 180 123 171 180 123 173 182 125 172 181 124 172 181 124
172 181 124 172 181 124 172 181 124 172 181 124 172 181 124
172 181 124 172 181 124 172 181 124 172 181 124 172 181 124
172 181 124 172 181 124 172 181 124 172 181 124 172 181 124
172 181 124 172 181 124 172 181 124 172 181 124 172 181 124
172 181 124 172 181 124 171 180 123 174 183 126 177 186 131
177 186 133 177 186 133 176 184 133 177 185 134 178 186 137
177 186 133 177 186 133 177 186 133 177 186 133 177 186 133
177 186 133 177 186 133 177 186 133 177 186 133 177 186 133
177 186 133 177 186 133 177 186 133 177 186 133 177 186 133
177 186 133 177 186 133 177 186 133 177 186 133 177 186 133
177 186 133 177 186 133 177 186 133 177 186 133 175 183 132
177 186 133 178 187 134 176 185 130 171 181 121 162 172 111
152 162 101 145 155 92 152 161 94 153 162 97 151 160 95 149 157 97
158 166 107 173 180 126 180 187 135 178 185 134 177 184 130
176 183 129 176 183 129 176 183 129 177 184 130 178 185 131
178 185 131 178 185 131 177 184 132 177 184 132 178 185 131
177 184 130 176 183 129 176 183 129 176 183 129 177 184 130
177 184 130 177 184 130 177 184 130 177 184 130 177 184 130
177 184 130 177 184 130 177 184 130 177 184 130 177 184 130
177 184 130 177 184 130 177 184 130 178 185 131 178 185 131
179 186 132 179 185 137 179 185 137 178 184 136 179 185 137
180 186 138 180 186 138 179 185 137 178 184 136 179 185 137
179 185 137 179 185 137 179 185 137 179 185 137 179 185 137
179 185 137 179 185 137 179 185 137 179 185 137 179 185 137
179 185 137 179 185 137 179 185 137 179 185 137 179 185 137
180 186 138 179 185 137 179 185 137 179 185 137 179 185 137
179 185 137 179 185 137 179 185 137 182 186 136 182 186 136
181 185 135 179 183 133 176 180 130 174 178 128 174 178 128
175 179 129 175 179 129 175 179 129 175 179 129 175 179 129
175 179 129 175 179 129 175 179 129 175 179 129 175 179 129
175 179 129 175 179 129 175 179 129 175 179 129 175 179 129
175 179 129 175 179 129 176 180 130 175 179 129 175 179 129
175 179 129 174 181 130 174 181 130 173 180 129 172 179 128
170 178 127 171 178 127 173 180 129 178 182 132 176 180 130
172 174 125 169 168 120 167 166 118 168 166 118 168 166 118
168 166 118 168 166 118 168 166 118 168 166 118 168 166 118
168 166 118 168 166 118 168 166 118 168 166 118 168 166 118
168 166 118 168 166 118 168 166 118 168 166 118 168 166 118
168 166 118 168 166 118 168 166 118 168 166 118 168 166 118
168 166 118 168 166 118 153 152 98 153 152 98 153 152 98 153 152 98
153 152 98 153 152 98 153 152 98 153 152 98 153 152 98 153 152 98
153 152 98 153 152 98 153 152 98 153 152 98 153 152 98 153 152 98
152 152 98 152 152 98 153 152 98 152 151 97 151 150 94 152 153 96
155 158 101 160 163 106 164 169 111 164 169 111 164 169 111
164 169 111 164 169 111 164 169 111 164 169 111 164 169 111
164 169 111 164 169 111 164 169 111 164 169 111 164 169 111
164 169 111 164 169 111 164 169 111 164 169 111 164 169 111
164 169 111 164 169 111 164 169 111 164 169 111 164 169 111
164 169 111 164 169 111 163 171 112 167 177 117 171 181 121
172 183 125 171 180 123 171 180 123 172 181 124 172 181 124
172 181 124 172 181 124 172 181 124 172 181 124 172 181 124
172 181 124 172 181 124 172 181 124 172 181 124 172 181 124
172 181 124 172 181 124 172 181 124 172 181 124 172 181 124
172 181 124 172 181 124 172 181 124 172 181 124 172 181 124
172 181 124 172 181 124 172 181 124 172 181 124 174 183 128
177 186 131 177 186 133 177 186 133 176 184 133 177 185 134
178 186 135 177 186 133 177 186 133 177 186 133 177 186 133
177 186 133 177 186 133 177 186 133 177 186 133 177 186 133
177 186 133 177 186 133 177 186 133 177 186 133 177 186 133
177 186 133 177 186 133 177 186 133 177 186 133 177 186 133
177 186 133 177 186 133 177 186 133 177 186 133 177 186 133
177 185 134 177 186 133 177 186 133 178 187 132 178 187 130
174 184 124 167 177 117 162 172 112 148 156 96 151 159 99 160 168 109
171 179 122 178 185 131 177 184 132 174 181 129 173 180 129
177 184 132 177 184 132 176 183 131 176 183 131 176 183 131
176 183 131 175 182 130 174 181 129 178 185 134 177 184 132
178 185 133 178 185 133 179 186 134 179 186 134 178 185 133
178 185 133 177 184 132 177 184 132 177 184 132 177 184 132
177 184 132 177 184 132 177 184 132 177 184 132 177 184 132
177 184 132 177 184 132 177 184 132 177 184 132 177 184 132
178 185 133 178 185 133 180 187 136 179 186 135 178 185 134
178 184 136 178 184 136 179 185 137 180 186 138 180 186 138
179 185 137 179 185 137 179 185 137 179 185 137 179 185 137
179 185 137 179 185 137 179 185 137 179 185 137 179 185 137
179 185 137 179 185 137 179 185 137 179 185 137 179 185 137
179 185 137 179 185 137 179 185 137 179 185 137 179 185 137
179 185 137 179 185 137 179 185 137 179 185 137 179 183 133
179 183 133 179 183 133 178 182 132 176 180 130 175 179 129
175 179 129 175 179 129 175 179 129 175 179 129 175 179 129
175 179 129 175 179 129 175 179 129 175 179 129 175 179 129
175 179 129 175 179 129 175 179 129 175 179 129 175 179 129
175 179 129 175 179 129 175 179 129 174 178 128 174 178 128
174 178 128 174 178 128 174 178 128 175 179 129 175 179 129
175 179 129 179 183 133 176 180 130 175 179 129 176 178 129
174 176 127 172 171 123 169 168 120 169 167 119 168 166 118
168 166 118 168 166 118 168 166 118 168 166 118 168 166 118
168 166 118 168 166 118 168 166 118 168 166 118 168 166 118
168 166 118 168 166 118 168 166 118 168 166 118 168 166 118
168 166 118 168 166 118 168 166 118 168 166 118 168 166 118
168 166 118 168 166 118 168 166 118 153 152 98 153 152 98 153 152 98
153 152 98 153 152 98 153 152 98 153 152 98 153 152 98 153 152 98
153 152 98 153 152 98 153 152 98 153 152 98 153 152 98 153 152 98
153 152 98 153 153 99 154 153 99 153 152 98 151 150 96 152 151 95
156 157 100 162 165 108 167 170 113 164 169 111 164 169 111
164 169 111 164 169 111 164 169 111 164 169 111 164 169 111
164 169 111 164 169 111 164 169 111 164 169 111 164 169 111
164 169 111 164 169 111 164 169 111 164 169 111 164 169 111
164 169 111 164 169 111 164 169 111 164 169 111 164 169 111
164 169 111 164 169 111 164 169 111 164 172 113 168 178 118
172 182 122 172 183 125 172 181 124 171 180 123 172 181 124
172 181 124 172 181 124 172 181 124 172 181 124 172 181 124
172 181 124 172 181 124 172 181 124 172 181 124 172 181 124
172 181 124 172 181 124 172 181 124 172 181 124 172 181 124
172 181 124 172 181 124 172 181 124 172 181 124 172 181 124
172 181 124 172 181 124 172 181 124 172 181 124 173 182 127
174 183 128 177 186 131 177 186 133 177 186 133 176 184 133
177 185 134 177 185 134 177 186 133 177 186 133 177 186 133
177 186 133 177 186 133 177 186 133 177 186 133 177 186 133
177 186 133 177 186 133 177 186 133 177 186 133 177 186 133
177 186 133 177 186 133 177 186 133 177 186 133 177 186 133
177 186 133 177 186 133 177 186 133 177 186 133 177 186 133
177 186 133 178 187 134 176 185 132 175 184 131 177 186 133
179 188 133 180 189 134 177 186 131 174 183 128 181 188 134
178 185 131 177 184 132 179 186 134 178 185 133 176 183 131
178 185 133 182 189 137 177 184 133 177 184 133 178 185 134
178 185 134 178 185 134 178 185 134 178 185 134 178 185 134
176 183 132 175 182 131 175 182 131 176 183 132 177 184 133
178 185 134 176 183 132 174 181 130 176 183 131 176 183 131
176 183 131 176 183 131 176 183 131 176 183 131 176 183 131
176 183 131 176 183 131 176 183 131 176 183 131 175 182 130
175 182 130 175 182 130 175 182 130 176 183 131 177 184 132
177 184 133 178 185 134 178 185 134 178 184 136 178 184 136
179 185 137 180 186 138 179 185 137 179 185 137 179 185 137
179 185 137 179 185 137 179 185 137 179 185 137 179 185 137
179 185 137 179 185 137 179 185 137 179 185 137 179 185 137
179 185 137 179 185 137 179 185 137 179 185 137 179 185 137
179 185 137 179 185 137 178 184 136 177 183 135 176 182 134
175 181 133 175 179 129 176 180 130 176 180 130 176 180 130
175 179 129 175 179 129 175 179 129 176 180 130 175 179 129
175 179 129 175 179 129 175 179 129 175 179 129 175 179 129
175 179 129 175 179 129 175 179 129 175 179 129 175 179 129
175 179 129 175 179 129 175 179 129 175 179 129 175 179 129
175 182 131 177 181 131 177 181 131 176 180 130 175 177 128
174 176 127 177 176 128 178 177 129 174 176 127 171 173 124
170 169 121 169 168 120 168 166 118 166 164 116 166 162 115
167 163 116 168 166 118 168 166 118 168 166 118 168 166 118
168 166 118 168 166 118 168 166 118 168 166 118 168 166 118
168 166 118 168 166 118 168 166 118 168 166 118 168 166 118
168 166 118 168 166 118 168 166 118 168 166 118 168 166 118
168 166 118 168 166 118 168 166 118 168 166 118 168 166 118
153 152 98 153 152 98 153 152 98 153 152 98 153 152 98 153 152 98
153 152 98 153 152 98 153 152 98 153 152 98 153 152 98 153 152 98
153 152 98 153 152 98 153 152 98 153 152 98 152 151 97 153 152 98
153 152 98 153 153 99 157 158 101 161 164 107 165 168 111 165 170 112
164 169 111 164 169 111 164 169 111 164 169 111 164 169 111
164 169 111 164 169 111 164 169 111 164 169 111 164 169 111
164 169 111 164 169 111 164 169 111 164 169 111 164 169 111
164 169 111 164 169 111 164 169 111 164 169 111 164 169 111
164 169 111 164 169 111 164 169 111 164 169 111 163 168 110
165 173 114 169 179 119 173 183 123 172 183 125 172 181 124
172 181 124 172 181 124 172 181 124 172 181 124 172 181 124
172 181 124 172 181 124 172 181 124 172 181 124 172 181 124
172 181 124 172 181 124 172 181 124 172 181 124 172 181 124
172 181 124 172 181 124 172 181 124 172 181 124 172 181 124
172 181 124 172 181 124 172 181 124 172 181 124 172 181 124
172 181 124 174 183 128 175 184 129 177 186 131 177 186 133
177 186 133 176 185 132 177 185 134 177 185 134 177 186 133
177 186 133 177 186 133 177 186 133 177 186 133 177 186 133
177 186 133 177 186 133 177 186 133 177 186 133 177 186 133
177 186 133 177 186 133 177 186 133 177 186 133 177 186 133
177 186 133 177 186 133 177 186 133 177 186 133 177 186 133
177 186 133 177 186 133 177 186 133 178 187 134 176 185 132
175 184 131 175 184 131 176 185 132 177 186 133 177 186 133
175 184 131 175 182 130 179 186 134 178 185 134 173 180 129
173 180 128 177 184 132 178 185 131 175 182 128 175 182 130
175 182 130 176 183 131 177 184 132 176 183 131 176 183 131
176 183 131 176 183 131 179 186 134 179 186 134 178 185 133
178 185 133 178 185 134 178 185 134 178 185 134 177 184 133
179 186 134 179 186 134 179 186 134 179 186 134 179 186 134
179 186 134 179 186 134 179 186 134 179 186 134 178 185 133
178 185 133 178 185 133 178 185 133 178 185 133 178 185 133
179 186 134 175 182 130 177 184 132 179 186 135 180 187 136
180 186 138 179 185 137 178 184 138 179 185 139 179 185 137
179 185 137 179 185 137 179 185 137 179 185 137 179 185 137
179 185 137 179 185 137 179 185 137 179 185 137 179 185 137
179 185 137 179 185 137 179 185 137 179 185 137 179 185 137
179 185 137 179 185 137 179 185 137 178 184 136 177 183 135
175 181 133 173 179 131 172 178 130 174 178 128 174 178 128
174 178 128 174 178 128 174 178 128 175 179 129 175 179 129
176 180 130 175 179 129 175 179 129 175 179 129 175 179 129
175 179 129 175 179 129 175 179 129 175 179 129 175 179 129
175 179 129 175 179 129 175 179 129 175 179 129 175 179 129
175 179 129 175 179 129 172 179 128 174 178 128 173 177 127
171 173 124 167 169 120 166 165 117 168 166 118 169 167 119
171 169 121 169 167 119 168 166 118 167 165 117 168 164 117
169 165 118 170 166 119 170 166 119 168 166 118 168 166 118
168 166 118 168 166 118 168 166 118 168 166 118 168 166 118
168 166 118 168 166 118 168 166 118 168 166 118 168 166 118
168 166 118 168 166 118 168 166 118 168 166 118 168 166 118
168 166 118 168 166 118 168 166 118 168 166 118 168 166 118
168 166 118 168 166 118 153 152 98 153 152 98 153 152 98 153 152 98
153 152 98 153 152 98 153 152 98 153 152 98 153 152 98 153 152 98
153 152 98 153 152 98 153 152 98 153 152 98 153 152 98 153 152 98
153 152 98 152 151 97 151 151 97 155 155 101 160 163 106 166 169 112
165 170 112 163 168 110 164 169 111 164 169 111 164 169 111
164 169 111 164 169 111 164 169 111 164 169 111 164 169 111
164 169 111 164 169 111 164 169 111 164 169 111 164 169 111
164 169 111 164 169 111 164 169 111 164 169 111 164 169 111
164 169 111 164 169 111 164 169 111 164 169 111 164 169 111
164 169 111 162 167 109 165 173 114 170 180 120 172 182 122
172 183 125 172 181 124 172 181 124 172 181 124 172 181 124
172 181 124 172 181 124 172 181 124 172 181 124 172 181 124
172 181 124 172 181 124 172 181 124 172 181 124 172 181 124
172 181 124 172 181 124 172 181 124 172 181 124 172 181 124
172 181 124 172 181 124 172 181 124 172 181 124 172 181 124
172 181 124 172 181 124 172 181 124 175 184 129 176 185 130
177 186 133 177 186 133 177 186 133 177 186 133 177 186 133
177 186 133 177 186 133 177 186 133 177 186 133 177 186 133
177 186 133 177 186 133 177 186 133 177 186 133 177 186 133
177 186 133 177 186 133 177 186 133 177 186 133 177 186 133
177 186 133 177 186 133 177 186 133 177 186 133 177 186 133
177 186 133 177 186 133 177 186 133 177 186 133 177 186 133
179 188 135 179 188 135 178 187 134 177 186 133 176 184 133
176 184 133 176 184 133 177 185 134 175 182 128 179 186 134
179 186 135 178 185 134 179 186 135 182 189 137 179 187 130
174 182 125 178 185 131 179 186 132 179 186 132 178 185 131
177 184 130 176 183 129 176 183 129 177 184 130 176 183 129
177 184 130 178 185 131 177 184 132 175 182 130 175 182 130
178 185 134 180 187 136 176 183 129 176 183 129 176 183 129
176 183 129 176 183 129 176 183 129 176 183 129 176 183 129
176 183 129 175 182 128 175 182 128 175 182 128 176 183 129
176 183 129 177 184 130 177 184 130 178 185 134 179 186 135
180 187 136 180 186 138 180 186 138 179 185 139 179 185 139
179 185 139 179 185 137 179 185 137 179 185 137 179 185 137
179 185 137 179 185 137 179 185 137 179 185 137 179 185 137
179 185 137 179 185 137 179 185 137 179 185 137 179 185 137
179 185 137 179 185 137 179 185 137 179 185 137 179 185 137
179 185 137 178 184 136 176 182 134 175 181 133 174 180 132
176 180 130 175 179 129 174 178 128 174 178 128 174 178 128
175 179 129 175 179 129 176 180 130 175 179 129 175 179 129
175 179 129 175 179 129 175 179 129 175 179 129 175 179 129
175 179 129 175 179 129 175 179 129 175 179 129 175 179 129
175 179 129 175 179 129 175 179 129 175 179 129 172 179 128
174 178 128 173 177 127 171 173 124 167 169 120 166 165 117
168 166 118 169 167 119 167 165 117 167 165 117 167 165 117
167 165 117 168 166 118 170 166 119 170 166 119 169 165 118
168 166 118 168 166 118 168 166 118 168 166 118 168 166 118
168 166 118 168 166 118 168 166 118 168 166 118 168 166 118
168 166 118 168 166 118 168 166 118 168 166 118 168 166 118
168 166 118 168 166 118 168 166 118 168 166 118 168 166 118
168 166 118 168 166 118 168 166 118 168 166 118 153 152 98 153 152 98
153 152 98 153 152 98 153 152 98 153 152 98 153 152 98 153 152 98
153 152 98 153 152 98 153 152 98 153 152 98 153 152 98 153 152 98
153 152 98 153 152 98 157 154 101 152 151 97 151 151 97 155 158 103
161 166 108 165 170 112 165 170 112 164 169 111 164 169 111
164 169 111 164 169 111 164 169 111 164 169 111 164 169 111
164 169 111 164 169 111 164 169 111 164 169 111 164 169 111
164 169 111 164 169 111 164 169 111 164 169 111 164 169 111
164 169 111 164 169 111 164 169 111 164 169 111 164 169 111
164 169 111 164 169 111 164 169 111 162 167 109 166 174 115
171 181 121 172 182 122 171 182 124 172 181 124 172 181 124
172 181 124 172 181 124 172 181 124 172 181 124 172 181 124
172 181 124 172 181 124 172 181 124 172 181 124 172 181 124
172 181 124 172 181 124 172 181 124 172 181 124 172 181 124
172 181 124 172 181 124 172 181 124 172 181 124 172 181 124
172 181 124 172 181 124 172 181 124 172 181 124 172 181 124
177 186 133 177 186 133 177 186 133 177 186 133 177 186 133
177 186 133 177 186 133 176 185 132 177 186 133 177 186 133
177 186 133 177 186 133 177 186 133 177 186 133 177 186 133
177 186 133 177 186 133 177 186 133 177 186 133 177 186 133
177 186 133 177 186 133 177 186 133 177 186 133 177 186 133
177 186 133 177 186 133 177 186 133 177 186 133 177 186 133
177 186 133 177 186 133 177 186 133 178 187 134 179 188 135
178 187 134 177 186 133 176 185 132 177 186 133 179 187 136
182 189 135 175 182 130 172 179 128 176 182 134 178 184 136
175 181 133 175 182 130 179 186 134 176 183 131 177 184 132
178 185 133 178 185 133 177 184 132 177 184 132 179 186 134
181 188 136 174 183 130 176 185 132 178 187 134 177 185 134
176 184 133 176 184 135 180 188 139 184 192 143 177 185 134
177 185 134 177 185 134 177 185 134 177 185 134 177 185 134
177 185 134 177 185 134 177 185 134 177 185 134 177 185 134
177 185 134 177 185 134 178 186 135 179 187 136 179 187 136
183 189 143 181 187 141 178 184 138 177 183 137 177 183 137
178 184 138 179 185 139 179 185 139 179 185 137 179 185 137
179 185 137 179 185 137 179 185 137 179 185 137 179 185 137
179 185 137 179 185 137 179 185 137 179 185 137 179 185 137
179 185 137 179 185 137 179 185 137 179 185 137 179 185 137
179 185 137 180 186 138 180 186 138 180 186 138 180 186 138
179 185 137 179 185 137 179 183 133 178 182 132 176 180 130
176 180 130 176 180 130 176 180 130 175 179 129 175 179 129
175 179 129 175 179 129 175 179 129 175 179 129 175 179 129
175 179 129 175 179 129 175 179 129 175 179 129 175 179 129
175 179 129 175 179 129 175 179 129 175 179 129 175 179 129
175 179 129 175 182 131 177 181 131 177 181 131 176 180 130
175 177 128 174 176 127 177 176 128 178 177 129 167 166 118
168 167 119 169 168 120 168 167 119 168 167 119 169 167 119
167 165 117 165 163 115 168 166 118 168 166 118 168 166 118
168 166 118 168 166 118 168 166 118 168 166 118 168 166 118
168 166 118 168 166 118 168 166 118 168 166 118 168 166 118
168 166 118 168 166 118 168 166 118 168 166 118 168 166 118
168 166 118 168 166 118 168 166 118 168 166 118 168 166 118
168 166 118 153 152 98 153 152 98 153 152 98 153 152 98 153 152 98
153 152 98 153 152 98 153 152 98 153 152 98 153 152 98 153 152 98
153 152 98 153 152 98 153 152 98 153 152 98 153 152 98 156 153 100
152 151 97 153 153 99 159 162 107 164 169 111 162 170 111 163 168 110
166 171 113 164 169 111 164 169 111 164 169 111 164 169 111
164 169 111 164 169 111 164 169 111 164 169 111 164 169 111
164 169 111 164 169 111 164 169 111 164 169 111 164 169 111
164 169 111 164 169 111 164 169 111 164 169 111 164 169 111
164 169 111 164 169 111 164 169 111 164 169 111 164 169 111
164 169 111 168 176 117 172 182 122 173 183 123 170 181 123
171 180 123 172 181 124 172 181 124 172 181 124 172 181 124
172 181 124 172 181 124 172 181 124 172 181 124 172 181 124
172 181 124 172 181 124 172 181 124 172 181 124 172 181 124
172 181 124 172 181 124 172 181 124 172 181 124 172 181 124
172 181 124 172 181 124 172 181 124 172 181 124 172 181 124
172 181 124 172 181 124 178 187 134 177 186 133 177 186 133
177 186 133 177 186 133 177 186 133 177 186 133 176 185 132
177 186 133 177 186 133 177 186 133 177 186 133 177 186 133
177 186 133 177 186 133 177 186 133 177 186 133 177 186 133
177 186 133 177 186 133 177 186 133 177 186 133 177 186 133
177 186 133 177 186 133 177 186 133 177 186 133 177 186 133
177 186 133 177 186 133 177 186 133 177 186 133 176 185 132
176 185 132 177 186 133 177 186 133 176 185 132 177 186 133
177 186 131 178 187 132 176 183 129 175 182 131 181 187 141
192 197 156 196 201 161 191 196 156 190 195 154 194 200 156
175 181 135 176 182 136 177 183 137 177 183 137 177 183 137
178 184 138 181 187 141 184 190 144 184 192 145 186 194 147
188 195 151 188 195 151 187 194 152 187 194 152 189 196 155
191 198 157 189 196 154 189 196 154 189 196 154 189 196 154
189 196 154 189 196 154 189 196 154 189 196 154 189 196 154
189 196 154 189 196 154 189 196 154 189 196 154 189 196 154
190 197 155 190 197 155 188 193 152 184 189 148 181 186 145
180 186 142 181 187 143 181 187 141 180 186 140 179 185 139
179 185 137 179 185 137 179 185 137 179 185 137 179 185 137
179 185 137 179 185 137 179 185 137 179 185 137 179 185 137
179 185 137 179 185 137 179 185 137 179 185 137 179 185 137
179 185 137 179 185 137 179 185 137 179 185 137 180 186 138
180 186 138 180 186 138 180 186 138 181 187 139 181 185 135
180 184 134 179 183 133 179 183 133 179 183 133 178 182 132
176 180 130 174 178 128 175 179 129 175 179 129 175 179 129
175 179 129 175 179 129 175 179 129 175 179 129 175 179 129
175 179 129 175 179 129 175 179 129 175 179 129 175 179 129
175 179 129 175 179 129 175 179 129 174 178 128 174 178 128
174 178 128 174 178 128 174 178 128 175 179 129 175 179 129
175 179 129 175 177 128 176 178 129 176 178 129 174 176 127
174 176 127 175 177 128 173 175 126 170 172 123 168 166 118
168 166 118 168 166 118 168 166 118 168 166 118 168 166 118
168 166 118 168 166 118 168 166 118 168 166 118 168 166 118
168 166 118 168 166 118 168 166 118 168 166 118 168 166 118
168 166 118 168 166 118 168 166 118 168 166 118 168 166 118
168 166 118 168 166 118 168 166 118 153 152 98 153 152 98 153 152 98
153 152 98 153 152 98 153 152 98 153 152 98 153 152 98 153 152 98
153 152 98 153 152 98 153 152 98 153 152 98 153 152 98 153 152 98
153 152 98 155 149 97 151 148 95 155 155 101 164 169 113 166 174 115
161 169 110 162 167 109 166 171 113 164 169 111 164 169 111
164 169 111 164 169 111 164 169 111 164 169 111 164 169 111
164 169 111 164 169 111 164 169 111 164 169 111 164 169 111
164 169 111 164 169 111 164 169 111 164 169 111 164 169 111
164 169 111 164 169 111 164 169 111 164 169 111 164 169 111
164 169 111 164 169 111 167 172 114 171 179 120 174 184 124
173 183 123 170 181 123 171 180 123 172 181 124 171 180 123
172 181 124 172 181 124 172 181 124 172 181 124 172 181 124
172 181 124 172 181 124 172 181 124 172 181 124 172 181 124
172 181 124 172 181 124 172 181 124 172 181 124 172 181 124
172 181 124 172 181 124 172 181 124 172 181 124 172 181 124
172 181 124 172 181 124 172 181 124 172 181 124 178 187 134
178 187 134 177 186 133 177 186 133 177 186 133 177 186 133
177 186 133 176 185 132 177 186 133 177 186 133 177 186 133
177 186 133 177 186 133 177 186 133 177 186 133 177 186 133
177 186 133 177 186 133 177 186 133 177 186 133 177 186 133
177 186 133 177 186 133 177 186 133 177 186 133 177 186 133
177 186 133 177 186 133 177 186 133 177 186 133 177 186 133
177 186 133 178 187 134 177 186 133 176 185 132 176 185 132
177 186 131 177 186 131 177 186 131 176 185 130 175 182 131
182 188 140 189 194 153 191 195 158 192 196 163 193 197 164
193 197 162 192 196 161 193 198 158 193 198 158 193 198 158
190 195 155 188 193 153 188 193 153 190 195 155 192 197 157
187 194 153 188 195 154 189 195 157 190 196 158 190 196 160
189 195 159 188 194 160 188 194 160 189 195 161 189 195 161
189 195 161 189 195 161 189 195 161 189 195 161 189 195 161
189 195 161 189 195 161 189 195 161 189 195 161 189 195 161
188 194 160 189 195 161 189 195 161 189 195 161 193 197 160
191 196 156 189 194 154 190 195 154 191 197 153 190 196 152
185 191 145 181 187 141 179 185 137 179 185 137 179 185 137
179 185 137 179 185 137 179 185 137 179 185 137 179 185 137
179 185 137 179 185 137 179 185 137 179 185 137 179 185 137
179 185 137 179 185 137 179 185 137 180 186 138 179 185 137
179 185 137 179 185 137 178 184 136 178 184 136 179 185 137
179 185 137 181 185 135 181 185 135 181 185 135 182 186 136
181 185 135 179 183 133 176 180 130 173 177 127 175 179 129
175 179 129 175 179 129 175 179 129 175 179 129 175 179 129
175 179 129 175 179 129 175 179 129 175 179 129 175 179 129
175 179 129 175 179 129 175 179 129 175 179 129 175 179 129
176 180 130 175 179 129 175 179 129 175 179 129 174 181 130
174 181 130 173 180 129 172 179 128 176 180 130 177 181 131
176 180 130 174 178 128 174 178 128 176 180 130 176 180 130
174 178 128 168 166 118 168 166 118 168 166 118 168 166 118
168 166 118 168 166 118 168 166 118 168 166 118 168 166 118
168 166 118 168 166 118 168 166 118 168 166 118 168 166 118
168 166 118 168 166 118 168 166 118 168 166 118 168 166 118
168 166 118 168 166 118 168 166 118 168 166 118 168 166 118
153 152 98 153 152 98 153 152 98 153 152 98 153 152 98 153 152 98
153 152 98 153 152 98 154 153 99 153 152 98 152 151 97 152 151 97
153 152 98 154 153 99 154 153 99 154 153 99 154 155 98 164 167 110
167 172 114 161 169 110 162 170 111 163 171 112 164 169 111
164 169 111 164 169 111 164 169 111 164 169 111 164 169 111
164 169 111 164 169 111 164 169 111 164 169 111 164 169 111
164 169 111 164 169 111 164 169 111 164 169 111 164 169 111
164 169 111 164 169 111 164 167 110 164 169 111 165 170 112
166 171 113 164 169 111 160 168 109 161 169 110 163 171 112
172 181 124 172 181 124 172 181 124 172 181 124 172 181 124
172 181 124 172 181 124 172 181 124 172 181 124 172 181 124
172 181 124 172 181 124 172 181 124 172 181 124 172 181 124
172 181 124 172 181 124 172 181 124 172 181 124 172 181 124
172 181 124 172 181 124 172 181 124 172 181 124 172 181 126
172 181 126 171 180 125 172 181 124 172 181 124 173 182 125
172 181 124 172 181 124 176 185 132 176 185 132 176 185 132
177 186 133 177 186 133 177 186 133 177 186 133 177 186 133
177 186 133 177 186 133 177 186 133 177 186 133 177 186 133
177 186 133 177 186 133 177 186 133 177 186 133 177 186 133
177 186 133 177 186 133 177 186 133 177 186 133 177 186 133
177 186 133 176 185 128 177 186 131 178 187 134 178 186 135
178 186 137 178 186 135 177 185 134 176 185 132 177 185 134
177 185 134 177 186 133 178 187 134 178 187 134 178 187 132
176 185 130 175 184 129 191 197 159 191 197 159 191 197 159
191 197 159 191 197 159 191 197 159 191 197 159 191 197 159
191 197 159 191 197 159 190 196 158 190 196 158 189 195 157
189 195 157 189 195 157 189 195 157 189 195 157 189 195 157
189 195 157 189 195 157 189 195 157 189 195 157 189 195 157
189 195 157 189 195 157 189 195 157 189 195 157 189 195 157
189 195 157 189 195 157 189 195 157 189 195 157 189 195 157
189 195 157 189 195 157 189 195 157 189 195 157 189 195 157
189 195 157 189 195 157 189 195 157 189 195 157 189 195 157
189 195 157 189 195 157 189 195 157 189 195 157 189 195 157
188 195 151 183 190 146 177 184 140 175 182 138 177 185 138
179 187 138 178 186 135 177 186 133 179 186 135 180 187 136
180 187 136 179 186 135 177 184 133 177 184 133 179 186 135
181 188 137 178 184 140 179 185 141 180 186 142 180 186 140
180 186 138 179 185 137 178 185 134 178 185 134 180 184 134
178 184 136 179 185 139 180 186 142 181 188 147 183 189 151
185 191 155 186 192 158 188 194 158 186 192 156 185 191 155
186 192 156 188 194 158 186 192 156 181 187 151 177 183 147
186 192 156 186 192 156 186 192 156 186 192 156 186 192 156
186 192 156 186 192 156 186 192 156 176 179 134 176 179 134
175 178 133 175 178 131 174 178 128 174 178 128 174 178 127
174 178 127 174 176 127 177 179 130 179 181 132 177 179 132
177 179 132 180 181 137 182 183 139 182 183 139 183 183 145
183 183 145 183 183 145 183 183 145 183 183 145 183 183 145
183 183 145 183 183 145 167 164 119 166 163 118 168 165 120
171 169 121 171 169 120 169 167 118 168 166 115 169 167 116
168 166 118 168 166 118 169 167 119 169 167 119 169 167 119
169 166 121 168 165 120 168 165 120 153 152 98 153 152 98 153 152 98
153 152 98 153 152 98 153 152 98 153 152 98 153 152 98 152 151 97
152 151 97 153 152 98 153 152 98 153 152 98 154 153 99 155 154 100
155 154 100 151 154 97 163 166 109 166 171 113 161 169 110
161 169 110 163 171 112 164 169 111 165 168 111 164 169 111
164 169 111 164 169 111 164 169 111 164 169 111 164 169 111
164 169 111 164 169 111 164 169 111 164 169 111 164 169 111
164 169 111 164 169 111 164 169 111 164 169 111 164 169 111
166 169 112 164 169 111 164 169 111 164 169 111 163 168 110
162 170 111 166 174 115 171 179 120 172 181 124 172 181 124
172 181 124 172 181 124 172 181 124 172 181 124 172 181 124
172 181 124 172 181 124 172 181 124 172 181 124 172 181 124
172 181 124 172 181 124 172 181 124 172 181 124 172 181 124
172 181 124 172 181 124 172 181 124 172 181 124 172 181 124
172 181 124 172 181 124 173 182 127 172 181 124 172 181 124
172 181 124 172 181 124 172 181 124 172 181 124 172 181 124
176 185 132 176 185 132 177 186 133 177 186 133 177 186 133
177 186 133 177 186 133 177 186 133 177 186 133 177 186 133
177 186 133 177 186 133 177 186 133 177 186 133 177 186 133
177 186 133 177 186 133 177 186 133 177 186 133 177 186 133
177 186 133 177 186 133 177 186 133 177 186 133 177 186 131
177 186 131 177 186 133 177 185 134 177 185 134 176 184 133
176 185 132 176 185 130 176 185 132 177 186 133 179 188 135
177 186 133 175 184 131 174 182 131 177 185 134 180 188 137
191 197 159 191 197 159 191 197 159 191 197 159 191 197 159
191 197 159 191 197 159 191 197 159 191 197 159 191 197 159
190 196 158 190 196 158 190 196 158 189 195 157 189 195 157
189 195 157 189 195 157 189 195 157 189 195 157 189 195 157
189 195 157 189 195 157 189 195 157 189 195 157 189 195 157
189 195 157 189 195 157 189 195 157 189 195 157 189 195 157
189 195 157 189 195 157 189 195 157 189 195 157 189 195 157
189 195 157 189 195 157 189 195 157 189 195 157 189 195 157
189 195 157 189 195 157 189 195 157 189 195 157 189 195 157
189 195 157 189 195 157 189 195 157 188 195 154 188 195 154
189 195 157 191 197 159 191 198 157 188 195 153 182 189 145
177 184 140 179 185 141 180 186 142 181 187 143 180 186 142
179 185 141 179 185 141 182 188 144 184 190 146 193 199 161
192 198 160 191 198 157 188 195 154 185 192 150 182 189 147
179 186 142 177 184 140 182 188 142 183 189 145 184 190 146
186 191 150 186 193 152 186 192 154 186 192 156 186 192 158
187 193 157 185 191 155 184 190 154 185 191 155 187 193 157
187 193 157 185 191 155 182 188 152 186 192 156 186 192 156
186 192 156 186 192 156 186 192 156 186 192 156 186 192 156
186 192 156 186 191 151 186 191 151 186 191 150 186 191 150
183 189 145 179 185 141 175 181 135 173 179 133 178 179 135
181 182 140 182 183 141 181 182 140 181 182 140 182 183 143
184 185 145 183 184 144 183 183 145 183 183 145 183 183 145
183 183 145 183 183 145 183 183 145 183 183 145 183 183 145
189 187 148 187 185 146 185 183 142 183 181 140 178 177 133
172 171 127 168 167 121 167 166 120 168 166 118 168 166 118
167 165 117 167 165 117 166 164 116 166 164 116 167 165 116
167 165 116 153 152 98 153 152 98 153 152 98 153 152 98 153 152 98
153 152 98 153 152 98 153 152 98 152 151 97 153 152 98 154 153 99
153 152 98 152 151 97 151 150 96 152 151 97 152 151 97 150 153 96
161 166 108 166 171 113 161 169 110 161 169 110 164 169 111
165 168 111 166 169 112 164 169 111 164 169 111 164 169 111
164 169 111 164 169 111 164 169 111 164 169 111 164 169 111
164 169 111 164 169 111 164 169 111 164 169 111 164 169 111
164 169 111 164 169 111 164 169 111 166 169 112 164 169 111
163 168 110 163 168 110 163 168 110 162 170 111 167 175 116
173 181 122 172 181 124 172 181 124 172 181 124 172 181 124
172 181 124 172 181 124 172 181 124 172 181 124 172 181 124
172 181 124 172 181 124 172 181 124 172 181 124 172 181 124
172 181 124 172 181 124 172 181 124 172 181 124 172 181 124
172 181 124 172 181 124 172 181 124 172 181 124 172 181 124
173 182 125 173 182 125 172 181 124 172 181 124 172 181 124
172 181 124 172 181 124 172 181 126 176 185 132 177 186 133
177 186 133 177 186 133 177 186 133 177 186 133 177 186 133
177 186 133 177 186 133 177 186 133 177 186 133 177 186 133
177 186 133 177 186 133 177 186 133 177 186 133 177 186 133
177 186 133 177 186 133 177 186 133 177 186 133 177 186 133
177 186 133 177 186 133 178 187 132 177 186 133 177 186 133
176 185 132 176 185 132 176 185 132 177 186 131 177 186 131
177 186 131 178 187 132 178 187 134 178 186 135 178 186 137
180 188 141 184 192 145 187 194 150 191 197 159 191 197 159
191 197 159 191 197 159 191 197 159 191 197 159 191 197 159
191 197 159 191 197 159 191 197 159 191 197 159 190 196 158
190 196 158 189 195 157 189 195 157 189 195 157 189 195 157
189 195 157 189 195 157 189 195 157 189 195 157 189 195 157
189 195 157 189 195 157 189 195 157 189 195 157 189 195 157
189 195 157 189 195 157 189 195 157 189 195 157 189 195 157
189 195 157 189 195 157 189 195 157 189 195 157 189 195 157
189 195 157 189 195 157 189 195 157 189 195 157 189 195 157
189 195 157 189 195 157 189 195 157 189 195 157 189 195 157
189 195 157 189 195 159 189 195 161 190 196 162 192 197 165
192 197 165 192 198 164 190 196 160 188 194 158 188 194 158
189 195 159 190 196 160 189 195 159 189 195 159 189 195 159
191 197 161 193 199 163 187 194 161 188 195 162 189 196 163
189 196 162 190 197 163 190 198 161 190 198 161 189 197 160
187 192 152 188 193 153 188 193 153 189 193 156 188 194 156
187 193 157 187 193 157 186 192 156 186 192 156 186 192 156
185 191 155 185 191 155 186 192 156 187 193 157 187 193 157
187 193 157 186 192 156 186 192 156 186 192 156 186 192 156
186 192 156 186 192 156 186 192 156 186 192 156 187 193 159
188 194 160 189 195 159 190 196 160 188 194 156 185 191 153
181 187 149 179 186 145 182 182 144 183 183 145 184 184 146
184 184 148 183 183 147 184 184 148 184 184 148 184 184 148
183 183 145 183 183 145 183 183 145 183 183 145 183 183 145
183 183 145 183 183 145 183 183 145 184 184 150 183 183 149
183 183 147 184 184 148 184 184 146 182 182 144 182 183 143
182 183 143 169 166 121 168 165 120 167 164 119 166 164 116
166 164 116 167 165 116 169 167 118 170 168 119 153 152 98 153 152 98
153 152 98 153 152 98 153 152 98 153 152 98 153 152 98 153 152 98
153 152 98 154 153 99 155 154 100 153 152 98 152 151 97 151 150 96
154 153 99 156 155 101 151 154 97 161 166 108 166 171 113 163 168 110
163 168 110 164 167 110 164 167 110 168 169 112 164 169 111
164 169 111 164 169 111 164 169 111 164 169 111 164 169 111
164 169 111 164 169 111 164 169 111 164 169 111 164 169 111
164 169 111 164 169 111 164 169 111 164 169 111 164 169 111
164 167 110 163 168 110 164 169 111 165 170 112 163 168 110
161 169 110 164 172 113 167 175 116 172 181 124 172 181 124
172 181 124 172 181 124 172 181 124 172 181 124 172 181 124
172 181 124 172 181 124 172 181 124 172 181 124 172 181 124
172 181 124 172 181 124 172 181 124 172 181 124 172 181 124
172 181 124 172 181 124 172 181 124 172 181 124 172 181 124
172 181 124 172 181 124 172 181 124 172 181 124 172 181 124
172 181 124 172 181 124 172 181 126 173 182 127 174 183 128
177 186 133 177 186 133 177 186 133 177 186 133 177 186 133
177 186 133 177 186 133 177 186 133 177 186 133 177 186 133
177 186 133 177 186 133 177 186 133 177 186 133 177 186 133
177 186 133 177 186 133 177 186 133 177 186 133 177 186 133
177 186 133 177 186 133 177 186 133 177 186 133 177 186 133
177 186 133 177 186 133 177 186 133 177 186 131 177 186 131
178 187 132 178 187 130 178 187 132 176 185 130 175 184 131
179 187 138 185 193 146 190 197 155 191 198 157 190 197 156
191 197 159 191 197 159 191 197 159 191 197 159 191 197 159
191 197 159 191 197 159 191 197 159 191 197 159 191 197 159
191 197 159 191 197 159 190 196 158 190 196 158 189 195 157
189 195 157 189 195 157 189 195 157 189 195 157 189 195 157
189 195 157 189 195 157 189 195 157 189 195 157 189 195 157
189 195 157 189 195 157 189 195 157 189 195 157 189 195 157
189 195 157 189 195 157 189 195 157 189 195 157 189 195 157
189 195 157 189 195 157 189 195 157 189 195 157 189 195 157
189 195 157 189 195 157 189 195 157 189 195 157 189 195 157
189 195 157 189 195 157 189 195 157 188 196 159 187 194 160
186 193 160 186 193 160 186 193 162 188 195 164 191 198 165
193 200 167 190 197 164 190 197 164 191 198 165 190 197 164
189 196 163 189 196 163 190 197 164 191 198 165 188 195 164
188 195 164 189 196 163 189 196 163 189 196 163 189 196 162
189 196 162 188 195 161 190 196 160 189 195 159 187 193 157
186 192 156 185 191 155 186 192 156 187 193 157 187 193 157
187 193 157 187 193 157 187 193 157 186 192 156 186 192 156
186 192 156 187 193 157 187 193 157 186 192 156 186 192 156
186 192 156 186 192 156 186 192 156 186 192 156 186 192 156
186 192 156 184 189 157 185 191 157 185 191 157 186 192 158
186 192 158 187 193 157 187 193 157 187 193 157 182 182 146
183 183 147 184 184 148 184 184 148 184 184 148 184 184 148
184 184 148 183 183 147 183 183 145 183 183 145 183 183 145
183 183 145 183 183 145 183 183 145 183 183 145 183 183 145
182 182 148 181 181 147 182 182 148 183 183 149 183 183 147
183 183 147 184 184 148 185 185 149 188 186 147 185 183 144
180 178 137 175 174 130 170 169 125 167 166 120 166 165 117
165 164 116 153 152 98 153 152 98 153 152 98 153 152 98 153 152 98
153 152 98 153 152 98 153 152 98 152 151 97 153 152 98 154 153 99
154 153 99 153 152 98 155 154 100 159 158 104 163 162 108 155 158 101
164 167 110 166 171 113 163 168 110 164 169 111 164 167 110
164 167 110 168 169 112 164 169 111 164 169 111 164 169 111
164 169 111 164 169 111 164 169 111 164 169 111 164 169 111
164 169 111 164 169 111 164 169 111 164 169 111 164 169 111
164 169 111 164 169 111 164 169 111 165 168 111 164 169 111
165 170 112 165 170 112 164 169 111 160 168 109 162 170 111
165 173 114 172 181 124 172 181 124 172 181 124 172 181 124
172 181 124 172 181 124 172 181 124 172 181 124 172 181 124
172 181 124 172 181 124 172 181 124 172 181 124 172 181 124
172 181 124 172 181 124 172 181 124 172 181 124 172 181 124
172 181 124 172 181 124 172 181 124 172 181 124 172 181 124
171 180 123 172 181 124 172 181 124 172 181 124 172 181 126
173 182 127 174 183 128 176 185 130 177 186 133 177 186 133
177 186 133 177 186 133 177 186 133 177 186 133 177 186 133
177 186 133 177 186 133 177 186 133 177 186 133 177 186 133
177 186 133 177 186 133 177 186 133 177 186 133 177 186 133
177 186 133 177 186 133 177 186 133 177 186 133 177 186 133
177 186 133 177 186 133 177 186 133 177 186 133 177 186 133
177 186 131 177 186 131 177 186 131 176 185 130 176 185 132
177 186 133 176 184 133 177 185 136 182 190 143 189 196 154
193 200 159 193 199 161 190 196 160 191 197 159 191 197 159
191 197 159 191 197 159 191 197 159 191 197 159 191 197 159
191 197 159 191 197 159 191 197 159 191 197 159 191 197 159
191 197 159 190 196 158 189 195 157 189 195 157 189 195 157
189 195 157 189 195 157 189 195 157 189 195 157 189 195 157
189 195 157 189 195 157 189 195 157 189 195 157 189 195 157
189 195 157 189 195 157 189 195 157 189 195 157 189 195 157
189 195 157 189 195 157 189 195 157 189 195 157 189 195 157
189 195 157 189 195 157 189 195 157 189 195 157 189 195 157
189 195 157 189 195 157 189 195 157 189 195 157 189 195 157
189 195 157 188 196 157 189 197 158 190 198 161 190 197 163
189 196 163 188 195 162 187 194 161 188 195 161 188 195 162
189 196 163 189 196 163 188 195 162 188 195 162 187 194 161
188 195 162 188 195 162 189 199 164 189 199 164 188 198 163
188 198 163 187 197 162 186 196 161 185 195 158 185 195 158
191 197 163 189 195 161 187 193 159 185 191 157 185 191 155
185 191 155 186 192 156 187 193 157 186 192 156 187 193 157
187 193 157 187 193 157 186 192 156 185 191 155 185 191 155
186 192 156 186 192 156 186 192 156 186 192 156 186 192 156
186 192 156 186 192 156 186 192 156 186 192 156 186 194 157
186 194 157 185 193 156 184 192 155 184 192 155 185 193 154
186 194 155 186 194 155 183 183 145 182 182 144 182 182 144
183 183 145 183 183 145 183 183 145 183 183 145 183 183 145
183 183 145 183 183 145 183 183 145 183 183 145 183 183 145
183 183 145 183 183 145 183 183 145 185 187 150 185 187 150
183 185 146 182 184 145 181 183 144 180 182 143 180 182 143
180 182 143 181 181 147 181 181 145 181 181 145 181 181 143
182 182 144 183 184 144 184 185 143 185 186 144 153 152 98 153 152 98
153 152 98 153 152 98 153 152 98 153 152 98 153 152 98 153 152 98
153 152 98 154 153 99 153 152 98 152 151 97 152 151 97 153 152 98
155 154 100 158 157 103 164 163 107 168 169 112 167 170 113
163 168 110 164 169 111 164 169 111 164 167 110 166 169 112
164 169 111 164 169 111 164 169 111 164 169 111 164 169 111
164 169 111 164 169 111 164 169 111 164 169 111 164 169 111
164 169 111 164 169 111 164 169 111 164 169 111 164 169 111
164 169 111 167 170 113 165 170 112 164 169 111 164 169 111
163 168 110 162 170 111 166 174 115 171 179 120 172 181 124
172 181 124 172 181 124 172 181 124 172 181 124 172 181 124
172 181 124 172 181 124 172 181 124 172 181 124 172 181 124
172 181 124 172 181 124 172 181 124 172 181 124 172 181 124
172 181 124 172 181 124 172 181 124 172 181 124 172 181 124
172 181 124 172 181 124 172 181 124 171 181 121 171 181 121
172 181 124 172 181 124 172 181 126 173 182 127 175 184 129
178 187 134 177 186 133 177 186 133 177 186 133 177 186 133
177 186 133 177 186 133 177 186 133 176 185 132 177 186 133
177 186 133 177 186 133 177 186 133 177 186 133 177 186 133
177 186 133 177 186 133 177 186 133 177 186 133 177 186 133
177 186 133 177 186 133 177 186 133 177 186 133 177 186 133
177 186 133 177 186 133 177 186 133 176 185 132 176 185 132
177 186 133 177 185 134 177 185 136 179 187 140 182 190 143
187 194 150 190 197 155 190 197 156 191 197 159 191 197 159
193 199 163 191 197 159 191 197 159 191 197 159 191 197 159
191 197 159 191 197 159 191 197 159 191 197 159 191 197 159
191 197 159 191 197 159 191 197 159 191 197 159 190 196 158
189 195 157 189 195 157 189 195 157 189 195 157 189 195 157
189 195 157 189 195 157 189 195 157 189 195 157 189 195 157
189 195 157 189 195 157 189 195 157 189 195 157 189 195 157
189 195 157 189 195 157 189 195 157 189 195 157 189 195 157
189 195 157 189 195 157 189 195 157 189 195 157 189 195 157
189 195 157 189 195 157 189 195 157 189 195 157 189 195 157
189 195 157 189 195 157 189 195 157 189 195 157 188 196 155
189 197 158 190 198 161 190 197 163 190 197 163 189 196 162
188 195 161 188 196 159 189 197 160 189 197 160 190 198 161
190 198 161 190 198 161 191 199 162 191 199 162 191 199 162
188 196 159 188 196 159 188 196 159 189 197 160 190 198 161
191 199 162 191 199 162 192 200 163 188 195 161 188 195 161
188 195 161 187 194 160 187 193 157 187 193 157 186 192 156
186 192 156 184 190 154 185 191 155 186 192 156 186 192 156
186 192 156 186 192 156 186 192 156 186 192 156 186 192 156
186 192 156 186 192 156 186 192 156 186 192 156 186 192 156
186 192 156 186 192 156 187 193 155 187 193 155 187 193 155
187 193 155 186 192 154 186 192 154 185 191 153 185 191 153
185 185 147 183 183 145 182 183 143 183 184 144 184 185 145
183 184 144 183 184 144 184 185 143 183 183 145 183 183 145
183 183 145 183 183 145 183 183 145 183 183 145 183 183 145
183 183 145 182 183 143 183 184 144 183 184 144 182 183 143
183 184 144 185 186 146 186 187 147 185 186 146 186 186 152
186 186 152 185 185 151 184 184 148 183 183 147 183 183 145
182 182 144 181 181 143 153 152 98 153 152 98 153 152 98 153 152 98
153 152 98 153 152 98 153 152 98 153 152 98 154 153 99 154 153 99
153 152 98 152 151 97 151 150 96 151 150 96 151 150 96 151 150 96
170 167 112 172 171 115 169 170 113 164 167 110 165 170 112
165 170 112 163 168 110 165 170 112 164 169 111 164 169 111
164 169 111 164 169 111 164 169 111 164 169 111 164 169 111
164 169 111 164 169 111 164 169 111 164 169 111 164 169 111
164 169 111 164 169 111 164 169 111 164 169 111 166 169 112
164 169 111 164 169 111 164 169 111 164 169 111 164 172 113
169 177 118 175 183 124 172 181 124 172 181 124 172 181 124
172 181 124 172 181 124 172 181 124 172 181 124 172 181 124
172 181 124 172 181 124 172 181 124 172 181 124 172 181 124
172 181 124 172 181 124 172 181 124 172 181 124 172 181 124
172 181 124 172 181 124 172 181 124 172 181 124 172 181 124
172 181 124 171 181 121 172 182 122 173 182 125 172 181 124
172 181 126 173 182 127 176 185 132 178 187 134 177 186 133
177 186 133 177 186 133 177 186 133 177 186 133 177 186 133
176 185 132 176 185 132 177 186 133 177 186 133 177 186 133
177 186 133 177 186 133 177 186 133 177 186 133 177 186 133
177 186 133 177 186 133 177 186 133 177 186 133 177 186 133
177 186 133 177 186 133 177 186 133 177 186 133 177 186 133
176 185 132 177 186 133 178 186 135 181 189 140 183 191 144
185 192 148 187 194 153 190 197 156 193 200 159 193 200 159
191 198 157 190 197 156 191 197 159 193 199 161 191 197 159
191 197 159 191 197 159 191 197 159 191 197 159 191 197 159
191 197 159 191 197 159 191 197 159 191 197 159 191 197 159
192 198 160 191 197 159 190 196 158 189 195 157 189 195 157
189 195 157 189 195 157 189 195 157 189 195 157 189 195 157
189 195 157 189 195 157 189 195 157 189 195 157 189 195 157
189 195 157 189 195 157 189 195 157 189 195 157 189 195 157
189 195 157 189 195 157 189 195 157 189 195 157 189 195 157
189 195 157 189 195 157 189 195 157 189 195 157 189 195 157
189 195 157 189 195 157 189 195 157 189 195 157 189 195 157
189 195 157 189 195 157 188 196 157 188 196 159 187 194 160
187 194 160 188 195 161 189 196 162 190 198 161 191 199 162
187 195 158 187 195 158 187 195 158 188 196 159 189 197 160
189 197 160 189 197 160 188 196 159 191 199 162 191 199 162
190 198 161 189 196 162 188 195 161 187 194 160 187 194 160
187 194 160 189 196 162 189 196 162 188 196 159 187 195 158
187 193 157 187 193 157 186 192 156 186 192 156 185 191 155
185 191 155 185 191 155 186 192 156 186 192 156 186 192 156
186 192 156 186 192 156 186 192 156 186 192 156 186 192 156
186 192 156 186 192 156 186 192 156 186 192 156 186 192 156
184 190 152 185 191 153 186 192 154 186 192 154 187 193 155
186 192 154 185 191 155 185 191 155 188 188 152 185 185 149
183 183 145 183 183 145 184 184 146 183 183 145 183 184 144
184 185 145 183 183 145 183 183 145 183 183 145 183 183 145
183 183 145 183 183 145 183 183 145 183 183 145 183 184 144
184 185 145 184 185 145 182 183 143 182 183 143 183 184 144
183 184 144 181 182 142 180 180 142 180 180 142 181 181 143
182 182 144 183 183 145 184 184 146 184 184 146 185 185 147
153 152 98 153 152 98 153 152 98 153 152 98 153 152 98 153 152 98
153 152 98 153 152 98 152 151 97 152 151 97 153 152 98 154 153 99
155 154 100 155 154 100 154 153 99 153 152 98 176 171 116 175 172 117
170 169 113 164 167 110 166 171 113 164 172 113 161 169 110
162 170 111 164 169 111 164 169 111 164 169 111 164 169 111
164 169 111 164 169 111 164 169 111 164 169 111 164 169 111
164 169 111 164 169 111 164 169 111 164 169 111 164 169 111
164 169 111 164 169 111 164 167 110 163 168 110 164 169 111
165 170 112 165 170 112 165 173 114 169 177 118 174 182 123
172 181 124 172 181 124 172 181 124 172 181 124 172 181 124
172 181 124 172 181 124 172 181 124 172 181 124 172 181 124
172 181 124 172 181 124 172 181 124 172 181 124 172 181 124
172 181 124 172 181 124 172 181 124 172 181 124 172 181 124
172 181 124 172 181 124 172 181 124 172 181 124 172 182 122
173 183 123 173 183 123 172 181 124 172 181 126 172 181 126
175 184 131 178 187 134 177 186 133 177 186 133 177 186 133
177 186 133 177 186 133 176 185 132 176 185 132 176 185 132
177 186 133 177 186 133 177 186 133 177 186 133 177 186 133
177 186 133 177 186 133 177 186 133 177 186 133 177 186 133
177 186 133 177 186 133 177 186 133 177 186 133 177 186 133
177 186 133 178 187 134 177 186 133 176 185 132 177 186 133
181 189 138 186 194 147 191 198 156 194 201 160 193 199 163
191 197 159 190 196 158 190 196 158 190 196 158 191 198 157
191 198 157 190 197 156 191 197 159 191 197 159 191 197 159
191 197 159 191 197 159 191 197 159 191 197 159 191 197 159
191 197 159 191 197 159 192 198 160 192 198 160 191 197 159
190 196 158 189 195 157 189 195 157 189 195 157 189 195 157
189 195 157 189 195 157 189 195 157 189 195 157 189 195 157
189 195 157 189 195 157 189 195 157 189 195 157 189 195 157
189 195 157 189 195 157 189 195 157 189 195 157 189 195 157
189 195 157 189 195 157 189 195 157 189 195 157 189 195 157
189 195 157 189 195 157 189 195 157 189 195 157 189 195 157
189 195 157 189 195 157 189 195 157 189 195 157 189 195 157
189 196 162 189 196 162 189 196 163 190 197 164 190 197 164
190 197 164 188 195 161 186 193 159 192 198 164 191 197 163
191 197 163 191 197 163 191 197 163 191 197 163 190 196 162
189 195 161 189 196 162 189 196 162 189 196 162 189 196 162
189 196 163 189 196 163 190 197 164 190 197 164 189 199 162
190 198 161 187 195 158 184 192 155 184 190 154 185 191 155
186 192 156 187 193 157 187 193 157 186 192 156 185 191 155
185 191 155 186 192 156 186 192 156 186 192 156 186 192 156
186 192 156 186 192 156 186 192 156 186 192 156 186 192 156
186 192 156 186 192 156 186 192 156 188 192 157 188 192 157
187 191 156 187 191 156 187 191 156 187 191 158 187 191 158
187 191 158 189 189 155 185 185 151 182 182 148 183 183 149
183 183 147 182 182 146 182 182 146 183 183 145 183 183 145
183 183 145 183 183 145 183 183 145 183 183 145 183 183 145
183 183 145 183 183 145 184 182 144 186 184 146 186 184 146
184 182 144 184 182 144 186 184 146 186 184 146 184 182 144
184 187 144 184 187 144 183 186 143 182 185 142 181 184 141
181 184 141 181 183 143 182 184 144 151 150 96 154 153 99 156 155 101
155 154 100 153 152 98 152 151 97 154 153 99 156 155 101 155 149 97
155 149 97 156 150 98 162 156 104 171 165 113 177 171 119 176 170 118
170 164 112 176 170 118 176 170 118 175 169 117 175 169 117
175 169 117 175 169 117 175 169 117 175 169 117 167 167 113
165 168 111 163 168 110 163 168 110 164 169 111 164 169 111
165 169 110 165 169 110 163 168 112 165 170 114 165 170 114
164 169 113 163 168 112 163 168 112 164 169 113 167 172 116
170 172 123 177 179 130 182 184 135 181 183 134 180 182 133
180 182 133 181 183 134 181 183 134 182 185 138 179 183 133
176 180 130 172 179 127 173 180 126 172 181 124 170 180 120
168 178 118 171 179 120 172 180 121 175 183 124 176 184 127
175 183 126 174 182 125 173 180 126 173 180 126 173 180 126
173 180 128 173 180 129 174 180 132 177 183 137 181 187 143
185 191 147 188 193 152 186 192 148 186 192 148 186 192 148
186 192 148 186 192 148 186 192 148 186 192 148 186 192 148
185 191 145 180 186 138 177 184 133 179 186 132 177 186 129
175 184 127 176 185 128 179 188 133 177 186 129 177 186 129
177 186 129 177 186 129 177 186 129 177 186 129 177 186 129
177 186 129 178 187 130 177 186 129 176 185 128 176 185 130
175 184 131 176 185 132 178 186 135 179 187 136 191 197 159
191 197 159 191 197 159 191 197 159 191 197 159 191 197 159
191 197 159 191 197 159 191 197 159 191 197 159 191 197 159
191 197 159 191 197 159 191 197 159 191 197 159 191 197 159
191 197 159 191 197 159 191 197 159 191 197 159 191 197 159
191 197 159 191 197 159 191 197 159 191 197 159 191 197 159
191 197 159 191 197 159 191 197 159 190 196 158 190 196 158
190 196 158 189 195 157 189 195 157 189 195 157 189 195 157
189 195 157 189 195 157 189 195 157 189 195 157 189 195 157
189 195 157 189 195 157 189 195 157 189 195 157 189 195 157
189 195 157 189 195 157 189 195 157 189 195 157 189 195 157
189 195 157 189 195 157 189 195 157 189 195 157 189 195 157
189 195 159 189 195 159 189 195 157 188 194 156 187 195 156
188 196 157 188 196 157 188 196 159 189 196 162 189 196 162
189 196 162 189 196 162 189 196 162 189 196 162 189 196 162
189 196 162 189 196 162 189 196 162 189 196 162 189 196 162
189 196 162 189 196 162 189 196 162 189 196 162 189 196 162
189 196 162 189 196 162 189 196 162 189 196 162 189 196 162
189 196 162 189 196 162 189 196 162 189 196 162 188 195 161
186 193 159 185 191 155 185 191 155 186 192 156 186 192 156
186 192 156 186 192 156 186 192 156 186 192 156 186 192 156
186 192 156 186 192 156 186 192 156 186 192 156 186 192 156
186 192 156 186 192 156 186 192 156 186 192 156 186 192 156
186 192 156 186 192 156 186 192 156 186 192 156 186 192 156
186 192 156 186 192 156 186 192 156 186 192 156 189 189 155
184 184 148 183 181 143 185 183 145 186 184 145 184 182 144
182 182 144 184 186 147 183 183 145 183 183 145 183 183 145
183 183 145 183 183 145 183 183 145 183 183 145 183 183 145
183 183 145 183 183 145 183 183 145 183 183 145 183 183 145
183 183 145 183 183 145 183 183 145 183 183 145 183 183 145
183 183 145 183 183 145 183 183 145 183 183 145 183 183 145
183 183 145 157 156 102 152 151 97 149 148 94 149 148 94 153 152 98
155 154 100 153 152 98 150 149 95 163 157 105 168 162 110 173 167 115
173 167 115 173 167 115 175 169 117 177 171 119 177 171 119
176 170 118 175 169 117 175 169 117 175 169 117 175 169 117
175 169 117 175 169 117 175 169 117 171 170 116 169 169 115
165 168 113 165 168 113 165 170 114 166 171 115 167 170 115
167 170 115 161 166 112 162 167 113 164 169 115 164 169 115
166 171 117 170 175 121 175 180 126 179 184 130 177 179 130
181 183 134 183 185 136 182 184 135 180 182 133 181 183 134
181 183 134 181 183 134 182 184 135 181 183 134 179 183 133
178 182 131 175 182 130 175 182 128 175 184 129 176 185 128
176 183 131 178 185 133 181 188 136 183 190 139 184 191 140
185 192 141 185 192 141 185 191 143 185 192 141 184 191 140
184 190 142 183 189 141 184 190 144 184 190 146 185 191 147
186 191 150 186 192 148 186 192 148 186 192 148 186 192 148
186 192 148 186 192 148 186 192 148 186 192 148 186 192 148
185 191 145 183 189 141 180 187 136 179 188 135 179 188 135
177 185 134 175 183 132 176 184 133 176 184 133 176 184 133
176 184 133 176 184 133 176 184 133 176 184 133 176 184 133
175 183 132 177 185 134 179 187 138 179 187 138 178 186 139
178 186 139 180 187 143 182 189 145 191 197 159 191 197 159
191 197 159 191 197 159 191 197 159 191 197 159 191 197 159
191 197 159 191 197 159 191 197 159 191 197 159 191 197 159
191 197 159 191 197 159 191 197 159 191 197 159 191 197 159
191 197 159 191 197 159 191 197 159 191 197 159 191 197 159
191 197 159 191 197 159 191 197 159 191 197 159 191 197 159
191 197 159 191 197 159 190 196 158 190 196 158 190 196 158
189 195 157 189 195 157 189 195 157 189 195 157 189 195 157
189 195 157 189 195 157 189 195 157 189 195 157 189 195 157
189 195 157 189 195 157 189 195 157 189 195 157 189 195 157
189 195 157 189 195 157 189 195 157 189 195 157 189 195 157
189 195 157 189 195 157 189 195 157 189 195 157 189 195 159
189 195 159 189 195 157 189 195 157 188 196 157 188 196 157
188 196 159 188 196 159 189 196 162 189 196 162 189 196 162
189 196 162 189 196 162 189 196 162 189 196 162 189 196 162
189 196 162 189 196 162 189 196 162 189 196 162 189 196 162
189 196 162 189 196 162 189 196 162 189 196 162 189 196 162
189 196 162 189 196 162 189 196 162 189 196 162 189 196 162
189 196 162 189 196 162 189 196 162 188 195 161 186 193 159
186 192 156 185 191 155 186 192 156 186 192 156 186 192 156
186 192 156 186 192 156 186 192 156 186 192 156 186 192 156
186 192 156 186 192 156 186 192 156 186 192 156 186 192 156
186 192 156 186 192 156 186 192 156 186 192 156 186 192 156
186 192 156 186 192 156 186 192 156 186 192 156 186 192 156
186 192 156 186 192 156 186 192 156 188 188 154 183 183 147
184 182 144 186 184 146 187 185 146 182 182 144 182 182 144
183 185 146 183 183 145 183 183 145 183 183 145 183 183 145
183 183 145 183 183 145 183 183 145 183 183 145 183 183 145
183 183 145 183 183 145 183 183 145 183 183 145 183 183 145
183 183 145 183 183 145 183 183 145 183 183 145 183 183 145
183 183 145 183 183 145 183 183 145 183 183 145 183 183 145
166 163 110 160 157 104 156 153 100 160 157 104 168 165 112
175 172 119 174 171 118 171 168 115 171 165 113 177 171 119
180 174 122 178 172 120 174 168 116 173 167 115 176 170 118
178 172 120 175 169 117 175 169 117 175 169 117 175 169 117
175 169 117 175 169 117 175 169 117 175 169 117 176 171 116
172 169 116 171 170 116 172 172 118 173 176 123 177 180 127
178 180 130 178 180 130 182 186 135 181 185 134 180 184 133
178 182 131 177 181 130 177 181 130 179 183 132 181 185 134
182 184 135 183 185 136 183 185 136 181 183 134 180 182 133
181 183 134 182 184 135 181 183 134 182 181 133 182 184 135
182 184 135 180 184 134 179 183 133 178 185 134 181 188 137
185 192 141 184 190 144 185 191 145 187 193 149 187 193 149
187 193 149 187 193 149 187 193 149 188 193 152 187 193 147
187 193 147 187 193 147 187 193 147 187 193 149 187 193 149
187 193 149 186 192 148 186 192 148 186 192 148 186 192 148
186 192 148 186 192 148 186 192 148 186 192 148 186 192 148
185 191 147 187 193 149 187 193 147 185 191 145 186 194 147
189 197 150 187 194 150 182 189 145 192 199 158 192 199 158
192 199 158 192 199 158 192 199 158 192 199 158 192 199 158
192 199 158 184 191 149 187 194 152 191 198 156 192 199 158
190 197 156 189 196 155 191 197 159 193 199 161 191 197 159
191 197 159 191 197 159 191 197 159 191 197 159 191 197 159
191 197 159 191 197 159 191 197 159 191 197 159 191 197 159
191 197 159 191 197 159 191 197 159 191 197 159 191 197 159
191 197 159 191 197 159 191 197 159 191 197 159 191 197 159
191 197 159 191 197 159 191 197 159 191 197 159 191 197 159
191 197 159 191 197 159 191 197 159 191 197 159 190 196 158
190 196 158 189 195 157 189 195 157 189 195 157 189 195 157
189 195 157 189 195 157 189 195 157 189 195 157 189 195 157
189 195 157 189 195 157 189 195 157 189 195 157 189 195 157
189 195 157 189 195 157 189 195 157 189 195 157 189 195 157
189 195 157 189 195 157 189 195 157 189 195 157 189 195 157
189 195 159 189 195 159 189 195 157 189 195 157 188 196 157
188 196 157 188 196 159 188 196 159 189 196 162 189 196 162
189 196 162 189 196 162 189 196 162 189 196 162 189 196 162
189 196 162 189 196 162 189 196 162 189 196 162 189 196 162
189 196 162 189 196 162 189 196 162 189 196 162 189 196 162
189 196 162 189 196 162 189 196 162 189 196 162 189 196 162
189 196 162 189 196 162 189 196 162 189 196 162 188 195 161
187 194 160 186 192 156 185 191 155 186 192 156 186 192 156
186 192 156 186 192 156 186 192 156 186 192 156 186 192 156
186 192 156 186 192 156 186 192 156 186 192 156 186 192 156
186 192 156 186 192 156 186 192 156 186 192 156 186 192 156
186 192 156 186 192 156 186 192 156 186 192 156 186 192 156
186 192 156 186 192 156 186 192 156 186 192 156 186 187 153
183 183 147 182 182 144 186 184 146 187 185 146 183 183 145
182 182 144 182 184 145 183 183 145 183 183 145 183 183 145
183 183 145 183 183 145 183 183 145 183 183 145 183 183 145
183 183 145 183 183 145 183 183 145 183 183 145 183 183 145
183 183 145 183 183 145 183 183 145 183 183 145 183 183 145
183 183 145 183 183 145 183 183 145 183 183 145 183 183 145
183 183 145 177 171 119 175 169 117 172 166 114 172 166 114
174 168 116 176 170 118 177 171 119 177 171 119 175 169 117
175 169 117 175 169 117 175 169 117 175 169 117 175 169 117
175 169 117 174 168 116 175 169 117 175 169 117 175 169 117
175 169 117 175 169 117 175 169 117 175 169 117 175 169 117
176 169 115 175 169 117 174 171 118 176 176 124 180 182 132
184 186 137 185 187 140 184 186 139 180 182 133 182 184 135
183 185 136 183 185 136 182 184 135 181 183 134 181 183 134
181 183 134 182 184 135 181 183 134 180 182 133 180 182 133
180 182 133 181 183 134 182 184 135 181 183 134 181 181 131
182 181 133 182 184 135 181 183 136 180 183 136 182 185 140
186 189 144 188 194 148 187 192 151 188 193 152 188 193 152
187 192 151 186 191 150 184 189 148 184 189 148 184 189 148
183 188 147 184 189 148 185 191 147 186 192 148 187 193 149
187 193 149 186 192 148 186 192 148 186 192 148 186 192 148
186 192 148 186 192 148 186 192 148 186 192 148 186 192 148
186 192 148 184 190 146 186 192 148 187 192 151 188 193 152
192 199 158 195 202 161 194 200 162 190 196 158 190 196 160
190 196 160 190 196 160 190 196 160 190 196 160 190 196 160
190 196 160 190 196 160 188 195 154 191 198 157 193 199 161
193 199 161 192 198 160 191 197 161 191 197 161 192 198 162
191 197 159 191 197 159 191 197 159 191 197 159 191 197 159
191 197 159 191 197 159 191 197 159 191 197 159 191 197 159
191 197 159 191 197 159 191 197 159 191 197 159 191 197 159
191 197 159 191 197 159 191 197 159 191 197 159 191 197 159
191 197 159 191 197 159 191 197 159 191 197 159 191 197 159
191 197 159 191 197 159 191 197 159 191 197 159 191 197 159
190 196 158 190 196 158 189 195 157 189 195 157 189 195 157
189 195 157 189 195 157 189 195 157 189 195 157 189 195 157
189 195 157 189 195 157 189 195 157 189 195 157 189 195 157
189 195 157 189 195 157 189 195 157 189 195 157 189 195 157
189 195 157 189 195 157 189 195 157 189 195 157 189 195 157
189 195 157 189 195 159 189 195 157 189 195 157 189 196 155
188 196 157 188 196 157 188 196 159 189 196 162 189 196 162
189 196 162 189 196 162 189 196 162 189 196 162 189 196 162
189 196 162 189 196 162 189 196 162 189 196 162 189 196 162
189 196 162 189 196 162 189 196 162 189 196 162 189 196 162
189 196 162 189 196 162 189 196 162 189 196 162 189 196 162
189 196 162 189 196 162 189 196 162 189 196 162 189 196 162
188 195 161 187 194 160 186 192 156 185 191 155 186 192 156
186 192 156 186 192 156 186 192 156 186 192 156 186 192 156
186 192 156 186 192 156 186 192 156 186 192 156 186 192 156
186 192 156 186 192 156 186 192 156 186 192 156 186 192 156
186 192 156 186 192 156 186 192 156 186 192 156 186 192 156
186 192 156 186 192 156 186 192 156 186 192 156 186 192 156
184 188 153 183 185 148 182 182 144 183 183 145 186 184 145
183 183 145 182 182 144 182 184 145 183 183 145 183 183 145
183 183 145 183 183 145 183 183 145 183 183 145 183 183 145
183 183 145 183 183 145 183 183 145 183 183 145 183 183 145
183 183 145 183 183 145 183 183 145 183 183 145 183 183 145
183 183 145 183 183 145 183 183 145 183 183 145 183 183 145
183 183 145 183 183 145 176 170 118 176 170 118 176 170 118
175 169 117 173 167 115 173 167 115 174 168 116 175 169 117
176 170 118 174 168 116 173 167 115 174 168 116 176 170 118
177 171 119 176 170 118 175 169 117 175 169 117 175 169 117
175 169 117 175 169 117 175 169 117 175 169 117 175 169 117
175 169 117 175 168 114 176 169 117 175 172 121 178 176 127
182 181 133 182 184 137 181 182 138 179 180 136 176 178 129
177 179 130 179 181 132 181 183 134 181 183 134 181 183 134
181 183 134 181 183 134 181 183 134 180 182 133 179 181 132
180 182 133 181 183 134 181 183 134 181 183 134 180 182 133
183 183 133 182 181 133 180 182 133 181 183 136 183 186 141
186 189 146 188 191 148 187 192 151 185 191 147 186 192 148
186 192 148 186 192 148 186 192 148 186 192 148 187 193 149
187 193 149 187 192 151 187 192 151 186 191 150 186 191 150
186 192 148 186 192 148 186 192 148 186 192 148 186 192 148
186 192 148 186 192 148 186 192 148 186 192 148 186 192 148
186 192 148 186 192 148 187 193 149 185 190 149 185 190 149
190 195 155 192 198 160 191 197 161 190 196 160 190 196 162
192 198 160 192 198 160 192 198 160 192 198 160 192 198 160
192 198 160 192 198 160 192 198 160 191 198 157 191 198 157
190 197 156 190 197 156 190 196 158 190 196 158 190 196 158
189 195 157 191 197 159 191 197 159 191 197 159 191 197 159
191 197 159 191 197 159 191 197 159 191 197 159 191 197 159
191 197 159 191 197 159 191 197 159 191 197 159 191 197 159
191 197 159 191 197 159 191 197 159 191 197 159 191 197 159
191 197 159 191 197 159 191 197 159 191 197 159 191 197 159
191 197 159 191 197 159 191 197 159 191 197 159 191 197 159
191 197 159 191 197 159 190 196 158 189 195 157 189 195 157
189 195 157 189 195 157 189 195 157 189 195 157 189 195 157
189 195 157 189 195 157 189 195 157 189 195 157 189 195 157
189 195 157 189 195 157 189 195 157 189 195 157 189 195 157
189 195 157 189 195 157 189 195 157 189 195 157 189 195 157
189 195 157 189 195 157 189 195 157 189 195 157 189 195 157
189 196 155 188 196 157 188 196 159 189 197 160 189 196 162
189 196 162 189 196 162 189 196 162 189 196 162 189 196 162
189 196 162 189 196 162 189 196 162 189 196 162 189 196 162
189 196 162 189 196 162 189 196 162 189 196 162 189 196 162
189 196 162 189 196 162 189 196 162 189 196 162 189 196 162
189 196 162 189 196 162 189 196 162 189 196 162 189 196 162
189 196 162 188 195 161 187 194 160 187 193 157 186 192 156
186 192 156 186 192 156 186 192 156 186 192 156 186 192 156
186 192 156 186 192 156 186 192 156 186 192 156 186 192 156
186 192 156 186 192 156 186 192 156 186 192 156 186 192 156
186 192 156 186 192 156 186 192 156 186 192 156 186 192 156
186 192 156 186 192 156 186 192 156 186 192 156 186 192 156
186 192 156 186 190 155 183 187 150 181 183 144 182 182 144
182 183 143 182 182 144 183 183 145 184 184 146 183 183 145
183 183 145 183 183 145 183 183 145 183 183 145 183 183 145
183 183 145 183 183 145 183 183 145 183 183 145 183 183 145
183 183 145 183 183 145 183 183 145 183 183 145 183 183 145
183 183 145 183 183 145 183 183 145 183 183 145 183 183 145
183 183 145 183 183 145 183 183 145 174 168 116 173 167 115
173 167 115 175 169 117 178 172 120 179 173 121 179 173 121
178 172 120 175 169 117 175 169 117 176 170 118 176 170 118
175 169 117 174 168 116 175 169 117 177 171 119 175 169 117
175 169 117 175 169 117 175 169 117 175 169 117 175 169 117
175 169 117 175 169 117 173 166 114 174 168 116 176 173 122
179 179 129 182 181 133 181 183 136 182 181 135 181 180 136
185 187 138 184 186 137 183 185 136 181 183 134 181 183 134
181 183 134 181 183 134 181 183 134 182 184 135 181 183 134
181 183 134 182 184 135 182 184 135 181 183 134 180 182 133
180 182 133 185 185 135 181 183 134 180 182 133 181 184 137
185 188 143 187 193 149 187 193 149 186 191 150 185 191 147
185 191 147 186 192 146 186 192 146 186 192 146 186 192 146
187 193 147 187 193 147 187 192 151 187 192 151 186 191 150
186 192 148 186 192 148 186 192 148 187 193 149 187 193 149
186 192 148 186 192 148 186 192 148 186 192 148 186 192 148
186 192 148 186 192 148 186 192 148 188 194 150 185 191 147
186 191 151 192 196 159 192 198 162 190 196 160 189 195 159
192 198 162 190 196 158 190 196 158 190 196 158 190 196 158
190 196 158 190 196 158 190 196 158 190 196 158 194 201 160
192 199 158 190 197 156 191 198 157 192 199 158 193 200 159
193 200 159 192 199 158 191 197 159 191 197 159 191 197 159
191 197 159 191 197 159 191 197 159 191 197 159 191 197 159
191 197 159 191 197 159 191 197 159 191 197 159 191 197 159
191 197 159 191 197 159 191 197 159 191 197 159 191 197 159
191 197 159 191 197 159 191 197 159 191 197 159 191 197 159
191 197 159 191 197 159 191 197 159 191 197 159 192 198 160
191 197 159 191 197 159 191 197 159 191 197 159 189 195 157
189 195 157 189 195 157 189 195 157 189 195 157 189 195 157
189 195 157 189 195 157 189 195 157 189 195 157 189 195 157
189 195 157 189 195 157 189 195 157 189 195 157 189 195 157
189 195 157 189 195 157 189 195 157 189 195 157 189 195 157
189 195 157 189 195 157 189 195 157 189 195 157 189 195 157
189 196 155 189 196 155 188 196 157 189 197 160 189 196 162
189 196 162 189 196 162 189 196 162 189 196 162 189 196 162
189 196 162 189 196 162 189 196 162 189 196 162 189 196 162
189 196 162 189 196 162 189 196 162 189 196 162 189 196 162
189 196 162 189 196 162 189 196 162 189 196 162 189 196 162
189 196 162 189 196 162 189 196 162 189 196 162 189 196 162
189 196 162 189 196 162 189 196 162 188 195 161 187 193 157
186 192 156 186 192 156 186 192 156 186 192 156 186 192 156
186 192 156 186 192 156 186 192 156 186 192 156 186 192 156
186 192 156 186 192 156 186 192 156 186 192 156 186 192 156
186 192 156 186 192 156 186 192 156 186 192 156 186 192 156
186 192 156 186 192 156 186 192 156 186 192 156 186 192 156
186 192 156 186 192 156 187 193 157 184 188 151 182 184 145
181 181 143 182 183 143 183 183 145 183 183 145 184 184 146
183 183 145 183 183 145 183 183 145 183 183 145 183 183 145
183 183 145 183 183 145 183 183 145 183 183 145 183 183 145
183 183 145 183 183 145 183 183 145 183 183 145 183 183 145
183 183 145 183 183 145 183 183 145 183 183 145 183 183 145
183 183 145 183 183 145 183 183 145 183 183 145 178 172 120
176 170 118 175 169 117 174 168 116 175 169 117 174 168 116
172 166 114 170 164 112 174 168 116 174 168 116 175 169 117
176 170 118 175 169 117 173 167 115 173 167 115 176 170 118
175 169 117 175 169 117 175 169 117 175 169 117 175 169 117
175 169 117 175 169 117 176 170 118 172 169 116 175 174 120
179 177 126 182 182 132 182 184 134 184 183 135 184 183 135
184 183 137 180 182 133 179 181 132 178 180 131 178 180 131
179 181 132 181 183 134 182 184 135 183 185 136 182 184 135
181 183 134 181 183 134 182 184 135 182 184 135 180 182 133
180 182 133 181 183 134 182 184 134 181 183 134 179 183 133
182 185 138 184 190 144 187 193 147 186 193 149 185 192 148
186 192 148 186 192 148 187 193 149 187 193 149 186 192 146
185 191 145 185 191 145 185 191 145 185 191 147 185 191 147
185 191 147 185 191 147 186 192 148 186 192 148 187 193 149
187 193 149 186 192 148 186 192 148 186 192 148 186 192 148
186 192 148 186 192 148 186 192 148 186 192 148 186 192 146
187 193 149 190 195 154 193 197 160 192 198 160 192 198 162
193 199 161 194 200 162 192 198 160 192 198 160 192 198 160
192 198 160 192 198 160 192 198 160 192 198 160 192 198 160
191 197 159 190 196 158 189 195 157 189 195 157 190 197 156
191 198 157 191 198 157 191 198 157 191 197 159 191 197 159
191 197 159 191 197 159 191 197 159 191 197 159 191 197 159
191 197 159 191 197 159 191 197 159 191 197 159 191 197 159
191 197 159 191 197 159 191 197 159 191 197 159 191 197 159
191 197 159 191 197 159 191 197 159 191 197 159 191 197 159
191 197 159 191 197 159 191 197 159 191 197 159 191 197 159
192 198 160 192 198 160 191 197 159 191 197 159 191 197 159
189 195 157 189 195 157 189 195 157 189 195 157 189 195 157
189 195 157 189 195 157 189 195 157 189 195 157 189 195 157
189 195 157 189 195 157 189 195 157 189 195 157 189 195 157
189 195 157 189 195 157 189 195 157 189 195 157 189 195 157
189 195 157 189 195 157 189 195 157 189 195 157 189 195 157
189 196 155 189 196 155 189 196 155 188 196 157 189 197 160
189 196 162 189 196 163 189 196 162 189 196 162 189 196 162
189 196 162 189 196 162 189 196 162 189 196 162 189 196 162
189 196 162 189 196 162 189 196 162 189 196 162 189 196 162
189 196 162 189 196 162 189 196 162 189 196 162 189 196 162
189 196 162 189 196 162 189 196 162 189 196 162 189 196 162
189 196 162 189 196 162 189 196 162 189 196 162 188 195 161
187 193 157 186 192 156 186 192 156 186 192 156 186 192 156
186 192 156 186 192 156 186 192 156 186 192 156 186 192 156
186 192 156 186 192 156 186 192 156 186 192 156 186 192 156
186 192 156 186 192 156 186 192 156 186 192 156 186 192 156
186 192 156 186 192 156 186 192 156 186 192 156 186 192 156
186 192 156 186 192 156 186 192 156 188 194 158 185 191 153
184 186 147 182 182 144 182 183 143 183 183 145 183 183 145
183 183 145 183 183 145 183 183 145 183 183 145 183 183 145
183 183 145 183 183 145 183 183 145 183 183 145 183 183 145
183 183 145 183 183 145 183 183 145 183 183 145 183 183 145
183 183 145 183 183 145 183 183 145 183 183 145 183 183 145
183 183 145 183 183 145 183 183 145 183 183 145 183 183 145
171 168 115 173 170 117 175 172 119 174 171 118 173 170 117
172 169 116 174 171 118 176 173 120 177 171 119 174 168 116
173 167 115 176 170 118 178 172 120 176 170 118 174 168 116
174 168 116 175 169 117 175 169 117 175 169 117 175 169 117
175 169 117 175 169 117 176 170 118 176 170 118 177 176 122
180 178 127 183 183 131 182 185 132 181 183 133 182 182 132
182 181 133 184 182 134 182 184 135 181 183 134 181 183 134
182 184 135 182 184 135 181 183 134 180 182 133 180 182 133
181 183 134 180 182 133 180 182 133 181 183 134 181 183 134
179 181 132 180 182 133 183 185 136 179 183 132 179 183 133
179 183 133 180 186 138 184 190 142 185 193 146 185 193 146
184 192 145 185 190 150 186 191 150 187 192 151 187 192 151
187 193 149 187 193 149 187 193 149 187 193 149 186 192 146
186 192 146 187 193 147 187 193 147 186 192 148 185 191 147
185 191 147 184 190 146 186 192 148 186 192 148 186 192 148
186 192 148 186 192 148 186 192 148 186 192 148 186 192 148
183 189 143 189 195 151 193 198 157 191 196 156 189 195 157
191 197 159 191 198 157 189 196 155 190 196 158 190 196 158
190 196 158 190 196 158 190 196 158 190 196 158 190 196 158
190 196 158 191 197 161 192 198 162 193 199 163 193 199 163
192 198 162 191 197 159 191 197 159 192 198 160 191 197 159
191 197 159 191 197 159 191 197 159 191 197 159 191 197 159
191 197 159 191 197 159 191 197 159 191 197 159 191 197 159
191 197 159 191 197 159 191 197 159 191 197 159 191 197 159
191 197 159 191 197 159 191 197 159 191 197 159 191 197 159
191 197 159 191 197 159 191 197 159 191 197 159 191 197 159
191 197 159 192 198 160 192 198 160 192 198 160 191 197 159
191 197 159 189 195 157 189 195 157 189 195 157 189 195 157
189 195 157 189 195 157 189 195 157 189 195 157 189 195 157
189 195 157 189 195 157 189 195 157 189 195 157 189 195 157
189 195 157 189 195 157 189 195 157 189 195 157 189 195 157
189 195 157 189 195 157 189 195 157 189 195 157 189 195 157
189 195 157 189 196 155 189 196 155 189 196 155 188 196 157
189 197 160 189 196 162 190 197 164 189 196 162 189 196 162
189 196 162 189 196 162 189 196 162 189 196 162 189 196 162
189 196 162 189 196 162 189 196 162 189 196 162 189 196 162
189 196 162 189 196 162 189 196 162 189 196 162 189 196 162
189 196 162 189 196 162 189 196 162 189 196 162 189 196 162
189 196 162 189 196 162 189 196 162 189 196 162 189 196 162
188 195 161 188 194 158 186 192 156 186 192 156 186 192 156
186 192 156 186 192 156 186 192 156 186 192 156 186 192 156
186 192 156 186 192 156 186 192 156 186 192 156 186 192 156
186 192 156 186 192 156 186 192 156 186 192 156 186 192 156
186 192 156 186 192 156 186 192 156 186 192 156 186 192 156
186 192 156 186 192 156 186 192 156 186 192 156 187 195 158
186 192 154 183 188 148 183 185 146 183 184 144 184 184 146
183 183 145 182 182 144 183 183 145 183 183 145 183 183 145
183 183 145 183 183 145 183 183 145 183 183 145 183 183 145
183 183 145 183 183 145 183 183 145 183 183 145 183 183 145
183 183 145 183 183 145 183 183 145 183 183 145 183 183 145
183 183 145 183 183 145 183 183 145 183 183 145 183 183 145
183 183 145 175 169 117 175 169 117 175 169 117 175 169 117
175 169 117 175 169 117 175 169 117 175 169 117 175 169 117
175 169 117 175 169 117 175 169 117 175 169 117 175 169 117
175 169 117 175 169 117 175 169 119 174 168 116 174 169 114
176 171 116 177 172 117 176 171 116 175 169 117 176 169 117
173 175 126 176 178 129 180 182 133 182 184 135 182 184 135
181 183 134 181 183 134 181 183 134 181 183 134 181 183 134
181 183 134 181 183 134 181 183 134 181 183 134 181 183 134
181 183 134 181 183 134 181 183 134 181 183 134 181 183 134
181 183 134 181 183 134 181 183 134 181 183 134 182 184 135
182 184 135 180 182 132 178 182 131 181 185 135 184 190 144
187 193 149 186 193 151 186 192 148 186 192 148 186 192 148
186 192 148 186 192 148 186 192 148 186 192 148 186 192 148
186 192 148 186 192 148 186 192 148 186 192 148 186 192 148
186 192 148 186 192 148 186 192 148 186 192 146 186 192 146
186 192 148 186 192 148 186 192 148 187 193 149 186 191 150
185 190 149 191 197 159 191 197 159 191 197 159 191 197 159
191 197 159 191 197 159 191 197 159 191 197 159 191 197 159
191 197 159 191 197 159 191 197 159 191 197 159 191 197 159
191 197 159 191 197 159 191 197 159 191 197 159 191 197 159
191 197 159 191 197 159 191 197 159 191 197 159 191 197 159
191 197 159 191 197 159 191 197 159 191 197 159 191 197 159
191 197 159 191 197 159 191 197 159 191 197 159 191 197 159
191 197 159 191 197 159 191 197 159 191 197 159 191 197 159
191 197 159 191 197 159 191 197 159 191 197 159 191 197 159
191 197 159 191 197 159 191 197 159 191 197 159 191 197 159
191 197 159 191 197 159 191 197 159 191 197 159 191 197 159
191 197 159 191 197 159 191 197 159 190 196 158 188 194 156
188 194 156 189 195 157 190 196 158 189 195 157 188 194 156
189 195 157 189 195 157 190 196 158 189 195 157 189 195 157
188 194 156 188 194 156 188 194 156 189 195 157 189 195 157
189 195 157 189 195 157 189 195 157 189 195 157 189 195 157
189 195 157 189 195 157 189 195 157 189 195 157 188 196 159
189 197 160 189 196 162 189 196 162 189 196 163 189 196 162
189 196 162 189 196 162 189 196 162 189 196 162 189 196 162
189 196 162 189 196 162 189 196 162 189 196 162 189 196 162
189 196 162 189 196 162 189 196 162 189 196 162 189 196 162
189 196 162 189 196 162 189 196 162 189 196 162 189 196 162
189 196 162 189 196 162 189 196 162 189 196 162 189 196 162
189 196 162 187 194 160 186 194 157 186 192 156 186 192 156
186 192 156 186 192 156 186 192 156 186 192 156 186 192 156
186 192 156 186 192 156 186 192 156 186 192 156 186 192 156
186 192 156 186 192 156 186 192 156 186 192 156 186 192 156
186 192 156 186 192 156 186 192 156 186 192 156 186 192 156
186 192 156 186 192 156 186 192 156 186 192 156 186 192 156
184 194 157 186 194 157 185 189 154 182 184 147 181 181 145
183 183 145 183 183 145 181 183 144 183 183 145 183 183 145
183 183 145 183 183 145 183 183 145 183 183 145 183 183 145
183 183 145 183 183 145 183 183 145 183 183 145 183 183 145
183 183 145 183 183 145 183 183 145 183 183 145 183 183 145
183 183 145 183 183 145 183 183 145 183 183 145 183 183 145
183 183 145 183 183 145 175 169 117 175 169 117 175 169 117
175 169 117 175 169 117 175 169 117 175 169 117 175 169 117
175 169 117 175 169 117 175 169 117 175 169 117 175 169 117
175 169 117 175 169 117 175 169 117 175 169 119 174 168 116
175 169 117 176 171 116 176 171 116 174 169 114 175 169 117
176 170 118 178 180 131 180 182 133 182 184 135 182 184 135
181 183 134 180 182 133 180 182 133 181 183 134 181 183 134
181 183 134 181 183 134 181 183 134 181 183 134 181 183 134
181 183 134 181 183 134 181 183 134 181 183 134 181 183 134
181 183 134 181 183 134 181 183 134 181 183 134 181 183 134
181 183 134 181 183 134 180 182 132 179 183 133 183 187 137
186 192 146 187 193 149 185 192 150 186 192 148 186 192 148
186 192 148 186 192 148 186 192 148 186 192 148 186 192 148
186 192 148 186 192 148 186 192 148 186 192 148 186 192 148
186 192 148 186 192 148 186 192 148 186 192 148 186 192 146
186 192 146 186 192 148 186 192 148 186 192 148 186 192 148
186 191 150 186 191 150 191 197 159 191 197 159 191 197 159
191 197 159 191 197 159 191 197 159 191 197 159 191 197 159
191 197 159 191 197 159 191 197 159 191 197 159 191 197 159
191 197 159 191 197 159 191 197 159 191 197 159 191 197 159
191 197 159 191 197 159 191 197 159 191 197 159 191 197 159
191 197 159 191 197 159 191 197 159 191 197 159 191 197 159
191 197 159 191 197 159 191 197 159 191 197 159 191 197 159
191 197 159 191 197 159 191 197 159 191 197 159 191 197 159
191 197 159 191 197 159 191 197 159 191 197 159 191 197 159
191 197 159 191 197 159 191 197 159 191 197 159 191 197 159
191 197 159 191 197 159 191 197 159 191 197 159 191 197 159
191 197 159 191 197 159 191 197 159 192 198 160 190 196 158
189 195 157 189 195 157 189 195 157 190 196 158 189 195 157
189 195 157 189 195 157 190 196 158 190 196 158 189 195 157
189 195 157 189 195 157 189 195 157 189 195 157 189 195 157
189 195 157 189 195 157 189 195 157 189 195 157 189 195 157
189 195 157 189 195 157 189 195 157 189 195 157 189 195 157
188 196 159 189 197 160 189 196 162 189 196 162 189 196 163
189 196 162 189 196 162 189 196 162 189 196 162 189 196 162
189 196 162 189 196 162 189 196 162 189 196 162 189 196 162
189 196 162 189 196 162 189 196 162 189 196 162 189 196 162
189 196 162 189 196 162 189 196 162 189 196 162 189 196 162
189 196 162 189 196 162 189 196 162 189 196 162 189 196 162
189 196 162 189 196 162 188 195 161 186 194 157 186 192 156
186 192 156 186 192 156 186 192 156 186 192 156 186 192 156
186 192 156 186 192 156 186 192 156 186 192 156 186 192 156
186 192 156 186 192 156 186 192 156 186 192 156 186 192 156
186 192 156 186 192 156 186 192 156 186 192 156 186 192 156
186 192 156 186 192 156 186 192 156 186 192 156 186 192 156
186 192 156 183 193 156 186 194 157 186 190 155 184 186 149
183 183 147 183 183 145 183 183 145 182 182 144 183 183 145
183 183 145 183 183 145 183 183 145 183 183 145 183 183 145
183 183 145 183 183 145 183 183 145 183 183 145 183 183 145
183 183 145 183 183 145 183 183 145 183 183 145 183 183 145
183 183 145 183 183 145 183 183 145 183 183 145 183 183 145
183 183 145 183 183 145 183 183 145 175 169 117 175 169 117
175 169 117 175 169 117 175 169 117 175 169 117 175 169 117
175 169 117 175 169 117 175 169 117 175 169 117 175 169 117
175 169 117 175 169 117 175 169 117 175 169 117 175 169 119
175 169 117 175 169 117 175 170 115 174 169 114 173 167 115
175 169 117 176 173 122 182 184 135 183 185 136 183 185 136
182 184 135 180 182 133 179 181 132 180 182 133 182 184 135
181 183 134 181 183 134 181 183 134 181 183 134 181 183 134
181 183 134 181 183 134 181 183 134 181 183 134 181 183 134
181 183 134 181 183 134 181 183 134 181 183 134 181 183 134
181 183 134 181 183 134 181 183 134 180 182 133 181 185 135
186 189 142 188 194 148 188 194 150 185 192 150 186 192 148
186 192 148 186 192 148 186 192 148 186 192 148 186 192 148
186 192 148 186 192 148 186 192 148 186 192 148 186 192 148
186 192 148 186 192 148 186 192 148 186 192 148 186 192 148
187 193 147 186 192 146 186 192 148 186 192 148 186 192 148
186 192 148 186 191 150 187 192 151 191 197 159 191 197 159
191 197 159 191 197 159 191 197 159 191 197 159 191 197 159
191 197 159 191 197 159 191 197 159 191 197 159 191 197 159
191 197 159 191 197 159 191 197 159 191 197 159 191 197 159
191 197 159 191 197 159 191 197 159 191 197 159 191 197 159
191 197 159 191 197 159 191 197 159 191 197 159 191 197 159
191 197 159 191 197 159 191 197 159 191 197 159 191 197 159
191 197 159 191 197 159 191 197 159 191 197 159 191 197 159
191 197 159 191 197 159 191 197 159 191 197 159 191 197 159
191 197 159 191 197 159 191 197 159 191 197 159 191 197 159
191 197 159 191 197 159 191 197 159 191 197 159 191 197 159
191 197 159 191 197 159 191 197 159 191 197 159 192 198 160
191 197 159 189 195 157 189 195 157 189 195 157 190 196 158
190 196 158 190 196 158 190 196 158 190 196 158 189 195 157
189 195 157 189 195 157 189 195 157 189 195 157 189 195 157
189 195 157 189 195 157 189 195 157 189 195 157 189 195 157
189 195 157 189 195 157 189 195 157 189 195 157 189 195 157
189 195 157 188 196 159 189 197 160 189 196 162 189 196 162
189 196 163 189 196 162 189 196 162 189 196 162 189 196 162
189 196 162 189 196 162 189 196 162 189 196 162 189 196 162
189 196 162 189 196 162 189 196 162 189 196 162 189 196 162
189 196 162 189 196 162 189 196 162 189 196 162 189 196 162
189 196 162 189 196 162 189 196 162 189 196 162 189 196 162
189 196 162 189 196 162 189 196 162 188 195 161 186 194 157
186 192 156 186 192 156 186 192 156 186 192 156 186 192 156
186 192 156 186 192 156 186 192 156 186 192 156 186 192 156
186 192 156 186 192 156 186 192 156 186 192 156 186 192 156
186 192 156 186 192 156 186 192 156 186 192 156 186 192 156
186 192 156 186 192 156 186 192 156 186 192 156 186 192 156
186 192 156 186 192 156 184 192 155 186 194 157 188 192 157
187 189 152 184 184 148 183 183 145 183 183 145 183 183 145
183 183 145 183 183 145 183 183 145 183 183 145 183 183 145
183 183 145 183 183 145 183 183 145 183 183 145 183 183 145
183 183 145 183 183 145 183 183 145 183 183 145 183 183 145
183 183 145 183 183 145 183 183 145 183 183 145 183 183 145
183 183 145 183 183 145 183 183 145 183 183 145 175 169 117
175 169 117 175 169 117 175 169 117 175 169 117 175 169 117
175 169 117 175 169 117 175 169 117 175 169 117 175 169 117
175 169 117 175 169 117 175 169 117 175 169 117 175 169 117
173 170 119 175 169 117 176 170 118 175 170 115 173 167 115
171 168 115 175 172 121 180 178 129 182 184 135 182 184 135
182 184 135 181 183 134 180 182 133 181 183 134 182 184 135
183 185 136 181 183 134 181 183 134 181 183 134 181 183 134
181 183 134 181 183 134 181 183 134 181 183 134 181 183 134
181 183 134 181 183 134 181 183 134 181 183 134 181 183 134
181 183 134 181 183 134 181 183 134 180 182 133 180 182 133
182 185 138 187 190 145 188 194 148 188 194 150 185 192 150
186 192 148 186 192 148 186 192 148 186 192 148 186 192 148
186 192 148 186 192 148 186 192 148 186 192 148 186 192 148
186 192 148 186 192 148 186 192 148 186 192 148 186 192 148
186 192 148 186 192 146 186 192 146 186 192 148 186 192 148
186 192 148 186 192 148 186 191 150 188 193 152 191 197 159
191 197 159 191 197 159 191 197 159 191 197 159 191 197 159
191 197 159 191 197 159 191 197 159 191 197 159 191 197 159
191 197 159 191 197 159 191 197 159 191 197 159 191 197 159
191 197 159 191 197 159 191 197 159 191 197 159 191 197 159
191 197 159 191 197 159 191 197 159 191 197 159 191 197 159
191 197 159 191 197 159 191 197 159 191 197 159 191 197 159
191 197 159 191 197 159 191 197 159 191 197 159 191 197 159
191 197 159 191 197 159 191 197 159 191 197 159 191 197 159
191 197 159 191 197 159 191 197 159 191 197 159 191 197 159
191 197 159 191 197 159 191 197 159 191 197 159 191 197 159
191 197 159 191 197 159 191 197 159 191 197 159 191 197 159
192 198 160 191 197 159 189 195 157 189 195 157 188 194 156
189 195 157 189 195 157 190 196 158 190 196 158 189 195 157
188 194 156 188 194 156 189 195 157 189 195 157 189 195 157
189 195 157 189 195 157 189 195 157 189 195 157 189 195 157
189 195 157 189 195 157 189 195 157 189 195 157 189 195 157
189 195 157 189 195 157 188 196 159 189 197 160 189 196 162
189 196 162 189 196 163 189 196 162 189 196 162 189 196 162
189 196 162 189 196 162 189 196 162 189 196 162 189 196 162
189 196 162 189 196 162 189 196 162 189 196 162 189 196 162
189 196 162 189 196 162 189 196 162 189 196 162 189 196 162
189 196 162 189 196 162 189 196 162 189 196 162 189 196 162
189 196 162 189 196 162 189 196 162 189 196 162 188 195 161
187 195 158 187 193 157 186 192 156 186 192 156 186 192 156
186 192 156 186 192 156 186 192 156 186 192 156 186 192 156
186 192 156 186 192 156 186 192 156 186 192 156 186 192 156
186 192 156 186 192 156 186 192 156 186 192 156 186 192 156
186 192 156 186 192 156 186 192 156 186 192 156 186 192 156
186 192 156 186 192 156 186 192 156 183 191 154 187 193 157
187 193 157 186 190 153 184 186 149 182 182 144 183 183 145
184 184 146 183 183 145 183 183 145 183 183 145 183 183 145
183 183 145 183 183 145 183 183 145 183 183 145 183 183 145
183 183 145 183 183 145 183 183 145 183 183 145 183 183 145
183 183 145 183 183 145 183 183 145 183 183 145 183 183 145
183 183 145 183 183 145 183 183 145 183 183 145 183 183 145
175 169 117 175 169 117 175 169 117 175 169 117 175 169 117
175 169 117 175 169 117 175 169 117 175 169 117 175 169 117
175 169 117 175 169 117 175 169 117 175 169 117 175 169 117
175 169 117 173 170 117 175 169 117 176 170 118 176 170 118
174 168 116 173 170 119 177 175 126 183 183 133 180 182 133
180 182 133 181 183 134 181 183 134 181 183 134 181 183 134
181 183 134 182 184 135 181 183 134 181 183 134 181 183 134
181 183 134 181 183 134 181 183 134 181 183 134 181 183 134
181 183 134 181 183 134 181 183 134 181 183 134 181 183 134
181 183 134 181 183 134 181 183 134 182 184 134 180 182 133
180 182 135 182 185 138 186 189 144 187 193 149 187 193 149
185 192 148 186 192 148 186 192 148 186 192 148 186 192 148
186 192 148 186 192 148 186 192 148 186 192 148 186 192 148
186 192 148 186 192 148 186 192 148 186 192 148 186 192 148
186 192 148 186 192 148 187 193 147 185 191 145 186 192 148
187 193 149 186 192 148 185 191 147 187 192 151 189 194 153
191 197 159 191 197 159 191 197 159 191 197 159 191 197 159
191 197 159 191 197 159 191 197 159 191 197 159 191 197 159
191 197 159 191 197 159 191 197 159 191 197 159 191 197 159
191 197 159 191 197 159 191 197 159 191 197 159 191 197 159
191 197 159 191 197 159 191 197 159 191 197 159 191 197 159
191 197 159 191 197 159 191 197 159 191 197 159 191 197 159
191 197 159 191 197 159 191 197 159 191 197 159 191 197 159
191 197 159 191 197 159 191 197 159 191 197 159 191 197 159
191 197 159 191 197 159 191 197 159 191 197 159 191 197 159
191 197 159 191 197 159 191 197 159 191 197 159 191 197 159
191 197 159 191 197 159 191 197 159 191 197 159 191 197 159
191 197 159 191 197 159 191 197 159 190 196 158 189 195 157
188 194 156 188 194 156 189 195 157 189 195 157 189 195 157
188 194 156 188 194 156 188 194 156 189 195 157 189 195 157
189 195 157 188 194 156 189 195 157 189 195 157 189 195 157
189 195 157 189 195 157 189 195 157 189 195 157 189 195 157
189 195 157 189 195 157 189 195 157 188 196 159 189 197 160
189 196 162 189 196 162 189 196 163 189 196 162 189 196 162
189 196 162 189 196 162 189 196 162 189 196 162 189 196 162
189 196 162 189 196 162 189 196 162 189 196 162 189 196 162
189 196 162 189 196 162 189 196 162 189 196 162 189 196 162
189 196 162 189 196 162 189 196 162 189 196 162 189 196 162
189 196 162 189 196 162 189 196 162 189 196 162 190 197 163
189 196 162 187 195 158 187 193 157 186 192 156 186 192 156
186 192 156 186 192 156 186 192 156 186 192 156 186 192 156
186 192 156 186 192 156 186 192 156 186 192 156 186 192 156
186 192 156 186 192 156 186 192 156 186 192 156 186 192 156
186 192 156 186 192 156 186 192 156 186 192 156 186 192 156
186 192 156 186 192 156 186 192 156 186 192 156 185 191 155
186 192 156 186 192 156 185 189 152 183 185 148 181 181 143
182 182 144 186 184 146 183 183 145 183 183 145 183 183 145
183 183 145 183 183 145 183 183 145 183 183 145 183 183 145
183 183 145 183 183 145 183 183 145 183 183 145 183 183 145
183 183 145 183 183 145 183 183 145 183 183 145 183 183 145
183 183 145 183 183 145 183 183 145 183 183 145 183 183 145
183 183 145 175 169 117 175 169 117 175 169 117 175 169 117
175 169 117 175 169 117 175 169 117 175 169 117 175 169 117
175 169 117 175 169 117 175 169 117 175 169 117 175 169 117
175 169 117 175 169 117 173 170 117 173 170 117 176 170 118
177 170 118 175 169 117 174 171 120 179 179 129 183 185 136
180 182 133 181 183 134 181 183 134 181 183 134 181 183 134
181 183 134 180 182 133 180 182 133 181 183 134 181 183 134
181 183 134 181 183 134 181 183 134 181 183 134 181 183 134
181 183 134 181 183 134 181 183 134 181 183 134 181 183 134
181 183 134 181 183 134 181 183 134 181 183 134 182 184 134
180 182 133 181 183 136 184 187 142 187 190 147 186 192 148
186 192 148 186 193 149 186 192 148 186 192 148 186 192 148
186 192 148 186 192 148 186 192 148 186 192 148 186 192 148
186 192 148 186 192 148 186 192 148 186 192 148 186 192 148
186 192 148 186 192 148 186 192 148 187 193 147 185 191 145
185 191 147 187 193 149 186 192 148 185 191 147 187 192 151
191 196 155 191 197 159 191 197 159 191 197 159 191 197 159
191 197 159 191 197 159 191 197 159 191 197 159 191 197 159
191 197 159 191 197 159 191 197 159 191 197 159 191 197 159
191 197 159 191 197 159 191 197 159 191 197 159 191 197 159
191 197 159 191 197 159 191 197 159 191 197 159 191 197 159
191 197 159 191 197 159 191 197 159 191 197 159 191 197 159
191 197 159 191 197 159 191 197 159 191 197 159 191 197 159
191 197 159 191 197 159 191 197 159 191 197 159 191 197 159
191 197 159 191 197 159 191 197 159 191 197 159 191 197 159
191 197 159 191 197 159 191 197 159 191 197 159 191 197 159
191 197 159 191 197 159 191 197 159 191 197 159 191 197 159
191 197 159 191 197 159 191 197 159 191 197 159 191 197 159
190 196 158 189 195 157 188 194 156 188 194 156 189 195 157
189 195 157 188 194 156 188 194 156 188 194 156 190 196 158
190 196 158 189 195 157 187 193 155 189 195 157 189 195 157
189 195 157 189 195 157 189 195 157 189 195 157 189 195 157
189 195 157 189 195 157 189 195 157 189 195 157 188 196 159
189 197 160 189 196 162 189 196 162 189 196 163 189 196 162
189 196 162 189 196 162 189 196 162 189 196 162 189 196 162
189 196 162 189 196 162 189 196 162 189 196 162 189 196 162
189 196 162 189 196 162 189 196 162 189 196 162 189 196 162
189 196 162 189 196 162 189 196 162 189 196 162 189 196 162
189 196 162 189 196 162 189 196 162 189 196 162 189 196 162
190 197 163 189 196 162 187 195 158 187 193 157 186 192 156
186 192 156 186 192 156 186 192 156 186 192 156 186 192 156
186 192 156 186 192 156 186 192 156 186 192 156 186 192 156
186 192 156 186 192 156 186 192 156 186 192 156 186 192 156
186 192 156 186 192 156 186 192 156 186 192 156 186 192 156
186 192 156 186 192 156 186 192 156 186 192 156 186 192 156
186 192 156 186 192 156 186 192 156 184 190 152 182 186 149
181 183 144 184 182 144 186 184 146 183 183 145 183 183 145
183 183 145 183 183 145 183 183 145 183 183 145 183 183 145
183 183 145 183 183 145 183 183 145 183 183 145 183 183 145
183 183 145 183 183 145 183 183 145 183 183 145 183 183 145
183 183 145 183 183 145 183 183 145 183 183 145 183 183 145
183 183 145 183 183 145 175 169 117 175 169 117 175 169 117
175 169 117 175 169 117 175 169 117 175 169 117 175 169 117
175 169 117 175 169 117 175 169 117 175 169 117 175 169 117
175 169 117 175 169 117 175 169 117 173 170 117 173 170 117
175 169 117 176 169 117 175 169 117 175 172 121 179 178 130
182 186 136 181 183 134 181 183 134 181 183 134 181 183 134
181 183 134 181 183 134 180 182 133 180 182 133 181 183 134
181 183 134 181 183 134 181 183 134 181 183 134 181 183 134
181 183 134 181 183 134 181 183 134 181 183 134 181 183 134
181 183 134 181 183 134 181 183 134 181 183 134 181 183 134
181 183 133 181 183 134 184 186 139 187 190 147 188 191 148
185 190 149 185 191 147 186 193 149 186 192 148 186 192 148
186 192 148 186 192 148 186 192 148 186 192 148 186 192 148
186 192 148 186 192 148 186 192 148 186 192 148 186 192 148
186 192 148 186 192 148 186 192 148 186 192 148 187 193 147
185 191 145 185 191 147 187 193 149 186 192 148 184 190 146
187 192 151 192 197 156 191 197 159 191 197 159 191 197 159
191 197 159 191 197 159 191 197 159 191 197 159 191 197 159
191 197 159 191 197 159 191 197 159 191 197 159 191 197 159
191 197 159 191 197 159 191 197 159 191 197 159 191 197 159
191 197 159 191 197 159 191 197 159 191 197 159 191 197 159
191 197 159 191 197 159 191 197 159 191 197 159 191 197 159
191 197 159 191 197 159 191 197 159 191 197 159 191 197 159
191 197 159 191 197 159 191 197 159 191 197 159 191 197 159
191 197 159 191 197 159 191 197 159 191 197 159 191 197 159
191 197 159 191 197 159 191 197 159 191 197 159 191 197 159
191 197 159 191 197 159 191 197 159 191 197 159 191 197 159
191 197 159 191 197 159 191 197 159 191 197 159 192 198 160
192 198 160 192 198 160 190 196 158 189 195 157 189 195 157
189 195 157 189 195 157 188 194 156 188 194 156 190 196 158
192 198 160 192 198 160 190 196 158 188 194 156 189 195 157
189 195 157 189 195 157 189 195 157 189 195 157 189 195 157
189 195 157 189 195 157 189 195 157 189 195 157 189 195 157
188 196 159 189 197 160 189 196 162 189 196 162 189 196 163
189 196 162 189 196 162 189 196 162 189 196 162 189 196 162
189 196 162 189 196 162 189 196 162 189 196 162 189 196 162
189 196 162 189 196 162 189 196 162 189 196 162 189 196 162
189 196 162 189 196 162 189 196 162 189 196 162 189 196 162
189 196 162 189 196 162 189 196 162 189 196 162 189 196 162
189 196 162 190 197 163 189 196 162 188 196 159 187 193 157
186 192 156 186 192 156 186 192 156 186 192 156 186 192 156
186 192 156 186 192 156 186 192 156 186 192 156 186 192 156
186 192 156 186 192 156 186 192 156 186 192 156 186 192 156
186 192 156 186 192 156 186 192 156 186 192 156 186 192 156
186 192 156 186 192 156 186 192 156 186 192 156 186 192 156
186 192 156 186 192 156 185 191 155 185 191 155 186 192 154
184 188 151 183 185 146 184 182 144 186 182 145 183 183 145
183 183 145 183 183 145 183 183 145 183 183 145 183 183 145
183 183 145 183 183 145 183 183 145 183 183 145 183 183 145
183 183 145 183 183 145 183 183 145 183 183 145 183 183 145
183 183 145 183 183 145 183 183 145 183 183 145 183 183 145
183 183 145 183 183 145 183 183 145 175 169 117 175 169 117
175 169 117 175 169 117 175 169 117 175 169 117 175 169 117
175 169 117 175 169 117 175 169 117 175 169 117 175 169 117
175 169 117 175 169 117 175 169 117 175 169 117 173 172 118
173 170 117 174 168 116 176 169 117 175 169 119 175 171 123
177 179 130 181 184 137 181 183 134 181 183 134 180 182 133
180 182 133 181 183 134 182 184 135 182 184 135 182 184 135
181 183 134 181 183 134 181 183 134 181 183 134 181 183 134
181 183 134 181 183 134 181 183 134 181 183 134 181 183 134
181 183 134 181 183 134 181 183 134 181 183 134 181 183 134
181 183 134 180 182 132 182 184 135 186 188 141 189 192 149
190 192 152 185 190 149 185 191 147 185 192 148 186 192 148
186 192 148 186 192 148 186 192 148 186 192 148 186 192 148
186 192 148 186 192 148 186 192 148 186 192 148 186 192 148
186 192 148 186 192 148 186 192 148 186 192 148 186 192 148
187 193 147 185 191 145 185 191 147 187 193 149 186 192 148
184 190 146 187 192 151 192 197 156 191 197 159 191 197 159
191 197 159 191 197 159 191 197 159 191 197 159 191 197 159
191 197 159 191 197 159 191 197 159 191 197 159 191 197 159
191 197 159 191 197 159 191 197 159 191 197 159 191 197 159
191 197 159 191 197 159 191 197 159 191 197 159 191 197 159
191 197 159 191 197 159 191 197 159 191 197 159 191 197 159
191 197 159 191 197 159 191 197 159 191 197 159 191 197 159
191 197 159 191 197 159 191 197 159 191 197 159 191 197 159
191 197 159 191 197 159 191 197 159 191 197 159 191 197 159
191 197 159 191 197 159 191 197 159 191 197 159 191 197 159
191 197 159 191 197 159 191 197 159 191 197 159 191 197 159
191 197 159 191 197 159 191 197 159 191 197 159 191 197 159
193 199 161 194 200 162 193 199 161 192 198 160 190 196 158
190 196 158 190 196 158 190 196 158 189 195 157 189 195 157
191 197 159 193 199 161 193 199 161 190 196 158 188 194 156
189 195 157 189 195 157 189 195 157 189 195 157 189 195 157
189 195 157 189 195 157 189 195 157 189 195 157 189 195 157
189 195 157 188 196 159 189 197 160 189 196 162 189 196 162
189 196 163 189 196 162 189 196 162 189 196 162 189 196 162
189 196 162 189 196 162 189 196 162 189 196 162 189 196 162
189 196 162 189 196 162 189 196 162 189 196 162 189 196 162
189 196 162 189 196 162 189 196 162 189 196 162 189 196 162
189 196 162 189 196 162 189 196 162 189 196 162 189 196 162
189 196 162 189 196 162 190 197 163 190 197 163 188 196 159
187 193 157 186 192 156 186 192 156 186 192 156 186 192 156
186 192 156 186 192 156 186 192 156 186 192 156 186 192 156
186 192 156 186 192 156 186 192 156 186 192 156 186 192 156
186 192 156 186 192 156 186 192 156 186 192 156 186 192 156
186 192 156 186 192 156 186 192 156 186 192 156 186 192 156
186 192 156 186 192 156 187 191 156 185 191 155 186 192 156
187 193 155 187 191 154 184 186 147 184 182 144 185 181 144
183 183 145 183 183 145 183 183 145 183 183 145 183 183 145
183 183 145 183 183 145 183 183 145 183 183 145 183 183 145
183 183 145 183 183 145 183 183 145 183 183 145 183 183 145
183 183 145 183 183 145 183 183 145 183 183 145 183 183 145
183 183 145 183 183 145 183 183 145 183 183 145 175 169 117
175 169 117 175 169 117 175 169 117 175 169 117 175 169 117
175 169 117 175 169 117 174 171 118 175 169 117 174 168 116
175 169 117 176 169 117 176 169 117 176 169 117 175 168 116
178 168 117 177 169 120 173 167 117 171 167 119 177 175 126
181 180 132 179 181 132 181 183 134 181 183 134 181 183 134
181 183 134 181 183 134 181 183 134 181 183 134 181 183 134
181 183 134 181 183 134 181 183 134 181 183 134 181 183 134
181 183 134 181 183 134 181 183 134 181 183 134 181 183 134
181 183 134 181 183 134 181 183 134 181 183 134 181 183 134
181 183 134 181 183 134 179 181 131 184 186 137 188 191 144
187 193 147 186 192 148 185 192 148 185 192 148 184 193 148
186 192 148 186 192 148 186 192 148 186 192 148 186 192 148
186 192 148 186 192 148 186 192 148 186 192 148 186 192 148
186 192 148 186 192 148 186 192 148 186 192 148 186 192 148
186 192 148 186 191 150 188 194 150 188 194 150 185 191 147
183 188 147 185 192 151 190 196 158 192 198 160 191 197 159
191 197 159 191 197 159 191 197 159 191 197 159 191 197 159
191 197 159 191 197 159 191 197 159 191 197 159 191 197 159
191 197 159 191 197 159 191 197 159 191 197 159 191 197 159
191 197 159 191 197 159 191 197 159 191 197 159 191 197 159
191 197 159 191 197 159 191 197 159 191 197 159 191 197 159
191 197 159 191 197 159 191 197 159 191 197 159 191 197 159
191 197 159 191 197 159 191 197 159 191 197 159 191 197 159
191 197 159 191 197 159 191 197 159 191 197 159 191 197 159
191 197 159 191 197 159 191 197 159 191 197 159 191 197 159
191 197 159 191 197 159 191 197 159 191 197 159 191 197 159
190 196 158 189 197 158 190 198 159 190 198 159 190 198 159
194 201 168 194 201 168 194 201 168 194 201 168 194 201 168
194 201 168 194 201 168 194 201 168 194 201 168 194 201 168
194 201 168 194 201 168 194 201 168 194 201 168 194 201 168
194 201 168 194 201 168 194 201 168 194 201 168 194 201 168
194 201 168 194 201 168 194 201 168 194 201 168 194 201 168
194 201 168 193 200 167 191 198 165 189 196 162 188 195 161
188 195 161 189 196 162 189 196 162 189 196 162 189 196 162
189 196 162 189 196 162 189 196 162 189 196 162 189 196 162
189 196 162 189 196 162 189 196 162 189 196 162 189 196 162
189 196 162 189 196 162 189 196 162 189 196 162 189 196 162
189 196 162 189 196 162 189 196 162 189 196 162 189 196 162
189 196 162 190 197 164 188 195 161 189 196 162 190 197 163
189 196 162 187 193 157 186 192 156 187 193 157 186 192 156
186 192 156 186 192 156 186 192 156 186 192 156 186 192 156
186 192 156 186 192 156 186 192 156 186 192 156 186 192 156
186 192 156 186 192 156 186 192 156 186 192 156 186 192 156
186 192 156 186 192 156 186 192 156 186 192 156 186 192 156
186 192 156 186 192 156 186 192 156 187 193 159 186 192 158
185 193 156 185 193 156 186 192 156 185 189 152 184 184 148
183 180 145 186 184 146 186 184 146 185 183 145 185 183 145
184 182 144 184 182 144 185 183 145 185 183 145 183 183 145
183 183 145 184 184 146 184 184 146 183 183 145 183 183 145
182 182 144 182 182 144 183 183 145 183 183 145 184 184 146
184 184 146 184 184 146 183 183 145 183 183 145 182 182 144
175 169 117 175 169 117 175 169 117 175 169 117 175 169 117
175 169 117 175 169 117 175 169 117 174 168 116 174 168 116
174 168 116 174 168 116 175 168 116 176 169 117 176 169 117
175 168 116 177 170 118 178 170 121 174 168 118 174 171 120
181 179 130 186 185 137 183 185 136 182 184 135 181 183 134
181 183 134 181 183 134 181 183 134 181 183 134 181 183 134
181 183 134 181 183 134 181 183 134 181 183 134 181 183 134
181 183 134 181 183 134 181 183 134 181 183 134 181 183 134
181 183 134 181 183 134 181 183 134 181 183 134 181 183 134
181 183 134 181 183 134 181 183 134 179 181 132 183 187 137
188 191 146 187 193 149 186 192 148 185 192 148 185 192 148
185 192 148 186 192 148 186 192 148 186 192 148 186 192 148
186 192 148 186 192 148 186 192 148 186 192 148 186 192 148
186 192 148 186 192 148 186 192 148 186 192 148 186 192 148
186 192 148 186 192 148 186 191 150 187 193 149 187 193 149
185 191 147 186 191 150 188 195 154 191 197 159 191 197 159
191 197 159 191 197 159 191 197 159 191 197 159 191 197 159
191 197 159 191 197 159 191 197 159 191 197 159 191 197 159
191 197 159 191 197 159 191 197 159 191 197 159 191 197 159
191 197 159 191 197 159 191 197 159 191 197 159 191 197 159
191 197 159 191 197 159 191 197 159 191 197 159 191 197 159
191 197 159 191 197 159 191 197 159 191 197 159 191 197 159
191 197 159 191 197 159 191 197 159 191 197 159 191 197 159
191 197 159 191 197 159 191 197 159 191 197 159 191 197 159
191 197 159 191 197 159 191 197 159 191 197 159 191 197 159
191 197 159 191 197 159 191 197 159 191 197 159 191 197 159
191 197 159 190 196 158 189 197 158 190 198 159 190 198 161
191 199 162 194 201 168 194 201 168 194 201 168 194 201 168
194 201 168 194 201 168 194 201 168 194 201 168 194 201 168
194 201 168 194 201 168 194 201 168 194 201 168 194 201 168
194 201 168 194 201 168 194 201 168 194 201 168 194 201 168
194 201 168 194 201 168 194 201 168 194 201 168 194 201 168
194 201 168 194 201 168 194 201 168 192 199 166 189 196 162
188 195 161 188 195 161 189 196 162 189 196 162 189 196 162
189 196 162 189 196 162 189 196 162 189 196 162 189 196 162
189 196 162 189 196 162 189 196 162 189 196 162 189 196 162
189 196 162 189 196 162 189 196 162 189 196 162 189 196 162
189 196 162 189 196 162 189 196 162 189 196 162 189 196 162
189 196 162 189 196 162 189 196 163 189 196 162 189 196 162
190 197 163 189 196 162 187 193 157 186 192 156 187 193 157
186 192 156 186 192 156 186 192 156 186 192 156 186 192 156
186 192 156 186 192 156 186 192 156 186 192 156 186 192 156
186 192 156 186 192 156 186 192 156 186 192 156 186 192 156
186 192 156 186 192 156 186 192 156 186 192 156 186 192 156
186 192 156 186 192 156 186 192 156 186 192 156 186 192 158
186 192 156 184 192 155 185 193 156 187 193 157 186 190 153
185 187 150 183 183 147 181 181 143 182 182 144 183 183 145
184 184 146 184 184 146 184 184 146 183 183 145 183 183 145
181 181 143 182 182 144 182 182 144 183 183 145 183 183 145
183 183 145 183 183 145 183 183 145 182 182 144 182 182 144
182 182 144 182 182 144 182 182 144 183 183 145 183 183 145
183 183 145 175 169 117 175 169 117 175 169 117 175 169 117
175 169 117 175 169 117 175 169 117 175 169 117 174 168 116
175 169 117 176 170 118 176 170 118 175 169 117 175 169 117
177 170 118 178 171 119 175 168 116 176 169 117 173 167 117
174 171 120 183 181 132 186 186 136 182 184 135 181 183 134
181 183 134 181 183 134 181 183 134 181 183 134 181 183 134
181 183 134 181 183 134 181 183 134 181 183 134 181 183 134
181 183 134 181 183 134 181 183 134 181 183 134 181 183 134
181 183 134 181 183 134 181 183 134 181 183 134 181 183 134
181 183 134 181 183 134 181 183 134 181 183 134 180 184 134
184 187 140 188 191 146 186 192 148 186 192 148 185 192 148
185 192 148 185 192 148 186 192 148 186 192 148 186 192 148
186 192 148 186 192 148 186 192 148 186 192 148 186 192 148
186 192 148 186 192 148 186 192 148 186 192 148 186 192 148
186 192 148 186 192 148 186 192 148 186 191 150 186 192 148
186 192 148 186 192 148 188 193 152 191 198 157 192 198 160
190 196 158 191 197 159 191 197 159 191 197 159 191 197 159
191 197 159 191 197 159 191 197 159 191 197 159 191 197 159
191 197 159 191 197 159 191 197 159 191 197 159 191 197 159
191 197 159 191 197 159 191 197 159 191 197 159 191 197 159
191 197 159 191 197 159 191 197 159 191 197 159 191 197 159
191 197 159 191 197 159 191 197 159 191 197 159 191 197 159
191 197 159 191 197 159 191 197 159 191 197 159 191 197 159
191 197 159 191 197 159 191 197 159 191 197 159 191 197 159
191 197 159 191 197 159 191 197 159 191 197 159 191 197 159
191 197 159 191 197 159 191 197 159 191 197 159 192 198 160
191 197 159 191 197 159 190 196 158 189 197 160 190 198 161
191 199 162 192 200 163 194 201 168 194 201 168 194 201 168
194 201 168 194 201 168 194 201 168 194 201 168 194 201 168
194 201 168 194 201 168 194 201 168 194 201 168 194 201 168
194 201 168 194 201 168 194 201 168 194 201 168 194 201 168
194 201 168 194 201 168 194 201 168 194 201 168 194 201 168
194 201 168 194 201 168 194 201 168 194 201 168 193 200 167
191 198 164 189 196 162 188 195 161 188 195 161 189 196 162
189 196 162 189 196 162 189 196 162 189 196 162 189 196 162
189 196 162 189 196 162 189 196 162 189 196 162 189 196 162
189 196 162 189 196 162 189 196 162 189 196 162 189 196 162
189 196 162 189 196 162 189 196 162 189 196 162 189 196 162
189 196 162 189 196 162 189 196 162 189 196 163 189 196 162
189 196 162 190 197 163 189 196 162 188 194 158 186 192 156
187 193 157 186 192 156 186 192 156 186 192 156 186 192 156
186 192 156 186 192 156 186 192 156 186 192 156 186 192 156
186 192 156 186 192 156 186 192 156 186 192 156 186 192 156
186 192 156 186 192 156 186 192 156 186 192 156 186 192 156
186 192 156 186 192 156 186 192 156 186 192 156 186 192 156
186 192 156 186 192 156 185 191 155 186 192 156 187 193 157
188 192 155 188 190 153 187 187 151 184 184 146 184 184 146
184 184 146 183 183 145 183 183 145 183 183 145 183 183 145
182 182 144 183 183 145 183 183 145 183 183 145 183 183 145
183 183 145 183 183 145 183 183 145 183 183 145 183 183 145
183 183 145 183 183 145 182 182 144 182 182 144 183 183 145
183 183 145 183 183 145 175 169 117 175 169 117 175 169 117
175 169 117 175 169 117 175 169 117 175 169 117 175 169 117
175 169 117 176 170 118 176 170 118 176 170 118 175 169 117
175 169 117 175 169 117 176 170 118 174 168 116 177 171 119
174 171 118 175 173 122 182 180 131 184 184 134 180 182 132
179 181 132 181 183 134 181 183 134 181 183 134 181 183 134
181 183 134 181 183 134 181 183 134 181 183 134 181 183 134
181 183 134 181 183 134 181 183 134 181 183 134 181 183 134
181 183 134 181 183 134 181 183 134 181 183 134 181 183 134
181 183 134 181 183 134 181 183 134 181 183 134 181 183 134
182 185 138 185 188 141 188 191 146 186 192 148 186 192 148
186 192 148 186 193 149 185 192 148 186 192 148 186 192 148
186 192 148 186 192 148 186 192 148 186 192 148 186 192 148
186 192 148 186 192 148 186 192 148 186 192 148 186 192 148
186 192 148 186 192 148 186 192 148 186 192 148 186 191 150
186 192 148 186 192 148 186 192 148 188 193 152 190 197 156
192 198 160 191 197 159 191 197 159 191 197 159 191 197 159
191 197 159 191 197 159 191 197 159 191 197 159 191 197 159
191 197 159 191 197 159 191 197 159 191 197 159 191 197 159
191 197 159 191 197 159 191 197 159 191 197 159 191 197 159
191 197 159 191 197 159 191 197 159 191 197 159 191 197 159
191 197 159 191 197 159 191 197 159 191 197 159 191 197 159
191 197 159 191 197 159 191 197 159 191 197 159 191 197 159
191 197 159 191 197 159 191 197 159 191 197 159 191 197 159
191 197 159 191 197 159 191 197 159 191 197 159 191 197 159
191 197 159 191 197 159 191 197 159 191 197 159 191 197 159
192 199 158 191 197 159 191 197 159 191 197 159 190 198 161
191 199 162 192 199 165 193 200 166 194 201 168 194 201 168
194 201 168 194 201 168 194 201 168 194 201 168 194 201 168
194 201 168 194 201 168 194 201 168 194 201 168 194 201 168
194 201 168 194 201 168 194 201 168 194 201 168 194 201 168
194 201 168 194 201 168 194 201 168 194 201 168 194 201 168
194 201 168 194 201 168 194 201 168 195 202 169 194 201 168
194 201 168 192 199 165 190 197 163 189 196 162 188 195 161
189 196 162 189 196 162 189 196 162 189 196 162 189 196 162
189 196 162 189 196 162 189 196 162 189 196 162 189 196 162
189 196 162 189 196 162 189 196 162 189 196 162 189 196 162
189 196 162 189 196 162 189 196 162 189 196 162 189 196 162
189 196 162 189 196 162 189 196 162 189 196 162 189 196 163
189 196 162 189 196 162 189 196 162 189 196 162 189 195 159
187 193 157 186 192 156 186 192 156 186 192 156 186 192 156
186 192 156 186 192 156 186 192 156 186 192 156 186 192 156
186 192 156 186 192 156 186 192 156 186 192 156 186 192 156
186 192 156 186 192 156 186 192 156 186 192 156 186 192 156
186 192 156 186 192 156 186 192 156 186 192 156 186 192 156
186 192 156 186 192 156 185 191 155 186 192 156 186 192 156
189 193 158 189 193 158 190 191 157 189 190 156 192 192 156
190 190 154 186 186 150 182 182 146 180 180 144 180 180 144
181 181 145 183 183 147 185 183 144 185 183 144 185 183 144
185 183 144 185 183 144 185 183 144 185 183 144 185 183 144
185 185 147 184 184 146 184 184 146 184 184 146 183 183 145
183 183 145 183 183 145 183 183 145 175 169 117 175 169 117
175 169 117 175 169 117 175 169 117 175 169 117 175 169 117
175 169 117 174 168 116 175 169 117 175 169 117 174 168 116
174 168 116 173 167 115 171 168 115 172 169 116 178 172 120
181 178 125 182 179 126 181 179 128 183 183 131 184 184 134
180 182 132 181 183 133 181 183 134 181 183 134 181 183 134
181 183 134 181 183 134 181 183 134 181 183 134 181 183 134
181 183 134 181 183 134 181 183 134 181 183 134 181 183 134
181 183 134 181 183 134 181 183 134 181 183 134 181 183 134
181 183 134 181 183 134 181 183 134 181 183 134 181 183 134
181 183 134 184 187 140 187 190 145 187 193 149 186 192 148
186 191 150 186 192 148 187 193 149 186 192 146 186 192 148
186 192 148 186 192 148 186 192 148 186 192 148 186 192 148
186 192 148 186 192 148 186 192 148 186 192 148 186 192 148
186 192 148 186 192 148 186 192 148 186 192 148 186 192 148
186 191 150 187 193 149 187 193 149 186 192 148 186 191 150
188 195 154 191 197 159 191 197 159 191 197 159 191 197 159
191 197 159 191 197 159 191 197 159 191 197 159 191 197 159
191 197 159 191 197 159 191 197 159 191 197 159 191 197 159
191 197 159 191 197 159 191 197 159 191 197 159 191 197 159
191 197 159 191 197 159 191 197 159 191 197 159 191 197 159
191 197 159 191 197 159 191 197 159 191 197 159 191 197 159
191 197 159 191 197 159 191 197 159 191 197 159 191 197 159
191 197 159 191 197 159 191 197 159 191 197 159 191 197 159
191 197 159 191 197 159 191 197 159 191 197 159 191 197 159
191 197 159 191 197 159 191 197 159 191 197 159 191 197 159
191 197 159 192 199 158 191 197 159 191 197 159 191 197 161
191 199 162 192 199 165 193 200 166 194 201 167 194 201 168
194 201 168 194 201 168 194 201 168 194 201 168 194 201 168
194 201 168 194 201 168 194 201 168 194 201 168 194 201 168
194 201 168 194 201 168 194 201 168 194 201 168 194 201 168
194 201 168 194 201 168 194 201 168 194 201 168 194 201 168
194 201 168 194 201 168 194 201 168 194 201 168 194 201 168
194 201 168 194 201 168 193 200 166 192 199 165 190 197 163
188 195 161 189 196 162 189 196 162 189 196 162 189 196 162
189 196 162 189 196 162 189 196 162 189 196 162 189 196 162
189 196 162 189 196 162 189 196 162 189 196 162 189 196 162
189 196 162 189 196 162 189 196 162 189 196 162 189 196 162
189 196 162 189 196 162 189 196 162 189 196 162 189 196 162
189 196 163 189 196 162 189 196 162 189 196 162 189 196 162
190 196 160 188 194 158 186 192 156 186 192 156 186 192 156
186 192 156 186 192 156 186 192 156 186 192 156 186 192 156
186 192 156 186 192 156 186 192 156 186 192 156 186 192 156
186 192 156 186 192 156 186 192 156 186 192 156 186 192 156
186 192 156 186 192 156 186 192 156 186 192 156 186 192 156
186 192 156 186 192 156 186 192 156 186 192 156 187 191 156
188 192 157 189 193 158 190 194 159 190 194 159 190 194 159
195 197 160 192 194 157 188 190 153 185 187 150 183 185 148
183 185 148 184 186 149 185 187 150 181 181 143 181 181 143
182 182 144 182 182 144 183 183 145 184 184 146 184 184 146
185 185 147 183 183 145 183 183 145 184 184 146 184 184 146
184 184 146 183 183 145 183 183 145 182 182 144 175 169 117
175 169 117 175 169 117 175 169 117 175 169 117 175 169 117
175 169 117 175 169 117 175 169 117 175 169 117 175 169 117
173 170 117 174 171 118 175 172 119 175 172 119 174 171 118
180 177 122 186 183 130 185 184 130 183 182 128 183 183 131
183 183 133 180 182 132 182 184 134 181 183 134 181 183 134
181 183 134 181 183 134 181 183 134 181 183 134 181 183 134
181 183 134 181 183 134 181 183 134 181 183 134 181 183 134
181 183 134 181 183 134 181 183 134 181 183 134 181 183 134
181 183 134 181 183 134 181 183 134 181 183 134 181 183 134
181 183 134 181 183 134 184 190 144 186 192 148 187 193 149
186 191 150 186 191 150 187 193 149 187 193 149 186 192 146
186 192 148 186 192 148 186 192 148 186 192 148 186 192 148
186 192 148 186 192 148 186 192 148 186 192 148 186 192 148
186 192 148 186 192 148 186 192 148 186 192 148 186 192 148
186 192 148 186 191 150 187 193 149 187 193 149 185 191 147
185 190 149 187 194 153 190 196 158 192 198 160 191 197 159
191 197 159 191 197 159 191 197 159 191 197 159 191 197 159
191 197 159 191 197 159 191 197 159 191 197 159 191 197 159
191 197 159 191 197 159 191 197 159 191 197 159 191 197 159
191 197 159 191 197 159 191 197 159 191 197 159 191 197 159
191 197 159 191 197 159 191 197 159 191 197 159 191 197 159
191 197 159 191 197 159 191 197 159 191 197 159 191 197 159
191 197 159 191 197 159 191 197 159 191 197 159 191 197 159
191 197 159 191 197 159 191 197 159 191 197 159 191 197 159
191 197 159 191 197 159 191 197 159 191 197 159 191 197 159
191 197 159 191 197 159 191 198 157 191 197 159 192 198 160
192 198 162 192 199 165 193 200 166 194 201 168 194 201 168
194 201 168 194 201 168 194 201 168 194 201 168 194 201 168
194 201 168 194 201 168 194 201 168 194 201 168 194 201 168
194 201 168 194 201 168 194 201 168 194 201 168 194 201 168
194 201 168 194 201 168 194 201 168 194 201 168 194 201 168
194 201 168 194 201 168 194 201 168 194 201 168 194 201 168
194 201 168 194 201 168 194 201 168 194 201 167 193 200 166
191 198 164 190 197 163 189 196 162 189 196 162 189 196 162
189 196 162 189 196 162 189 196 162 189 196 162 189 196 162
189 196 162 189 196 162 189 196 162 189 196 162 189 196 162
189 196 162 189 196 162 189 196 162 189 196 162 189 196 162
189 196 162 189 196 162 189 196 162 189 196 162 189 196 162
189 196 162 189 196 163 189 196 162 189 196 162 188 195 161
189 196 162 190 196 160 188 194 158 185 191 155 186 192 156
186 192 156 186 192 156 186 192 156 186 192 156 186 192 156
186 192 156 186 192 156 186 192 156 186 192 156 186 192 156
186 192 156 186 192 156 186 192 156 186 192 156 186 192 156
186 192 156 186 192 156 186 192 156 186 192 156 186 192 156
186 192 156 186 192 156 186 192 156 186 192 154 186 192 154
188 192 155 189 193 158 190 194 159 190 194 159 190 194 159
189 195 159 190 194 159 190 194 159 189 193 158 189 193 158
189 193 158 188 192 157 188 192 157 188 192 157 185 185 147
185 185 147 185 185 147 185 185 147 184 184 146 183 183 145
182 182 144 181 181 143 182 182 144 182 182 144 182 182 144
183 183 145 183 183 145 183 183 145 183 183 145 183 183 145
175 169 117 175 169 117 175 169 117 175 169 117 175 169 117
175 169 117 175 169 117 175 169 117 176 170 118 175 169 117
175 169 117 176 173 120 180 177 124 182 179 126 181 180 126
180 179 125 182 179 124 185 184 128 184 183 129 182 181 127
182 182 130 182 182 130 179 181 131 181 183 133 181 183 134
181 183 134 181 183 134 181 183 134 181 183 134 181 183 134
181 183 134 181 183 134 181 183 134 181 183 134 181 183 134
181 183 134 181 183 134 181 183 134 181 183 134 181 183 134
181 183 134 181 183 134 181 183 134 181 183 134 181 183 134
181 183 134 181 183 134 181 183 134 185 191 147 187 193 149
187 192 151 186 191 150 186 191 150 187 193 149 187 193 149
186 192 146 186 192 148 186 192 148 186 192 148 186 192 148
186 192 148 186 192 148 186 192 148 186 192 148 186 192 148
186 192 148 186 192 148 186 192 148 186 192 148 186 192 148
186 192 148 186 192 148 186 191 150 186 192 148 186 192 148
186 192 148 188 193 152 190 197 156 191 197 159 191 197 159
191 197 159 191 197 159 191 197 159 191 197 159 191 197 159
191 197 159 191 197 159 191 197 159 191 197 159 191 197 159
191 197 159 191 197 159 191 197 159 191 197 159 191 197 159
191 197 159 191 197 159 191 197 159 191 197 159 191 197 159
191 197 159 191 197 159 191 197 159 191 197 159 191 197 159
191 197 159 191 197 159 191 197 159 191 197 159 191 197 159
191 197 159 191 197 159 191 197 159 191 197 159 191 197 159
191 197 159 191 197 159 191 197 159 191 197 159 191 197 159
191 197 159 191 197 159 191 197 159 191 197 159 191 197 159
191 197 159 191 197 159 191 197 159 190 197 156 191 198 157
192 198 160 193 199 163 193 200 166 194 201 168 194 201 168
194 201 170 194 201 168 194 201 168 194 201 168 194 201 168
194 201 168 194 201 168 194 201 168 194 201 168 194 201 168
194 201 168 194 201 168 194 201 168 194 201 168 194 201 168
194 201 168 194 201 168 194 201 168 194 201 168 194 201 168
194 201 168 194 201 168 194 201 168 194 201 168 194 201 168
194 201 168 194 201 168 193 200 167 194 201 168 194 201 167
194 201 167 193 200 166 191 198 164 189 196 162 189 196 162
189 196 162 189 196 162 189 196 162 189 196 162 189 196 162
189 196 162 189 196 162 189 196 162 189 196 162 189 196 162
189 196 162 189 196 162 189 196 162 189 196 162 189 196 162
189 196 162 189 196 162 189 196 162 189 196 162 189 196 162
189 196 162 189 196 162 189 196 163 190 197 163 189 196 162
188 195 161 189 196 162 191 197 161 189 195 159 185 191 155
186 192 156 186 192 156 186 192 156 186 192 156 186 192 156
186 192 156 186 192 156 186 192 156 186 192 156 186 192 156
186 192 156 186 192 156 186 192 156 186 192 156 186 192 156
186 192 156 186 192 156 186 192 156 186 192 156 186 192 156
186 192 156 186 192 156 186 192 156 186 192 156 186 192 154
187 193 155 189 193 156 192 193 159 192 193 159 190 194 159
189 195 159 189 195 161 189 193 158 190 194 159 191 195 160
191 195 160 192 196 161 192 196 161 191 195 160 190 194 159
191 193 156 191 193 156 191 193 156 190 192 155 187 189 152
184 186 149 182 184 147 180 182 145 185 185 147 185 185 147
184 184 146 183 183 145 182 182 144 183 183 145 183 183 145
184 184 146 175 169 117 175 169 117 175 169 117 175 169 117
175 169 117 175 169 117 175 169 117 175 169 117 175 169 117
173 167 115 173 167 115 175 172 119 182 179 126 186 183 130
185 184 130 183 182 128 183 182 126 185 184 128 183 182 128
180 180 126 183 183 131 184 184 132 180 182 132 181 183 133
181 183 134 181 183 134 181 183 134 181 183 134 181 183 134
181 183 134 181 183 134 181 183 134 181 183 134 181 183 134
181 183 134 181 183 134 181 183 134 181 183 134 181 183 134
181 183 134 181 183 134 181 183 134 181 183 134 181 183 134
181 183 134 181 183 134 181 183 134 181 183 134 186 192 148
187 193 149 187 192 151 186 191 150 186 191 150 187 192 151
187 193 149 186 192 146 186 192 148 186 192 148 186 192 148
186 192 148 186 192 148 186 192 148 186 192 148 186 192 148
186 192 148 186 192 148 186 192 148 186 192 148 186 192 148
186 192 148 186 192 148 186 192 148 186 191 150 186 192 148
185 191 147 186 192 148 191 196 155 193 200 159 193 199 161
190 196 158 191 197 159 191 197 159 191 197 159 191 197 159
191 197 159 191 197 159 191 197 159 191 197 159 191 197 159
191 197 159 191 197 159 191 197 159 191 197 159 191 197 159
191 197 159 191 197 159 191 197 159 191 197 159 191 197 159
191 197 159 191 197 159 191 197 159 191 197 159 191 197 159
191 197 159 191 197 159 191 197 159 191 197 159 191 197 159
191 197 159 191 197 159 191 197 159 191 197 159 191 197 159
191 197 159 191 197 159 191 197 159 191 197 159 191 197 159
191 197 159 191 197 159 191 197 159 191 197 159 191 197 159
191 197 159 191 197 159 191 197 159 191 197 159 190 197 156
191 198 157 192 198 160 194 200 164 194 201 167 195 202 169
194 201 168 194 201 170 194 201 168 194 201 168 194 201 168
194 201 168 194 201 168 194 201 168 194 201 168 194 201 168
194 201 168 194 201 168 194 201 168 194 201 168 194 201 168
194 201 168 194 201 168 194 201 168 194 201 168 194 201 168
194 201 168 194 201 168 194 201 168 194 201 168 194 201 168
194 201 168 194 201 168 194 201 168 193 200 167 194 201 168
194 201 167 195 202 168 193 200 166 192 199 165 189 196 162
189 196 162 189 196 162 189 196 162 189 196 162 189 196 162
189 196 162 189 196 162 189 196 162 189 196 162 189 196 162
189 196 162 189 196 162 189 196 162 189 196 162 189 196 162
189 196 162 189 196 162 189 196 162 189 196 162 189 196 162
189 196 162 189 196 162 189 196 162 189 196 163 190 197 163
189 196 162 188 195 161 189 196 162 192 198 162 189 195 159
185 191 155 186 192 156 186 192 156 186 192 156 186 192 156
186 192 156 186 192 156 186 192 156 186 192 156 186 192 156
186 192 156 186 192 156 186 192 156 186 192 156 186 192 156
186 192 156 186 192 156 186 192 156 186 192 156 186 192 156
186 192 156 186 192 156 186 192 156 186 192 156 186 192 156
186 192 154 187 193 155 189 193 156 192 193 159 192 193 159
190 194 159 189 195 161 188 195 161 191 195 160 191 195 160
190 194 159 190 194 159 189 193 158 189 193 158 190 194 159
190 194 159 190 194 159 191 195 160 192 196 161 192 196 161
191 195 160 189 193 158 187 191 156 185 189 154 192 192 154
190 190 152 187 187 149 184 184 146 182 182 144 182 182 144
183 183 145 184 184 146 174 167 115 175 168 116 177 170 118
177 170 118 176 169 117 175 168 116 176 169 117 177 170 118
181 180 126 176 175 121 175 174 120 180 179 125 184 183 129
183 182 128 182 181 127 183 182 128 183 182 128 183 182 128
183 182 128 183 182 128 183 182 128 183 182 128 183 182 128
183 182 128 185 185 133 181 183 133 179 181 132 178 182 132
180 183 136 182 184 135 183 182 134 182 182 132 180 182 133
180 182 133 180 182 133 181 183 134 182 184 135 182 184 135
181 183 134 180 182 133 180 183 136 180 183 136 181 184 137
180 183 136 179 182 135 180 183 136 184 187 140 187 190 143
185 191 147 186 192 148 186 192 148 186 192 148 185 191 147
185 191 145 185 191 145 186 192 146 185 191 145 185 191 145
185 191 145 186 192 146 186 192 146 186 192 146 186 192 146
186 192 146 186 192 148 186 192 148 186 192 148 186 192 148
186 192 148 187 193 149 187 193 149 187 193 149 183 190 148
185 192 150 187 194 152 190 197 156 191 197 159 192 198 160
191 197 161 191 197 161 191 197 159 191 197 159 191 197 159
191 197 159 191 197 159 191 197 159 191 197 159 191 197 159
191 197 159 191 197 159 191 197 159 191 197 159 191 197 159
191 197 159 191 197 159 191 197 159 191 197 159 191 197 159
191 197 159 191 197 159 191 197 159 191 197 159 191 197 159
191 197 159 191 197 161 191 197 161 191 197 161 192 198 160
192 198 160 191 198 157 191 198 157 191 198 157 191 198 157
191 198 157 190 197 156 190 197 156 191 198 157 191 198 157
191 198 157 190 197 156 191 197 159 191 197 159 191 197 159
191 197 159 191 197 159 191 197 159 191 197 159 191 197 159
190 197 164 191 198 165 193 200 167 194 201 168 195 202 169
195 202 169 195 202 169 195 202 169 194 201 168 194 201 168
194 201 168 194 201 168 194 201 168 194 201 168 194 201 168
194 201 168 194 201 168 194 201 168 194 201 168 194 201 168
194 201 168 194 201 168 194 201 168 194 201 168 194 201 168
194 201 168 194 201 168 194 201 168 194 201 168 194 201 168
194 201 168 194 201 168 194 201 168 194 201 168 194 201 168
194 201 168 194 201 168 194 201 168 194 201 168 194 201 168
186 196 162 187 197 163 187 197 163 188 198 164 188 198 164
187 197 163 187 197 163 186 196 162 190 197 163 189 196 162
188 195 161 188 195 161 188 195 161 189 196 162 190 197 163
190 197 163 187 197 163 187 197 163 188 198 164 188 198 164
188 198 164 187 197 163 186 196 162 185 195 161 185 195 160
186 196 161 187 197 162 187 197 162 190 197 164 191 198 165
192 199 166 193 200 169 193 200 169 193 200 169 193 200 169
193 200 169 193 200 169 193 200 169 193 200 169 193 200 169
184 191 158 185 192 159 186 193 160 188 195 162 190 197 164
191 198 165 193 200 167 194 201 168 187 193 157 187 193 159
188 194 160 187 193 159 186 192 158 186 190 155 187 191 156
190 194 157 190 194 159 190 194 159 190 194 159 190 194 159
190 194 159 190 194 159 190 194 159 190 194 159 190 194 159
190 194 159 190 194 159 190 194 159 190 194 159 190 194 159
190 194 159 190 194 159 190 194 159 190 194 159 190 194 159
190 194 159 190 194 159 190 194 159 190 194 159 190 194 159
190 194 159 190 194 159 190 194 159 190 194 159 190 194 159
190 194 159 190 194 159 190 194 159 173 167 115 174 168 116
174 168 116 173 167 115 173 167 115 175 169 117 179 173 121
182 176 124 185 184 130 180 179 125 179 178 124 183 182 128
185 184 130 183 182 128 182 181 127 183 182 128 183 182 128
183 182 128 183 182 128 183 182 128 183 182 128 183 182 128
183 182 128 183 182 128 183 183 131 181 183 133 181 183 134
180 184 134 180 183 136 181 183 134 182 184 135 184 184 134
182 184 135 182 184 135 182 184 135 181 183 134 181 183 134
181 183 134 181 183 134 181 183 134 181 184 137 182 185 138
182 185 138 182 185 138 181 184 137 182 185 138 185 188 141
187 190 143 185 191 147 186 192 148 186 192 148 186 192 148
186 192 148 186 192 148 186 192 148 186 192 146 187 193 149
187 193 149 186 192 148 186 192 148 186 192 148 186 192 148
185 191 147 185 191 147 188 194 150 187 193 149 187 193 149
186 192 148 185 191 147 184 190 146 184 190 146 183 189 145
187 194 152 188 195 153 189 196 154 191 198 157 191 197 159
191 197 159 191 197 161 191 197 161 191 197 159 191 197 159
191 197 159 191 197 159 191 197 159 191 197 159 191 197 159
191 197 159 191 197 159 191 197 159 191 197 159 191 197 159
191 197 159 191 197 159 191 197 159 191 197 159 191 197 159
191 197 159 191 197 159 191 197 159 191 197 159 191 197 159
191 197 159 191 197 159 191 197 161 191 197 161 191 197 159
191 197 159 191 197 159 191 197 159 191 198 157 190 197 156
191 197 159 191 197 159 191 197 159 191 197 159 191 197 159
192 198 160 191 197 159 191 197 159 192 198 160 192 198 160
192 198 160 192 198 160 192 198 160 192 198 160 192 198 160
192 198 160 192 199 166 192 199 166 193 200 167 194 201 168
195 202 169 194 201 168 194 201 168 193 200 167 194 201 168
194 201 168 194 201 168 194 201 168 194 201 168 194 201 168
194 201 168 194 201 168 194 201 168 194 201 168 194 201 168
194 201 168 194 201 168 194 201 168 194 201 168 194 201 168
194 201 168 194 201 168 194 201 168 194 201 168 194 201 168
194 201 168 194 201 168 194 201 168 194 201 168 194 201 168
194 201 168 194 201 168 194 201 168 194 201 168 194 201 168
194 201 168 191 200 169 191 200 169 192 201 170 193 202 171
193 202 171 192 201 170 191 200 169 191 200 169 191 198 165
190 197 164 190 197 164 190 197 164 191 198 165 192 199 166
193 200 167 194 201 168 191 200 169 192 201 170 192 201 170
193 202 171 192 201 170 192 201 170 191 200 169 190 199 168
188 198 163 189 199 164 189 199 165 189 199 165 191 198 165
191 198 167 192 199 168 193 200 169 193 200 169 193 200 169
193 200 169 193 200 169 193 200 169 193 200 169 193 200 169
193 200 169 191 198 165 192 199 166 192 199 166 193 200 167
193 200 167 194 201 168 194 201 168 195 202 169 192 198 164
192 198 164 192 197 165 191 196 164 189 194 162 189 193 160
189 193 158 190 194 159 190 194 159 190 194 159 190 194 159
190 194 159 190 194 159 190 194 159 190 194 159 190 194 159
190 194 159 190 194 159 190 194 159 190 194 159 190 194 159
190 194 159 190 194 159 190 194 159 190 194 159 190 194 159
190 194 159 190 194 159 190 194 159 190 194 159 190 194 159
190 194 159 190 194 159 190 194 159 190 194 159 190 194 159
190 194 159 190 194 159 190 194 159 190 194 159 175 172 119
175 172 119 174 171 118 174 171 118 174 171 118 177 174 121
181 178 125 185 182 129 186 185 131 183 182 128 182 181 127
184 183 129 185 184 130 182 181 127 182 181 127 183 182 128
183 182 128 183 182 128 183 182 128 183 182 128 183 182 128
183 182 128 183 182 128 183 182 128 181 181 129 181 183 133
183 185 135 181 185 135 180 183 136 180 182 133 181 183 134
184 183 135 181 183 134 181 183 134 181 183 134 180 182 133
179 181 132 179 181 132 181 183 134 182 184 135 186 189 142
187 190 143 187 190 143 187 190 143 186 189 142 186 189 142
188 191 144 190 193 146 186 192 146 186 192 148 186 192 148
186 192 148 186 192 148 186 192 148 186 192 148 186 192 148
187 193 149 186 192 148 186 192 148 185 191 147 185 191 147
186 192 148 186 192 148 186 192 148 185 191 147 186 192 148
186 192 148 187 193 149 187 193 149 187 193 149 187 193 149
187 193 149 191 198 156 191 198 156 191 198 157 191 198 157
191 197 159 191 197 159 191 197 159 190 196 160 191 197 159
191 197 159 191 197 159 191 197 159 191 197 159 191 197 159
191 197 159 191 197 159 191 197 159 191 197 159 191 197 159
191 197 159 191 197 159 191 197 159 191 197 159 191 197 159
191 197 159 191 197 159 191 197 159 191 197 159 191 197 159
191 197 159 191 197 159 191 197 159 191 197 161 191 197 159
191 197 159 191 197 159 191 197 159 191 197 159 190 196 158
190 197 156 191 197 159 191 197 159 190 196 158 190 196 158
191 197 159 191 197 159 191 197 159 190 196 158 191 197 159
191 197 159 191 197 159 191 197 159 191 197 159 191 197 159
191 197 159 191 197 159 193 200 167 194 201 168 194 201 168
194 201 168 194 201 168 194 201 168 193 200 167 192 199 166
194 201 168 194 201 168 194 201 168 194 201 168 194 201 168
194 201 168 194 201 168 194 201 168 194 201 168 194 201 168
194 201 168 194 201 168 194 201 168 194 201 168 194 201 168
194 201 168 194 201 168 194 201 168 194 201 168 194 201 168
194 201 168 194 201 168 194 201 168 194 201 168 194 201 168
194 201 168 194 201 168 194 201 168 194 201 168 194 201 168
194 201 168 194 201 168 192 201 170 193 202 171 193 202 171
194 203 172 194 203 172 193 202 171 193 202 171 192 201 170
193 200 169 193 200 169 193 200 169 193 200 169 194 201 170
194 201 170 195 202 171 196 203 172 193 202 171 193 202 171
194 203 172 194 203 172 194 203 172 193 202 171 192 201 170
192 201 170 191 201 167 192 201 170 192 201 170 191 200 169
192 199 168 192 199 168 193 199 171 193 199 171 193 200 169
193 200 169 193 200 169 193 200 169 193 200 169 193 200 169
193 200 169 193 200 169 194 201 168 194 201 168 194 201 168
194 201 168 194 201 168 194 201 168 193 200 167 193 200 167
194 201 168 194 201 168 194 199 169 194 199 169 193 198 168
192 197 165 192 196 163 190 194 159 190 194 159 190 194 159
190 194 159 190 194 159 190 194 159 190 194 159 190 194 159
190 194 159 190 194 159 190 194 159 190 194 159 190 194 159
190 194 159 190 194 159 190 194 159 190 194 159 190 194 159
190 194 159 190 194 159 190 194 159 190 194 159 190 194 159
190 194 159 190 194 159 190 194 159 190 194 159 190 194 159
190 194 159 190 194 159 190 194 159 190 194 159 190 194 159
180 179 125 181 180 126 181 180 126 181 180 126 181 180 126
182 181 127 183 182 128 184 183 129 183 182 128 182 181 127
182 181 127 184 183 129 183 182 128 182 181 127 182 181 127
184 183 129 183 182 128 183 182 128 183 182 128 183 182 128
183 182 128 183 182 128 183 182 128 183 182 128 181 181 129
182 182 130 181 183 133 180 184 134 179 182 135 178 181 134
180 182 133 180 182 133 180 182 133 181 183 134 183 185 136
182 184 135 181 183 134 181 183 134 184 186 137 186 188 139
189 192 145 189 192 145 190 193 146 189 192 145 189 192 145
189 192 145 189 192 145 190 193 146 188 191 146 188 191 146
186 192 146 186 192 148 186 192 148 186 192 148 186 192 148
185 191 147 185 191 147 185 191 147 185 191 147 185 191 147
186 192 148 188 194 150 189 195 151 190 196 152 186 191 150
187 192 151 189 194 153 190 195 154 192 197 156 193 198 157
193 198 157 193 198 157 193 200 158 193 200 159 192 199 158
192 199 158 191 198 157 191 197 159 191 197 159 191 197 159
191 197 159 191 197 159 191 197 159 191 197 159 191 197 159
191 197 159 191 197 159 191 197 159 191 197 159 191 197 159
191 197 159 191 197 159 191 197 159 191 197 159 191 197 159
191 197 159 191 197 159 191 197 159 191 197 159 191 197 159
191 197 159 191 197 159 191 197 159 191 197 159 191 197 159
191 197 159 191 197 159 191 197 159 190 196 158 191 197 159
191 197 159 191 197 159 191 197 159 190 196 158 190 196 158
190 196 158 191 197 159 191 197 159 191 197 159 190 196 158
192 198 162 192 198 162 192 198 162 192 198 162 192 198 162
192 198 162 192 198 162 192 198 162 194 201 168 194 201 168
194 201 168 194 201 168 194 201 168 194 201 168 193 200 167
193 200 167 194 201 168 194 201 168 194 201 168 194 201 168
194 201 168 194 201 168 194 201 168 194 201 168 194 201 168
194 201 168 194 201 168 194 201 168 194 201 168 194 201 168
194 201 168 194 201 168 194 201 168 194 201 168 194 201 168
194 201 168 194 201 168 194 201 168 194 201 168 194 201 168
194 201 168 194 201 168 194 201 168 194 201 168 194 201 168
194 201 168 194 201 168 194 201 168 192 201 172 192 201 172
193 202 173 193 202 173 193 202 173 193 202 173 192 201 172
192 201 172 194 203 174 194 203 174 193 202 173 193 202 173
193 202 173 193 202 173 193 202 173 194 203 174 193 202 173
193 202 173 193 202 173 193 202 173 193 202 173 193 202 173
192 201 172 192 201 172 193 202 173 193 202 173 193 202 173
192 201 172 193 199 171 193 199 171 193 199 171 194 200 172
193 200 169 193 200 169 193 200 169 193 200 169 193 200 169
193 200 169 193 200 169 193 200 169 193 200 169 193 200 169
193 200 169 193 200 169 193 200 169 193 200 169 193 200 169
193 200 169 193 200 169 193 200 169 192 199 168 193 197 170
195 200 170 195 200 170 193 198 166 189 195 161 190 194 159
190 194 159 190 194 159 190 194 159 190 194 159 190 194 159
190 194 159 190 194 159 190 194 159 190 194 159 190 194 159
190 194 159 190 194 159 190 194 159 190 194 159 190 194 159
190 194 159 190 194 159 190 194 159 190 194 159 190 194 159
190 194 159 190 194 159 190 194 159 190 194 159 190 194 159
190 194 159 190 194 159 190 194 159 190 194 159 190 194 159
190 194 159 183 182 128 184 183 129 185 184 130 185 184 130
185 184 130 184 183 129 183 182 128 182 181 127 182 181 127
182 181 127 183 182 128 183 182 128 183 182 128 182 181 127
182 181 127 184 183 129 183 182 128 183 182 128 183 182 128
183 182 128 183 182 128 183 182 128 183 182 128 183 182 128
183 182 128 182 182 130 179 181 131 179 183 133 181 184 137
182 185 138 183 185 138 182 184 135 184 186 139 186 188 141
188 190 143 189 191 144 187 189 142 187 189 142 188 190 143
190 192 145 187 190 143 188 191 144 188 191 144 188 191 144
188 191 144 187 190 143 187 190 143 188 191 144 189 192 147
188 191 146 187 190 145 185 191 145 186 192 148 186 192 148
185 192 148 184 191 147 186 193 151 186 193 151 186 193 151
187 194 152 188 195 153 190 197 155 192 199 157 193 200 158
191 198 156 192 199 157 193 200 158 193 200 158 193 200 158
192 199 157 192 199 157 191 198 156 193 200 159 192 199 158
192 199 158 191 198 157 191 198 157 191 197 159 191 197 159
191 197 159 191 197 159 191 197 159 191 197 159 191 197 159
191 197 159 191 197 159 191 197 159 191 197 159 191 197 159
191 197 159 191 197 159 191 197 159 191 197 159 191 197 159
191 197 159 191 197 159 191 197 159 191 197 159 191 197 159
191 197 159 191 197 159 191 197 159 191 197 159 191 197 159
191 197 159 191 197 159 191 197 159 191 197 159 191 197 159
191 197 159 191 197 159 192 198 160 193 199 163 192 198 162
192 198 162 192 198 162 193 199 163 193 199 163 192 198 162
192 198 162 196 202 166 196 202 166 196 202 166 196 202 166
196 202 166 196 202 166 196 202 166 196 202 166 194 201 168
194 201 168 194 201 168 194 201 168 194 201 168 194 201 168
194 201 168 194 201 168 194 201 168 194 201 168 194 201 168
194 201 168 194 201 168 194 201 168 194 201 168 194 201 168
194 201 168 194 201 168 194 201 168 194 201 168 194 201 168
194 201 168 194 201 168 194 201 168 194 201 168 194 201 168
194 201 168 194 201 168 194 201 168 194 201 168 194 201 168
194 201 168 194 201 168 194 201 168 194 201 168 194 201 168
194 201 168 194 201 168 194 201 168 194 201 168 193 202 173
194 203 174 194 203 174 194 203 174 194 203 174 194 203 174
194 203 174 193 202 173 194 203 176 194 203 176 193 202 175
193 202 175 193 202 175 193 202 175 193 202 175 193 202 175
194 203 174 194 203 174 194 203 174 194 203 174 194 203 174
194 203 174 193 202 173 193 202 173 193 202 173 193 202 173
193 202 173 192 201 172 193 199 171 193 199 171 193 199 171
194 200 172 193 200 169 193 200 169 193 200 169 193 200 169
193 200 169 193 200 169 193 200 169 193 200 169 193 200 169
193 200 169 193 200 169 193 200 169 193 200 169 194 201 170
194 201 170 194 201 170 192 199 168 192 199 168 192 198 170
192 198 170 195 199 172 196 201 171 193 198 166 189 195 161
190 194 159 190 194 159 190 194 159 190 194 159 190 194 159
190 194 159 190 194 159 190 194 159 190 194 159 190 194 159
190 194 159 190 194 159 190 194 159 190 194 159 190 194 159
190 194 159 190 194 159 190 194 159 190 194 159 190 194 159
190 194 159 190 194 159 190 194 159 190 194 159 190 194 159
190 194 159 190 194 159 190 194 159 190 194 159 190 194 159
190 194 159 190 194 159 184 183 129 183 182 128 183 182 128
182 181 127 182 181 127 182 181 127 182 181 127 183 182 128
183 182 128 184 183 129 184 183 129 184 183 129 183 182 128
182 181 127 183 182 128 183 182 128 183 182 128 183 182 128
183 182 128 183 182 128 183 182 128 183 182 128 183 182 128
183 182 128 183 182 128 182 182 130 180 182 132 182 186 136
185 188 141 187 190 143 187 190 143 187 189 142 187 190 143
188 191 144 190 193 146 190 193 146 189 192 145 188 191 144
188 191 144 188 191 144 188 191 144 188 191 144 188 191 144
188 191 144 188 191 144 188 191 144 188 191 144 187 190 143
189 192 145 188 191 146 187 190 145 186 192 146 188 194 150
187 194 150 187 194 152 186 193 151 191 198 157 191 198 157
191 198 157 191 198 157 191 198 157 192 199 158 193 200 159
194 201 160 193 200 159 193 200 159 193 200 159 193 200 159
193 200 159 192 199 158 191 198 157 191 198 157 192 199 158
192 199 158 192 199 158 191 198 157 191 198 157 191 198 157
191 198 157 191 198 157 191 197 159 191 197 159 191 197 159
191 197 159 191 197 159 191 197 159 191 197 159 191 197 159
191 197 159 191 197 159 191 197 159 191 197 159 191 197 159
191 197 159 191 197 159 191 197 159 191 197 159 191 197 159
191 197 159 191 197 159 191 197 159 191 197 159 191 197 159
191 197 159 191 198 157 191 197 159 191 197 159 191 197 159
191 197 159 192 198 160 193 199 161 193 199 163 195 202 168
194 201 167 194 201 167 194 201 167 195 202 168 195 202 168
194 201 167 194 201 167 196 203 169 196 203 169 196 203 169
196 203 169 196 203 169 196 203 169 196 203 169 196 203 169
193 200 167 194 201 168 194 201 168 194 201 168 194 201 168
194 201 168 194 201 168 194 201 168 194 201 168 194 201 168
194 201 168 194 201 168 194 201 168 194 201 168 194 201 168
194 201 168 194 201 168 194 201 168 194 201 168 194 201 168
194 201 168 194 201 168 194 201 168 194 201 168 194 201 168
194 201 168 194 201 168 194 201 168 194 201 168 194 201 168
194 201 168 194 201 168 194 201 168 194 201 168 194 201 168
194 201 168 194 201 168 194 201 168 194 201 168 194 201 168
193 202 173 193 202 173 193 202 173 193 202 173 193 202 173
193 202 173 193 202 173 193 202 173 192 201 174 192 201 174
192 201 174 193 202 175 193 202 175 193 202 175 193 202 175
193 202 175 193 202 173 193 202 173 193 202 173 193 202 173
193 202 173 193 202 173 193 202 173 193 202 173 192 201 172
193 202 173 193 202 173 192 201 172 193 199 171 193 199 171
193 200 169 194 201 170 193 200 169 193 200 169 193 200 169
193 200 169 193 200 169 193 200 169 193 200 169 193 200 169
194 201 170 194 201 170 194 201 170 193 200 169 193 200 169
193 200 169 193 200 169 193 200 169 193 200 169 194 201 170
193 200 169 192 198 170 193 200 169 196 201 171 193 198 166
189 195 161 190 194 159 190 194 159 190 194 159 190 194 159
190 194 159 190 194 159 190 194 159 190 194 159 190 194 159
190 194 159 190 194 159 190 194 159 190 194 159 190 194 159
190 194 159 190 194 159 190 194 159 190 194 159 190 194 159
190 194 159 190 194 159 190 194 159 190 194 159 190 194 159
190 194 159 190 194 159 190 194 159 190 194 159 190 194 159
190 194 159 190 194 159 190 194 159 183 182 128 182 181 127
181 180 126 181 180 126 181 180 126 182 181 127 183 182 128
183 182 128 184 183 129 184 183 129 184 183 129 183 182 128
183 182 128 183 182 128 183 182 128 182 181 127 183 182 128
183 182 128 183 182 128 183 182 128 183 182 128 183 182 128
183 182 128 183 182 128 182 181 127 183 182 128 185 185 135
186 190 140 188 191 144 189 192 145 189 192 145 189 192 145
188 191 144 188 191 144 188 191 144 188 191 144 187 190 143
187 190 143 187 190 143 187 190 143 189 192 145 189 192 145
188 191 144 188 191 144 189 192 145 189 192 145 189 192 145
189 192 145 190 192 145 188 191 144 187 190 145 187 193 147
190 196 152 191 198 154 190 197 155 189 196 154 193 200 159
193 200 159 193 200 159 192 199 158 192 199 158 192 199 158
192 199 158 192 199 158 191 198 157 191 198 157 191 198 157
192 199 158 192 199 158 193 200 159 193 200 159 193 200 159
192 199 158 192 199 158 192 199 158 192 199 158 192 199 158
192 199 158 192 199 158 192 199 158 191 197 159 191 197 159
191 197 159 191 197 159 191 197 159 191 197 159 191 197 159
191 197 159 191 197 159 191 197 159 191 197 159 191 197 159
191 197 159 191 197 159 191 197 159 191 197 159 191 197 159
191 197 159 191 197 159 191 197 159 191 197 159 191 197 159
191 197 159 191 197 159 191 198 157 191 198 157 191 197 159
191 197 159 192 198 160 193 199 161 194 200 164 195 201 165
196 203 169 195 202 168 195 202 168 195 202 168 196 203 169
196 203 169 196 203 169 195 202 168 195 202 168 195 202 168
195 202 168 195 202 168 195 202 168 195 202 168 195 202 168
195 202 168 194 201 168 194 201 168 194 201 168 194 201 168
194 201 168 194 201 168 194 201 168 195 202 169 194 201 168
194 201 168 194 201 168 194 201 168 194 201 168 194 201 168
194 201 168 194 201 168 194 201 168 194 201 168 194 201 168
194 201 168 194 201 168 194 201 168 194 201 168 194 201 168
194 201 168 194 201 168 194 201 168 194 201 168 194 201 168
194 201 168 194 201 168 194 201 168 194 201 168 194 201 168
194 201 168 194 201 168 194 201 168 194 201 168 194 201 168
194 201 168 193 202 173 193 202 173 192 201 172 192 201 172
192 201 172 192 201 172 193 202 173 193 202 173 192 201 172
192 201 172 193 202 173 193 202 173 193 202 173 193 202 173
193 202 173 193 202 173 193 202 173 192 201 172 192 201 172
192 201 172 192 201 172 192 201 172 193 202 173 193 202 173
193 202 173 193 202 173 193 202 173 192 201 172 193 200 169
193 200 169 193 200 169 194 201 170 193 200 169 193 200 169
193 200 169 193 200 169 193 200 169 193 200 169 193 200 169
193 200 169 193 200 169 193 200 169 193 200 169 193 200 169
192 199 168 192 199 168 192 199 168 192 199 168 191 201 167
193 203 169 195 202 171 192 199 168 193 200 169 194 201 168
193 199 165 189 195 161 190 194 159 190 194 159 190 194 159
190 194 159 190 194 159 190 194 159 190 194 159 190 194 159
190 194 159 190 194 159 190 194 159 190 194 159 190 194 159
190 194 159 190 194 159 190 194 159 190 194 159 190 194 159
190 194 159 190 194 159 190 194 159 190 194 159 190 194 159
190 194 159 190 194 159 190 194 159 190 194 159 190 194 159
190 194 159 190 194 159 190 194 159 190 194 159 184 183 129
183 182 128 183 182 128 184 183 129 184 183 129 184 183 129
184 183 129 183 182 128 183 182 128 183 182 128 182 181 127
182 181 127 183 182 128 184 183 129 183 182 128 182 181 127
183 182 128 183 182 128 183 182 128 183 182 128 183 182 128
183 182 128 183 182 128 183 182 128 181 180 124 185 184 130
189 189 139 190 192 143 189 192 145 188 191 144 187 190 143
187 190 143 189 192 145 188 191 144 187 190 143 187 190 143
188 191 144 188 191 144 189 192 145 189 192 145 188 191 144
188 191 144 187 190 143 187 190 143 187 190 143 188 191 144
188 191 144 188 191 144 189 191 144 188 190 143 188 191 146
188 194 148 192 198 154 193 200 158 193 200 158 192 201 158
192 199 158 192 199 158 192 199 158 192 199 158 191 198 157
191 198 157 191 198 157 190 197 156 192 198 160 192 198 160
192 198 160 192 198 160 192 198 160 192 198 160 192 198 160
192 198 160 192 198 160 193 200 159 193 200 159 193 200 159
193 200 159 192 199 158 192 199 158 192 199 158 191 197 159
191 197 159 191 197 159 191 197 159 191 197 159 191 197 159
191 197 159 191 197 159 191 197 159 191 197 159 191 197 159
191 197 159 191 197 159 191 197 159 191 197 159 191 197 159
191 197 159 191 197 159 191 197 159 191 197 159 191 197 159
191 197 159 191 197 159 191 197 159 191 198 157 191 198 157
191 198 157 191 197 159 192 198 160 194 200 164 195 201 165
196 202 166 195 202 168 195 202 168 195 202 168 195 202 168
195 202 168 196 203 169 195 202 168 195 202 168 195 202 169
195 202 169 195 202 169 195 202 169 195 202 169 195 202 169
195 202 169 195 202 169 195 202 169 194 201 168 194 201 168
194 201 168 194 201 168 194 201 168 194 201 168 194 201 168
194 201 168 194 201 168 194 201 168 194 201 168 194 201 168
194 201 168 194 201 168 194 201 168 194 201 168 194 201 168
194 201 168 194 201 168 194 201 168 194 201 168 194 201 168
194 201 168 194 201 168 194 201 168 194 201 168 194 201 168
194 201 168 194 201 168 194 201 168 194 201 168 194 201 168
194 201 168 194 201 168 194 201 168 194 201 168 194 201 168
194 201 168 194 201 168 194 203 172 193 202 171 193 202 171
193 202 171 193 202 171 193 202 171 193 202 171 194 203 172
193 204 174 193 204 174 193 204 174 193 204 174 193 204 174
192 203 173 192 203 173 191 202 172 193 202 171 193 202 171
193 202 171 193 202 171 193 202 171 193 202 171 194 203 172
194 203 172 194 203 174 194 203 174 194 203 174 193 202 171
193 200 169 193 200 167 193 200 167 193 200 167 193 200 169
193 200 169 193 200 169 193 200 169 193 200 169 193 200 169
193 200 169 193 200 169 193 200 169 193 200 169 193 200 169
193 200 169 194 201 170 194 201 170 194 201 170 194 201 170
190 200 166 193 203 169 195 202 171 192 199 168 192 199 168
194 201 168 194 200 166 190 196 160 190 194 159 190 194 159
190 194 159 190 194 159 190 194 159 190 194 159 190 194 159
190 194 159 190 194 159 190 194 159 190 194 159 190 194 159
190 194 159 190 194 159 190 194 159 190 194 159 190 194 159
190 194 159 190 194 159 190 194 159 190 194 159 190 194 159
190 194 159 190 194 159 190 194 159 190 194 159 190 194 159
190 194 159 190 194 159 190 194 159 190 194 159 190 194 159
183 182 128 183 182 128 183 182 128 183 182 128 183 182 128
183 182 128 183 182 128 183 182 128 183 182 128 183 182 128
183 182 128 183 182 128 183 182 128 183 182 128 183 182 128
183 182 128 183 182 128 183 182 128 183 182 128 183 182 128
183 182 128 184 183 129 183 182 128 182 181 127 181 184 137
185 188 141 188 191 144 188 191 144 187 190 143 188 191 144
189 192 145 188 191 144 188 191 144 188 191 144 188 191 144
188 191 144 188 191 144 188 191 144 188 191 144 188 191 144
188 191 144 188 191 144 188 191 144 188 191 144 188 191 144
188 191 144 188 191 144 188 191 144 190 192 145 187 190 143
184 190 144 185 193 146 189 196 152 192 199 157 193 200 159
192 199 158 192 199 158 192 199 158 192 199 158 192 199 158
192 199 158 192 199 158 192 199 158 192 199 158 192 199 158
192 199 158 192 199 158 192 199 158 192 199 158 192 199 158
192 199 158 192 199 158 192 199 158 192 199 158 192 199 158
192 199 158 192 199 158 192 199 158 192 199 158 192 199 158
191 197 159 191 197 159 190 196 158 190 196 158 191 197 159
191 197 159 191 197 159 191 197 159 191 197 159 191 197 159
191 197 159 191 197 159 191 197 159 191 197 159 191 197 159
191 197 159 191 197 159 191 197 159 191 197 159 191 197 159
191 197 159 191 197 159 191 197 159 191 197 159 189 197 160
191 199 162 192 200 163 194 201 167 195 202 168 195 202 168
195 202 169 195 202 169 195 202 168 195 202 168 195 202 168
195 202 168 195 202 168 195 202 168 195 202 168 195 202 168
195 202 168 195 202 168 195 202 168 195 202 168 195 202 168
195 202 168 195 202 168 195 202 168 195 202 168 194 201 167
194 201 167 194 201 167 194 201 168 194 201 168 194 201 168
194 201 168 194 201 168 194 201 168 194 201 168 194 201 168
194 201 168 194 201 168 194 201 168 194 201 168 194 201 168
194 201 168 194 201 168 194 201 168 194 201 168 194 201 168
194 201 168 194 201 168 194 201 168 194 201 168 194 201 168
194 201 168 194 201 168 194 201 168 194 201 168 194 201 168
194 201 167 194 201 168 194 201 168 194 201 168 193 202 171
193 202 173 193 202 173 193 202 173 193 202 173 193 202 173
193 202 173 193 202 173 193 202 173 193 202 173 193 202 173
193 202 173 193 202 173 193 202 173 193 202 173 193 202 173
193 202 173 193 202 173 193 202 173 193 202 173 193 202 173
193 202 173 193 202 173 193 202 173 193 202 173 193 202 173
193 202 173 193 202 173 193 202 173 193 202 173 193 202 173
193 202 173 194 201 170 193 200 169 193 200 169 193 200 169
193 200 169 193 200 169 193 200 169 193 200 169 193 200 169
193 200 169 193 200 169 193 200 169 193 200 169 193 200 169
193 200 169 193 200 169 193 200 169 193 200 169 193 200 169
193 200 169 193 200 169 193 200 169 193 200 169 193 200 169
193 200 169 193 200 169 193 200 169 193 200 169 189 195 161
188 194 158 189 195 159 191 195 158 190 194 157 189 193 158
189 193 160 191 195 162 190 194 159 190 194 159 190 194 159
190 194 159 190 194 159 190 194 159 190 194 159 190 194 159
190 194 159 190 194 159 190 194 159 190 194 159 190 194 159
190 194 159 190 194 159 190 194 159 190 194 159 190 194 159
190 194 159 190 194 159 190 194 159 190 194 159 190 194 159
190 194 159 183 182 128 183 182 128 183 182 128 183 182 128
183 182 128 183 182 128 183 182 128 183 182 128 183 182 128
183 182 128 183 182 128 183 182 128 183 182 128 183 182 128
183 182 128 183 182 128 183 182 128 183 182 128 183 182 128
183 182 128 183 182 128 183 182 128 183 182 128 182 181 127
182 185 138 186 189 142 189 192 145 188 191 144 187 190 143
188 191 144 189 192 145 188 191 144 188 191 144 188 191 144
188 191 144 188 191 144 188 191 144 188 191 144 188 191 144
188 191 144 188 191 144 188 191 144 188 191 144 188 191 144
188 191 144 188 191 144 188 191 144 188 191 144 189 191 144
187 190 143 185 191 145 186 193 149 190 197 153 193 200 158
193 200 159 192 199 158 192 199 158 192 199 158 192 199 158
192 199 158 192 199 158 192 199 158 192 199 158 192 199 158
192 199 158 192 199 158 192 199 158 192 199 158 192 199 158
192 199 158 192 199 158 192 199 158 192 199 158 192 199 158
192 199 158 192 199 158 192 199 158 192 199 158 192 199 158
192 199 158 191 197 159 191 197 159 191 197 159 191 197 159
191 197 159 191 197 159 190 196 158 190 196 158 191 197 159
191 197 159 191 197 159 191 197 159 191 197 159 191 197 159
191 197 159 191 197 159 192 198 160 192 198 160 192 198 160
192 198 160 192 198 160 192 198 160 192 198 160 192 198 160
191 199 162 191 199 162 193 201 164 194 201 167 195 202 168
195 202 168 195 202 169 195 202 169 195 202 168 195 202 168
195 202 168 195 202 168 195 202 168 195 202 168 195 202 168
195 202 168 195 202 168 195 202 168 195 202 168 195 202 168
195 202 168 195 202 168 195 202 168 195 202 168 195 202 168
195 202 168 194 201 167 194 201 167 194 201 168 194 201 168
194 201 168 194 201 168 194 201 168 194 201 168 194 201 168
194 201 168 194 201 168 194 201 168 194 201 168 194 201 168
194 201 168 194 201 168 194 201 168 194 201 168 194 201 168
194 201 168 194 201 168 194 201 168 194 201 168 194 201 168
194 201 168 194 201 168 194 201 168 194 201 168 194 201 168
194 201 168 194 201 167 194 201 168 194 201 168 194 201 168
193 202 171 193 202 173 193 202 173 193 202 173 193 202 173
193 202 173 193 202 173 193 202 173 193 202 173 193 202 173
193 202 173 193 202 173 193 202 173 193 202 173 193 202 173
193 202 173 193 202 173 193 202 173 193 202 173 193 202 173
193 202 173 193 202 173 193 202 173 193 202 173 193 202 173
193 202 173 193 202 173 193 202 173 193 202 173 193 202 173
193 202 173 193 202 173 194 201 170 193 200 169 193 200 169
193 200 169 193 200 169 193 200 169 193 200 169 193 200 169
193 200 169 193 200 169 193 200 169 193 200 169 193 200 169
193 200 169 193 200 169 193 200 169 193 200 169 193 200 169
193 200 169 193 200 169 193 200 169 193 200 169 193 200 169
193 200 169 193 200 169 193 200 169 193 200 169 193 200 169
190 196 162 189 195 159 189 195 159 191 195 158 190 194 157
189 193 158 189 193 160 191 195 162 190 194 159 190 194 159
190 194 159 190 194 159 190 194 159 190 194 159 190 194 159
190 194 159 190 194 159 190 194 159 190 194 159 190 194 159
190 194 159 190 194 159 190 194 159 190 194 159 190 194 159
190 194 159 190 194 159 190 194 159 190 194 159 190 194 159
190 194 159 190 194 159 183 182 128 183 182 128 183 182 128
183 182 128 183 182 128 183 182 128 183 182 128 183 182 128
183 182 128 183 182 128 183 182 128 183 182 128 183 182 128
183 182 128 183 182 128 183 182 128 183 182 128 183 182 128
183 182 128 183 182 128 183 182 128 183 182 128 182 181 127
182 181 127 185 188 141 187 190 143 189 192 145 188 191 144
187 190 143 188 191 144 189 192 145 189 192 145 188 191 144
188 191 144 188 191 144 188 191 144 188 191 144 188 191 144
188 191 144 188 191 144 188 191 144 188 191 144 188 191 144
188 191 144 188 191 144 188 191 144 188 191 144 188 191 144
189 191 144 188 191 146 187 193 147 188 195 151 191 198 156
193 200 159 193 200 159 192 199 158 192 199 158 192 199 158
192 199 158 192 199 158 192 199 158 192 199 158 192 199 158
192 199 158 192 199 158 192 199 158 192 199 158 192 199 158
192 199 158 192 199 158 192 199 158 192 199 158 192 199 158
192 199 158 192 199 158 192 199 158 192 199 158 192 199 158
192 199 158 192 199 158 192 198 160 192 198 160 192 198 160
192 198 160 192 198 160 191 197 159 190 196 158 190 196 158
190 196 158 190 196 158 190 196 158 190 196 158 190 196 158
190 196 158 190 196 158 190 196 158 190 196 158 190 196 158
190 196 158 190 196 158 190 196 158 190 196 158 190 196 158
190 196 158 192 200 163 193 201 164 194 201 167 195 202 168
195 202 168 195 202 168 195 202 168 195 202 168 195 202 168
195 202 168 195 202 168 195 202 168 195 202 168 195 202 168
195 202 168 195 202 168 195 202 168 195 202 168 195 202 168
195 202 168 195 202 168 195 202 168 195 202 168 195 202 168
195 202 168 195 202 168 195 202 168 194 201 167 194 201 168
194 201 168 194 201 168 194 201 168 194 201 168 194 201 168
194 201 168 194 201 168 194 201 168 194 201 168 194 201 168
194 201 168 194 201 168 194 201 168 194 201 168 194 201 168
194 201 168 194 201 168 194 201 168 194 201 168 194 201 168
194 201 168 194 201 168 194 201 168 194 201 168 194 201 168
194 201 168 194 201 168 194 201 167 194 201 168 194 201 168
194 201 168 193 202 171 193 202 173 193 202 173 193 202 173
193 202 173 193 202 173 193 202 173 193 202 173 193 202 173
193 202 173 193 202 173 193 202 173 193 202 173 193 202 173
193 202 173 193 202 173 193 202 173 193 202 173 193 202 173
193 202 173 193 202 173 193 202 173 193 202 173 193 202 173
193 202 173 193 202 173 193 202 173 193 202 173 193 202 173
193 202 173 193 202 173 193 202 173 194 201 170 193 200 169
193 200 169 193 200 169 193 200 169 193 200 169 193 200 169
193 200 169 193 200 169 193 200 169 193 200 169 193 200 169
193 200 169 193 200 169 193 200 169 193 200 169 193 200 169
193 200 169 193 200 169 193 200 169 193 200 169 193 200 169
193 200 169 193 200 169 193 200 169 193 200 169 193 200 169
193 200 169 190 196 162 189 195 161 189 195 159 191 195 158
190 194 157 189 193 158 189 193 158 191 195 162 190 194 159
190 194 159 190 194 159 190 194 159 190 194 159 190 194 159
190 194 159 190 194 159 190 194 159 190 194 159 190 194 159
190 194 159 190 194 159 190 194 159 190 194 159 190 194 159
190 194 159 190 194 159 190 194 159 190 194 159 190 194 159
190 194 159 190 194 159 190 194 159 183 182 128 183 182 128
183 182 128 183 182 128 183 182 128 183 182 128 183 182 128
183 182 128 183 182 128 183 182 128 183 182 128 183 182 128
183 182 128 183 182 128 183 182 128 183 182 128 183 182 126
183 182 128 183 182 128 184 183 129 183 182 128 182 181 127
182 181 127 183 181 130 187 190 143 188 191 144 189 192 145
188 191 144 187 190 143 188 191 144 188 191 144 189 192 145
188 191 144 188 191 144 188 191 144 188 191 144 188 191 144
188 191 144 188 191 144 188 191 144 188 191 144 188 191 144
188 191 144 188 191 144 188 191 144 188 191 144 188 191 144
188 191 144 188 190 143 189 192 147 189 195 151 190 197 155
192 199 158 193 200 159 193 200 159 192 199 158 192 199 158
192 199 158 192 199 158 192 199 158 192 199 158 192 199 158
192 199 158 192 199 158 192 199 158 192 199 158 192 199 158
192 199 158 192 199 158 192 199 158 192 199 158 192 199 158
192 199 158 192 199 158 192 199 158 192 199 158 192 199 158
192 199 158 192 199 158 192 199 158 193 199 161 193 199 161
194 200 162 194 200 162 194 200 162 193 199 161 192 198 160
191 197 159 191 197 159 191 197 159 191 197 159 191 197 159
191 197 159 191 197 159 191 197 159 191 197 159 191 197 159
191 197 159 191 197 159 191 197 159 191 197 159 191 197 159
191 197 159 191 197 159 194 201 167 194 201 167 195 202 168
195 202 168 195 202 168 195 202 168 195 202 168 195 202 168
195 202 168 195 202 168 195 202 168 195 202 168 195 202 168
195 202 168 195 202 168 195 202 168 195 202 168 195 202 168
195 202 168 195 202 168 195 202 168 195 202 168 195 202 168
195 202 168 195 202 168 195 202 168 195 202 168 195 202 168
194 201 168 194 201 168 194 201 168 194 201 168 194 201 168
194 201 168 194 201 168 194 201 168 194 201 168 194 201 168
194 201 168 194 201 168 194 201 168 194 201 168 194 201 168
194 201 168 194 201 168 194 201 168 194 201 168 194 201 168
194 201 168 194 201 168 194 201 168 194 201 168 194 201 168
194 201 168 194 201 168 194 201 168 194 201 167 194 201 168
194 201 168 194 201 168 193 202 171 193 202 173 193 202 173
193 202 173 193 202 173 193 202 173 193 202 173 193 202 173
193 202 173 193 202 173 193 202 173 193 202 173 193 202 173
193 202 173 193 202 173 193 202 173 193 202 173 193 202 173
193 202 173 193 202 173 193 202 173 193 202 173 193 202 173
193 202 173 193 202 173 193 202 173 193 202 173 193 202 173
193 202 173 193 202 173 193 202 173 193 202 173 194 201 170
193 200 169 193 200 169 193 200 169 193 200 169 193 200 169
193 200 169 193 200 169 193 200 169 193 200 169 193 200 169
193 200 169 193 200 169 193 200 169 193 200 169 193 200 169
193 200 169 193 200 169 193 200 169 193 200 169 193 200 169
193 200 169 193 200 169 193 200 169 193 200 169 193 200 169
193 200 169 193 200 169 192 198 164 190 196 162 189 195 159
190 194 157 190 194 157 189 193 156 189 193 158 190 194 159
190 194 159 190 194 159 190 194 159 190 194 159 190 194 159
190 194 159 190 194 159 190 194 159 190 194 159 190 194 159
190 194 159 190 194 159 190 194 159 190 194 159 190 194 159
190 194 159 190 194 159 190 194 159 190 194 159 190 194 159
190 194 159 190 194 159 190 194 159 190 194 159 183 182 128
183 182 128 183 182 128 183 182 128 183 182 128 183 182 128
183 182 128 183 182 128 183 182 128 183 182 128 183 182 128
183 182 128 183 182 128 183 182 128 183 182 128 183 182 128
183 182 126 182 181 125 183 182 128 184 183 129 183 182 128
182 181 127 182 180 129 185 183 132 189 192 145 188 191 144
188 191 144 188 191 144 188 191 144 187 190 143 188 191 144
189 192 145 188 191 144 188 191 144 188 191 144 188 191 144
188 191 144 188 191 144 188 191 144 188 191 144 188 191 144
188 191 144 188 191 144 188 191 144 188 191 144 188 191 144
188 191 144 188 191 144 188 190 143 189 192 147 190 196 152
192 199 158 193 200 159 193 200 159 192 199 158 192 199 158
192 199 158 192 199 158 192 199 158 192 199 158 192 199 158
192 199 158 192 199 158 192 199 158 192 199 158 192 199 158
192 199 158 192 199 158 192 199 158 192 199 158 192 199 158
192 199 158 192 199 158 192 199 158 192 199 158 192 199 158
192 199 158 192 199 158 192 199 158 192 199 158 194 200 164
194 200 164 195 201 165 196 202 166 196 202 166 195 201 165
194 200 164 194 200 164 195 201 165 195 201 165 195 201 165
195 201 165 195 201 165 195 201 165 195 201 165 195 201 165
195 201 165 195 201 165 195 201 165 195 201 165 195 201 165
195 201 165 195 201 165 195 201 165 195 202 168 195 202 168
195 202 168 195 202 168 195 202 168 195 202 168 195 202 168
195 202 168 195 202 168 195 202 168 195 202 168 195 202 168
195 202 168 195 202 168 195 202 168 195 202 168 195 202 168
195 202 168 195 202 168 195 202 168 195 202 168 195 202 168
195 202 168 195 202 168 195 202 168 195 202 168 195 202 168
195 202 168 194 201 168 194 201 168 194 201 168 194 201 168
194 201 168 194 201 168 194 201 168 194 201 168 194 201 168
194 201 168 194 201 168 194 201 168 194 201 168 194 201 168
194 201 168 194 201 168 194 201 168 194 201 168 194 201 168
194 201 168 194 201 168 194 201 168 194 201 168 194 201 168
194 201 168 194 201 168 194 201 168 194 201 168 194 201 167
194 201 168 194 201 168 194 201 168 193 202 171 193 202 173
193 202 173 193 202 173 193 202 173 193 202 173 193 202 173
193 202 173 193 202 173 193 202 173 193 202 173 193 202 173
193 202 173 193 202 173 193 202 173 193 202 173 193 202 173
193 202 173 193 202 173 193 202 173 193 202 173 193 202 173
193 202 173 193 202 173 193 202 173 193 202 173 193 202 173
193 202 173 193 202 173 193 202 173 193 202 173 193 202 173
194 201 170 193 200 169 193 200 169 193 200 169 193 200 169
193 200 169 193 200 169 193 200 169 193 200 169 193 200 169
193 200 169 193 200 169 193 200 169 193 200 169 193 200 169
193 200 169 193 200 169 193 200 169 193 200 169 193 200 169
193 200 169 193 200 169 193 200 169 193 200 169 193 200 169
193 200 169 193 200 169 193 200 169 193 198 166 190 196 162
189 195 159 190 194 157 191 195 158 190 194 157 189 193 158
190 194 159 190 194 159 190 194 159 190 194 159 190 194 159
190 194 159 190 194 159 190 194 159 190 194 159 190 194 159
190 194 159 190 194 159 190 194 159 190 194 159 190 194 159
190 194 159 190 194 159 190 194 159 190 194 159 190 194 159
190 194 159 190 194 159 190 194 159 190 194 159 190 194 159
183 182 128 183 182 128 183 182 128 183 182 128 183 182 128
183 182 128 183 182 128 183 182 128 183 182 128 183 182 128
183 182 128 183 182 128 183 182 128 183 182 128 183 182 128
183 182 128 184 183 127 182 181 125 182 181 125 184 183 129
183 182 128 182 180 129 184 182 131 188 186 135 189 192 145
188 191 144 187 190 143 188 191 144 188 191 144 187 190 143
188 191 144 189 192 145 188 191 144 188 191 144 188 191 144
188 191 144 188 191 144 188 191 144 188 191 144 188 191 144
188 191 144 188 191 144 188 191 144 188 191 144 188 191 144
188 191 144 188 191 144 188 191 144 188 190 143 190 193 148
191 196 155 193 200 159 193 199 161 192 198 160 192 199 158
192 199 158 192 199 158 192 199 158 192 199 158 192 199 158
192 199 158 192 199 158 192 199 158 192 199 158 192 199 158
192 199 158 192 199 158 192 199 158 192 199 158 192 199 158
192 199 158 192 199 158 192 199 158 192 199 158 192 199 158
192 199 158 192 199 158 192 199 158 192 199 158 192 199 158
194 200 164 195 201 165 195 201 165 196 202 166 196 202 166
196 202 166 195 201 165 195 201 165 195 201 165 195 201 165
195 201 165 195 201 165 195 201 165 195 201 165 195 201 165
195 201 165 196 202 166 196 202 166 196 202 166 196 202 166
196 202 166 196 202 166 196 202 166 196 202 166 196 203 169
195 202 168 195 202 168 195 202 168 195 202 168 195 202 168
195 203 166 195 203 166 195 202 168 195 202 168 195 202 168
195 202 168 195 202 168 195 202 168 195 202 168 195 202 168
195 202 168 195 202 168 195 202 168 195 202 168 195 202 168
195 202 168 195 202 168 195 202 168 195 202 168 195 202 168
195 202 168 195 202 168 195 202 169 194 201 168 194 201 168
194 201 168 194 201 168 194 201 168 194 201 168 194 201 168
194 201 168 194 201 168 194 201 168 194 201 168 194 201 168
194 201 168 194 201 168 194 201 168 194 201 168 194 201 168
194 201 168 194 201 168 194 201 168 194 201 168 194 201 168
194 201 168 194 201 168 194 201 168 194 201 168 194 201 168
194 201 167 194 201 168 194 201 168 194 201 168 193 202 171
193 202 173 193 202 173 193 202 173 193 202 173 193 202 173
193 202 173 193 202 173 193 202 173 193 202 173 193 202 173
193 202 173 193 202 173 193 202 173 193 202 173 193 202 173
193 202 173 193 202 173 193 202 173 193 202 173 193 202 173
193 202 173 193 202 173 193 202 173 193 202 173 193 202 173
193 202 173 193 202 173 193 202 173 193 202 173 193 202 173
193 202 173 194 201 170 193 200 169 193 200 169 193 200 169
193 200 169 193 200 169 193 200 169 193 200 169 193 200 169
193 200 169 193 200 169 193 200 169 193 200 169 193 200 169
193 200 169 193 200 169 193 200 169 193 200 169 193 200 169
193 200 169 193 200 169 193 200 169 193 200 169 193 200 169
193 200 169 193 200 169 193 200 169 193 200 169 194 199 167
191 196 164 189 195 159 190 194 159 191 195 158 190 194 157
190 194 157 190 194 159 190 194 159 190 194 159 190 194 159
190 194 159 190 194 159 190 194 159 190 194 159 190 194 159
190 194 159 190 194 159 190 194 159 190 194 159 190 194 159
190 194 159 190 194 159 190 194 159 190 194 159 190 194 159
190 194 159 190 194 159 190 194 159 190 194 159 190 194 159
190 194 159 183 182 128 183 182 128 183 182 128 183 182 128
183 182 128 183 182 128 183 182 128 183 182 128 183 182 128
183 182 128 183 182 128 183 182 128 183 182 128 183 182 128
183 182 128 183 182 128 184 183 126 182 181 125 182 181 125
184 183 129 183 182 128 182 180 129 185 183 132 191 189 140
189 192 145 187 190 143 187 190 143 188 191 144 189 192 145
187 190 143 187 190 143 188 191 144 188 191 144 188 191 144
188 191 144 188 191 144 188 191 144 188 191 144 188 191 144
188 191 144 188 191 144 188 191 144 188 191 144 188 191 144
188 191 144 188 191 144 188 191 144 188 191 144 188 190 141
190 193 148 192 197 156 193 199 161 192 198 162 191 197 159
191 198 157 192 199 158 192 199 158 192 199 158 192 199 158
192 199 158 192 199 158 192 199 158 192 199 158 192 199 158
192 199 158 192 199 158 192 199 158 192 199 158 192 199 158
192 199 158 192 199 158 192 199 158 192 199 158 192 199 158
192 199 158 192 199 158 192 199 158 192 199 158 192 199 158
192 199 158 195 201 165 195 201 165 195 201 165 195 201 165
195 201 165 195 201 165 195 201 165 195 201 165 194 200 164
194 200 164 194 200 164 194 200 164 194 200 164 194 200 164
194 200 164 194 200 164 195 201 165 195 201 165 195 201 165
195 201 165 195 201 165 195 201 165 195 201 165 195 201 165
195 202 169 195 202 169 195 202 168 195 202 168 195 202 168
195 203 166 195 203 166 195 203 166 195 202 168 195 202 168
195 202 168 195 202 168 195 202 168 195 202 168 195 202 168
195 202 168 195 202 168 195 202 168 195 202 168 195 202 168
195 202 168 195 202 168 195 202 168 195 202 168 195 202 168
195 202 168 195 202 168 195 202 168 195 202 169 195 202 169
194 201 168 194 201 168 194 201 168 194 201 168 194 201 168
194 201 168 194 201 168 194 201 168 194 201 168 194 201 168
194 201 168 194 201 168 194 201 168 194 201 168 194 201 168
194 201 168 194 201 168 194 201 168 194 201 168 194 201 168
194 201 168 194 201 168 194 201 168 194 201 168 194 201 168
194 201 168 194 201 167 194 201 168 194 201 168 194 201 168
193 202 171 193 202 173 193 202 173 193 202 173 193 202 173
193 202 173 193 202 173 193 202 173 193 202 173 193 202 173
193 202 173 193 202 173 193 202 173 193 202 173 193 202 173
193 202 173 193 202 173 193 202 173 193 202 173 193 202 173
193 202 173 193 202 173 193 202 173 193 202 173 193 202 173
193 202 173 193 202 173 193 202 173 193 202 173 193 202 173
193 202 173 193 202 173 194 201 170 193 200 169 193 200 169
193 200 169 193 200 169 193 200 169 193 200 169 193 200 169
193 200 169 193 200 169 193 200 169 193 200 169 193 200 169
193 200 169 193 200 169 193 200 169 193 200 169 193 200 169
193 200 169 193 200 169 193 200 169 193 200 169 193 200 169
193 200 169 193 200 169 193 200 169 193 200 169 193 200 169
195 200 168 191 196 164 189 195 161 190 194 159 191 195 158
190 194 157 190 194 157 190 194 157 190 194 159 190 194 159
190 194 159 190 194 159 190 194 159 190 194 159 190 194 159
190 194 159 190 194 159 190 194 159 190 194 159 190 194 159
190 194 159 190 194 159 190 194 159 190 194 159 190 194 159
190 194 159 190 194 159 190 194 159 190 194 159 190 194 159
190 194 159 190 194 159 183 182 128 183 182 128 183 182 128
183 182 128 183 182 128 183 182 128 183 182 128 183 182 128
183 182 128 183 182 128 183 182 128 183 182 128 183 182 128
183 182 128 183 182 128 183 182 128 185 184 127 182 181 125
182 181 125 184 183 129 183 182 128 182 180 129 186 184 133
193 191 142 188 191 144 186 189 142 186 189 142 188 191 144
189 192 145 187 190 143 187 190 143 188 191 144 188 191 144
188 191 144 188 191 144 188 191 144 188 191 144 188 191 144
188 191 144 188 191 144 188 191 144 188 191 144 188 191 144
188 191 144 188 191 144 188 191 144 188 191 144 188 191 144
188 190 141 190 193 148 192 197 156 193 199 161 192 198 162
191 197 159 191 198 157 192 199 158 192 199 158 192 199 158
192 199 158 192 199 158 192 199 158 192 199 158 192 199 158
192 199 158 192 199 158 192 199 158 192 199 158 192 199 158
192 199 158 192 199 158 192 199 158 192 199 158 192 199 158
192 199 158 192 199 158 192 199 158 192 199 158 192 199 158
192 199 158 192 199 158 196 202 166 196 202 166 195 201 165
195 201 165 194 200 164 194 200 164 194 200 164 194 200 164
195 201 165 195 201 165 195 201 165 195 201 165 195 201 165
195 201 165 195 201 165 195 201 165 196 202 166 196 202 166
196 202 166 196 202 166 196 202 166 196 202 166 196 202 166
196 202 166 195 202 169 195 202 169 195 202 168 194 201 167
194 201 167 195 203 166 195 203 166 195 203 166 195 202 168
195 202 168 195 202 168 195 202 168 195 202 168 195 202 168
195 202 168 195 202 168 195 202 168 195 202 168 195 202 168
195 202 168 195 202 168 195 202 168 195 202 168 195 202 168
195 202 168 195 202 168 195 202 168 195 202 168 195 202 169
195 202 169 195 202 169 194 201 168 194 201 168 194 201 168
194 201 168 194 201 168 194 201 168 194 201 168 194 201 168
194 201 168 194 201 168 194 201 168 194 201 168 194 201 168
194 201 168 194 201 168 194 201 168 194 201 168 194 201 168
194 201 168 194 201 168 194 201 168 194 201 168 194 201 168
194 201 168 194 201 168 194 201 167 194 201 168 194 201 168
194 201 168 193 202 171 193 202 173 193 202 173 193 202 173
193 202 173 193 202 173 193 202 173 193 202 173 193 202 173
193 202 173 193 202 173 193 202 173 193 202 173 193 202 173
193 202 173 193 202 173 193 202 173 193 202 173 193 202 173
193 202 173 193 202 173 193 202 173 193 202 173 193 202 173
193 202 173 193 202 173 193 202 173 193 202 173 193 202 173
193 202 173 193 202 173 193 202 173 194 201 170 193 200 169
193 200 169 193 200 169 193 200 169 193 200 169 193 200 169
193 200 169 193 200 169 193 200 169 193 200 169 193 200 169
193 200 169 193 200 169 193 200 169 193 200 169 193 200 169
193 200 169 193 200 169 193 200 169 193 200 169 193 200 169
193 200 169 193 200 169 193 200 169 193 200 169 193 200 169
193 200 169 195 200 170 192 197 165 189 195 161 190 194 159
191 195 158 190 194 157 190 194 157 190 194 157 190 194 159
190 194 159 190 194 159 190 194 159 190 194 159 190 194 159
190 194 159 190 194 159 190 194 159 190 194 159 190 194 159
190 194 159 190 194 159 190 194 159 190 194 159 190 194 159
190 194 159 190 194 159 190 194 159 190 194 159 190 194 159
190 194 159 190 194 159 190 194 159 183 182 128 183 182 128
183 182 128 183 182 128 183 182 128 183 182 128 183 182 128
183 182 128 183 182 128 183 182 128 183 182 128 183 182 128
183 182 128 183 182 128 183 182 128 183 182 128 182 181 125
184 183 127 181 180 124 183 182 126 183 182 128 182 182 130
188 190 141 188 192 142 188 191 144 188 191 144 188 191 144
188 191 144 188 191 144 188 191 144 188 191 144 188 191 144
188 191 144 188 191 144 188 191 144 188 191 144 188 191 144
188 191 144 188 191 144 188 191 144 188 191 144 188 191 144
188 191 144 188 191 144 188 191 144 188 191 144 188 191 144
188 191 144 188 195 154 189 196 155 191 198 157 193 200 159
193 200 159 193 200 159 192 199 158 191 198 157 192 199 158
192 199 158 192 199 158 192 199 158 192 199 158 192 199 158
192 199 158 192 199 158 192 199 158 192 199 158 192 199 158
192 199 158 192 199 158 192 199 158 192 199 158 192 199 158
191 198 157 192 199 158 192 199 157 192 199 157 191 198 156
191 198 157 193 199 161 195 201 163 195 201 165 195 201 165
195 201 165 195 201 165 195 201 165 195 201 165 195 201 165
195 201 165 195 201 165 195 201 165 195 201 165 195 201 165
195 201 165 195 201 165 195 201 165 195 201 165 195 201 165
195 201 165 195 201 165 195 201 165 195 201 165 195 201 165
195 201 165 195 201 165 195 202 168 195 202 168 195 202 168
195 202 168 195 202 168 195 202 168 195 202 168 195 202 168
195 202 168 195 202 168 195 202 168 195 202 168 195 202 168
195 202 168 195 202 168 195 202 168 195 202 168 195 202 168
195 202 168 195 202 168 195 202 168 195 202 168 195 202 168
195 202 168 195 202 168 195 202 168 195 202 168 195 202 168
195 202 168 195 202 168 195 202 168 195 202 168 195 202 169
195 202 169 194 201 168 194 201 168 194 201 168 195 202 169
195 202 169 195 202 169 194 201 168 194 201 168 194 201 168
194 201 168 194 201 168 194 201 168 193 200 167 193 200 167
194 201 168 194 201 168 194 201 168 194 201 168 194 201 168
194 201 168 194 201 168 194 201 168 199 203 170 198 203 171
197 202 170 196 203 172 196 203 172 193 202 173 193 202 173
191 201 174 193 202 173 193 202 173 193 202 173 193 202 173
193 202 173 193 202 173 193 202 173 193 202 173 193 202 173
193 202 173 193 202 173 193 202 173 193 202 173 193 202 173
193 202 173 193 202 173 193 202 173 193 202 173 193 202 173
193 202 173 193 202 173 193 202 173 193 202 173 193 202 173
193 202 173 193 202 173 193 202 173 193 202 173 194 201 170
193 200 169 193 200 169 193 200 169 193 200 169 193 200 169
193 200 169 193 200 169 193 200 169 193 200 169 193 200 169
193 200 169 193 200 169 193 200 169 193 200 169 193 200 169
193 200 169 193 200 169 193 200 169 193 200 169 193 200 169
193 200 169 193 200 169 193 200 169 193 200 169 193 200 169
193 200 169 193 200 169 194 201 170 192 199 166 190 196 162
189 195 159 190 194 157 190 194 157 192 193 159 192 193 159
190 194 159 190 194 159 190 194 159 190 194 159 190 194 159
190 194 159 190 194 159 190 194 159 190 194 159 190 194 159
190 194 159 190 194 159 190 194 159 190 194 159 190 194 159
190 194 159 190 194 159 190 194 159 190 194 159 190 194 159
190 194 159 190 194 159 190 194 159 190 194 159 183 182 128
183 182 128 183 182 128 183 182 128 183 182 128 183 182 128
183 182 128 183 182 128 183 182 128 183 182 128 183 182 128
183 182 128 183 182 128 183 182 128 183 182 128 183 182 128
182 181 125 185 184 128 182 181 125 183 182 126 183 182 128
182 182 130 188 190 141 189 193 143 188 191 144 188 191 144
188 191 144 188 191 144 188 191 144 188 191 144 188 191 144
188 191 144 188 191 144 188 191 144 188 191 144 188 191 144
188 191 144 188 191 144 188 191 144 188 191 144 188 191 144
188 191 144 188 191 144 188 191 144 188 191 144 188 191 144
188 191 144 188 191 144 189 196 155 190 197 156 191 198 157
192 199 158 193 200 159 193 200 159 192 199 158 191 198 157
192 199 158 192 199 158 192 199 158 192 199 158 192 199 158
192 199 158 192 199 158 192 199 158 192 199 158 192 199 158
192 199 158 192 199 158 192 199 158 192 199 158 192 199 158
192 199 158 191 198 157 192 199 158 192 199 157 192 199 157
191 198 156 192 199 158 193 199 161 195 201 165 195 201 165
195 201 165 195 201 165 195 201 165 195 201 165 195 201 165
195 201 165 195 201 165 195 201 165 195 201 165 195 201 165
195 201 165 195 201 165 195 201 165 195 201 165 195 201 165
195 201 165 195 201 165 195 201 165 195 201 165 195 201 165
195 201 165 195 201 165 195 201 165 195 202 168 195 202 168
195 202 168 195 202 168 195 202 168 195 202 168 195 202 168
195 202 168 195 202 168 195 202 168 195 202 168 195 202 168
195 202 168 195 202 168 195 202 168 195 202 168 195 202 168
195 202 168 195 202 168 195 202 168 195 202 168 195 202 168
195 202 168 195 202 168 195 202 168 195 202 168 195 202 168
195 202 168 195 202 168 195 202 168 195 202 168 195 202 168
194 201 168 194 201 168 194 201 168 194 201 168 194 201 168
195 202 169 195 202 169 195 202 169 194 201 168 194 201 168
194 201 168 194 201 168 193 200 167 193 200 167 193 200 167
193 200 167 194 201 168 194 201 168 194 201 168 194 201 168
195 202 169 195 202 169 195 202 169 196 203 170 199 203 170
198 203 171 198 203 171 196 203 172 196 203 172 193 202 173
193 202 173 192 201 172 193 202 173 193 202 173 193 202 173
193 202 173 193 202 173 193 202 173 193 202 173 193 202 173
193 202 173 193 202 173 193 202 173 193 202 173 193 202 173
193 202 173 193 202 173 193 202 173 193 202 173 193 202 173
193 202 173 193 202 173 193 202 173 193 202 173 193 202 173
193 202 173 193 202 173 193 202 173 193 202 173 193 202 173
194 201 170 193 200 169 193 200 169 193 200 169 193 200 169
193 200 169 193 200 169 193 200 169 193 200 169 193 200 169
193 200 169 193 200 169 193 200 169 193 200 169 193 200 169
193 200 169 193 200 169 193 200 169 193 200 169 193 200 169
193 200 169 193 200 169 193 200 169 193 200 169 193 200 169
193 200 169 193 200 169 193 200 169 194 201 170 192 199 166
190 196 162 189 195 159 190 194 159 190 194 159 192 193 159
192 193 159 190 194 159 190 194 159 190 194 159 190 194 159
190 194 159 190 194 159 190 194 159 190 194 159 190 194 159
190 194 159 190 194 159 190 194 159 190 194 159 190 194 159
190 194 159 190 194 159 190 194 159 190 194 159 190 194 159
190 194 159 190 194 159 190 194 159 190 194 159 190 194 159
183 182 128 183 182 128 183 182 128 183 182 128 183 182 128
183 182 128 183 182 128 183 182 128 183 182 128 183 182 128
183 182 128 183 182 128 183 182 128 183 182 128 183 182 128
183 182 128 183 182 126 186 185 129 183 182 126 184 183 127
183 182 128 182 182 132 188 190 141 189 192 145 188 191 144
188 191 144 188 191 144 188 191 144 188 191 144 188 191 144
188 191 144 188 191 144 188 191 144 188 191 144 188 191 144
188 191 144 188 191 144 188 191 144 188 191 144 188 191 144
188 191 144 188 191 144 188 191 144 188 191 144 188 191 144
188 191 144 188 191 144 188 191 144 191 198 157 191 198 157
192 199 158 192 199 158 192 199 158 192 199 158 192 199 158
191 198 157 192 199 158 192 199 158 192 199 158 192 199 158
192 199 158 192 199 158 192 199 158 192 199 158 192 199 158
192 199 158 192 199 158 192 199 158 192 199 158 192 199 158
192 199 158 192 199 158 192 199 158 192 199 158 192 199 157
192 199 157 192 199 158 192 199 158 194 200 162 195 201 165
195 201 165 195 201 165 195 201 165 195 201 165 195 201 165
195 201 165 195 201 165 195 201 165 195 201 165 195 201 165
195 201 165 195 201 165 195 201 165 195 201 165 195 201 165
195 201 165 195 201 165 195 201 165 195 201 165 195 201 165
195 201 165 195 201 165 195 201 165 195 201 165 195 202 168
195 202 168 195 202 168 195 202 168 195 202 168 195 202 168
195 202 168 195 202 168 195 202 168 195 202 168 195 202 168
195 202 168 195 202 168 195 202 168 195 202 168 195 202 168
195 202 168 195 202 168 195 202 168 195 202 168 195 202 168
195 202 168 195 202 168 195 202 168 195 202 168 195 202 168
195 202 168 195 202 168 195 202 168 195 202 168 195 202 168
195 202 168 194 201 168 194 201 168 194 201 168 194 201 168
194 201 168 194 201 168 195 202 169 195 202 169 194 201 168
194 201 168 194 201 168 194 201 168 194 201 168 193 200 167
193 200 167 193 200 167 194 201 168 194 201 168 195 202 169
195 202 169 196 203 170 196 203 170 197 204 171 197 204 171
198 203 171 198 203 171 198 203 171 196 203 172 196 203 172
196 203 172 193 202 173 193 202 173 193 202 173 193 202 173
193 202 173 193 202 173 193 202 173 193 202 173 193 202 173
193 202 173 193 202 173 193 202 173 193 202 173 193 202 173
193 202 173 193 202 173 193 202 173 193 202 173 193 202 173
193 202 173 193 202 173 193 202 173 193 202 173 193 202 173
193 202 173 193 202 173 193 202 173 193 202 173 193 202 173
193 202 173 194 201 170 193 200 169 193 200 169 193 200 169
193 200 169 193 200 169 193 200 169 193 200 169 193 200 169
193 200 169 193 200 169 193 200 169 193 200 169 193 200 169
193 200 169 193 200 169 193 200 169 193 200 169 193 200 169
193 200 169 193 200 169 193 200 169 193 200 169 193 200 169
193 200 169 193 200 169 193 200 169 193 200 169 194 201 170
192 199 166 191 197 163 189 195 159 190 194 159 190 194 159
192 193 159 192 193 159 190 194 159 190 194 159 190 194 159
190 194 159 190 194 159 190 194 159 190 194 159 190 194 159
190 194 159 190 194 159 190 194 159 190 194 159 190 194 159
190 194 159 190 194 159 190 194 159 190 194 159 190 194 159
190 194 159 190 194 159 190 194 159 190 194 159 190 194 159
190 194 159 183 182 128 183 182 128 183 182 128 183 182 128
183 182 128 183 182 128 183 182 128 183 182 128 183 182 128
183 182 128 183 182 128 183 182 128 183 182 128 183 182 128
183 182 128 183 182 128 182 181 127 186 185 131 183 182 126
184 183 129 183 181 130 182 182 132 188 190 141 189 192 145
188 191 144 188 191 144 188 191 144 188 191 144 188 191 144
188 191 144 188 191 144 188 191 144 188 191 144 188 191 144
188 191 144 188 191 144 188 191 144 188 191 144 188 191 144
188 191 144 188 191 144 188 191 144 188 191 144 188 191 144
188 191 144 188 191 144 188 191 144 188 191 144 192 199 158
192 199 158 192 199 158 192 199 158 191 198 157 191 198 157
192 199 158 192 199 158 192 199 158 192 199 158 192 199 158
192 199 158 192 199 158 192 199 158 192 199 158 192 199 158
192 199 158 192 199 158 192 199 158 192 199 158 192 199 158
192 199 158 192 199 158 192 199 158 192 198 160 192 199 158
192 199 158 192 199 158 192 199 158 193 199 161 194 200 162
195 201 165 195 201 165 195 201 165 195 201 165 195 201 165
195 201 165 195 201 165 195 201 165 195 201 165 195 201 165
195 201 165 195 201 165 195 201 165 195 201 165 195 201 165
195 201 165 195 201 165 195 201 165 195 201 165 195 201 165
195 201 165 195 201 165 195 201 165 195 201 165 195 201 165
195 202 168 195 202 168 195 202 168 195 202 168 195 202 168
195 202 168 195 202 168 195 202 168 195 202 168 195 202 168
195 202 168 195 202 168 195 202 168 195 202 168 195 202 168
195 202 168 195 202 168 195 202 168 195 202 168 195 202 168
195 202 168 195 202 168 195 202 168 195 202 168 195 202 168
195 202 168 195 202 168 195 202 168 195 202 168 195 202 168
195 202 168 195 202 168 195 202 169 194 201 168 194 201 168
194 201 168 194 201 168 194 201 168 194 201 168 194 201 168
194 201 168 194 201 168 194 201 168 194 201 168 194 201 168
194 201 168 194 201 168 195 202 169 196 201 169 196 201 169
197 202 170 197 202 170 197 202 170 198 203 171 198 203 171
198 203 171 198 203 171 198 203 171 198 203 171 198 203 171
196 203 172 196 203 172 195 202 171 195 202 171 193 202 173
193 202 173 193 202 173 193 202 173 193 202 173 193 202 173
193 202 173 193 202 173 193 202 173 193 202 173 193 202 173
193 202 173 193 202 173 193 202 173 193 202 173 193 202 173
193 202 173 193 202 173 193 202 173 193 202 173 193 202 173
193 202 173 193 202 173 193 202 173 193 202 173 193 202 173
193 202 173 193 202 173 194 201 170 193 200 169 193 200 169
193 200 169 193 200 169 193 200 169 193 200 169 193 200 169
193 200 169 193 200 169 193 200 169 193 200 169 193 200 169
193 200 169 193 200 169 193 200 169 193 200 169 193 200 169
193 200 169 193 200 169 193 200 169 193 200 169 193 200 169
193 200 169 193 200 169 193 200 169 193 200 169 193 200 169
194 201 170 193 200 169 192 197 165 190 196 162 190 194 159
190 194 159 192 193 159 192 193 161 190 194 159 190 194 159
190 194 159 190 194 159 190 194 159 190 194 159 190 194 159
190 194 159 190 194 159 190 194 159 190 194 159 190 194 159
190 194 159 190 194 159 190 194 159 190 194 159 190 194 159
190 194 159 190 194 159 190 194 159 190 194 159 190 194 159
190 194 159 190 194 159 183 182 128 183 182 128 183 182 128
183 182 128 183 182 128 183 182 128 183 182 128 183 182 128
183 182 128 183 182 128 183 182 128 183 182 128 183 182 128
183 182 128 183 182 128 183 182 128 182 181 127 185 184 130
182 181 127 184 183 129 184 182 131 183 183 133 188 190 141
188 191 144 188 191 144 188 191 144 188 191 144 188 191 144
188 191 144 188 191 144 188 191 144 188 191 144 188 191 144
188 191 144 188 191 144 188 191 144 188 191 144 188 191 144
188 191 144 188 191 144 188 191 144 188 191 144 188 191 144
188 191 144 188 191 144 188 191 144 188 191 144 188 191 144
193 200 159 192 199 158 192 199 158 191 198 157 191 198 157
191 198 157 192 199 158 192 199 158 192 199 158 192 199 158
192 199 158 192 199 158 192 199 158 192 199 158 192 199 158
192 199 158 192 199 158 192 199 158 192 199 158 192 199 158
192 199 158 192 199 158 192 199 158 192 199 158 192 198 160
192 198 160 192 199 158 192 199 158 193 200 159 194 200 162
195 201 165 195 201 165 195 201 165 195 201 165 195 201 165
195 201 165 195 201 165 195 201 165 195 201 165 195 201 165
195 201 165 195 201 165 195 201 165 195 201 165 195 201 165
195 201 165 195 201 165 195 201 165 195 201 165 195 201 165
195 201 165 195 201 165 195 201 165 195 201 165 195 201 165
195 201 165 195 202 168 195 202 168 195 202 168 195 202 168
195 202 168 195 202 168 195 202 168 195 202 168 195 202 168
195 202 168 195 202 168 195 202 168 195 202 168 195 202 168
195 202 168 195 202 168 195 202 168 195 202 168 195 202 168
195 202 168 195 202 168 195 202 168 195 202 168 195 202 168
195 202 168 195 202 168 195 202 168 195 202 168 195 202 168
195 202 168 195 202 168 195 202 168 196 203 170 195 202 169
195 202 169 194 201 168 194 201 168 193 200 167 193 200 167
193 200 167 193 200 167 193 200 167 194 201 168 194 201 168
195 202 169 196 203 170 196 203 170 196 203 170 198 203 171
198 203 171 198 203 171 198 203 171 198 203 171 198 203 171
198 203 171 198 203 171 198 203 171 198 203 171 198 203 171
198 203 171 198 203 171 196 203 172 196 203 172 196 203 172
193 202 173 193 202 173 193 202 173 193 202 173 193 202 173
193 202 173 193 202 173 193 202 173 193 202 173 193 202 173
193 202 173 193 202 173 193 202 173 193 202 173 193 202 173
193 202 173 193 202 173 193 202 173 193 202 173 193 202 173
193 202 173 193 202 173 193 202 173 193 202 173 193 202 173
193 202 173 193 202 173 193 202 173 194 201 170 193 200 169
193 200 169 193 200 169 193 200 169 193 200 169 193 200 169
193 200 169 193 200 169 193 200 169 193 200 169 193 200 169
193 200 169 193 200 169 193 200 169 193 200 169 193 200 169
193 200 169 193 200 169 193 200 169 193 200 169 193 200 169
193 200 169 193 200 169 193 200 169 193 200 169 193 200 169
193 200 169 194 200 172 193 200 169 193 198 166 191 197 163
191 195 160 190 194 159 192 193 161 192 193 161 190 194 159
190 194 159 190 194 159 190 194 159 190 194 159 190 194 159
190 194 159 190 194 159 190 194 159 190 194 159 190 194 159
190 194 159 190 194 159 190 194 159 190 194 159 190 194 159
190 194 159 190 194 159 190 194 159 190 194 159 190 194 159
190 194 159 190 194 159 190 194 159 183 182 128 183 182 128
183 182 128 183 182 128 183 182 128 183 182 128 183 182 128
183 182 128 183 182 128 183 182 128 183 182 128 183 182 128
183 182 128 183 182 128 183 182 128 183 182 128 182 181 127
184 183 129 181 180 126 184 183 129 186 184 133 185 185 135
189 191 144 187 190 143 188 191 144 188 191 144 188 191 144
188 191 144 188 191 144 188 191 144 188 191 144 188 191 144
188 191 144 188 191 144 188 191 144 188 191 144 188 191 144
188 191 144 188 191 144 188 191 144 188 191 144 188 191 144
188 191 144 188 191 144 188 191 144 188 191 144 188 191 144
188 191 144 192 199 158 192 199 158 192 199 158 192 199 158
192 199 158 192 199 158 192 199 158 192 199 158 192 199 158
192 199 158 192 199 158 192 199 158 192 199 158 192 199 158
192 199 158 192 199 158 192 199 158 192 199 158 192 199 158
192 199 158 192 199 158 192 199 158 192 199 158 192 199 158
193 199 161 192 198 160 192 199 158 192 199 158 193 200 159
195 201 163 195 201 165 195 201 167 195 201 165 195 201 165
195 201 165 195 201 165 195 201 165 195 201 165 195 201 165
195 201 165 195 201 165 195 201 165 195 201 165 195 201 165
195 201 165 195 201 165 195 201 165 195 201 165 195 201 165
195 201 165 195 201 165 195 201 165 195 201 165 195 201 165
195 201 165 195 201 165 195 202 168 195 202 168 195 202 168
195 202 168 195 202 168 195 202 168 195 202 168 195 202 168
195 202 168 195 202 168 195 202 168 195 202 168 195 202 168
195 202 168 195 202 168 195 202 168 195 202 168 195 202 168
195 202 168 195 202 168 195 202 168 195 202 168 195 202 168
195 202 168 195 202 168 195 202 168 195 202 168 195 202 168
195 202 168 195 202 168 195 202 168 195 202 168 196 203 170
195 202 169 195 202 169 194 201 168 194 201 168 194 201 168
194 201 168 194 201 168 195 200 168 195 200 168 196 201 169
196 201 169 197 202 170 198 203 171 198 203 171 198 203 171
199 204 172 199 204 172 198 203 171 198 203 171 198 203 171
198 203 171 197 202 170 197 202 170 198 203 171 198 203 171
198 203 171 198 203 171 198 203 171 198 203 171 197 202 170
197 202 170 193 202 173 193 202 173 193 202 173 193 202 173
193 202 173 193 202 173 193 202 173 193 202 173 193 202 173
193 202 173 193 202 173 193 202 173 193 202 173 193 202 173
193 202 173 193 202 173 193 202 173 193 202 173 193 202 173
193 202 173 193 202 173 193 202 173 193 202 173 193 202 173
193 202 173 193 202 173 193 202 173 193 202 173 194 201 170
193 200 169 193 200 169 193 200 169 193 200 169 193 200 169
193 200 169 193 200 169 193 200 169 193 200 169 193 200 169
193 200 169 193 200 169 193 200 169 193 200 169 193 200 169
193 200 169 193 200 169 193 200 169 193 200 169 193 200 169
193 200 169 193 200 169 193 200 169 193 200 169 193 200 169
193 200 169 193 200 169 194 200 172 193 200 169 193 198 166
192 198 164 191 195 162 190 194 161 192 193 161 192 193 161
190 194 159 190 194 159 190 194 159 190 194 159 190 194 159
190 194 159 190 194 159 190 194 159 190 194 159 190 194 159
190 194 159 190 194 159 190 194 159 190 194 159 190 194 159
190 194 159 190 194 159 190 194 159 190 194 159 190 194 159
190 194 159 190 194 159 190 194 159 190 194 159 183 182 128
183 182 128 183 182 128 183 182 128 183 182 128 183 182 128
183 182 128 183 182 128 183 182 128 183 182 128 183 182 128
183 182 128 183 182 128 183 182 128 183 182 128 183 182 128
183 182 128 184 183 129 180 179 125 185 184 130 189 187 136
189 188 140 191 193 146 187 190 145 188 191 144 188 191 144
188 191 144 188 191 144 188 191 144 188 191 144 188 191 144
188 191 144 188 191 144 188 191 144 188 191 144 188 191 144
188 191 144 188 191 144 188 191 144 188 191 144 188 191 144
188 191 144 188 191 144 188 191 144 188 191 144 188 191 144
188 191 144 188 191 144 192 199 158 192 199 158 192 199 158
192 199 158 192 199 158 192 199 158 192 199 158 192 199 158
192 199 158 192 199 158 192 199 158 192 199 158 192 199 158
192 199 158 192 199 158 192 199 158 192 199 158 192 199 158
192 199 158 192 199 158 192 199 158 192 199 158 192 199 158
192 199 158 193 199 161 192 198 160 191 198 157 192 199 158
194 200 162 195 201 163 195 201 165 195 201 167 195 201 165
195 201 165 195 201 165 195 201 165 195 201 165 195 201 165
195 201 165 195 201 165 195 201 165 195 201 165 195 201 165
195 201 165 195 201 165 195 201 165 195 201 165 195 201 165
195 201 165 195 201 165 195 201 165 195 201 165 195 201 165
195 201 165 195 201 165 195 201 165 195 202 168 195 202 168
195 202 168 195 202 168 195 202 168 195 202 168 195 202 168
195 202 168 195 202 168 195 202 168 195 202 168 195 202 168
195 202 168 195 202 168 195 202 168 195 202 168 195 202 168
195 202 168 195 202 168 195 202 168 195 202 168 195 202 168
195 202 168 195 202 168 195 202 168 195 202 168 195 202 168
195 202 168 195 202 168 195 202 168 195 202 168 195 202 168
195 202 169 195 202 169 195 202 169 195 202 169 195 202 169
195 202 169 195 202 169 195 202 169 197 202 170 197 202 170
197 202 170 197 202 170 198 203 171 198 203 171 198 203 171
198 203 171 198 203 171 198 203 171 198 203 171 198 203 171
198 203 171 198 203 171 198 203 171 198 203 171 198 203 171
198 203 171 198 203 171 198 203 171 198 203 171 198 203 171
198 203 171 197 202 170 193 202 173 193 202 173 193 202 173
193 202 173 193 202 173 193 202 173 193 202 173 193 202 173
193 202 173 193 202 173 193 202 173 193 202 173 193 202 173
193 202 173 193 202 173 193 202 173 193 202 173 193 202 173
193 202 173 193 202 173 193 202 173 193 202 173 193 202 173
193 202 173 193 202 173 193 202 173 193 202 173 193 202 173
194 201 170 193 200 169 193 200 169 193 200 169 193 200 169
193 200 169 193 200 169 193 200 169 193 200 169 193 200 169
193 200 169 193 200 169 193 200 169 193 200 169 193 200 169
193 200 169 193 200 169 193 200 169 193 200 169 193 200 169
193 200 169 193 200 169 193 200 169 193 200 169 193 200 169
193 200 169 193 200 169 193 200 169 193 199 171 194 201 170
194 199 167 192 198 164 191 195 162 190 194 161 192 193 161
193 194 162 190 194 159 190 194 159 190 194 159 190 194 159
190 194 159 190 194 159 190 194 159 190 194 159 190 194 159
190 194 159 190 194 159 190 194 159 190 194 159 190 194 159
190 194 159 190 194 159 190 194 159 190 194 159 190 194 159
190 194 159 190 194 159 190 194 159 190 194 159 190 194 159
183 182 128 183 182 128 183 182 128 183 182 128 183 182 128
183 182 128 183 182 128 183 182 128 183 182 128 183 182 128
183 182 128 183 182 128 183 182 128 183 182 128 183 182 128
183 182 128 183 181 130 184 183 129 180 179 125 186 184 133
191 189 138 191 190 142 192 194 147 187 190 145 188 191 144
188 191 144 188 191 144 188 191 144 188 191 144 188 191 144
188 191 144 188 191 144 188 191 144 188 191 144 188 191 144
188 191 144 188 191 144 188 191 144 188 191 144 188 191 144
188 191 144 188 191 144 188 191 144 188 191 144 188 191 144
188 191 144 188 191 144 188 191 144 191 198 157 191 198 157
192 199 158 192 199 158 192 199 158 193 200 159 192 199 158
192 199 158 192 199 158 192 199 158 192 199 158 192 199 158
192 199 158 192 199 158 192 199 158 192 199 158 192 199 158
192 199 158 192 199 158 192 199 158 192 199 158 192 199 158
192 199 158 192 199 158 193 199 161 192 198 160 191 197 159
192 199 158 194 200 162 195 201 163 196 202 166 195 201 167
195 201 165 195 201 165 195 201 165 195 201 165 195 201 165
195 201 165 195 201 165 195 201 165 195 201 165 195 201 165
195 201 165 195 201 165 195 201 165 195 201 165 195 201 165
195 201 165 195 201 165 195 201 165 195 201 165 195 201 165
195 201 165 195 201 165 195 201 165 195 201 165 195 202 168
195 202 168 195 202 168 195 202 168 195 202 168 195 202 168
195 202 168 195 202 168 195 202 168 195 202 168 195 202 168
195 202 168 195 202 168 195 202 168 195 202 168 195 202 168
195 202 168 195 202 168 195 202 168 195 202 168 195 202 168
195 202 168 195 202 168 195 202 168 195 202 168 195 202 168
195 202 168 195 202 168 195 202 168 195 202 168 195 202 168
195 202 168 194 201 168 194 201 168 194 201 168 195 202 169
195 202 169 196 203 170 197 204 171 197 204 171 199 204 172
198 203 171 198 203 171 198 203 171 198 203 171 198 203 171
198 203 171 198 203 171 197 202 170 198 203 171 198 203 171
198 203 171 198 203 171 198 203 171 198 203 171 198 203 171
198 203 171 198 203 171 198 203 171 198 203 171 198 203 171
198 203 171 199 203 170 199 203 170 193 202 173 193 202 173
193 202 173 193 202 173 193 202 173 193 202 173 193 202 173
193 202 173 193 202 173 193 202 173 193 202 173 193 202 173
193 202 173 193 202 173 193 202 173 193 202 173 193 202 173
193 202 173 193 202 173 193 202 173 193 202 173 193 202 173
193 202 173 193 202 173 193 202 173 193 202 173 193 202 173
193 202 173 194 201 170 193 200 169 193 200 169 193 200 169
193 200 169 193 200 169 193 200 169 193 200 169 193 200 169
193 200 169 193 200 169 193 200 169 193 200 169 193 200 169
193 200 169 193 200 169 193 200 169 193 200 169 193 200 169
193 200 169 193 200 169 193 200 169 193 200 169 193 200 169
193 200 169 193 200 169 193 200 169 193 200 169 193 199 171
194 201 170 194 199 167 193 199 165 191 195 162 190 194 161
192 193 161 193 194 162 190 194 159 190 194 159 190 194 159
190 194 159 190 194 159 190 194 159 190 194 159 190 194 159
190 194 159 190 194 159 190 194 159 190 194 159 190 194 159
190 194 159 190 194 159 190 194 159 190 194 159 190 194 159
190 194 159 190 194 159 190 194 159 190 194 159 190 194 159
190 194 159 183 182 128 183 182 128 183 182 128 183 182 128
183 182 128 183 182 128 183 182 128 183 182 128 183 182 128
183 182 128 183 182 128 183 182 128 183 182 128 183 182 128
183 182 128 183 182 128 184 184 132 183 183 131 182 182 130
185 185 133 190 190 138 190 192 142 188 192 142 184 190 142
188 191 144 188 191 144 188 191 144 188 191 144 188 191 144
188 191 144 188 191 144 188 191 144 187 190 143 188 191 144
188 191 144 188 191 144 188 191 144 188 191 144 187 190 143
187 190 143 187 190 145 188 191 144 189 193 143 188 192 142
187 191 141 188 191 146 191 193 153 194 196 157 193 198 158
193 198 158 193 198 158 193 198 157 193 198 157 193 198 157
193 198 157 192 197 156 192 199 158 192 199 158 192 199 158
192 199 158 192 199 158 192 199 158 192 199 158 192 199 158
192 199 158 192 199 158 192 199 158 192 199 158 192 199 158
192 199 158 192 199 158 192 199 158 192 199 158 192 199 158
193 199 161 194 200 164 195 201 165 196 202 166 195 201 165
195 201 163 195 201 165 195 201 165 195 201 165 195 201 165
195 201 165 195 201 165 195 201 165 195 201 165 195 201 165
195 201 165 195 201 165 195 201 165 195 201 165 195 201 165
195 201 165 195 201 165 195 201 165 195 201 165 195 201 165
195 201 165 195 201 165 195 201 165 195 201 165 195 201 165
195 202 168 195 202 168 195 202 168 195 202 168 195 202 168
195 202 168 195 202 168 195 202 168 195 202 168 195 202 168
195 202 168 195 202 168 195 202 168 195 202 168 195 202 168
195 202 168 195 202 168 195 202 168 195 202 168 195 202 168
195 202 168 195 202 168 195 202 168 195 202 168 195 202 168
195 202 168 195 202 168 195 202 168 195 202 168 195 202 168
195 202 168 195 202 168 195 202 168 195 202 168 195 202 168
196 203 169 198 203 171 198 203 171 198 203 171 198 203 171
198 203 171 198 203 171 198 203 171 198 203 171 198 203 171
198 203 171 198 203 171 198 203 171 198 203 171 198 203 171
198 203 171 198 203 171 198 203 171 198 203 171 198 203 171
198 203 171 198 203 171 198 203 171 198 203 171 198 203 171
198 203 171 198 203 171 198 203 171 198 203 171 194 203 174
194 203 174 193 202 175 192 200 176 191 200 173 191 200 173
195 201 173 196 202 174 186 201 172 197 206 179 201 201 175
203 203 177 191 195 168 192 203 173 193 206 176 190 203 173
193 202 173 193 202 173 193 202 173 193 202 173 193 202 173
193 202 173 193 202 173 193 202 173 193 202 173 193 202 173
193 202 173 193 202 173 194 201 170 193 200 169 193 200 169
193 200 169 193 200 169 193 200 169 193 200 169 193 200 169
193 200 169 193 200 169 193 200 169 193 200 169 193 200 169
193 200 169 193 200 169 193 200 169 193 200 169 193 200 169
193 200 169 193 200 169 193 200 169 193 200 169 193 200 169
193 200 169 193 200 169 193 200 169 193 200 169 193 200 169
192 201 172 193 200 169 192 199 168 192 197 165 190 195 163
190 194 161 189 193 160 190 191 157 189 193 158 189 193 158
190 194 159 190 194 159 190 194 159 190 194 159 190 194 159
190 194 159 190 194 159 190 194 159 190 194 159 190 194 159
190 194 159 190 194 159 190 194 159 190 194 159 191 195 160
191 195 160 190 194 159 190 194 159 190 194 159 190 194 159
191 195 160 191 195 160 184 183 129 184 183 129 184 183 129
184 183 129 184 183 129 184 183 129 184 183 129 184 183 129
183 182 128 183 182 128 183 182 128 183 182 128 184 183 129
184 183 129 184 183 129 185 184 130 185 185 133 184 184 132
183 183 131 186 186 134 190 190 138 190 192 142 189 193 143
185 191 143 188 191 144 188 191 144 188 191 144 188 191 144
188 191 144 188 191 144 188 191 144 188 191 144 188 191 144
188 191 144 188 191 144 188 191 144 188 191 144 188 191 144
188 191 144 187 190 143 188 191 146 188 191 144 188 192 142
187 191 141 187 191 141 188 191 146 191 193 153 194 196 157
192 199 158 192 199 158 192 199 158 192 199 158 193 198 158
193 198 158 193 198 158 193 198 158 192 199 158 192 199 158
192 199 158 192 199 158 192 199 158 192 199 158 192 199 158
192 199 158 192 199 158 192 199 158 192 199 158 192 199 158
192 199 158 192 199 158 192 199 158 192 199 158 192 199 158
192 199 158 193 199 161 194 200 164 195 201 165 196 202 166
195 201 165 195 201 163 195 201 165 195 201 165 195 201 165
195 201 165 195 201 165 195 201 165 195 201 165 195 201 165
195 201 165 195 201 165 195 201 165 195 201 165 195 201 165
195 201 165 195 201 165 195 201 165 195 201 165 195 201 165
195 201 165 195 201 165 195 201 165 195 201 165 195 201 165
195 201 165 195 202 168 195 202 168 195 202 168 195 202 168
195 202 168 195 202 168 195 202 168 195 202 168 195 202 168
195 202 168 195 202 168 195 202 168 195 202 168 195 202 168
195 202 168 195 202 168 195 202 168 195 202 168 195 202 168
195 202 168 195 202 168 195 202 168 195 202 168 195 202 168
195 202 168 195 202 168 195 202 168 195 202 168 195 202 168
195 202 168 195 202 168 195 202 168 195 202 168 195 202 168
195 202 168 196 203 169 198 203 171 198 203 171 198 203 171
198 203 171 198 203 171 198 203 171 198 203 171 198 203 171
198 203 171 198 203 171 198 203 171 198 203 171 198 203 171
198 203 171 198 203 171 198 203 171 198 203 171 198 203 171
198 203 171 198 203 171 198 203 171 198 203 171 198 203 171
198 203 171 198 203 171 198 203 171 198 203 171 198 203 171
196 206 172 196 205 174 196 205 174 196 205 176 196 205 176
195 204 175 193 202 171 192 201 170 200 203 176 193 197 170
190 196 168 190 203 173 192 207 176 193 206 176 190 196 170
197 197 173 193 202 173 193 202 173 193 202 173 193 202 173
193 202 173 193 202 173 193 202 173 193 202 173 193 202 173
193 202 173 193 202 173 193 202 173 194 201 170 193 200 169
193 200 169 193 200 169 193 200 169 193 200 169 193 200 169
193 200 169 193 200 169 193 200 169 193 200 169 193 200 169
193 200 169 193 200 169 193 200 169 193 200 169 193 200 169
193 200 169 193 200 169 193 200 169 193 200 169 193 200 169
193 200 169 193 200 169 193 200 169 193 200 169 193 200 169
193 200 169 192 201 172 193 200 169 193 200 169 193 198 166
192 197 165 192 196 163 191 195 162 193 194 160 190 194 159
190 194 159 190 194 159 190 194 159 190 194 159 189 193 158
189 193 158 189 193 158 190 194 159 190 194 159 191 195 160
191 195 160 191 195 160 191 195 160 191 195 160 191 195 160
190 194 159 190 194 159 189 193 158 189 193 158 189 193 158
190 194 159 190 194 159 190 194 159 183 182 128 183 182 128
183 182 128 183 182 128 183 182 128 183 182 128 183 182 128
183 182 128 184 183 129 184 183 129 184 183 129 185 184 130
185 184 130 186 185 131 186 185 131 186 185 131 186 186 134
185 185 133 184 184 132 186 186 134 190 190 138 190 192 142
189 193 143 186 192 144 188 191 144 188 191 144 188 191 144
188 191 144 188 191 144 188 191 144 188 191 144 188 191 144
188 191 144 188 191 144 188 191 144 188 191 144 188 191 144
188 191 144 188 191 144 188 191 144 188 191 146 188 191 144
188 191 144 187 191 141 187 190 143 188 191 146 192 194 154
195 197 158 192 199 158 192 199 158 192 199 158 192 199 158
192 199 158 192 199 158 192 199 158 193 200 159 192 199 158
192 199 158 192 199 158 192 199 158 192 199 158 192 199 158
192 199 158 192 199 158 192 199 158 192 199 158 192 199 158
192 199 158 192 199 158 192 199 158 192 199 158 192 199 158
192 199 158 193 200 159 193 199 161 194 200 164 195 201 165
195 201 165 195 201 165 195 201 163 195 201 165 195 201 165
195 201 165 195 201 165 195 201 165 195 201 165 195 201 165
195 201 165 195 201 165 195 201 165 195 201 165 195 201 165
195 201 165 195 201 165 195 201 165 195 201 165 195 201 165
195 201 165 195 201 165 195 201 165 195 201 165 195 201 165
195 201 165 195 201 165 195 202 168 195 202 168 195 202 168
195 202 168 195 202 168 195 202 168 195 202 168 195 202 168
195 202 168 195 202 168 195 202 168 195 202 168 195 202 168
195 202 168 195 202 168 195 202 168 195 202 168 195 202 168
195 202 168 195 202 168 195 202 168 195 202 168 195 202 168
195 202 168 195 202 168 195 202 168 195 202 168 195 202 168
195 202 168 195 202 168 195 202 168 195 202 168 195 202 168
195 202 168 195 202 168 196 203 169 198 203 171 198 203 171
198 203 171 198 203 171 198 203 171 198 203 171 198 203 171
198 203 171 198 203 171 198 203 171 198 203 171 198 203 171
198 203 171 198 203 171 198 203 171 198 203 171 198 203 171
198 203 171 198 203 171 198 203 171 198 203 171 198 203 171
198 203 171 198 203 171 198 203 171 198 203 171 198 203 171
198 203 171 199 205 169 196 203 169 193 200 167 193 200 169
192 201 170 193 202 171 192 203 171 192 203 169 190 204 169
190 204 169 196 207 173 189 200 166 189 203 170 193 204 172
190 201 169 198 209 179 193 202 173 193 202 173 193 202 173
193 202 173 193 202 173 193 202 173 193 202 173 193 202 173
193 202 173 193 202 173 193 202 173 193 202 173 194 201 170
193 200 169 193 200 169 193 200 169 193 200 169 193 200 169
193 200 169 193 200 169 193 200 169 193 200 169 193 200 169
193 200 169 193 200 169 193 200 169 193 200 169 193 200 169
193 200 169 193 200 169 193 200 169 193 200 169 193 200 169
193 200 169 193 200 169 193 200 169 193 200 169 193 200 169
193 200 169 193 200 169 193 200 169 193 200 169 193 200 169
193 198 166 193 198 166 194 198 165 193 197 164 193 197 164
193 197 162 192 196 161 192 196 161 191 195 160 191 195 160
190 194 159 190 194 159 189 193 158 190 194 159 190 194 159
190 194 159 190 194 159 191 195 160 191 195 160 191 195 160
191 195 160 190 194 157 190 194 157 189 193 156 189 193 156
189 193 156 189 193 156 190 194 157 190 194 157 183 182 128
183 182 128 183 182 128 183 182 128 183 182 128 183 182 128
183 182 128 183 182 128 185 183 132 185 183 132 185 183 132
186 184 133 186 184 133 186 184 133 187 185 134 187 185 134
186 186 134 185 185 133 186 184 133 187 185 134 189 189 137
189 191 141 189 193 143 187 193 145 188 191 144 188 191 144
188 191 144 188 191 144 188 191 144 188 191 144 188 191 144
188 191 144 188 191 144 188 191 144 188 191 144 188 191 144
188 191 144 188 191 144 188 191 144 188 191 144 188 191 146
188 191 146 188 191 144 188 191 144 188 191 144 190 193 148
192 195 152 194 196 156 191 198 157 191 198 157 192 199 158
192 199 158 193 199 161 192 200 161 191 199 160 191 199 160
192 199 158 192 199 158 192 199 158 192 199 158 192 199 158
192 199 158 192 199 158 192 199 158 192 199 158 192 199 158
192 199 158 192 199 158 192 199 158 192 199 158 192 199 158
192 199 158 192 199 158 193 200 159 194 200 162 195 201 165
195 201 165 195 201 165 195 201 165 195 201 163 195 201 165
195 201 165 195 201 165 195 201 165 195 201 165 195 201 165
195 201 165 195 201 165 195 201 165 195 201 165 195 201 165
195 201 165 195 201 165 195 201 165 195 201 165 195 201 165
195 201 165 195 201 165 195 201 165 195 201 165 195 201 165
195 201 165 195 201 165 195 201 165 195 202 168 195 202 168
195 202 168 195 202 168 195 202 168 195 202 168 195 202 168
195 202 168 195 202 168 195 202 168 195 202 168 195 202 168
195 202 168 195 202 168 195 202 168 195 202 168 195 202 168
195 202 168 195 202 168 195 202 168 195 202 168 195 202 168
195 202 168 195 202 168 195 202 168 195 202 168 195 202 168
195 202 168 195 202 168 195 202 168 195 202 168 195 202 168
195 202 168 195 202 168 195 202 168 196 203 169 198 203 171
198 203 171 198 203 171 198 203 171 198 203 171 198 203 171
198 203 171 198 203 171 198 203 171 198 203 171 198 203 171
198 203 171 198 203 171 198 203 171 198 203 171 198 203 171
198 203 171 198 203 171 198 203 171 198 203 171 198 203 171
198 203 171 198 203 171 198 203 171 198 203 171 198 203 171
198 203 171 198 203 171 202 206 173 200 206 172 198 203 173
195 201 173 193 202 173 193 202 173 193 204 174 194 205 173
197 199 175 193 199 173 192 205 177 191 205 179 195 205 180
197 202 180 199 201 180 197 196 176 193 202 173 193 202 173
193 202 173 193 202 173 193 202 173 193 202 173 193 202 173
193 202 173 193 202 173 193 202 173 193 202 173 193 202 173
194 201 170 193 200 169 193 200 169 193 200 169 193 200 169
193 200 169 193 200 169 193 200 169 193 200 169 193 200 169
193 200 169 193 200 169 193 200 169 193 200 169 193 200 169
193 200 169 193 200 169 193 200 169 193 200 169 193 200 169
193 200 169 193 200 169 193 200 169 193 200 169 193 200 169
193 200 169 193 200 169 193 200 169 193 200 169 193 200 169
194 199 167 194 199 167 193 198 166 193 198 166 194 198 165
194 198 165 195 199 166 195 199 166 194 198 165 194 198 165
193 197 164 193 197 164 192 196 163 192 196 163 190 194 159
190 194 159 190 194 159 190 194 159 190 194 159 189 193 158
189 193 158 189 193 158 191 195 158 190 194 157 190 194 157
190 194 157 190 194 157 190 194 157 190 194 157 190 194 157
186 184 133 186 184 133 186 184 133 186 184 133 186 184 133
186 184 133 186 184 133 186 184 133 187 185 134 187 185 134
187 185 134 187 185 134 186 184 133 186 184 133 186 184 133
186 184 133 185 185 133 186 184 133 186 184 133 186 184 133
187 187 135 187 189 139 188 192 142 189 192 145 188 191 144
188 191 144 188 191 144 188 191 144 188 191 144 188 191 144
188 191 144 188 191 144 188 191 144 188 191 144 188 191 144
188 191 144 188 191 144 188 191 144 189 192 145 189 192 145
187 190 145 188 191 146 189 192 145 190 193 146 190 193 146
191 194 149 192 195 152 192 195 152 190 195 154 191 196 155
193 198 158 193 200 159 193 200 159 193 199 161 191 199 160
190 198 159 192 199 158 192 199 158 192 199 158 192 199 158
192 199 158 192 199 158 192 199 158 192 199 158 192 199 158
192 199 158 192 199 158 192 199 158 192 199 158 192 199 158
192 199 158 192 199 158 192 199 158 193 200 159 195 201 163
195 201 165 195 201 165 195 201 165 195 201 165 196 202 164
195 201 165 195 201 165 195 201 165 195 201 165 195 201 165
195 201 165 195 201 165 195 201 165 195 201 165 195 201 165
195 201 165 195 201 165 195 201 165 195 201 165 195 201 165
195 201 165 195 201 165 195 201 165 195 201 165 195 201 165
195 201 165 195 201 165 195 201 165 195 201 165 195 202 168
195 202 168 195 202 168 195 202 168 195 202 168 195 202 168
195 202 168 195 202 168 195 202 168 195 202 168 195 202 168
195 202 168 195 202 168 195 202 168 195 202 168 195 202 168
195 202 168 195 202 168 195 202 168 195 202 168 195 202 168
195 202 168 195 202 168 195 202 168 195 202 168 195 202 168
195 202 168 195 202 168 195 202 168 195 202 168 195 202 168
195 202 168 195 202 168 195 202 168 195 202 168 196 203 169
198 203 171 198 203 171 198 203 171 198 203 171 198 203 171
198 203 171 198 203 171 198 203 171 198 203 171 198 203 171
198 203 171 198 203 171 198 203 171 198 203 171 198 203 171
198 203 171 198 203 171 198 203 171 198 203 171 198 203 171
198 203 171 198 203 171 198 203 171 198 203 171 198 203 171
198 203 171 198 203 171 198 203 171 198 201 170 200 203 174
200 204 177 199 205 179 197 203 177 193 202 175 191 201 174
191 202 172 191 213 175 185 207 169 184 201 165 197 207 173
193 196 167 186 191 161 192 207 174 183 209 174 193 202 173
193 202 173 193 202 173 193 202 173 193 202 173 193 202 173
193 202 173 193 202 173 193 202 173 193 202 173 193 202 173
193 202 173 194 201 170 193 200 169 193 200 169 193 200 169
193 200 169 193 200 169 193 200 169 193 200 169 193 200 169
193 200 169 193 200 169 193 200 169 193 200 169 193 200 169
193 200 169 193 200 169 193 200 169 193 200 169 193 200 169
193 200 169 193 200 169 193 200 169 193 200 169 193 200 169
193 200 169 193 200 169 193 200 169 193 200 169 193 200 169
194 199 167 193 198 166 193 198 166 193 198 166 193 198 166
193 198 166 194 198 165 194 199 167 194 199 167 194 199 167
193 198 166 193 198 166 193 198 166 193 198 166 193 198 166
192 196 161 192 196 161 191 195 160 191 195 160 190 194 159
190 194 159 189 193 158 189 193 158 191 195 158 190 194 157
190 194 157 190 194 157 190 194 157 190 194 157 190 194 157
190 194 157 186 184 133 186 184 133 186 184 133 186 184 133
186 184 133 186 184 133 186 184 133 186 184 133 187 185 134
187 185 134 187 185 134 187 185 134 186 184 133 186 184 133
186 184 133 186 184 133 186 184 133 186 184 133 186 184 133
186 184 133 186 184 133 187 187 137 188 190 141 189 192 145
188 191 144 188 191 144 188 191 144 188 191 144 188 191 144
188 191 144 188 191 144 188 191 144 188 191 144 188 191 144
188 191 144 187 190 143 188 191 144 188 191 144 189 192 145
189 192 145 190 191 147 190 191 147 192 193 149 193 194 150
193 194 150 193 194 150 193 194 150 192 193 149 191 194 151
192 195 152 194 196 156 193 198 157 194 199 159 192 199 158
191 197 159 191 197 159 192 199 158 192 199 158 192 199 158
192 199 158 192 199 158 192 199 158 192 199 158 192 199 158
192 199 158 192 199 158 192 199 158 192 199 158 192 199 158
192 199 158 192 199 158 192 199 158 192 199 158 194 201 160
195 201 163 196 202 166 195 201 165 194 200 164 195 201 165
196 202 164 195 201 165 195 201 165 195 201 165 195 201 165
195 201 165 195 201 165 195 201 165 195 201 165 195 201 165
195 201 165 195 201 165 195 201 165 195 201 165 195 201 165
195 201 165 195 201 165 195 201 165 195 201 165 195 201 165
195 201 165 195 201 165 195 201 165 195 201 165 195 201 165
195 202 168 195 202 168 195 202 168 195 202 168 195 202 168
195 202 168 195 202 168 195 202 168 195 202 168 195 202 168
195 202 168 195 202 168 195 202 168 195 202 168 195 202 168
195 202 168 195 202 168 195 202 168 195 202 168 195 202 168
195 202 168 195 202 168 195 202 168 195 202 168 195 202 168
195 202 168 195 202 168 195 202 168 195 202 168 195 202 168
195 202 168 195 202 168 195 202 168 195 202 168 195 202 168
196 203 169 198 203 171 198 203 171 198 203 171 198 203 171
198 203 171 198 203 171 198 203 171 198 203 171 198 203 171
198 203 171 198 203 171 198 203 171 198 203 171 198 203 171
198 203 171 198 203 171 198 203 171 198 203 171 198 203 171
198 203 171 198 203 171 198 203 171 198 203 171 198 203 171
198 203 171 198 203 171 198 203 171 198 203 171 195 200 170
196 200 173 196 200 173 196 200 175 195 201 175 195 201 173
195 204 173 196 205 174 196 194 171 200 206 180 191 201 174
199 205 179 199 197 174 208 202 180 202 202 178 191 200 173
193 202 173 193 202 173 193 202 173 193 202 173 193 202 173
193 202 173 193 202 173 193 202 173 193 202 173 193 202 173
193 202 173 193 202 173 194 201 170 193 200 169 193 200 169
193 200 169 193 200 169 193 200 169 193 200 169 193 200 169
193 200 169 193 200 169 193 200 169 193 200 169 193 200 169
193 200 169 193 200 169 193 200 169 193 200 169 193 200 169
193 200 169 193 200 169 193 200 169 193 200 169 193 200 169
193 200 169 193 200 169 193 200 169 193 200 169 193 200 169
194 199 167 193 198 166 193 198 166 193 198 166 193 198 166
193 198 166 192 197 165 192 197 165 192 197 165 192 197 165
192 197 165 192 197 165 193 198 166 193 198 166 193 198 166
193 198 166 194 200 166 193 199 165 193 199 165 192 198 164
192 198 164 191 197 163 191 197 163 190 196 162 191 195 160
190 194 159 190 194 159 189 193 158 189 193 158 189 193 158
189 193 158 189 193 158 185 183 132 185 183 132 185 183 132
185 183 132 185 183 132 185 183 132 185 183 132 185 183 132
186 184 133 186 184 133 186 184 133 186 184 133 186 184 133
186 184 133 186 184 133 186 184 133 186 184 133 186 184 133
186 184 133 185 183 132 185 183 132 186 186 136 187 189 140
189 192 145 188 191 144 188 191 144 188 191 144 188 191 144
188 191 144 188 191 144 188 191 144 188 191 144 188 191 144
188 191 144 187 190 143 187 190 143 188 191 144 188 191 144
189 192 145 190 193 146 192 193 149 192 193 149 193 194 150
193 194 150 194 195 151 194 195 151 193 194 150 193 194 150
193 194 150 193 194 150 194 195 153 193 196 153 192 197 156
192 197 156 191 198 157 192 199 158 192 199 158 192 199 158
192 199 158 192 199 158 192 199 158 192 199 158 192 199 158
192 199 158 192 199 158 192 199 158 192 199 158 192 199 158
192 199 158 192 199 158 192 199 158 192 199 158 192 199 158
194 201 160 196 202 164 196 202 166 195 201 165 194 200 164
195 201 165 196 202 164 195 201 165 195 201 165 195 201 165
195 201 165 195 201 165 195 201 165 195 201 165 195 201 165
195 201 165 195 201 165 195 201 165 195 201 165 195 201 165
195 201 165 195 201 165 195 201 165 195 201 165 195 201 165
195 201 165 195 201 165 195 201 165 195 201 165 195 201 165
195 201 165 195 202 168 195 202 168 195 202 168 195 202 168
195 202 168 195 202 168 195 202 168 195 202 168 195 202 168
195 202 168 195 202 168 195 202 168 195 202 168 195 202 168
195 202 168 195 202 168 195 202 168 195 202 168 195 202 168
195 202 168 195 202 168 195 202 168 195 202 168 195 202 168
195 202 168 195 202 168 195 202 168 195 202 168 195 202 168
195 202 168 195 202 168 195 202 168 195 202 168 195 202 168
195 202 168 196 203 169 198 203 171 198 203 171 198 203 171
198 203 171 198 203 171 198 203 171 198 203 171 198 203 171
198 203 171 198 203 171 198 203 171 198 203 171 198 203 171
198 203 171 198 203 171 198 203 171 198 203 171 198 203 171
198 203 171 198 203 171 198 203 171 198 203 171 198 203 171
198 203 171 198 203 171 198 203 171 198 203 171 198 203 171
201 206 174 199 204 172 198 203 173 198 203 173 198 205 172
197 204 170 193 201 164 191 199 160 176 165 119 151 168 113
101 151 82 83 145 72 103 155 83 146 178 113 153 169 107 198 206 147
193 202 173 193 202 173 193 202 173 193 202 173 193 202 173
193 202 173 193 202 173 193 202 173 193 202 173 193 202 173
193 202 173 193 202 173 194 201 170 193 200 169 193 200 169
193 200 169 193 200 169 193 200 169 193 200 169 193 200 169
193 200 169 193 200 169 193 200 169 193 200 169 193 200 169
193 200 169 193 200 169 193 200 169 193 200 169 193 200 169
193 200 169 193 200 169 193 200 169 193 200 169 193 200 169
193 200 169 193 200 169 193 200 169 193 200 169 193 200 169
193 198 166 193 198 166 193 198 166 193 198 166 193 198 166
193 198 166 193 198 166 193 198 166 192 197 165 192 197 165
192 197 165 192 197 165 192 197 165 192 197 165 193 198 166
193 198 166 194 199 167 194 199 167 194 199 167 193 198 166
193 198 166 193 198 166 193 198 166 193 198 166 192 196 163
192 196 163 191 195 162 191 195 162 191 195 162 191 195 162
191 195 162 191 195 162 186 184 133 186 184 133 186 184 133
186 184 133 186 184 133 186 184 133 186 184 133 186 184 133
185 183 132 185 183 132 185 183 132 186 184 133 186 184 133
186 184 133 186 184 133 186 184 133 186 184 133 187 185 134
187 184 133 186 183 132 185 183 132 186 186 136 187 189 140
190 193 146 188 191 144 188 191 144 188 191 144 188 191 144
188 191 144 188 191 144 188 191 144 188 191 144 189 192 145
188 191 144 187 190 143 187 190 143 187 190 143 188 191 144
189 192 145 190 193 146 194 195 151 193 194 150 193 194 150
193 194 150 194 195 151 194 195 151 194 195 151 193 195 148
195 194 148 195 194 150 192 193 149 192 193 151 192 195 152
191 196 155 193 198 157 194 199 159 192 199 158 192 199 158
192 199 158 192 199 158 192 199 158 192 199 158 192 199 158
192 199 158 192 199 158 192 199 158 192 199 158 192 199 158
192 199 158 192 199 158 192 199 158 192 199 158 192 199 158
194 201 160 196 202 164 196 202 166 195 201 165 194 200 164
195 201 165 196 202 164 195 201 165 195 201 165 195 201 165
195 201 165 195 201 165 195 201 165 195 201 165 195 201 165
195 201 165 195 201 165 195 201 165 195 201 165 195 201 165
195 201 165 195 201 165 195 201 165 195 201 165 195 201 165
195 201 165 195 201 165 195 201 165 195 201 165 195 201 165
195 201 165 195 202 168 195 202 168 195 202 168 195 202 168
195 202 168 195 202 168 195 202 168 195 202 168 195 202 168
195 202 168 195 202 168 195 202 168 195 202 168 195 202 168
195 202 168 195 202 168 195 202 168 195 202 168 195 202 168
195 202 168 195 202 168 195 202 168 195 202 168 195 202 168
195 202 168 195 202 168 195 202 168 195 202 168 195 202 168
195 202 168 195 202 168 195 202 168 195 202 168 195 202 168
195 202 168 196 203 169 198 203 171 198 203 171 198 203 171
198 203 171 198 203 171 198 203 171 198 203 171 198 203 171
198 203 171 198 203 171 198 203 171 198 203 171 198 203 171
198 203 171 198 203 171 198 203 171 198 203 171 198 203 171
198 203 171 198 203 171 198 203 171 198 203 171 198 203 171
198 203 171 198 203 171 198 203 171 198 203 171 198 203 171
196 204 167 196 203 169 198 205 171 200 208 171 199 205 169
188 195 154 171 178 136 158 165 121 69 41 40 69 45 41 66 41 37
75 40 38 80 36 35 81 40 36 62 40 29 168 163 144 193 202 173
193 202 173 193 202 173 193 202 173 193 202 173 193 202 173
193 202 173 193 202 173 193 202 173 193 202 173 193 202 173
193 202 173 194 201 170 193 200 169 193 200 169 193 200 169
193 200 169 193 200 169 193 200 169 193 200 169 193 200 169
193 200 169 193 200 169 193 200 169 193 200 169 193 200 169
193 200 169 193 200 169 193 200 169 193 200 169 193 200 169
193 200 169 193 200 169 193 200 169 193 200 169 193 200 169
193 200 169 193 200 169 193 200 169 193 200 169 193 198 166
193 198 166 193 198 166 193 198 166 194 199 167 194 199 167
194 199 167 194 199 167 193 198 168 193 198 168 193 198 168
193 198 168 193 198 168 193 198 168 193 198 168 193 198 168
193 198 168 193 198 168 193 198 168 193 198 168 193 198 168
193 198 168 194 199 169 194 199 169 195 198 167 194 197 166
194 197 166 193 196 165 193 196 165 193 196 165 193 196 165
193 196 165 186 184 133 186 184 133 186 184 133 186 184 133
186 184 133 186 184 133 186 184 133 186 184 133 186 184 133
186 184 133 186 184 133 186 184 133 186 184 133 186 184 133
186 184 133 186 184 133 186 184 133 186 184 133 186 184 133
186 184 133 186 184 133 187 185 134 187 185 134 187 185 134
187 193 145 187 193 145 186 192 144 187 190 143 187 190 143
187 190 143 189 192 145 189 192 145 190 191 147 190 191 147
190 191 147 189 190 146 189 190 146 190 191 147 192 193 149
194 195 151 193 194 150 193 194 150 193 194 150 193 194 150
193 194 150 193 194 150 193 194 150 193 194 150 195 194 148
195 194 148 194 193 149 192 193 149 193 194 150 193 196 153
194 197 154 195 198 155 194 199 158 191 195 160 192 198 164
189 199 164 186 198 158 192 205 162 185 193 154 196 200 167
185 200 159 191 205 156 186 196 162 192 199 148 201 197 170
201 198 155 196 195 167 193 199 163 193 199 163 194 200 164
194 200 164 195 201 165 195 201 165 195 201 165 195 201 165
195 201 165 195 201 165 195 201 165 195 201 165 195 201 165
195 201 165 195 201 165 195 201 165 195 201 165 191 207 171
189 204 163 191 199 158 205 209 158 195 191 182 196 197 166
196 200 165 196 202 168 197 198 154 198 201 156 199 202 175
194 201 170 195 201 175 188 192 169 200 207 163 194 198 161
194 201 167 194 201 167 195 202 168 195 202 168 195 202 168
195 202 168 195 202 168 195 202 168 197 198 164 195 205 168
184 202 164 193 210 174 190 200 166 194 200 166 197 203 167
195 206 166 189 206 154 192 202 175 197 202 182 192 202 165
194 207 161 189 200 166 197 206 177 198 204 170 200 203 174
191 199 158 189 204 165 192 205 179 195 204 175 198 205 161
197 202 161 198 202 177 197 201 174 198 204 176 194 205 162
192 204 164 193 203 178 194 205 165 195 204 157 198 201 184
191 206 165 196 211 172 191 202 168 198 203 173 203 202 174
201 200 170 204 208 175 195 203 166 198 203 171 198 203 171
198 203 171 198 203 171 198 203 171 198 203 171 198 203 171
198 203 171 198 203 171 198 203 171 198 203 171 198 203 171
198 203 171 198 203 171 198 203 171 198 203 171 206 194 168
189 217 177 188 202 167 217 206 188 190 204 168 141 172 96 109 150 82
78 35 54 76 38 49 78 37 43 84 43 41 72 37 33 69 39 39 69 40 44
84 48 52 75 30 33 178 156 135 180 216 155 188 195 179 187 203 166
213 203 178 184 199 170 184 204 177 200 199 169 191 199 175
197 201 178 201 203 181 187 196 167 187 205 167 184 205 166
190 201 167 196 198 174 189 198 177 196 204 181 194 202 179
182 192 165 193 202 173 200 203 174 190 191 160 201 202 171
194 201 170 193 200 169 192 199 168 193 200 169 193 200 169
193 200 169 193 200 169 193 200 169 194 199 167 194 199 167
194 199 167 194 199 167 193 198 166 193 198 166 193 198 166
193 198 166 193 198 166 193 198 166 193 198 166 193 198 166
193 198 166 193 198 166 193 198 166 193 198 166 193 198 166
193 198 166 193 198 166 193 198 166 193 198 166 193 198 166
193 198 166 193 198 166 193 198 166 193 198 166 193 198 166
193 198 166 193 198 166 193 198 166 193 198 166 193 198 166
193 198 166 193 198 166 193 198 166 193 198 166 193 198 166
193 198 166 193 198 166 193 198 166 186 184 133 186 184 133
186 184 133 186 184 133 186 184 133 186 184 133 186 184 133
186 184 133 186 184 133 186 184 133 186 184 133 186 184 133
186 184 133 186 184 133 186 184 133 186 184 133 186 184 133
186 184 133 186 184 133 186 184 133 186 184 133 187 185 134
187 185 134 187 185 134 187 191 141 188 192 142 188 191 144
188 191 144 188 191 144 187 190 143 188 191 144 188 191 146
189 190 146 190 191 147 191 192 148 191 192 148 191 192 148
191 192 148 192 193 149 193 194 150 193 194 150 193 194 150
193 194 150 193 194 150 193 194 150 193 194 150 193 194 150
193 194 150 195 194 148 195 194 150 192 193 149 192 193 149
193 194 150 194 195 153 194 197 154 194 197 154 190 196 160
189 201 155 190 205 150 187 195 148 200 195 163 199 192 164
203 200 165 190 198 149 202 196 160 195 196 152 193 200 166
189 201 151 188 195 162 183 195 147 184 202 162 174 200 152
193 199 163 194 200 164 194 200 164 195 201 165 195 201 165
195 201 165 195 201 165 195 201 165 195 201 165 195 201 165
195 201 165 195 201 165 195 201 165 195 201 165 195 201 165
195 201 165 193 201 160 194 202 161 198 204 170 184 187 160
204 208 175 200 206 170 191 199 160 190 198 159 195 199 174
192 198 170 193 202 155 187 197 160 196 208 160 197 208 152
198 202 179 192 197 156 194 201 167 194 201 167 195 202 168
195 202 168 195 202 168 195 202 168 195 202 168 195 202 168
196 202 168 193 203 168 191 205 169 184 194 159 198 199 167
211 206 174 197 194 159 199 201 164 202 205 158 197 196 168
203 201 178 203 205 166 192 200 153 195 205 170 194 203 172
190 197 163 197 200 173 195 203 164 193 205 165 191 201 174
193 199 171 194 201 160 193 201 162 193 201 177 186 200 164
190 202 152 201 204 177 206 203 188 203 200 165 203 203 177
201 205 190 191 204 160 204 205 173 196 197 166 200 203 172
201 206 176 193 200 167 193 200 167 198 204 170 201 205 172
198 203 171 198 203 171 198 203 171 198 203 171 198 203 171
198 203 171 198 203 171 198 203 171 198 203 171 198 203 171
198 203 171 198 203 171 198 203 171 198 203 171 198 203 171
198 203 171 194 209 176 196 193 160 205 207 183 195 189 165
166 164 115 106 158 94 65 43 29 71 37 35 70 45 40 68 39 41 65 34 42
78 45 54 74 42 47 68 38 38 65 36 38 73 47 50 72 42 31 150 171 112
197 205 184 195 200 170 191 193 169 189 202 172 194 204 179
201 205 178 194 204 170 196 202 174 186 192 166 197 203 175
197 204 171 191 198 164 191 196 164 195 195 169 200 189 159
200 201 167 193 203 168 193 203 169 188 199 165 186 203 169
189 202 172 196 199 172 193 199 171 193 199 171 194 201 170
194 201 170 194 201 170 193 200 169 193 200 169 193 200 169
194 199 167 194 199 167 194 199 167 194 199 167 193 198 166
193 198 166 193 198 166 193 198 166 193 198 166 193 198 166
193 198 166 193 198 166 193 198 166 193 198 166 193 198 166
193 198 166 193 198 166 193 198 166 193 198 166 193 198 166
193 198 166 193 198 166 193 198 166 193 198 166 193 198 166
193 198 166 193 198 166 193 198 166 193 198 166 193 198 166
193 198 166 193 198 166 193 198 166 193 198 166 193 198 166
193 198 166 193 198 166 193 198 166 193 198 166 193 198 166
186 184 133 186 184 133 186 184 133 186 184 133 186 184 133
186 184 133 186 184 133 186 184 133 186 184 133 186 184 133
186 184 133 186 184 133 186 184 133 186 184 133 186 184 133
186 184 133 186 184 133 186 184 133 186 184 133 186 184 133
186 184 133 186 184 133 187 185 134 187 185 134 184 188 138
186 190 140 188 192 142 189 192 145 188 191 144 187 190 143
187 190 143 188 191 146 189 190 146 190 191 147 192 193 149
193 194 150 193 194 150 192 193 149 192 193 149 192 193 149
193 194 150 193 194 150 193 194 150 193 194 150 193 194 150
193 194 150 193 194 150 193 194 150 196 195 151 193 194 150
193 194 150 193 194 150 193 194 150 193 194 152 194 195 153
193 196 153 192 197 143 192 198 152 189 193 156 205 207 168
200 202 153 189 194 140 186 202 153 180 203 161 182 198 153
194 201 157 197 201 168 186 198 152 188 208 171 185 203 155
197 197 159 215 200 161 194 200 164 194 200 164 194 200 164
195 201 165 195 201 165 195 201 165 195 201 165 195 201 165
195 201 165 195 201 165 195 201 165 195 201 165 195 201 165
195 201 165 195 201 165 195 201 165 194 193 162 201 202 170
192 196 161 201 209 170 190 199 154 193 204 162 193 201 162
197 205 166 197 204 160 191 198 164 198 206 165 191 200 153
194 201 167 191 199 162 194 202 151 200 206 172 194 201 167
194 201 167 195 202 168 195 202 168 195 202 168 195 202 168
195 202 168 195 202 168 193 203 169 195 205 170 191 197 163
214 209 179 106 92 65 115 98 72 112 96 71 108 96 70 112 96 63
117 99 77 111 94 74 103 93 58 203 200 159 197 198 164 194 201 168
195 207 171 192 198 170 197 205 166 196 204 165 193 200 167
195 202 169 194 204 167 192 204 168 193 203 178 198 199 155
204 207 180 197 203 175 192 200 159 200 204 169 202 199 180
201 194 175 206 202 167 206 200 176 203 197 171 205 201 174
194 199 167 195 209 174 201 215 180 193 200 167 199 198 168
198 203 171 198 203 171 198 203 171 198 203 171 198 203 171
198 203 171 198 203 171 198 203 171 198 203 171 198 203 171
198 203 171 198 203 171 198 203 171 198 203 171 198 203 171
198 203 171 193 198 166 205 203 178 205 205 181 199 206 162
171 176 122 67 39 28 67 35 46 73 47 34 72 38 28 76 44 47 70 38 53
72 31 47 84 37 45 89 40 43 78 39 44 72 40 51 78 40 39 166 156 103
197 208 178 199 197 174 188 202 179 198 209 175 192 195 168
187 199 175 190 200 163 192 203 169 197 206 177 196 200 173
193 189 160 209 206 173 193 195 158 196 204 167 152 184 119
152 165 109 159 161 112 194 201 157 193 199 161 195 196 165
195 204 175 178 205 172 192 198 170 193 199 171 194 200 172
194 200 172 193 200 169 193 200 169 193 200 169 193 200 167
194 199 167 194 199 167 194 199 167 194 199 167 193 198 166
193 198 166 193 198 166 193 198 166 193 198 166 193 198 166
193 198 166 193 198 166 193 198 166 193 198 166 193 198 166
193 198 166 193 198 166 193 198 166 193 198 166 193 198 166
193 198 166 193 198 166 193 198 166 193 198 166 193 198 166
193 198 166 193 198 166 193 198 166 193 198 166 193 198 166
193 198 166 193 198 166 193 198 166 193 198 166 193 198 166
193 198 166 193 198 166 193 198 166 193 198 166 193 198 166
186 184 133 186 184 133 186 184 133 186 184 133 186 184 133
186 184 133 186 184 133 186 184 133 186 184 133 186 184 133
186 184 133 186 184 133 186 184 133 186 184 133 186 184 133
186 184 133 186 184 133 186 184 133 186 184 133 186 184 133
186 184 133 186 184 133 187 185 134 187 185 134 182 184 134
185 187 137 188 190 141 189 191 142 189 191 144 188 191 144
189 192 147 189 192 147 190 191 147 191 192 148 193 194 150
194 195 151 194 195 151 193 194 150 193 194 150 193 194 150
193 194 150 193 194 150 193 194 150 193 194 150 193 194 150
193 194 150 193 194 150 193 194 150 194 195 151 194 195 151
193 194 150 193 194 150 193 194 150 193 194 150 193 194 150
193 194 150 196 194 155 196 193 150 196 192 145 190 186 141
193 190 149 192 190 151 205 202 161 195 192 149 196 203 159
187 192 151 194 195 161 195 197 160 195 196 164 198 200 161
194 199 159 186 192 148 194 200 164 194 200 164 195 201 165
195 201 165 195 201 165 195 201 165 195 201 165 195 201 165
195 201 165 195 201 165 195 201 165 195 201 165 195 201 165
195 201 165 195 201 165 195 201 165 206 204 179 193 196 169
195 201 163 190 202 140 193 202 155 198 203 163 193 192 161
203 200 167 206 203 162 180 180 116 201 196 166 201 200 170
198 201 158 197 199 175 184 191 160 199 207 170 194 201 167
194 201 167 195 202 168 195 202 168 195 202 168 195 202 168
195 202 168 195 202 168 192 206 170 199 205 171 200 195 166 118 97 76
70 41 27 66 33 24 74 43 38 66 38 34 76 39 33 65 32 27 80 50 40
114 88 71 119 102 76 202 195 166 195 201 167 189 204 165 192 201 170
198 206 169 195 199 162 196 200 165 199 206 172 194 205 171
193 204 170 191 202 172 201 206 174 185 196 166 185 200 171
192 206 171 194 202 163 203 203 175 208 208 182 198 203 162
194 203 174 198 203 173 204 207 176 197 204 170 191 205 169
193 207 172 195 202 169 205 204 176 198 203 171 198 203 171
198 203 171 198 203 171 198 203 171 198 203 171 198 203 171
198 203 171 198 203 171 198 203 171 198 203 171 198 203 171
198 203 171 198 203 171 198 203 171 198 203 171 207 207 173
198 196 181 185 204 159 164 173 110 101 94 65 88 25 46 78 38 47
69 44 37 82 38 35 71 42 36 63 46 36 69 47 36 74 35 28 83 35 35
74 31 38 73 40 49 73 36 43 159 118 72 183 197 161 196 198 174
191 204 186 197 204 170 191 198 165 197 206 185 200 207 173
189 200 168 191 201 174 195 199 172 201 198 165 156 159 116
159 176 122 146 176 116 93 152 68 87 149 66 108 151 79 168 179 123
166 165 119 163 174 131 178 190 150 201 202 168 194 200 172
194 200 172 193 199 171 192 198 170 192 198 170 194 201 170
194 201 170 193 200 167 194 199 167 194 199 167 194 199 167
193 198 166 193 198 166 193 198 166 193 198 166 193 198 166
193 198 166 193 198 166 193 198 166 193 198 166 193 198 166
193 198 166 193 198 166 193 198 166 193 198 166 193 198 166
193 198 166 193 198 166 193 198 166 193 198 166 193 198 166
193 198 166 193 198 166 193 198 166 193 198 166 193 198 166
193 198 166 193 198 166 193 198 166 193 198 166 193 198 166
193 198 166 193 198 166 193 198 166 193 198 166 193 198 166
193 198 166 193 198 166 186 184 133 186 184 133 186 184 133
186 184 133 186 184 133 186 184 133 186 184 133 186 184 133
186 184 133 186 184 133 186 184 133 186 184 133 186 184 133
186 184 133 186 184 133 186 184 133 186 184 133 186 184 133
186 184 133 186 184 133 186 184 133 186 184 133 186 184 133
187 185 134 184 184 134 185 185 135 187 187 137 187 189 140
189 191 144 191 193 146 192 193 149 192 195 150 192 193 149
193 194 150 193 194 150 193 194 150 193 194 150 193 194 150
193 194 150 194 195 151 193 194 150 193 194 150 193 194 150
193 194 150 193 194 150 193 194 150 193 194 150 193 194 150
194 195 151 194 195 151 193 194 150 193 194 150 193 194 150
193 194 150 193 194 150 193 194 150 202 192 157 193 194 152
184 196 146 191 203 155 186 193 151 200 202 165 184 190 152
183 194 152 182 195 149 192 199 157 199 204 163 194 202 165
183 198 155 187 202 163 189 196 155 206 203 168 194 200 164
194 200 164 195 201 165 195 201 165 195 201 165 195 201 165
195 201 165 195 201 165 195 201 165 195 201 165 195 201 165
195 201 165 195 201 165 195 201 165 195 201 165 195 201 165
190 200 147 192 200 163 193 202 173 199 202 181 205 210 152
205 198 170 111 95 72 119 101 65 59 32 11 73 45 44 118 99 59
109 94 51 111 101 74 199 197 156 195 200 168 191 199 176 194 201 167
194 201 167 195 202 168 195 202 168 195 202 168 195 202 168
195 202 168 195 202 168 191 202 162 192 192 158 113 96 76 69 39 31
75 35 36 73 32 40 77 39 50 69 33 45 74 30 45 78 38 46 72 36 38
65 31 32 64 33 28 113 96 78 196 197 165 194 209 170 193 204 170
199 205 171 197 199 162 198 202 165 194 204 169 188 199 167
193 203 168 195 202 160 198 203 171 195 200 160 185 193 92 193 188 60
209 185 87 200 180 83 186 187 94 191 203 165 193 211 171 189 205 166
191 203 165 198 208 173 193 200 166 191 196 164 202 207 177
200 205 175 198 203 171 198 203 171 198 203 171 198 203 171
198 203 171 198 203 171 198 203 171 198 203 171 198 203 171
198 203 171 198 203 171 198 203 171 198 203 171 198 203 171
198 203 171 198 203 171 194 199 169 189 209 172 203 203 151
162 167 113 74 44 36 68 40 52 80 40 48 79 36 43 78 40 51 51 40 22
128 141 95 152 169 115 165 162 129 76 54 43 69 40 42 66 40 41
72 41 47 161 110 65 193 210 168 194 205 173 193 197 180 192 198 164
188 205 169 195 198 179 192 196 171 197 202 179 193 201 177
197 207 173 153 165 119 156 180 118 103 145 69 93 148 65 83 151 66
100 157 76 91 152 72 78 150 68 91 147 74 157 177 118 173 169 121
169 165 118 196 203 170 196 203 172 194 201 170 191 197 169
192 198 170 194 201 170 194 201 168 192 199 166 193 198 166
193 198 166 193 198 166 193 198 166 193 198 166 193 198 166
193 198 166 193 198 166 193 198 166 193 198 166 193 198 166
193 198 166 193 198 166 193 198 166 193 198 166 193 198 166
193 198 166 193 198 166 193 198 166 193 198 166 193 198 166
193 198 166 193 198 166 193 198 166 193 198 166 193 198 166
193 198 166 193 198 166 193 198 166 193 198 166 193 198 166
193 198 166 193 198 166 193 198 166 193 198 166 193 198 166
193 198 166 193 198 166 193 198 166 193 198 166 186 184 133
186 184 133 186 184 133 186 184 133 186 184 133 186 184 133
186 184 133 186 184 133 186 184 133 186 184 133 186 184 133
186 184 133 186 184 133 186 184 133 186 184 133 186 184 133
186 184 133 186 184 133 186 184 133 185 183 132 186 184 133
186 184 133 186 184 133 186 184 133 186 184 133 185 183 132
185 185 135 188 187 139 191 190 142 192 194 147 194 195 151
194 195 151 193 194 150 194 195 151 194 195 151 193 194 150
192 193 149 193 194 150 194 195 151 195 196 152 193 194 150
193 194 150 193 194 150 193 194 150 193 194 150 193 194 150
193 194 150 193 194 150 192 195 152 193 194 152 193 194 152
193 194 150 193 194 150 193 194 150 193 194 150 195 194 150
189 184 146 190 198 157 191 205 154 192 191 124 200 175 85 214 179 75
197 171 60 198 188 75 199 199 149 186 189 142 192 199 145 193 194 154
193 191 143 202 199 166 191 202 160 186 206 169 195 201 165
195 201 165 195 201 165 195 201 165 195 201 165 195 201 165
195 201 165 195 201 165 195 201 165 195 201 165 195 201 165
195 201 165 195 201 165 195 201 165 195 201 165 195 201 165
195 209 173 189 199 172 197 203 169 194 192 171 177 182 64 112 93 61
72 39 50 68 29 47 82 39 56 72 32 33 69 30 31 71 37 36 119 98 71
107 97 62 205 201 172 198 202 152 194 201 167 194 201 167 195 202 168
195 202 168 195 202 168 195 202 168 195 202 168 195 202 168
203 208 168 113 104 75 66 39 28 74 35 38 74 34 45 72 34 49 69 31 46
72 34 47 74 37 45 68 37 35 68 37 35 72 34 45 77 37 46 67 39 28
174 167 138 187 197 160 190 202 166 198 203 171 196 200 167
199 205 167 190 202 166 187 198 168 205 207 168 206 201 146
182 203 160 183 129 67 199 57 33 207 43 42 186 74 24 171 113 40
173 128 71 176 125 62 176 159 116 207 204 161 195 206 163 190 202 164
205 208 177 204 203 175 198 201 170 192 203 169 198 203 171
198 203 171 198 203 171 198 203 171 198 203 171 198 203 171
198 203 171 198 203 171 198 203 171 198 203 171 198 203 171
198 203 171 198 203 171 198 203 171 198 203 171 198 203 171
203 201 176 153 182 115 154 170 108 113 99 73 78 41 35 66 37 41
68 38 48 82 37 40 78 36 56 63 46 30 162 169 115 161 175 114
159 159 123 61 42 35 76 44 47 76 40 40 68 39 43 140 112 64
187 204 160 189 206 164 199 197 176 195 202 171 187 211 177
194 194 168 194 199 176 197 199 177 193 196 169 189 201 161
145 175 115 100 149 70 97 157 71 94 160 70 107 155 79 84 152 69
79 154 69 96 161 79 94 153 73 91 148 69 99 141 67 154 173 107
189 197 158 193 201 164 195 202 169 194 201 170 193 199 171
194 201 170 194 201 168 191 198 165 193 198 166 193 198 166
193 198 166 193 198 166 193 198 166 193 198 166 193 198 166
193 198 166 193 198 166 193 198 166 193 198 166 193 198 166
193 198 166 193 198 166 193 198 166 193 198 166 193 198 166
193 198 166 193 198 166 193 198 166 193 198 166 193 198 166
193 198 166 193 198 166 193 198 166 193 198 166 193 198 166
193 198 166 193 198 166 193 198 166 193 198 166 193 198 166
193 198 166 193 198 166 193 198 166 193 198 166 193 198 166
193 198 166 193 198 166 193 198 166 186 184 133 186 184 133
186 184 133 186 184 133 186 184 133 186 184 133 186 184 133
186 184 133 186 184 133 186 184 133 186 184 133 186 184 133
186 184 133 186 184 133 186 184 133 186 184 133 186 184 133
186 184 133 186 184 133 185 183 132 185 183 132 186 184 133
186 184 133 186 184 133 188 185 134 185 183 132 185 183 134
187 187 137 193 192 144 194 196 149 194 195 151 192 193 149
193 194 150 194 195 151 194 195 151 193 194 150 193 194 150
193 194 150 193 194 150 194 195 151 193 194 150 193 194 150
193 194 150 193 194 150 193 194 150 193 194 150 193 194 150
193 194 150 191 194 151 192 195 152 193 194 152 193 194 150
193 194 150 193 194 150 195 194 150 195 194 148 184 201 147
203 197 139 211 166 111 158 70 30 185 66 46 185 51 42 202 64 51
187 52 30 201 47 39 163 71 46 190 175 110 191 206 147 189 198 131
198 193 155 207 212 171 178 198 163 195 201 165 195 201 165
195 201 165 195 201 165 195 201 165 195 201 165 195 201 165
195 201 165 195 201 165 195 201 165 195 201 165 195 201 165
195 201 165 195 201 165 195 201 165 195 201 165 186 202 139
195 201 165 193 191 166 217 206 178 115 98 54 67 36 34 76 38 49
76 39 31 71 35 39 71 32 37 79 35 60 77 37 46 61 25 35 67 41 40
114 102 54 202 194 155 194 201 167 194 201 167 195 202 168
195 202 168 195 202 168 195 202 168 195 202 168 195 202 168
198 192 158 115 97 75 71 37 35 73 33 44 73 37 51 67 36 44 66 36 36
73 42 37 116 95 76 106 89 59 115 94 73 80 45 52 75 32 49 66 31 25
113 99 70 196 202 164 189 201 161 197 202 172 196 199 170 196 207 167
187 203 167 193 202 173 209 205 160 192 175 106 191 60 40 194 62 41
190 57 40 190 58 46 194 64 48 191 61 37 191 57 30 200 62 33 169 74 42
209 157 118 207 204 161 189 205 166 200 205 175 204 198 172
196 197 166 196 211 172 198 203 171 198 203 171 198 203 171
198 203 171 198 203 171 198 203 171 198 203 171 198 203 171
198 203 171 198 203 171 198 203 171 198 203 171 198 203 171
198 203 171 198 203 171 198 203 171 162 162 124 166 166 104
104 149 80 122 86 72 75 35 33 70 41 43 78 38 47 69 38 35 70 27 44
84 49 45 117 91 66 114 93 66 75 49 36 74 40 41 73 30 39 84 35 41
71 41 41 124 142 80 190 202 162 199 211 161 199 200 169 192 205 177
187 201 175 197 201 168 192 205 175 197 200 171 197 197 163
161 178 126 100 146 74 86 151 67 85 150 66 95 154 74 86 153 73
96 153 74 96 150 72 90 151 71 93 154 74 102 157 76 93 152 70
88 158 72 169 178 133 182 190 149 193 201 164 195 202 169 193 200 169
193 200 169 193 200 167 192 199 166 193 198 166 193 198 166
193 198 166 193 198 166 193 198 166 193 198 166 193 198 166
193 198 166 193 198 166 193 198 166 193 198 166 193 198 166
193 198 166 193 198 166 193 198 166 193 198 166 193 198 166
193 198 166 193 198 166 193 198 166 193 198 166 193 198 166
193 198 166 193 198 166 193 198 166 193 198 166 193 198 166
193 198 166 193 198 166 193 198 166 193 198 166 193 198 166
193 198 166 193 198 166 193 198 166 193 198 166 193 198 166
193 198 166 193 198 166 193 198 166 186 184 133 186 184 133
186 184 133 186 184 133 186 184 133 186 184 133 186 184 133
186 184 133 186 184 133 186 184 133 186 184 133 186 184 133
186 184 133 186 184 133 186 184 133 186 184 133 186 184 133
186 184 133 186 184 133 185 183 132 185 183 132 185 183 132
186 184 133 186 184 133 189 186 133 187 184 133 185 183 132
189 187 138 194 193 145 195 197 150 194 195 151 190 191 147
193 194 150 194 195 151 194 195 151 194 195 151 193 194 150
193 194 150 193 194 150 193 194 150 193 194 150 193 194 150
193 194 150 193 194 150 193 194 150 193 194 150 193 194 150
193 194 150 191 194 151 191 194 151 192 195 152 193 194 150
193 194 150 195 194 150 195 194 148 195 194 148 185 208 128
203 160 107 183 65 37 197 52 33 187 59 32 179 72 40 167 55 33
189 58 50 181 63 35 193 53 36 199 59 24 167 62 33 215 174 112
194 195 151 182 194 146 203 203 175 195 201 165 195 201 165
195 201 165 195 201 165 195 201 165 195 201 165 195 201 165
195 201 165 195 201 165 195 201 165 195 201 165 195 201 165
195 201 165 195 201 165 195 201 165 195 201 165 195 200 170
200 199 179 205 198 156 185 183 62 64 32 45 78 42 52 65 26 45
71 35 39 65 37 34 74 42 47 70 34 34 71 31 42 83 43 51 67 33 31
65 36 41 117 95 84 194 201 167 194 201 167 195 202 168 195 202 168
195 202 168 195 202 168 195 202 168 195 202 168 114 100 73 63 37 24
75 39 41 76 35 49 66 34 45 67 41 42 64 41 27 119 93 70 108 100 54
177 172 117 108 96 58 64 34 32 77 33 48 78 41 35 108 93 64
201 203 166 194 205 165 197 201 174 192 196 169 193 205 167
187 204 168 196 205 176 203 192 146 163 137 60 195 61 36 193 58 54
189 61 48 186 62 34 184 59 41 190 58 53 194 60 49 193 55 44 211 52 31
169 74 42 179 162 119 192 210 170 187 196 167 206 200 176 209 210 178
187 202 161 198 203 171 198 203 171 198 203 171 198 203 171
198 203 171 198 203 171 198 203 171 198 203 171 198 203 171
198 203 171 198 203 171 198 203 171 198 203 171 198 203 171
198 203 171 198 203 171 168 174 112 148 169 113 115 90 49 122 103 73
72 37 41 66 40 43 69 49 38 85 34 39 70 46 46 66 34 35 81 40 44
78 37 41 69 34 38 77 46 51 72 37 44 79 39 47 72 38 36 100 156 85
156 164 125 160 165 109 162 168 130 184 202 176 193 196 175
199 207 166 189 210 171 188 192 157 170 167 126 154 172 114 97 150 72
89 161 75 90 154 76 98 145 77 94 151 70 94 156 73 90 153 72 95 156 76
91 154 73 85 150 68 93 158 76 91 152 72 149 159 109 170 179 134
189 197 158 195 202 168 192 199 168 191 198 167 192 199 168
194 201 168 193 198 166 193 198 166 193 198 166 193 198 166
193 198 166 193 198 166 193 198 166 193 198 166 193 198 166
193 198 166 193 198 166 193 198 166 193 198 166 193 198 166
193 198 166 193 198 166 193 198 166 193 198 166 193 198 166
193 198 166 193 198 166 193 198 166 193 198 166 193 198 166
193 198 166 193 198 166 193 198 166 193 198 166 193 198 166
193 198 166 193 198 166 193 198 166 193 198 166 193 198 166
193 198 166 193 198 166 193 198 166 193 198 166 193 198 166
193 198 166 186 184 133 186 184 133 186 184 133 186 184 133
186 184 133 186 184 133 186 184 133 186 184 133 186 184 133
186 184 133 186 184 133 186 184 133 186 184 133 186 184 133
186 184 133 186 184 133 186 184 133 186 184 133 186 184 133
186 184 133 186 184 133 186 184 133 186 184 133 186 184 133
186 185 131 185 183 132 187 185 137 192 191 145 194 195 151
195 196 152 194 195 151 192 195 150 194 197 152 191 194 149
192 193 149 193 194 150 195 194 150 197 194 151 198 195 152
196 191 149 193 194 150 193 194 150 193 194 150 193 194 150
194 195 151 194 195 151 193 194 150 192 193 149 203 190 155
179 197 149 200 196 151 186 193 141 193 201 150 193 195 156
213 182 153 178 203 148 193 200 130 181 60 41 193 62 54 171 61 46
183 56 39 191 62 40 189 54 34 190 59 41 188 63 41 172 65 29 191 55 57
195 62 43 179 64 46 197 177 88 202 192 133 189 206 161 190 201 159
195 204 161 196 200 163 201 202 171 198 197 176 193 197 174
195 205 171 190 203 159 195 202 151 196 201 171 196 205 158
192 201 172 193 205 159 189 197 156 200 201 183 197 201 166
197 205 168 200 202 163 204 197 155 117 98 65 65 34 32 70 36 34
73 38 45 69 35 51 77 42 40 65 29 41 119 96 55 192 183 66 122 100 61
63 32 38 72 36 50 73 38 32 116 89 60 194 202 165 194 209 180
194 196 182 193 204 164 200 207 156 204 193 161 186 188 79 114 94 59
74 40 65 70 33 41 73 37 39 72 37 44 70 39 37 68 32 44 74 34 43
118 101 55 116 90 67 73 34 53 77 38 43 69 36 29 64 43 38 165 162 129
197 203 167 186 203 167 198 203 173 191 205 146 189 200 202
201 201 147 200 201 157 195 183 85 191 63 52 191 60 40 188 60 47
186 55 45 199 58 38 196 63 32 188 62 40 188 54 42 190 66 42 184 60 24
203 62 55 178 124 80 183 199 160 197 215 165 202 204 165 196 201 171
208 195 176 196 206 169 196 203 169 201 204 173 187 204 170
187 213 178 193 203 176 201 205 180 198 202 177 197 204 170
203 202 171 185 213 172 190 208 170 203 198 168 214 200 174
190 205 172 204 202 177 172 172 118 87 144 73 116 97 57 123 89 77
57 46 42 87 27 53 75 37 48 66 40 39 78 35 52 67 40 47 72 42 34
89 43 45 64 34 44 83 45 42 85 38 32 77 32 55 71 52 20 89 148 84
90 147 76 92 155 76 97 156 76 160 168 109 162 166 115 151 176 121
171 168 115 151 171 110 163 168 127 89 160 66 69 39 29 103 147 68
89 158 75 81 157 69 86 155 74 90 153 74 108 151 80 148 166 106
171 174 119 155 169 108 106 148 76 89 156 76 90 158 73 163 170 119
203 193 166 187 202 173 190 203 173 201 200 170 190 191 159
195 200 170 193 198 166 193 198 166 193 198 166 193 198 166
193 198 166 193 198 166 193 198 166 193 198 166 193 198 166
193 198 166 193 198 166 193 198 166 193 198 166 193 198 166
193 198 166 193 198 166 193 198 166 193 198 166 193 198 166
193 198 166 193 198 166 193 198 166 193 198 166 193 198 166
193 198 166 193 198 166 193 198 166 193 198 166 193 198 166
193 198 166 193 198 166 193 198 166 193 198 166 193 198 166
193 198 166 193 198 166 193 198 166 193 198 166 193 198 166
193 198 166 186 184 133 186 184 133 186 184 133 186 184 133
186 184 133 186 184 133 186 184 133 186 184 133 186 184 133
186 184 133 186 184 133 186 184 133 186 184 133 186 184 133
186 184 133 186 184 133 186 184 133 186 184 133 186 184 133
186 184 133 186 184 133 186 184 133 186 184 133 186 184 133
187 186 132 185 183 132 185 183 135 188 187 141 191 192 148
193 194 150 193 194 150 193 196 151 192 193 149 192 193 149
195 196 152 192 193 149 193 194 150 189 192 147 191 194 149
192 195 150 193 194 150 192 193 149 192 193 149 193 194 150
193 194 150 193 194 150 193 194 150 193 194 150 194 195 153
187 197 147 202 195 153 192 191 147 199 193 145 175 196 155
195 195 145 201 192 149 188 180 105 210 38 26 200 47 39 181 60 43
190 65 45 179 70 41 195 52 38 185 62 46 181 62 30 208 55 49 181 51 17
185 51 48 186 64 15 188 52 30 194 180 105 191 194 141 200 207 174
194 200 166 192 198 160 196 203 161 191 198 156 197 203 165
197 203 167 195 202 169 198 203 163 196 199 170 195 198 169
202 206 179 191 194 177 197 206 161 193 201 162 189 196 162
191 190 170 201 196 167 182 182 68 125 103 80 65 32 43 74 42 31
76 41 47 60 27 36 68 32 32 77 40 57 116 90 65 191 177 89 115 90 68
79 48 54 69 33 45 70 34 36 128 99 69 196 206 146 184 200 151
201 207 161 191 199 178 195 196 162 188 184 77 117 96 69 115 96 54
61 27 41 77 41 45 71 35 35 66 31 38 68 37 34 71 36 43 75 36 41
64 36 35 75 40 46 70 29 43 70 28 48 72 41 39 111 97 58 166 168 119
196 205 160 198 210 174 208 188 163 196 212 163 194 201 168
202 202 168 187 207 172 177 135 59 194 50 23 191 55 29 195 72 31
189 67 43 193 61 59 190 53 47 193 60 43 193 57 45 198 54 46 195 64 44
192 50 26 169 69 45 178 174 111 193 193 167 200 202 162 191 205 180
190 211 168 195 206 176 202 201 173 192 203 169 209 204 172
216 195 166 203 201 163 197 199 160 200 202 163 198 197 167
200 207 174 195 198 167 203 206 175 196 207 173 199 202 171
182 202 165 187 207 170 146 174 113 85 152 73 132 103 71 116 93 59
71 42 34 79 42 34 62 49 41 90 39 38 70 38 39 74 42 43 67 36 33
68 36 37 72 47 53 66 35 40 72 46 45 56 44 48 90 142 76 89 159 86
109 159 86 89 148 68 88 160 74 100 153 75 85 141 66 103 148 79
88 148 62 155 168 112 98 144 80 90 156 69 85 35 60 96 154 78
86 153 56 98 155 87 94 155 75 90 151 73 91 147 72 113 154 84
139 168 102 143 174 107 107 155 81 86 149 68 86 154 67 160 170 118
201 194 165 185 198 170 186 197 167 199 198 168 192 195 164
195 202 171 193 198 166 193 198 166 193 198 166 193 198 166
193 198 166 193 198 166 193 198 166 193 198 166 193 198 166
193 198 166 193 198 166 193 198 166 193 198 166 193 198 166
193 198 166 193 198 166 193 198 166 193 198 166 193 198 166
193 198 166 193 198 166 193 198 166 193 198 166 193 198 166
193 198 166 193 198 166 193 198 166 193 198 166 193 198 166
193 198 166 193 198 166 193 198 166 193 198 166 193 198 166
193 198 166 193 198 166 193 198 166 193 198 166 193 198 166
193 198 166 186 184 133 186 184 133 186 184 133 186 184 133
186 184 133 186 184 133 186 184 133 186 184 133 186 184 133
186 184 133 186 184 133 186 184 133 186 184 133 186 184 133
186 184 133 186 184 133 186 184 133 186 184 133 186 184 133
186 184 133 186 184 133 186 184 133 186 184 133 186 184 133
187 186 132 185 183 132 185 183 135 189 188 142 191 192 148
192 193 149 193 194 150 192 195 150 197 195 154 195 193 152
194 195 153 189 190 148 197 200 157 190 196 152 191 197 153
188 195 151 192 193 149 192 193 149 192 193 149 192 193 149
192 193 149 193 194 150 193 194 150 193 194 150 192 195 150
188 198 145 198 193 151 194 191 156 198 192 140 180 194 159
195 204 137 203 191 149 178 176 93 200 71 39 193 65 40 188 58 36
189 59 37 171 60 33 191 51 38 172 65 45 186 48 37 190 63 56 198 65 50
191 51 38 192 67 39 181 65 50 176 59 39 211 200 144 189 192 165
193 199 163 197 206 161 186 198 152 200 211 169 197 203 165
196 198 158 196 195 149 197 191 175 202 197 175 199 195 158
200 197 154 199 201 154 199 205 159 192 203 145 196 205 184
212 205 159 186 184 83 113 95 55 112 84 73 77 39 62 67 31 33 68 36 25
72 39 32 70 34 36 73 36 53 71 42 34 118 95 51 68 38 38 69 38 44
66 31 38 71 33 46 121 92 62 192 193 185 195 208 162 195 200 159
198 208 158 205 207 160 186 170 92 122 94 54 115 96 53 74 43 41
71 35 35 73 37 39 73 38 45 75 43 44 71 36 42 68 29 32 75 38 46
68 27 45 78 39 40 76 38 53 71 43 39 104 96 50 196 200 167 194 206 170
206 196 169 193 199 153 181 203 165 189 199 165 214 194 169
186 187 68 123 86 67 188 71 54 197 63 52 196 43 38 188 60 47
197 55 51 192 61 43 206 180 93 173 194 65 212 185 72 195 58 50
192 55 19 195 58 42 191 179 103 206 204 183 203 202 171 196 204 181
181 209 160 203 195 176 192 203 173 214 201 169 202 205 160
143 160 105 173 166 114 174 177 122 154 174 115 219 205 176
195 196 164 210 203 175 185 207 171 188 197 166 201 206 176
194 211 175 206 199 170 161 169 122 100 151 85 93 147 63 111 95 61
112 97 66 84 42 52 67 33 32 71 35 39 81 32 38 93 37 46 84 38 51
69 48 53 62 33 37 81 35 48 80 35 42 66 43 25 86 151 71 97 162 80
85 139 61 91 155 71 98 157 75 92 150 66 90 164 77 92 156 72
106 151 66 82 172 85 98 156 80 89 153 67 68 35 62 83 51 38 96 142 70
93 151 75 95 149 71 90 151 71 92 159 79 89 154 74 97 154 77
103 154 79 98 152 74 92 153 73 88 154 67 159 172 118 202 199 166
190 201 171 187 192 162 198 197 166 193 200 167 190 199 168
193 198 166 193 198 166 193 198 166 193 198 166 193 198 166
193 198 166 193 198 166 193 198 166 193 198 166 193 198 166
193 198 166 193 198 166 193 198 166 193 198 166 193 198 166
193 198 166 193 198 166 193 198 166 193 198 166 193 198 166
193 198 166 193 198 166 193 198 166 193 198 166 193 198 166
193 198 166 193 198 166 193 198 166 193 198 166 193 198 166
193 198 166 193 198 166 193 198 166 193 198 166 193 198 166
193 198 166 193 198 166 193 198 166 193 198 166 193 198 166
186 184 133 186 184 133 186 184 133 186 184 133 186 184 133
186 184 133 186 184 133 186 184 133 186 184 133 186 184 133
186 184 133 186 184 133 186 184 133 186 184 133 186 184 133
186 184 133 186 184 133 186 184 133 186 184 133 186 184 133
186 184 133 186 184 133 186 184 133 186 184 133 185 184 130
185 183 132 188 186 138 192 191 145 194 195 151 194 195 151
192 193 149 191 194 149 191 192 150 190 191 149 192 193 151
187 188 146 199 200 158 194 195 153 195 196 154 194 195 153
193 194 150 193 194 150 193 194 150 193 194 150 192 193 149
192 193 149 193 194 150 194 195 151 194 191 148 184 202 144
195 190 148 189 192 161 190 200 140 207 190 162 204 196 124
167 181 130 195 68 35 179 56 25 184 63 36 184 58 35 183 63 39
184 62 39 199 63 49 191 61 45 182 63 39 185 71 37 173 54 34
190 190 90 181 50 32 184 61 28 175 60 41 198 173 91 193 194 160
200 207 163 191 203 155 195 210 171 188 196 172 186 189 162
214 210 163 187 180 112 113 104 63 114 102 62 107 92 53 117 100 72
193 193 81 195 184 178 197 197 173 189 195 159 184 181 64 116 94 80
124 105 49 124 97 70 62 26 36 79 44 38 67 31 41 76 40 50 75 41 42
72 36 50 61 29 34 76 47 41 64 32 45 70 38 41 73 39 38 73 36 53
71 36 60 197 204 162 183 195 145 199 197 182 196 207 164 194 193 175
194 181 89 124 96 49 117 98 58 119 91 77 67 31 31 73 36 44 67 31 43
67 34 41 70 35 42 76 40 44 68 29 30 76 35 53 77 41 41 55 27 13
113 96 68 171 166 134 201 204 185 187 201 166 188 204 167 194 205 175
212 217 176 188 192 177 200 185 68 173 129 56 114 93 46 75 31 44
181 64 29 186 68 64 200 58 46 175 70 25 194 53 33 196 62 25
203 193 80 198 178 65 195 58 50 189 69 35 203 58 39 168 167 100
192 207 168 193 192 171 210 199 177 204 205 171 199 202 175
205 202 169 156 168 118 177 117 81 191 64 45 183 69 43 173 52 31
197 59 46 181 58 50 160 168 119 207 203 165 192 200 163 209 210 179
195 200 170 206 196 169 203 202 172 215 199 174 152 170 108 83 156 74
89 165 75 73 39 37 67 36 41 76 40 66 80 44 58 68 48 50 70 39 44
75 21 47 71 37 53 79 40 41 83 40 50 57 32 28 109 156 84 104 151 71
94 156 73 91 156 74 91 159 76 87 150 69 98 153 72 90 152 67 86 152 64
84 152 69 99 146 68 77 155 69 103 149 59 61 47 38 68 37 52 65 37 33
111 157 67 102 157 76 86 149 68 88 157 74 82 154 70 90 155 73
87 148 68 90 151 71 92 156 72 92 151 67 155 170 115 197 197 163
194 203 172 193 194 163 197 196 165 191 201 166 186 195 164
193 198 166 193 198 166 193 198 166 193 198 166 193 198 166
193 198 166 193 198 166 193 198 166 193 198 166 193 198 166
193 198 166 193 198 166 193 198 166 193 198 166 193 198 166
193 198 166 193 198 166 193 198 166 193 198 166 193 198 166
193 198 166 193 198 166 193 198 166 193 198 166 193 198 166
193 198 166 193 198 166 193 198 166 193 198 166 193 198 166
193 198 166 193 198 166 193 198 166 193 198 166 193 198 166
193 198 166 193 198 166 193 198 166 193 198 166 193 198 166
186 184 133 186 184 133 186 184 133 186 184 133 186 184 133
186 184 133 186 184 133 186 184 133 186 184 133 186 184 133
186 184 133 186 184 133 186 184 133 186 184 133 186 184 133
186 184 133 186 184 133 186 184 133 186 184 133 186 184 133
186 184 133 186 184 133 186 184 133 186 184 133 185 184 130
185 183 132 189 187 139 193 192 146 194 195 151 194 195 151
192 193 149 191 194 149 194 197 154 195 198 155 199 200 158
195 193 152 196 194 153 191 188 147 195 190 150 195 190 150
194 195 151 194 195 151 194 195 151 194 195 151 193 194 150
192 193 149 193 194 150 194 195 151 193 191 150 186 201 142
195 190 148 188 191 160 190 201 145 210 188 147 169 173 97 124 136 86
184 50 38 186 59 42 188 66 45 185 60 40 189 56 39 185 54 36 185 60 38
189 49 32 198 48 47 178 60 50 194 51 37 176 69 35 193 62 44 185 63 62
204 56 54 185 58 25 194 196 149 193 198 157 193 203 166 185 196 164
199 206 173 201 198 163 104 91 49 114 96 50 62 34 31 73 41 54
72 44 22 65 28 46 114 87 68 115 98 70 185 190 64 207 205 156
193 183 70 117 94 62 114 88 61 114 89 49 74 44 33 71 32 61 69 32 50
70 35 42 66 32 30 71 35 45 71 38 45 71 37 51 72 38 52 64 32 35
67 34 27 67 31 43 113 89 55 203 207 170 201 209 162 200 197 178
188 199 167 196 202 176 186 181 77 118 92 67 112 92 65 128 102 79
66 32 31 72 36 48 68 35 46 71 39 50 70 38 43 71 34 41 73 36 44
77 42 46 64 35 37 116 100 66 172 165 119 203 204 170 189 198 155
193 206 163 178 204 159 199 201 180 188 189 173 207 187 66 172 130 70
112 102 51 109 94 65 116 94 73 209 55 47 200 52 50 178 68 45
188 67 38 189 56 39 187 60 53 191 54 48 190 71 49 189 53 39 180 66 42
185 49 35 164 164 112 196 213 169 198 205 174 204 198 174 203 197 171
199 208 163 161 160 112 168 72 48 192 55 37 197 67 43 201 62 43
182 51 33 203 62 52 186 62 36 183 69 43 182 52 39 168 176 127
204 202 164 189 207 169 206 199 173 188 212 178 199 196 163
196 208 168 159 175 112 92 141 85 99 156 88 76 41 37 51 45 31
75 39 49 72 40 29 58 41 23 90 47 54 63 45 45 68 43 39 75 39 53
74 39 46 95 147 83 95 153 69 71 147 59 94 159 79 92 148 73 85 164 81
79 151 69 108 156 80 87 155 70 107 150 78 93 162 81 94 150 75
95 161 63 87 146 82 85 36 39 85 43 47 90 150 78 95 156 76 85 148 67
93 157 73 92 154 71 98 157 75 91 153 70 91 154 73 92 157 75
107 153 78 155 168 115 187 191 156 195 202 171 197 196 166
196 197 163 191 203 167 191 198 167 193 198 166 193 198 166
193 198 166 193 198 166 193 198 166 193 198 166 193 198 166
193 198 166 193 198 166 193 198 166 193 198 166 193 198 166
193 198 166 193 198 166 193 198 166 193 198 166 193 198 166
193 198 166 193 198 166 193 198 166 193 198 166 193 198 166
193 198 166 193 198 166 193 198 166 193 198 166 193 198 166
193 198 166 193 198 166 193 198 166 193 198 166 193 198 166
193 198 166 193 198 166 193 198 166 193 198 166 193 198 166
193 198 166 193 198 166 193 198 166 186 184 133 186 184 133
186 184 133 186 184 133 186 184 133 186 184 133 186 184 133
186 184 133 186 184 133 186 184 133 186 184 133 186 184 133
186 184 133 186 184 133 186 184 133 186 184 133 186 184 133
186 184 133 186 184 133 186 184 133 186 184 133 186 184 133
186 184 133 186 184 133 186 185 131 186 184 133 188 186 138
191 190 144 192 193 149 192 193 149 193 194 150 193 196 151
192 195 150 187 190 145 187 190 145 192 193 149 191 192 148
197 196 152 198 197 153 194 193 149 192 193 149 194 195 151
195 196 152 194 195 151 193 194 150 192 193 149 193 194 150
193 194 150 187 194 152 194 196 146 198 191 145 193 190 155
197 194 151 190 188 114 108 149 70 108 89 49 123 97 62 185 62 54
184 57 42 185 58 39 205 52 44 187 57 41 186 66 42 190 66 40 180 65 38
192 59 42 182 66 25 180 60 33 192 62 28 188 51 43 196 50 27 177 71 29
190 192 142 200 204 171 197 202 179 193 200 166 196 201 147
127 121 69 63 41 18 74 39 46 70 35 31 72 36 38 75 33 55 76 34 56
73 38 32 68 37 42 115 92 78 113 94 61 202 190 78 113 86 69 125 98 81
119 97 50 72 38 62 68 37 34 64 33 28 73 36 54 75 41 40 75 40 46
71 37 38 72 35 52 72 37 43 72 36 46 71 38 33 76 41 45 123 97 62
97 96 48 202 197 165 201 189 167 200 207 174 197 209 161 183 191 56
113 97 64 115 97 75 107 88 48 77 47 37 66 34 37 62 32 30 68 40 39
72 43 37 66 35 33 65 40 33 113 95 57 110 96 69 170 166 129
195 197 157 190 196 160 195 208 155 197 205 181 208 203 163
190 198 161 193 205 159 192 189 74 120 93 63 107 94 60 116 99 79
122 94 46 61 37 35 190 53 37 209 55 47 187 49 47 211 70 43 194 59 39
190 50 53 188 57 39 202 67 47 187 67 51 174 62 40 177 170 124
193 197 170 195 211 164 192 206 183 199 207 166 170 164 112 192 71 54
197 46 35 199 64 44 186 57 35 189 58 38 205 61 50 180 57 42 185 65 31
202 57 36 198 63 43 196 47 40 171 169 121 198 211 168 187 211 175
199 197 174 201 199 161 189 216 175 202 203 185 153 167 114
174 158 107 100 147 55 96 155 89 91 38 24 82 35 53 77 48 50 77 26 31
70 41 37 86 35 34 69 36 29 60 49 19 82 156 67 100 151 74 88 163 78
89 154 74 108 143 75 102 154 82 106 149 80 149 167 105 95 157 80
82 148 60 99 159 89 81 152 72 100 153 71 112 157 88 80 156 68
89 157 84 58 40 30 87 152 70 90 153 72 100 159 77 96 151 70 97 152 71
95 152 71 92 151 71 91 152 72 137 166 100 173 179 133 187 192 160
192 201 172 198 197 167 192 196 161 189 203 167 195 198 169
193 198 166 193 198 166 193 198 166 193 198 166 193 198 166
193 198 166 193 198 166 193 198 166 193 198 166 193 198 166
193 198 166 193 198 166 193 198 166 193 198 166 193 198 166
193 198 166 193 198 166 193 198 166 193 198 166 193 198 166
193 198 166 193 198 166 193 198 166 193 198 166 193 198 166
193 198 166 193 198 166 193 198 166 193 198 166 193 198 166
193 198 166 193 198 166 193 198 166 193 198 166 193 198 166
193 198 166 193 198 166 193 198 166 193 198 166 193 198 166
186 184 133 186 184 133 186 184 133 186 184 133 186 184 133
186 184 133 186 184 133 186 184 133 186 184 133 186 184 133
186 184 133 186 184 133 186 184 133 186 184 133 186 184 133
186 184 133 186 184 133 186 184 133 186 184 133 186 184 133
186 184 133 186 184 133 186 184 133 186 184 133 187 186 132
187 185 134 189 187 139 192 191 145 192 193 149 192 193 149
193 194 150 193 196 151 199 198 152 192 194 147 191 194 147
197 203 155 179 189 139 185 199 148 185 202 150 181 198 146
189 190 146 191 192 148 194 195 151 194 195 151 193 194 150
192 193 149 192 193 149 193 194 150 189 195 157 195 194 148
201 193 146 194 193 149 195 192 159 187 185 85 85 135 64 112 93 51
131 86 57 184 56 47 195 52 38 192 61 41 190 63 46 185 59 44 187 54 37
181 55 32 183 61 48 176 60 37 205 54 45 187 55 42 194 51 47 191 64 45
178 63 42 193 55 44 193 196 149 196 200 163 194 197 166 192 194 155
199 197 149 113 99 64 71 42 38 71 31 55 78 37 51 69 31 46 66 28 43
73 38 42 65 31 30 72 38 36 74 39 59 67 35 40 113 89 51 124 98 85
112 91 44 115 93 70 117 99 53 115 92 60 71 41 43 68 34 51 72 37 41
68 33 40 65 32 27 70 34 44 70 36 34 76 39 57 70 35 39 70 36 35
74 35 38 64 44 53 117 99 59 121 96 65 197 194 163 192 199 166
195 192 149 188 191 86 112 96 71 117 103 42 116 93 62 123 96 79
117 96 69 114 92 71 118 94 68 120 93 74 107 98 59 108 105 52
161 163 113 200 206 168 196 206 172 193 203 168 202 210 173
186 191 168 194 206 166 154 177 95 154 172 112 91 153 78 107 151 74
124 94 68 119 94 54 112 99 64 77 44 37 189 66 48 176 65 35 191 64 47
202 51 32 180 62 34 196 66 52 200 53 37 191 55 31 184 59 53
188 123 57 202 200 162 199 202 175 191 206 165 188 202 176
173 164 107 190 52 39 177 65 41 188 63 43 190 63 44 187 60 41
198 55 41 192 59 44 189 66 48 194 58 42 183 57 35 193 69 45 177 65 41
187 50 40 203 206 161 197 196 165 200 209 180 190 208 166 203 197 175
192 203 171 214 204 179 198 212 151 158 176 114 159 167 107
152 164 118 154 170 121 139 171 108 114 154 83 88 146 87 79 38 42
83 43 54 80 33 43 76 43 52 102 145 73 93 150 71 91 159 76 104 144 71
102 139 69 146 172 107 168 167 113 144 172 111 94 166 80 89 143 67
98 161 80 80 154 75 79 146 66 90 165 64 98 154 63 99 145 98 94 157 78
93 154 76 88 149 69 87 149 66 92 154 71 100 157 78 96 148 73
105 151 78 164 174 121 194 192 153 192 199 168 190 200 173
198 197 167 191 197 161 188 202 166 196 195 167 193 198 166
193 198 166 193 198 166 193 198 166 193 198 166 193 198 166
193 198 166 193 198 166 193 198 166 193 198 166 193 198 166
193 198 166 193 198 166 193 198 166 193 198 166 193 198 166
193 198 166 193 198 166 193 198 166 193 198 166 193 198 166
193 198 166 193 198 166 193 198 166 193 198 166 193 198 166
193 198 166 193 198 166 193 198 166 193 198 166 193 198 166
193 198 166 193 198 166 193 198 166 193 198 166 193 198 166
193 198 166 193 198 166 193 198 166 193 198 166 186 184 133
186 184 133 186 184 133 186 184 133 186 184 133 186 184 133
186 184 133 186 184 133 186 184 133 186 184 133 186 184 133
186 184 133 186 184 133 186 184 133 186 184 133 186 184 133
186 184 133 186 184 133 186 184 133 186 184 133 186 184 133
186 184 133 186 184 133 186 184 133 185 184 130 187 185 134
191 189 141 196 195 149 196 197 153 195 196 152 193 194 150
192 195 150 195 191 144 196 194 146 191 195 145 177 187 135
115 134 79 104 129 72 102 133 74 103 137 77 186 187 143 189 190 146
192 193 149 194 195 151 193 194 150 192 193 149 192 193 149
193 194 150 198 193 161 189 192 149 200 194 144 190 197 145
186 197 165 203 179 71 105 129 77 118 131 78 127 89 53 128 91 46
183 65 37 187 57 33 164 63 35 192 58 46 196 58 45 181 65 40 188 61 44
192 58 33 180 58 35 181 63 49 178 60 46 185 57 28 195 59 37 177 61 46
191 196 155 190 196 148 196 200 149 198 196 157 109 97 81 62 37 40
70 35 42 76 37 42 69 34 28 75 39 53 72 43 29 66 34 45 69 39 41
76 46 38 58 24 25 78 41 49 67 37 45 118 95 64 117 100 48 115 98 54
111 91 64 120 98 75 64 34 34 123 97 60 72 37 44 69 33 45 77 44 35
73 36 43 70 36 27 68 29 58 71 35 47 69 36 31 77 30 50 64 39 32
67 29 40 77 37 38 104 94 69 199 205 169 205 202 169 201 192 175
209 195 166 189 180 103 116 95 50 115 92 60 119 101 55 113 95 59
113 94 51 120 97 65 165 162 121 203 201 178 196 203 162 190 202 162
188 203 164 197 210 167 189 196 163 163 173 113 96 142 80 101 156 89
84 156 57 93 151 74 90 150 76 98 151 71 104 100 75 121 91 63
110 92 70 71 35 35 198 52 53 206 57 33 177 62 55 190 54 54 182 65 32
188 64 38 199 59 32 184 59 65 196 179 61 193 207 182 196 207 164
191 199 178 212 209 178 172 122 61 191 59 44 191 61 45 188 58 42
202 58 47 191 58 43 179 69 44 182 60 37 205 51 39 205 57 57 188 56 44
189 59 43 191 65 43 204 53 44 148 177 119 206 203 168 195 200 170
200 202 180 199 200 168 198 210 170 192 196 163 204 200 188
187 204 185 198 202 177 207 205 166 214 197 167 171 164 118
143 180 100 85 159 84 86 33 41 70 39 37 64 42 29 81 34 52 87 160 78
98 149 72 85 153 68 89 157 70 88 162 75 89 161 79 159 170 112
176 162 117 99 146 78 87 158 62 89 152 63 92 153 83 108 151 69
88 153 71 90 155 71 94 156 55 90 148 72 93 154 76 91 156 74 92 162 76
85 155 69 88 149 69 102 148 75 145 177 110 168 167 121 200 194 160
193 199 171 187 197 170 197 198 167 191 199 162 188 202 166
198 193 164 193 198 166 193 198 166 193 198 166 193 198 166
193 198 166 193 198 166 193 198 166 193 198 166 193 198 166
193 198 166 193 198 166 193 198 166 193 198 166 193 198 166
193 198 166 193 198 166 193 198 166 193 198 166 193 198 166
193 198 166 193 198 166 193 198 166 193 198 166 193 198 166
193 198 166 193 198 166 193 198 166 193 198 166 193 198 166
193 198 166 193 198 166 193 198 166 193 198 166 193 198 166
193 198 166 193 198 166 193 198 166 193 198 166 193 198 166
193 198 166 186 184 133 186 184 133 186 184 133 186 184 133
186 184 133 186 184 133 186 184 133 186 184 133 186 184 133
186 184 133 186 184 133 187 185 134 187 185 134 186 184 133
186 184 133 186 184 133 185 183 132 186 184 133 186 184 133
186 184 133 186 184 133 186 184 133 186 184 133 187 185 134
199 196 155 180 182 135 183 193 141 194 202 151 186 189 144
198 199 159 196 191 151 197 196 152 198 194 157 172 190 128
108 125 80 69 33 47 73 29 62 59 44 47 64 37 30 66 36 38 103 133 79
187 188 131 196 192 167 198 198 144 183 203 152 182 195 141
199 197 148 198 188 152 192 199 155 196 188 151 206 193 159
191 191 153 185 194 151 184 196 148 113 134 78 95 134 69 133 79 51
124 93 47 141 84 57 187 50 60 197 58 35 191 65 27 187 59 34 186 63 48
186 62 28 174 64 41 190 57 42 184 70 34 189 46 52 197 60 54 180 61 37
200 176 76 205 186 143 188 201 148 191 198 164 192 203 137 134 87 77
65 35 33 68 40 37 81 30 35 73 31 53 76 41 37 64 30 44 69 38 53
66 39 32 67 37 35 71 37 54 74 41 34 70 36 26 112 93 79 203 198 166
182 189 77 114 95 63 117 92 51 124 97 76 64 42 31 74 34 45 76 37 42
71 35 39 70 38 27 74 40 38 69 33 45 75 41 40 70 35 41 69 37 42
75 35 35 72 37 33 66 40 43 71 40 45 117 86 66 205 197 158 186 210 174
193 202 173 193 202 171 194 201 167 194 201 167 195 202 169
196 203 170 193 203 166 190 203 160 185 204 176 206 194 180
192 209 157 187 202 161 202 198 169 197 211 176 101 144 72 83 156 83
102 153 76 90 153 72 87 152 70 96 153 72 88 149 69 86 161 76
86 158 76 96 150 74 111 97 70 117 99 53 194 64 50 200 50 35 183 62 43
201 61 44 187 63 29 189 59 59 184 63 52 207 181 68 191 200 171
205 205 169 200 206 162 187 199 189 204 187 69 177 64 50 187 61 36
177 64 48 192 59 44 194 61 28 199 58 40 184 56 55 187 66 39
194 189 72 187 61 46 189 63 38 195 62 31 186 65 36 189 62 53
165 161 126 196 210 175 184 206 167 203 203 177 199 205 169
198 209 167 196 203 169 199 202 171 201 202 168 198 199 168
204 204 180 200 205 175 194 204 167 166 169 124 89 147 86 89 36 32
64 49 42 71 37 36 72 42 44 103 156 78 86 151 95 85 151 63 87 160 68
90 156 66 99 149 88 93 159 71 97 147 76 94 155 78 74 162 60 92 150 74
170 169 115 93 150 73 92 154 71 97 155 68 100 145 90 87 152 70
93 156 85 91 151 79 95 149 71 108 149 70 150 176 105 163 169 123
201 195 173 188 201 155 191 199 158 196 198 161 199 198 167
198 198 170 194 198 171 189 200 170 185 200 169 192 197 165
195 199 174 189 194 174 191 199 176 191 200 173 194 203 172
180 190 156 194 205 165 188 196 172 194 202 161 192 200 159
191 194 175 192 198 160 192 201 148 195 201 173 192 199 166
193 198 166 193 198 166 193 198 166 193 198 166 193 198 166
193 198 166 193 198 166 193 198 166 193 198 166 193 198 166
193 198 166 193 198 166 193 198 166 193 198 166 193 198 166
193 198 166 193 198 166 193 198 166 193 198 166 193 198 166
193 198 166 193 198 166 193 198 166 193 198 166 186 184 133
186 184 133 186 184 133 186 184 133 186 184 133 186 184 133
186 184 133 186 184 133 186 184 133 186 184 133 186 184 133
187 185 134 187 185 134 187 185 134 186 184 133 186 184 133
187 185 134 187 185 134 186 184 133 186 184 133 185 183 132
185 183 132 186 184 133 187 185 134 191 190 146 201 200 154
197 205 156 185 188 141 202 203 159 193 194 152 193 190 145
193 195 146 175 186 126 100 139 82 61 42 28 76 38 49 43 42 40
57 44 36 68 36 37 72 40 53 66 44 23 100 127 84 173 181 130
185 203 151 201 183 143 196 191 151 192 200 153 196 195 147
189 191 142 198 196 148 190 193 146 190 200 150 197 199 152
197 190 146 192 199 148 106 140 79 102 147 64 126 90 54 110 101 60
184 65 35 178 57 48 167 62 40 178 73 52 199 52 44 183 51 46 197 57 56
187 60 51 179 61 11 194 60 49 174 54 29 182 136 76 178 196 144
200 203 148 185 197 151 188 173 72 108 129 62 70 38 41 67 36 54
60 47 57 68 38 48 75 36 39 68 33 40 76 45 42 68 41 32 123 100 66
114 87 68 71 40 37 67 29 52 70 39 54 59 44 37 200 201 167 196 202 142
207 195 171 195 182 88 190 174 89 119 100 58 111 99 39 113 90 84
117 91 78 71 41 39 69 32 50 69 33 45 75 36 55 68 32 36 71 34 51
76 35 43 66 30 34 74 42 53 67 31 41 73 36 27 114 99 68 185 199 164
197 202 172 198 202 169 198 202 167 199 200 168 198 198 172
196 198 174 196 201 171 197 202 170 195 207 157 186 203 149
186 200 165 200 201 170 197 202 172 159 150 107 122 105 61 98 153 72
91 148 71 95 152 75 92 157 75 103 156 76 93 152 70 82 158 70
95 154 72 101 150 71 125 91 64 111 92 62 120 94 57 188 67 48
187 59 50 175 62 46 201 62 31 169 120 62 211 186 57 190 183 77
204 205 173 200 202 180 198 201 158 202 194 85 186 114 42 197 59 46
203 60 46 184 52 39 195 68 49 185 67 41 192 52 39 204 63 54 195 57 31
204 172 87 192 56 44 195 59 47 190 53 37 192 66 44 189 53 39
154 169 112 199 206 164 217 203 177 202 198 171 201 200 179
195 200 170 197 206 163 198 206 169 193 198 178 203 211 187
185 198 154 201 195 169 198 208 181 148 170 105 96 153 74 75 33 37
64 49 52 69 39 31 85 32 48 74 40 13 64 41 27 106 158 92 86 148 62
93 155 72 99 148 82 83 142 58 89 162 80 105 149 74 93 150 81
103 158 75 153 167 108 170 177 125 155 166 106 150 174 114 152 175 95
165 167 117 163 172 107 161 173 111 162 175 121 152 167 108
159 171 121 157 166 121 195 204 147 196 203 172 189 195 167
192 198 170 198 205 174 184 189 157 194 198 163 192 196 161
198 199 165 191 198 180 193 201 164 191 198 154 191 197 159
188 194 160 189 195 159 203 209 171 192 199 166 190 197 164
198 206 169 190 195 175 193 199 161 200 206 168 193 197 174
192 199 157 187 193 167 193 198 166 193 198 166 193 198 166
193 198 166 193 198 166 193 198 166 193 198 166 193 198 166
193 198 166 193 198 166 193 198 166 193 198 166 193 198 166
193 198 166 193 198 166 193 198 166 193 198 166 193 198 166
193 198 166 193 198 166 193 198 166 193 198 166 193 198 166
193 198 166 186 184 133 186 184 133 186 184 133 186 184 133
186 184 133 186 184 133 186 184 133 186 184 133 186 184 133
186 184 133 186 184 133 186 184 133 186 184 133 186 184 133
186 184 133 186 184 133 186 184 133 186 184 133 186 184 133
185 183 132 185 183 132 186 184 133 188 186 135 189 187 136
195 192 147 190 200 150 193 184 143 198 201 156 190 193 148
192 183 140 196 209 155 184 184 132 115 128 84 53 58 36 55 22 31
59 33 42 65 51 50 59 32 37 60 32 44 68 29 50 53 35 33 73 43 45
114 135 66 205 194 162 196 199 152 200 191 158 190 184 148
192 203 145 187 194 150 205 203 162 192 190 149 181 188 144
194 197 154 205 197 160 196 192 155 179 187 148 196 167 87 96 137 77
125 76 44 131 89 51 198 67 37 193 56 40 182 55 23 191 52 45 187 60 41
182 57 39 178 63 34 184 62 38 193 63 37 203 173 87 183 195 155
213 191 152 179 190 160 191 190 142 200 187 83 113 104 61 78 33 36
83 37 48 58 26 37 75 36 31 70 36 27 72 37 43 65 30 54 116 90 65
211 190 135 190 174 89 119 93 58 74 40 39 81 30 29 65 26 44
204 196 159 204 210 166 194 197 178 193 199 155 194 201 167
186 197 167 205 202 183 200 199 134 117 104 60 66 37 39 69 33 43
69 31 44 69 31 42 78 43 37 67 29 52 75 35 44 74 37 44 67 33 49
71 33 48 75 35 35 128 102 85 203 200 167 192 203 161 195 204 159
197 206 161 197 204 162 196 202 166 194 201 168 195 202 168
195 205 168 207 202 162 201 195 159 192 201 172 201 207 195
192 201 144 118 104 65 109 95 50 89 153 69 93 158 78 94 155 77
73 157 69 93 156 75 103 154 77 90 152 69 101 154 72 79 158 67
87 162 71 118 92 75 118 100 60 120 89 69 136 89 61 167 127 65
179 119 67 201 193 60 194 182 84 187 184 77 196 196 72 189 179 84
188 183 81 197 187 74 184 123 56 182 61 40 200 58 46 194 59 40
191 58 43 193 52 45 193 55 45 178 73 41 187 60 28 191 72 42 192 64 37
198 58 43 192 60 47 192 50 36 191 67 43 164 170 110 209 203 169
193 192 174 196 200 175 203 209 173 193 200 167 202 210 189
195 203 179 193 204 162 196 204 165 204 209 186 203 213 179
195 192 161 160 175 108 110 153 81 62 33 35 74 37 55 86 46 46
78 35 42 68 44 40 84 37 45 105 133 95 93 159 72 86 161 78 91 156 72
89 154 70 93 159 72 97 158 78 99 140 82 154 170 105 160 170 110
165 162 117 157 165 116 174 167 113 202 183 88 204 182 63 199 176 72
192 175 69 189 179 82 172 166 108 166 167 123 159 166 124 190 198 175
189 192 165 192 198 172 190 200 173 179 192 162 194 206 170
199 205 169 197 194 163 206 199 171 190 203 150 190 195 165
199 198 177 204 200 163 168 164 117 173 169 131 189 188 157
194 195 161 191 197 149 187 189 176 195 199 172 194 201 157
189 195 169 191 194 173 188 193 163 201 206 176 193 198 166
193 198 166 193 198 166 193 198 166 193 198 166 193 198 166
193 198 166 193 198 166 193 198 166 193 198 166 193 198 166
193 198 166 193 198 166 193 198 166 193 198 166 193 198 166
193 198 166 193 198 166 193 198 166 193 198 166 193 198 166
193 198 166 193 198 166 193 198 166 186 184 133 186 184 133
186 184 133 186 184 133 186 184 133 186 184 133 186 184 133
186 184 133 187 185 134 186 184 133 186 184 133 186 184 133
186 184 133 185 183 132 185 183 132 185 183 132 185 183 132
186 184 133 187 185 134 187 185 134 188 186 135 189 187 136
191 189 138 192 190 139 196 198 148 192 191 145 195 188 146
200 195 153 194 191 146 195 195 145 181 188 136 180 184 133 55 34 43
72 34 45 65 48 54 67 35 50 75 25 50 69 35 52 71 37 53 69 37 52
65 38 53 66 39 46 113 83 49 189 191 152 189 193 143 198 194 156
194 190 152 191 197 149 196 195 151 194 193 147 185 194 141
195 210 153 190 195 141 198 187 141 201 194 148 193 205 155
190 205 146 213 170 102 114 143 76 95 131 67 120 83 57 122 96 45
116 90 53 202 61 44 191 66 36 188 54 42 181 63 37 199 55 47
196 170 73 190 189 45 187 198 166 200 186 147 198 200 153 188 177 72
113 91 50 118 97 68 119 91 67 81 25 34 68 39 59 72 40 43 75 41 32
66 31 35 73 39 55 72 42 44 195 182 80 195 179 91 124 99 58 67 36 34
77 30 50 76 47 43 181 187 87 187 197 147 191 199 176 198 207 164
195 203 164 196 202 174 189 187 166 185 187 104 109 96 51 67 38 34
72 38 37 76 38 51 70 36 35 68 38 30 72 39 50 65 34 29 69 38 35
70 37 46 73 36 44 77 37 45 62 33 25 207 191 155 187 202 169
187 203 166 190 205 164 193 205 165 193 205 169 190 204 169
190 204 169 190 204 168 189 200 183 193 198 178 186 206 171
191 206 167 158 164 102 119 95 59 119 99 64 91 155 79 90 155 71
91 152 72 100 157 80 168 161 107 169 162 108 94 151 74 89 150 72
94 159 77 93 160 91 149 161 111 173 161 103 186 188 79 185 188 59
202 192 71 198 181 63 200 180 81 199 176 82 206 195 69 195 180 51
208 185 73 203 192 68 191 183 85 201 179 67 182 127 62 188 58 32
186 61 39 181 66 48 196 57 52 208 60 50 176 61 30 196 66 44 188 45 37
182 62 38 187 60 43 187 68 48 204 43 35 185 66 42 164 161 106
205 206 164 184 216 177 193 212 156 188 202 167 197 204 186
194 200 172 197 205 164 204 211 170 190 191 160 206 201 181
196 198 159 162 167 113 156 165 118 64 47 27 87 36 41 80 42 55
59 40 46 75 38 32 56 44 46 77 40 47 70 45 40 95 154 72 87 143 68
104 149 66 99 155 82 96 140 61 93 151 74 94 151 72 162 170 123
163 177 118 159 168 113 163 173 121 196 171 89 188 177 69 191 176 81
196 182 75 196 180 82 196 183 81 187 183 58 185 184 76 164 165 97
168 172 111 193 200 159 194 201 167 195 204 175 191 200 171
191 201 167 186 193 160 191 195 170 187 190 171 196 202 168
162 164 115 172 163 124 60 40 31 71 44 49 62 40 27 132 118 83
175 166 125 172 171 127 202 199 182 197 199 160 188 194 156
193 198 175 196 203 172 192 196 173 193 199 163 193 198 166
193 198 166 193 198 166 193 198 166 193 198 166 193 198 166
193 198 166 193 198 166 193 198 166 193 198 166 193 198 166
193 198 166 193 198 166 193 198 166 193 198 166 193 198 166
193 198 166 193 198 166 193 198 166 193 198 166 193 198 166
193 198 166 193 198 166 193 198 166 186 184 133 186 184 133
186 184 133 186 184 133 186 184 133 186 184 133 186 184 133
186 184 133 187 185 134 187 185 134 186 184 133 185 183 132
185 183 132 185 183 132 185 183 132 185 183 132 186 184 135
187 185 136 189 187 138 190 188 139 191 189 140 191 189 140
192 190 141 193 191 142 183 194 138 206 189 146 188 194 148
199 186 144 199 193 145 166 186 127 198 185 141 121 127 83 82 30 66
59 34 40 54 38 38 81 28 54 74 33 49 48 39 24 64 42 29 53 37 38
78 28 55 58 40 36 66 45 42 190 183 139 203 190 146 194 198 147
189 199 149 194 189 157 187 197 162 196 187 154 206 193 159
186 189 146 186 200 151 187 195 146 196 195 151 193 194 150
195 191 143 178 200 138 203 185 135 190 205 162 210 168 84 199 177 76
182 194 70 189 175 70 196 176 79 194 181 69 192 181 91 194 192 153
188 202 179 183 208 127 190 197 145 200 194 160 181 198 130
191 190 82 129 94 100 103 96 70 112 94 46 60 43 35 67 38 40 77 33 24
68 32 44 77 45 32 67 34 45 66 38 17 114 92 45 122 101 48 72 39 50
63 30 41 76 34 35 122 93 75 179 181 72 203 206 159 195 203 166
195 204 159 189 198 155 195 202 160 192 193 63 116 98 62 120 93 74
72 40 29 74 36 51 71 36 43 69 38 46 67 38 43 66 37 31 111 90 61
118 97 76 69 40 36 64 33 31 71 38 45 71 40 37 156 129 86 201 203 189
197 200 179 196 199 170 199 200 169 200 201 170 200 201 170
200 201 167 200 202 163 203 203 165 189 210 151 196 199 152
200 188 90 106 103 72 117 94 50 123 87 71 77 154 72 97 149 67
100 155 74 73 155 70 84 155 77 94 158 84 84 157 78 94 150 75
86 151 71 88 146 62 178 177 94 194 216 170 202 204 182 195 184 79
200 196 62 205 168 80 194 194 60 193 195 62 201 186 61 198 175 82
195 188 84 197 183 86 206 178 55 209 183 72 188 185 72 188 125 58
180 65 34 180 60 44 187 60 43 194 64 40 197 58 39 198 51 43 195 69 57
185 58 52 199 61 51 190 53 37 192 65 48 194 57 51 160 174 123
166 174 127 157 161 111 157 163 115 160 160 122 209 204 172
201 199 161 196 202 164 198 205 172 208 213 183 197 198 167
167 166 110 149 120 78 76 49 40 63 32 47 74 38 40 84 31 41 72 41 47
65 49 34 83 37 48 71 32 33 74 40 39 81 152 72 103 149 76 95 153 66
93 154 85 84 164 77 93 158 76 140 182 100 173 155 117 162 161 117
156 168 106 148 181 92 196 186 75 202 177 76 186 184 71 192 186 92
195 186 81 196 185 67 195 182 77 199 187 87 183 173 88 173 160 116
163 171 122 192 198 160 188 188 162 196 196 170 194 200 166
188 200 160 189 206 170 184 205 174 166 162 114 66 50 37 66 35 50
78 43 49 73 35 32 82 47 45 76 47 41 66 41 21 51 35 19 176 170 118
195 192 159 197 200 169 196 202 166 183 189 163 194 200 162
192 195 164 193 198 166 193 198 166 193 198 166 193 198 166
193 198 166 193 198 166 193 198 166 193 198 166 193 198 166
193 198 166 193 198 166 193 198 166 193 198 166 193 198 166
193 198 166 193 198 166 193 198 166 193 198 166 193 198 166
193 198 166 193 198 166 193 198 166 193 198 166 193 198 166
186 184 133 186 184 133 186 184 133 186 184 133 186 184 133
186 184 133 186 184 133 186 184 133 187 185 134 187 185 134
186 184 133 186 184 133 186 184 133 186 184 133 187 185 134
187 185 134 189 187 138 190 188 139 192 190 141 193 191 142
193 191 142 192 190 141 192 190 141 192 190 141 188 188 134
192 191 143 195 180 139 190 188 139 181 189 132 184 187 134
179 181 141 61 46 23 64 33 41 61 48 40 62 33 38 71 37 54 56 37 23
182 198 136 106 135 79 66 40 43 66 39 54 71 30 26 51 39 43
202 177 136 194 204 154 185 199 140 191 193 144 197 190 162
190 197 155 193 188 150 202 194 157 196 198 158 186 192 148
202 197 155 196 193 148 185 193 142 191 194 149 178 206 158
193 195 155 192 202 133 197 196 168 189 186 151 200 197 156
187 197 136 185 202 148 203 200 165 182 192 140 207 190 136
186 191 150 204 191 149 198 194 156 188 172 77 196 184 76 203 167 81
194 52 40 109 101 64 125 96 56 75 33 55 68 36 57 81 32 53 70 32 53
68 31 48 75 44 41 71 37 54 68 35 44 65 31 47 121 93 71 123 98 57
165 126 59 201 171 99 188 175 71 212 198 169 201 198 165 199 207 150
192 200 149 198 202 177 198 180 78 118 89 59 121 87 78 73 39 27
69 33 37 66 34 39 70 40 40 70 40 50 68 40 29 122 107 68 210 195 166
111 82 74 79 48 43 60 30 40 70 36 37 134 97 44 201 193 112 195 185 96
190 180 83 192 180 78 194 183 78 195 184 78 195 185 74 197 187 74
198 181 77 194 182 84 199 182 90 208 175 59 121 88 55 124 99 69
118 98 73 100 155 74 85 158 69 100 159 79 100 147 75 96 152 79
92 154 77 98 155 76 91 149 64 101 157 68 95 156 79 211 185 72
184 192 171 192 205 185 197 189 78 185 181 74 213 183 93 195 188 82
196 183 79 198 187 81 195 189 79 194 187 73 202 181 72 212 185 70
208 192 81 187 192 76 197 185 83 194 119 61 172 67 35 195 54 36
178 58 31 191 66 46 191 50 40 187 57 43 197 62 42 194 52 30 195 58 39
198 54 53 67 52 31 68 39 35 73 23 26 77 49 37 75 45 43 127 98 64
141 116 62 175 159 123 200 200 176 190 204 171 186 203 159
194 210 165 158 113 71 70 34 18 62 36 45 79 40 61 79 41 54 67 38 34
67 42 35 84 41 48 73 31 35 84 44 44 67 48 42 97 155 94 84 152 67
77 172 78 89 133 74 89 158 77 148 165 97 171 179 120 158 174 109
159 166 122 158 116 68 198 176 77 180 178 69 200 187 82 197 178 84
197 179 69 197 175 73 197 174 78 194 176 68 197 179 79 197 182 87
197 187 74 166 169 112 195 196 156 206 201 179 189 187 166
201 205 170 195 207 159 182 200 150 116 138 92 65 37 51 71 44 37
74 42 29 82 41 47 71 27 44 74 33 41 73 37 39 73 38 44 77 47 49
132 115 71 172 165 123 199 197 172 188 194 156 195 201 163
197 202 170 193 197 162 193 198 166 193 198 166 193 198 166
193 198 166 193 198 166 193 198 166 193 198 166 193 198 166
193 198 166 193 198 166 193 198 166 193 198 166 193 198 166
193 198 166 193 198 166 193 198 166 193 198 166 193 198 166
193 198 166 193 198 166 193 198 166 193 198 166 193 198 166
193 198 166 186 184 133 186 184 133 186 184 133 186 184 133
186 184 133 186 184 133 186 184 133 186 184 133 186 184 133
186 184 133 186 184 133 187 185 134 188 186 135 189 187 136
190 188 137 191 189 138 191 189 140 192 190 141 193 191 142
193 191 142 192 190 141 192 190 141 191 189 140 191 189 140
198 192 140 183 193 140 212 187 147 176 181 125 178 194 131
198 190 143 111 121 86 66 37 33 57 45 33 60 30 30 75 45 57 51 35 45
74 46 35 185 187 140 97 128 84 66 31 37 52 35 41 67 50 42 131 82 75
179 191 143 178 190 140 187 195 146 196 197 153 199 194 156
203 193 132 203 209 147 103 125 63 111 124 71 124 100 64 128 81 51
116 94 53 110 134 76 116 133 78 189 184 164 181 199 157 194 186 147
188 200 152 194 197 168 197 195 156 186 193 160 190 187 142
176 198 151 205 194 164 182 196 170 186 200 151 211 174 83 191 54 38
180 71 40 190 57 26 194 61 44 179 62 19 187 54 49 196 62 51 92 98 64
62 37 43 70 35 39 78 41 58 64 28 40 74 36 57 66 33 40 64 32 37
127 102 62 189 172 94 196 185 70 189 186 53 200 190 93 193 180 86
189 175 86 198 189 86 184 169 88 195 178 98 196 178 80 123 88 68
130 103 48 122 91 73 71 40 37 64 33 28 75 43 48 71 40 35 65 30 34
72 37 43 109 90 60 110 92 72 70 39 36 73 40 35 74 43 59 77 38 43
163 117 57 202 185 93 196 180 82 195 178 72 198 180 68 201 181 69
201 181 69 201 181 68 204 185 67 192 193 53 206 188 80 193 193 61
208 185 83 173 130 51 116 87 71 111 88 57 118 100 54 95 149 74
72 157 72 98 144 72 115 155 84 85 151 63 72 159 52 87 159 47
207 183 95 199 181 71 191 188 91 195 188 82 204 180 74 202 180 69
206 189 59 201 179 59 203 180 78 211 180 72 194 186 79 185 180 76
210 185 92 209 188 63 183 178 74 188 191 60 188 177 72 200 177 73
199 182 78 175 133 57 204 63 45 186 52 40 191 60 40 199 67 46
185 62 46 187 68 34 182 62 38 186 64 59 77 45 30 72 29 36 73 41 54
91 44 64 81 30 49 71 35 39 77 35 37 77 35 19 148 123 82 171 164 120
200 205 173 202 210 173 156 163 109 82 40 28 81 39 40 82 40 54
62 39 49 66 40 39 78 44 42 75 30 37 70 34 44 83 44 47 80 37 44
70 35 39 66 50 34 93 151 67 90 148 74 168 170 123 170 171 113
164 171 117 163 156 110 159 172 103 177 160 108 162 110 60 209 177 92
181 183 84 202 174 67 201 179 70 201 178 76 203 183 71 206 186 73
201 182 80 196 179 71 195 184 60 192 180 58 185 179 91 169 165 101
199 199 163 192 196 169 192 199 166 190 195 155 163 159 124 65 56 27
74 40 41 77 41 53 73 35 48 70 34 34 83 46 40 73 37 39 80 42 53
72 34 47 81 40 46 70 39 34 129 116 72 203 198 166 195 198 167
198 205 164 190 193 172 191 195 158 193 198 166 193 198 166
193 198 166 193 198 166 193 198 166 193 198 166 193 198 166
193 198 166 193 198 166 193 198 166 193 198 166 193 198 166
193 198 166 193 198 166 193 198 166 193 198 166 193 198 166
193 198 166 193 198 166 193 198 166 193 198 166 193 198 166
193 198 166 193 198 166 186 184 133 186 184 133 186 184 133
186 184 133 186 184 133 186 184 133 186 184 133 186 184 133
186 184 133 186 184 133 186 184 133 187 185 134 189 187 136
191 189 138 193 191 140 194 192 141 191 189 140 192 190 141
192 190 141 192 190 141 192 190 141 192 190 141 192 190 141
193 191 142 189 194 138 201 182 139 185 189 138 193 190 135
179 188 125 106 127 70 115 92 74 63 38 41 67 41 42 71 28 45 55 34 49
66 38 52 68 31 39 62 33 37 69 38 44 64 41 47 75 38 46 54 36 36
112 134 70 195 192 157 198 194 149 201 195 159 191 192 152
189 198 143 104 131 86 101 95 69 67 38 32 64 37 42 56 39 47 66 42 55
63 31 42 68 37 45 60 42 32 127 89 53 116 133 79 187 196 151
191 193 143 200 198 141 185 189 138 200 197 142 197 196 148
205 192 158 197 187 136 198 180 68 185 58 26 191 58 49 179 61 33
188 56 43 181 56 64 182 68 41 188 56 31 186 56 42 187 61 36 196 59 27
77 35 47 74 35 38 68 36 37 74 41 32 69 35 36 122 91 70 200 185 84
192 180 62 199 186 84 192 180 72 192 175 87 201 183 73 198 176 67
201 178 74 193 175 67 199 185 76 195 182 68 196 179 71 158 129 69
125 98 55 118 92 69 65 35 47 71 40 55 71 39 44 65 27 42 80 39 45
76 32 55 66 43 27 68 43 36 72 35 42 69 30 31 69 36 57 73 30 39
182 129 63 190 180 83 188 179 74 193 181 71 200 187 75 201 188 76
198 184 75 197 183 74 199 186 74 202 178 70 202 188 89 182 183 66
206 180 83 197 186 70 101 102 60 122 99 81 117 91 58 111 98 53
102 153 84 101 157 84 70 155 64 104 148 59 212 187 103 185 184 76
202 181 72 190 185 65 202 184 72 210 184 71 195 183 71 194 188 66
194 188 78 186 185 92 202 189 61 197 186 80 195 184 69 201 185 74
197 186 60 193 182 74 198 188 77 206 184 85 211 183 74 194 191 78
192 191 64 210 172 75 197 57 42 178 64 54 185 66 36 196 57 28
190 58 45 197 50 58 78 42 30 66 41 45 85 27 51 73 48 52 77 38 39
56 42 31 75 40 36 63 40 50 80 47 58 74 33 41 74 40 28 134 120 73
168 165 98 170 160 109 119 97 76 69 31 56 74 52 41 74 34 43 73 37 49
79 40 23 69 41 37 81 38 66 72 41 46 74 33 41 63 46 52 66 41 45
83 33 42 101 153 71 160 163 116 161 174 121 160 166 102 164 164 126
165 175 122 149 167 109 156 118 53 158 119 54 144 107 55 194 191 94
202 178 68 193 181 73 192 181 76 192 179 83 189 180 77 191 181 66
195 183 73 200 183 91 194 173 94 197 183 60 188 182 88 164 169 111
185 199 164 190 201 171 169 165 140 74 47 38 77 35 39 77 41 43
72 36 36 73 39 40 74 41 48 72 39 48 73 41 46 67 36 34 77 43 41
79 31 45 80 40 49 69 48 31 164 161 106 201 202 168 187 189 175
197 203 169 194 199 169 193 198 166 193 198 166 193 198 166
193 198 166 193 198 166 193 198 166 193 198 166 193 198 166
193 198 166 193 198 166 193 198 166 193 198 166 193 198 166
193 198 166 193 198 166 193 198 166 193 198 166 193 198 166
193 198 166 193 198 166 193 198 166 193 198 166 193 198 166
193 198 166 186 184 133 186 184 133 186 184 133 186 184 133
186 184 133 186 184 133 186 184 133 186 184 133 192 190 141
192 190 141 192 190 141 192 190 141 192 190 141 192 190 141
192 190 141 192 190 141 192 190 141 192 190 141 192 190 141
192 190 141 192 190 141 192 190 141 192 190 141 192 190 141
185 194 139 201 188 144 194 187 143 180 191 133 193 187 129 96 137 69
135 84 67 68 37 32 64 38 49 60 39 54 67 35 56 65 44 53 55 37 33
64 41 33 57 39 35 66 39 46 61 41 43 56 42 42 106 136 74 197 195 136
178 196 154 197 195 157 197 189 152 97 138 82 64 37 44 64 37 44
64 37 44 64 37 44 64 37 44 64 37 44 64 37 44 64 37 44 68 39 44
73 31 43 71 34 41 118 97 76 184 194 133 208 195 150 191 195 162
189 198 145 195 194 146 195 187 148 190 198 157 184 50 39 202 57 52
181 54 39 177 68 27 204 52 49 184 64 30 186 51 47 190 60 46 186 61 33
175 60 39 196 54 42 199 55 55 67 35 36 73 35 58 74 31 38 121 92 50
191 181 84 188 181 67 191 177 78 204 185 90 197 174 68 195 180 77
195 180 77 195 180 77 195 180 77 195 180 77 195 180 77 195 180 77
195 180 77 203 181 79 117 93 69 115 89 66 72 37 43 69 37 48 69 32 40
79 38 42 67 33 47 69 36 43 72 32 41 72 42 42 73 37 41 71 22 43
74 44 52 109 95 58 166 130 54 200 178 79 198 179 77 197 180 76
197 183 76 197 185 75 197 185 73 198 187 72 198 187 72 199 182 90
197 186 58 197 185 65 202 186 88 193 182 66 195 184 69 124 106 42
114 89 69 118 101 49 117 90 71 119 87 74 165 136 80 197 179 71
197 186 62 195 190 70 190 189 71 198 185 73 198 185 73 198 185 73
198 185 73 198 185 73 198 185 73 198 185 73 198 185 73 200 188 70
198 186 68 198 183 68 197 181 68 198 182 69 200 184 73 200 184 73
199 186 74 203 183 60 200 181 78 195 186 67 201 182 79 170 69 41
206 55 48 193 46 39 80 41 46 73 42 48 72 41 39 74 41 36 75 41 42
73 37 51 68 36 51 67 41 44 65 45 34 79 38 42 68 40 55 78 38 39
77 33 30 74 42 43 163 166 113 146 175 119 72 45 34 79 37 39 63 42 39
77 43 44 74 38 40 78 32 42 60 45 50 66 43 49 68 42 43 86 31 50
64 43 50 71 39 50 75 43 30 153 114 57 161 174 118 192 201 174
193 196 177 161 165 128 163 166 111 145 119 60 160 114 62 153 117 69
152 117 61 200 169 87 197 187 74 195 181 76 195 181 76 195 181 76
195 181 76 195 181 76 195 181 76 195 181 76 195 181 76 187 177 80
200 179 72 195 181 76 169 174 90 158 165 114 167 154 120 84 51 44
70 34 44 69 44 39 76 41 48 74 33 39 72 40 43 62 47 42 163 161 120
171 168 115 61 43 29 74 39 45 70 39 34 66 41 47 167 165 117
191 201 166 183 197 164 195 201 175 200 198 159 193 198 166
193 198 166 193 198 166 193 198 166 193 198 166 193 198 166
193 198 166 193 198 166 193 198 166 193 198 166 193 198 166
193 198 166 193 198 166 193 198 166 193 198 166 193 198 166
195 198 167 195 198 167 195 198 167 195 198 167 195 198 167
195 198 167 195 198 167 195 198 167 186 184 133 186 184 133
186 184 133 186 184 133 186 184 133 185 183 132 185 183 132
185 183 132 192 190 141 192 190 141 192 190 141 192 190 141
192 190 141 192 190 141 192 190 141 192 190 141 192 190 141
192 190 141 192 190 141 192 190 141 192 190 141 192 190 141
192 190 141 192 190 141 198 192 142 189 176 132 195 197 150
186 180 128 185 183 124 85 143 69 135 82 64 53 39 26 62 37 40
59 30 34 66 41 44 60 27 36 75 36 54 71 40 56 59 32 47 59 46 55
61 36 42 102 130 82 188 185 144 188 191 138 199 204 163 202 188 159
99 139 76 64 40 30 64 37 44 64 37 44 64 37 44 64 37 44 64 37 44
64 37 44 64 37 44 64 37 44 66 42 55 56 34 36 66 35 51 55 37 23
115 94 47 187 195 146 203 194 155 192 190 151 187 198 158 205 198 143
172 120 63 187 66 45 174 63 33 188 58 32 196 64 59 169 63 39
180 69 39 190 55 49 190 54 38 192 61 33 180 68 44 181 64 44 165 54 37
69 40 22 64 39 32 123 95 73 157 133 73 196 181 78 200 184 73
199 181 83 192 176 81 195 181 74 195 180 77 195 180 77 195 180 77
195 180 77 195 180 77 195 180 77 195 180 77 195 180 77 192 179 65
167 136 69 121 98 67 62 41 36 79 35 50 65 24 38 69 45 35 73 36 28
73 41 46 68 33 40 69 30 35 73 37 41 75 43 54 64 29 33 129 94 56
202 177 87 197 179 77 198 181 77 197 183 76 198 184 75 198 185 73
198 185 73 197 185 73 197 185 73 200 185 82 196 184 66 196 184 64
198 184 77 200 186 79 201 188 74 190 173 91 122 96 69 105 94 62
113 98 65 120 103 47 197 181 83 200 182 58 205 185 70 203 181 79
207 185 84 198 185 73 198 185 73 198 185 73 198 185 73 198 185 73
198 185 73 198 185 73 198 185 73 198 184 75 199 185 76 201 187 78
201 188 76 202 186 75 201 185 74 199 183 72 198 182 69 201 187 64
205 186 91 193 177 66 202 186 73 192 123 64 166 69 27 180 70 43
76 46 38 66 34 45 75 42 49 71 36 42 78 41 49 75 39 49 71 41 39
120 96 68 177 161 112 173 162 116 56 39 47 82 40 50 82 42 40 69 38 46
81 45 59 162 103 59 86 32 45 69 38 33 78 41 49 66 41 44 82 34 34
83 40 49 88 38 63 73 35 26 169 107 56 157 117 48 64 39 43 77 40 47
76 36 36 158 115 70 152 161 104 193 203 166 201 207 173 162 169 118
166 168 103 147 118 52 162 111 54 152 110 60 148 109 52 164 128 50
186 172 65 195 181 76 195 181 76 195 181 76 195 181 76 195 181 76
195 181 76 195 181 76 195 181 76 203 191 79 196 175 82 190 177 65
185 182 75 178 169 128 137 123 74 70 38 43 74 42 31 66 36 34 82 42 51
84 41 48 73 37 41 64 43 40 166 155 125 180 166 129 72 44 41 75 39 43
77 41 53 65 41 29 169 164 124 193 200 169 186 202 155 191 195 181
195 196 154 193 198 166 193 198 166 193 198 166 193 198 166
193 198 166 193 198 166 193 198 166 193 198 166 193 198 166
193 198 166 193 198 166 193 198 166 193 198 166 193 198 166
193 198 166 193 198 166 195 198 167 195 198 167 195 198 167
195 198 167 195 198 167 195 198 167 195 198 167 195 198 167
184 182 131 185 183 132 185 183 132 187 185 134 188 186 135
189 187 136 190 188 137 190 188 137 192 190 141 192 190 141
192 190 141 192 190 141 192 190 141 192 190 141 192 190 141
192 190 141 192 190 141 192 190 141 192 190 141 192 190 141
192 190 141 192 190 141 192 190 141 192 190 141 188 190 140
185 189 139 184 194 142 192 192 140 188 175 122 99 140 74 127 93 66
124 92 79 74 38 48 75 32 39 61 42 38 67 40 47 64 37 56 51 32 52
78 40 55 57 27 27 68 45 37 97 133 72 194 203 146 196 189 160
184 189 148 187 187 133 63 41 20 62 47 52 64 37 44 64 37 44 64 37 44
64 37 44 64 37 44 64 37 44 64 37 44 64 37 44 66 32 33 67 40 47
62 34 49 72 34 73 71 35 45 111 133 87 182 188 154 195 209 148
188 195 161 192 180 78 184 60 26 175 56 34 195 67 32 201 47 45
171 54 37 198 59 40 176 61 42 191 58 49 184 58 35 181 60 29 178 59 37
189 57 42 207 53 43 197 62 58 124 99 59 114 95 39 196 178 94
199 176 70 205 183 74 196 176 79 191 175 79 197 189 82 195 180 77
195 180 77 195 180 77 195 180 77 195 180 77 195 180 77 195 180 77
195 180 77 201 171 101 186 181 64 116 94 47 122 92 54 67 45 34
76 43 50 78 33 54 63 38 34 64 32 35 80 47 54 76 31 38 70 36 37
52 36 36 79 40 35 175 122 78 197 175 73 191 180 75 194 181 76
197 183 76 200 184 73 200 184 73 200 184 73 198 185 73 197 185 73
200 187 75 199 185 76 198 186 66 196 183 69 198 180 80 194 179 64
208 190 88 118 91 44 131 100 72 120 93 40 198 179 85 197 186 60
205 194 68 196 184 76 196 182 83 196 183 78 198 185 73 198 185 73
198 185 73 198 185 73 198 185 73 198 185 73 198 185 73 198 185 73
194 181 76 195 182 77 196 184 76 196 184 74 197 183 74 197 184 72
201 185 74 202 186 73 195 186 65 190 175 80 205 187 79 200 188 66
205 175 79 204 172 87 174 113 59 108 84 72 73 41 46 83 48 52 68 31 39
78 40 53 70 33 41 72 42 31 143 120 79 181 163 99 167 176 111 70 30 28
68 41 56 66 44 31 68 40 62 60 34 33 81 36 43 69 48 43 76 35 53
74 39 59 64 45 47 72 44 33 54 46 33 62 40 43 67 40 23 164 116 67
156 115 61 73 43 43 76 37 40 81 37 36 84 35 57 165 170 112
198 206 182 189 197 156 160 167 115 167 167 105 149 118 54 165 109 58
159 111 65 159 115 66 152 112 43 204 183 90 195 181 76 195 181 76
195 181 76 195 181 76 195 181 76 195 181 76 195 181 76 195 181 76
193 173 74 196 183 68 194 176 94 206 186 73 136 110 51 68 37 42
74 47 26 72 36 40 75 41 42 79 37 47 72 27 34 79 40 43 73 45 44
71 50 33 68 42 25 70 34 44 80 38 52 70 34 36 72 47 42 169 164 122
185 191 155 197 207 172 196 202 176 198 199 167 194 199 167
194 199 167 194 199 167 194 199 167 194 199 167 194 199 167
194 199 167 194 199 167 194 199 167 194 199 167 194 199 167
194 199 167 194 199 167 194 199 167 194 199 167 194 199 167
195 198 167 195 198 167 195 198 167 195 198 167 195 198 167
195 198 167 195 198 167 195 198 167 187 185 134 187 185 134
188 186 135 190 188 137 191 189 138 192 190 139 193 191 140
194 192 141 192 190 141 192 190 141 192 190 141 192 190 141
192 190 141 192 190 141 192 190 141 192 190 141 192 190 141
192 190 141 192 190 141 192 190 141 192 190 141 192 190 141
192 190 141 192 190 141 203 184 141 199 192 146 197 186 141
177 192 135 200 180 130 109 135 74 99 136 82 62 34 12 56 45 53
49 34 41 64 43 50 61 40 47 56 35 42 68 40 39 74 37 21 141 91 68
108 125 83 192 199 145 201 189 139 192 188 163 197 203 155 96 136 65
63 37 40 65 25 49 64 37 44 64 37 44 64 37 44 64 37 44 64 37 44
64 37 44 64 37 44 64 37 44 66 36 46 108 106 68 67 28 29 69 33 43
56 47 40 70 43 36 98 129 70 192 190 141 193 190 137 202 185 67
193 60 41 193 58 54 169 64 35 181 63 61 181 63 33 189 65 39 181 59 48
189 57 45 187 61 38 190 62 37 192 62 46 183 62 45 179 57 34 182 58 34
172 114 66 162 133 63 198 179 84 204 180 74 196 178 70 199 181 81
198 180 80 190 182 75 195 180 77 195 180 77 195 180 77 195 180 77
195 180 77 195 180 77 195 180 77 195 180 77 202 184 82 198 180 72
122 103 61 113 94 62 66 31 35 67 34 29 65 35 47 72 38 55 63 31 32
71 38 45 78 38 46 67 35 36 65 44 41 125 89 77 161 114 62 215 183 80
190 181 76 193 182 76 196 182 75 199 181 71 201 183 71 202 186 73
200 187 75 198 186 74 195 182 68 199 186 74 200 187 72 201 184 76
200 183 79 201 184 66 198 180 70 160 136 62 164 124 62 165 133 50
207 185 76 199 187 69 195 184 76 189 180 79 201 193 84 193 185 61
198 185 73 198 185 73 198 185 73 198 185 73 198 185 73 198 185 73
198 185 73 198 185 73 200 188 78 200 188 76 199 187 75 197 185 73
196 184 72 197 184 72 198 184 75 201 184 76 200 183 75 200 191 86
197 184 70 195 183 65 194 181 69 190 195 77 150 113 45 73 47 46
76 43 36 67 34 29 77 41 41 74 37 44 79 42 50 73 39 37 74 46 25
140 116 82 99 94 54 85 39 49 68 45 39 80 38 50 77 33 32 93 52 50
68 38 48 66 35 40 80 40 40 67 40 33 82 31 36 82 38 51 81 41 52
65 45 46 78 40 53 64 36 58 74 31 41 70 37 44 86 47 48 70 26 27
79 39 65 163 169 107 189 200 168 201 208 175 162 168 124 166 166 112
151 120 66 161 107 61 157 110 68 157 113 68 146 106 45 199 178 95
195 181 76 195 181 76 195 181 76 195 181 76 195 181 76 195 181 76
195 181 76 195 181 76 202 178 82 189 177 79 201 189 81 151 113 51
159 118 54 81 40 54 70 40 42 73 37 51 71 39 42 75 35 43 78 37 45
80 41 44 70 38 39 67 38 34 72 40 41 75 37 52 76 31 51 78 43 37
66 41 34 165 160 120 199 204 163 187 193 165 190 196 160 193 195 171
195 198 167 195 198 167 195 198 167 195 198 167 195 198 167
195 198 167 195 198 167 195 198 167 195 198 167 195 198 167
195 198 167 195 198 167 195 198 167 195 198 167 195 198 167
195 198 167 195 198 167 195 198 167 195 198 167 195 198 167
195 198 167 195 198 167 195 198 167 195 198 167 193 191 142
193 191 142 193 191 142 192 190 141 192 190 141 192 190 141
191 189 140 191 189 140 192 190 141 192 190 141 192 190 141
192 190 141 192 190 141 192 190 141 192 190 141 192 190 141
192 190 141 192 190 141 192 190 141 192 190 141 192 190 141
192 190 141 192 190 141 192 190 141 192 194 144 177 192 137
191 193 143 179 194 137 205 184 139 179 183 132 103 132 78 134 90 65
75 30 33 53 43 42 86 35 52 67 36 41 71 39 28 126 86 61 94 134 71
90 135 66 197 190 146 185 194 127 176 201 161 201 199 158 189 180 121
91 135 84 67 42 38 69 41 64 64 37 44 64 37 44 64 37 44 64 37 44
64 37 44 64 37 44 64 37 44 64 37 44 103 142 87 190 181 126 113 134 67
78 45 56 57 27 51 67 40 29 133 83 58 196 179 89 199 182 112 184 56 21
193 61 40 186 48 48 193 58 54 178 62 37 186 60 38 195 55 42 189 59 46
182 60 37 184 59 37 186 56 40 192 54 43 189 57 45 187 68 46 186 63 32
178 73 41 174 130 59 194 176 78 205 183 81 188 177 71 193 182 76
203 181 79 195 181 76 195 180 77 195 180 77 195 180 77 195 180 77
195 180 77 195 180 77 195 180 77 195 180 77 191 177 72 195 178 88
192 185 79 113 93 69 127 98 64 72 34 55 71 41 51 67 36 34 75 41 42
72 35 43 58 29 34 71 41 41 72 33 34 121 92 78 163 138 84 171 125 37
196 182 83 197 184 82 199 182 76 198 182 71 201 183 71 202 186 73
200 187 75 197 183 74 196 182 73 199 187 65 196 183 71 200 182 82
200 185 70 205 189 68 199 180 75 204 185 83 202 183 81 200 183 75
188 176 64 202 191 85 194 181 79 204 185 82 203 181 69 208 183 65
198 185 73 198 185 73 198 185 73 198 185 73 198 185 73 198 185 73
198 185 73 198 185 73 197 182 65 196 184 66 196 185 67 197 186 70
198 187 72 198 186 74 198 184 77 199 182 78 205 179 82 188 183 63
197 193 67 194 182 74 203 184 81 187 191 68 149 110 45 71 37 51
71 37 38 75 39 39 80 44 44 77 41 43 69 33 37 73 38 44 81 46 50
72 40 41 88 40 40 65 50 53 84 33 48 65 48 40 75 40 38 64 36 22
152 115 70 67 48 44 69 35 33 84 43 41 68 41 46 49 43 55 84 31 51
77 38 31 77 43 31 75 31 32 76 44 33 74 35 64 71 35 47 82 44 41
132 123 48 202 204 167 194 206 168 165 173 124 165 170 116
164 166 103 153 128 64 156 112 51 149 115 52 150 116 52 160 128 51
191 176 81 195 181 76 195 181 76 195 181 76 195 181 76 195 181 76
195 181 76 195 181 76 195 181 76 204 178 81 196 190 76 185 183 64
150 112 75 154 108 46 82 39 30 71 38 49 78 41 58 77 47 49 70 38 41
74 39 45 74 39 43 71 40 38 69 37 40 75 39 51 79 41 52 75 36 41
73 43 45 137 123 88 195 190 161 196 197 163 199 204 163 196 200 177
195 200 170 195 198 167 195 198 167 195 198 167 195 198 167
195 198 167 195 198 167 195 198 167 195 198 167 195 198 167
195 198 167 195 198 167 195 198 167 195 198 167 195 198 167
195 198 167 195 198 167 195 198 167 195 198 167 195 198 167
195 198 167 195 198 167 195 198 167 195 198 167 195 198 167
193 191 142 193 191 142 193 191 142 192 190 141 192 190 141
192 190 141 191 189 140 191 189 140 192 190 141 192 190 141
192 190 141 192 190 141 192 190 141 192 190 141 192 190 141
192 190 141 192 190 141 192 190 141 192 190 141 192 190 141
192 190 141 192 190 141 192 190 141 192 190 141 197 180 136
192 190 141 191 193 143 196 182 135 201 197 149 179 203 145
180 188 137 117 119 70 99 134 78 129 98 77 51 38 22 84 35 30
116 92 64 101 135 75 197 184 139 184 198 147 190 199 144 189 191 141
197 198 158 180 169 123 102 133 63 96 143 89 71 29 31 55 31 44
64 37 44 64 37 44 64 37 44 64 37 44 64 37 44 64 37 44 64 37 44
64 37 44 63 27 37 132 100 61 136 80 63 52 39 23 59 40 46 56 37 57
54 49 27 118 133 76 115 90 36 134 83 66 179 68 49 188 58 32 170 61 38
190 62 35 184 60 34 195 55 56 194 56 30 188 70 32 187 54 35 191 58 49
183 56 39 187 53 41 187 64 49 182 58 32 191 54 38 171 118 50
198 182 84 199 177 78 187 182 78 190 184 74 200 177 73 200 185 82
195 180 77 195 180 77 195 180 77 195 180 77 195 180 77 195 180 77
195 180 77 195 180 77 194 177 69 192 190 103 189 182 78 186 171 70
119 103 67 120 92 70 70 26 41 70 43 34 66 34 35 72 35 43 72 45 50
73 41 44 77 30 36 69 42 35 108 93 52 170 125 60 196 171 81 200 177 83
202 183 81 198 184 75 198 185 71 199 186 72 198 185 73 197 180 72
200 186 79 199 187 65 195 181 74 198 183 82 198 184 62 195 180 61
204 187 83 196 181 66 201 178 76 204 184 72 207 191 78 194 180 73
201 189 77 201 189 69 195 180 65 201 182 79 198 185 73 198 185 73
198 185 73 198 185 73 198 185 73 198 185 73 198 185 73 198 185 73
203 183 71 201 184 70 199 184 69 196 185 69 196 185 69 196 184 72
198 184 77 201 184 80 205 179 82 196 191 65 189 184 56 202 187 84
207 181 84 194 184 73 165 114 57 75 39 43 78 42 56 71 35 47 69 34 40
72 38 39 81 47 48 76 41 45 64 29 35 74 38 48 74 42 47 68 34 33
66 37 55 84 35 41 81 31 40 202 60 46 186 64 40 197 55 51 193 72 55
183 51 36 210 57 51 192 60 58 65 42 24 66 46 45 82 38 51 80 38 48
69 39 37 75 39 39 70 41 35 72 40 41 164 166 101 168 165 132
160 168 119 161 158 103 167 168 90 176 179 90 194 175 83 207 176 86
202 183 89 191 173 75 200 177 73 193 184 67 195 181 76 195 181 76
195 181 76 195 181 76 195 181 76 195 181 76 195 181 76 195 181 76
197 175 64 191 188 75 181 185 74 181 160 113 158 120 71 155 118 47
76 34 46 69 39 31 62 30 31 77 47 47 76 45 51 64 32 37 74 43 38
79 44 51 69 33 45 73 40 33 72 43 39 66 47 32 159 154 114 205 205 179
201 202 168 199 200 168 188 192 157 189 195 169 195 198 167
195 198 167 195 198 167 195 198 167 195 198 167 195 198 167
195 198 167 195 198 167 195 198 167 195 198 167 195 198 167
195 198 167 195 198 167 195 198 167 195 198 167 195 198 167
195 198 167 195 198 167 195 198 167 195 198 167 195 198 167
195 198 167 195 198 167 195 198 167 190 188 139 191 189 140
191 189 140 192 190 141 192 190 141 193 191 142 193 191 142
193 191 142 192 190 141 192 190 141 192 190 141 192 190 141
192 190 141 192 190 141 192 190 141 192 190 141 192 190 141
192 190 141 192 190 141 192 190 141 192 190 141 192 190 141
192 190 141 192 190 141 188 187 139 196 203 151 181 192 136
205 186 143 183 185 136 179 189 137 205 182 140 189 192 137
199 179 129 175 184 131 179 187 140 174 187 143 189 186 145
202 180 143 197 199 152 186 192 144 187 193 145 199 196 161
202 187 130 101 141 78 106 143 89 124 87 45 54 41 25 70 45 49
64 37 44 64 37 44 64 37 44 64 37 44 64 37 44 64 37 44 64 37 44
64 37 44 62 35 44 63 41 43 77 34 41 58 37 54 69 37 61 58 33 55
67 36 52 112 89 55 136 91 62 45 41 30 183 58 52 187 65 24 185 50 30
210 51 45 176 67 34 182 56 33 193 180 86 191 165 80 176 68 39
194 59 53 181 60 33 200 61 42 191 58 49 179 60 38 190 54 40
214 172 98 190 181 76 200 174 77 191 182 79 200 192 81 198 175 71
190 178 80 195 180 77 195 180 77 195 180 77 195 180 77 195 180 77
195 180 77 195 180 77 195 180 77 190 193 54 196 180 85 199 189 136
215 202 183 153 132 27 122 90 65 69 41 56 72 34 25 67 37 37 76 40 50
67 29 40 70 31 36 74 37 44 72 41 46 120 94 79 125 96 54 182 143 64
192 160 73 200 177 81 198 186 78 196 186 73 196 185 70 199 183 72
199 181 73 196 183 71 198 185 73 197 183 74 201 188 76 201 188 73
197 184 70 204 192 80 192 181 66 168 137 47 205 178 71 196 175 60
201 183 73 196 183 71 190 184 62 200 195 77 188 183 81 198 185 73
198 185 73 198 185 73 198 185 73 198 185 73 198 185 73 198 185 73
198 185 73 205 176 82 207 181 84 206 187 84 202 188 79 197 185 73
194 182 70 196 183 71 198 184 75 202 188 81 191 180 62 205 188 72
202 185 77 197 175 73 201 188 94 163 110 60 122 89 58 76 42 43
72 37 43 72 37 44 80 45 51 68 33 37 67 33 34 87 53 54 76 41 45
70 39 37 82 49 56 81 33 29 75 38 56 186 66 50 188 64 38 193 51 41
197 58 29 168 63 44 206 61 42 183 61 22 191 63 28 200 58 44 183 54 58
79 35 32 61 45 45 79 51 40 68 23 44 73 44 48 144 123 66 159 166 112
170 162 126 168 162 128 198 188 77 194 184 87 190 187 82 198 181 75
198 175 69 191 183 74 191 180 72 205 184 77 197 187 72 195 181 76
195 181 76 195 181 76 195 181 76 195 181 76 195 181 76 195 181 76
195 181 76 199 180 77 181 178 73 168 170 131 160 166 92 141 120 67
154 111 58 153 114 71 72 43 39 84 48 48 68 34 33 71 38 47 78 43 49
74 39 33 78 38 46 73 36 44 75 45 21 60 41 27 175 170 130 194 199 159
189 193 168 195 199 162 186 183 166 204 211 159 197 202 179
195 198 167 195 198 167 195 198 167 195 198 167 195 198 167
195 198 167 195 198 167 195 198 167 195 198 167 195 198 167
195 198 167 195 198 167 195 198 167 195 198 167 195 198 167
195 198 167 195 198 167 195 198 167 195 198 167 195 198 167
195 198 167 195 198 167 195 198 167 195 198 167 192 190 141
192 190 141 192 190 141 192 190 141 192 190 141 192 190 141
192 190 141 192 190 141 192 190 141 192 190 141 192 190 141
192 190 141 192 190 141 192 190 141 192 190 141 192 190 141
192 190 141 192 190 141 192 190 141 192 190 141 192 190 141
192 190 141 192 190 141 192 190 141 195 193 145 189 185 137
194 191 140 198 190 143 189 191 142 198 191 145 193 191 140
185 190 132 189 191 142 194 193 139 196 191 135 195 193 142
187 193 149 195 200 159 190 192 143 201 196 140 198 197 169
186 193 141 182 183 123 121 131 71 90 130 80 120 92 55 132 99 58
62 26 40 64 37 44 64 37 44 64 37 44 64 37 44 64 37 44 64 37 44
64 37 44 64 37 44 66 39 46 61 34 39 56 43 52 70 30 31 65 42 24
69 43 42 64 32 33 134 87 67 141 81 53 57 36 53 195 55 38 188 63 35
181 64 54 182 61 34 187 59 50 187 183 75 190 187 72 203 181 80
180 56 28 198 59 52 167 65 25 189 64 34 185 48 40 189 63 48 186 64 41
156 130 45 192 189 76 208 179 79 191 176 75 191 179 69 200 177 75
190 185 91 195 180 77 195 180 77 195 180 77 195 180 77 195 180 77
195 180 77 195 180 77 195 180 77 189 181 74 198 190 144 202 188 153
189 183 63 118 97 70 74 39 43 72 32 32 72 35 53 66 40 39 70 37 46
82 31 46 75 32 39 64 41 47 65 29 43 75 34 38 106 95 65 164 116 44
180 142 61 195 170 77 197 184 79 193 186 72 195 185 70 200 184 73
204 183 76 198 185 70 201 185 87 197 184 72 197 185 63 196 184 76
200 188 78 189 180 61 200 189 81 192 181 91 195 185 72 202 190 70
202 185 81 201 181 82 204 186 74 198 181 65 202 185 79 198 185 73
198 185 73 198 185 73 198 185 73 198 185 73 198 185 73 198 185 73
198 185 73 160 124 48 174 143 60 190 167 74 200 182 80 199 187 77
197 186 71 198 185 71 199 186 72 192 190 71 197 183 76 207 178 76
202 185 67 195 184 69 134 128 44 161 109 62 147 122 58 118 91 64
71 42 28 73 42 40 74 41 48 71 38 47 75 43 48 65 30 34 75 41 42
80 38 40 68 38 40 74 42 47 178 61 44 195 60 40 190 60 38 192 62 40
187 67 50 203 53 54 190 62 37 190 58 37 187 63 55 196 52 44 200 62 34
179 68 51 80 35 38 67 35 38 90 43 53 134 112 63 186 162 118
160 170 109 183 184 56 190 187 72 198 175 73 196 176 79 190 182 75
199 181 73 198 175 71 192 185 79 194 185 84 198 175 81 192 178 79
195 181 76 195 181 76 195 181 76 195 181 76 195 181 76 195 181 76
195 181 76 195 181 76 194 180 75 210 195 164 187 192 172 160 178 120
173 162 117 155 111 64 155 111 66 70 42 38 77 37 37 75 40 38 71 35 47
77 40 48 81 42 35 73 32 38 82 43 48 143 113 77 171 160 130
194 194 160 193 207 146 191 198 182 197 200 171 200 199 169
193 195 156 193 200 169 194 197 166 194 197 166 194 197 166
194 197 166 194 197 166 194 197 166 194 197 166 194 197 166
194 197 166 194 197 166 194 197 166 194 197 166 194 197 166
194 197 166 194 197 166 194 197 166 195 198 167 195 198 167
195 198 167 195 198 167 195 198 167 195 198 167 195 198 167
195 198 167 192 190 141 192 190 141 192 190 141 192 190 141
192 190 141 192 190 141 192 190 141 192 190 141 192 190 141
192 190 141 192 190 141 192 190 141 192 190 141 192 190 141
192 190 141 192 190 141 192 190 141 192 190 141 192 190 141
192 190 141 192 190 141 192 190 141 192 190 141 192 190 141
192 190 141 191 189 140 191 189 140 192 190 141 192 190 141
192 190 141 192 190 141 192 190 141 194 192 143 190 189 141
196 198 151 189 192 147 185 191 147 192 198 154 192 195 150
193 196 151 184 196 148 202 188 143 193 188 133 89 139 54 99 131 84
115 132 88 92 136 57 54 46 43 69 38 36 57 34 40 57 41 54 56 36 48
67 38 43 74 39 43 58 29 34 67 45 57 72 31 47 72 39 56 58 39 43
64 45 38 69 31 42 77 27 54 63 39 37 117 94 53 122 88 61 68 48 23
179 58 41 192 58 49 180 59 38 188 66 29 179 60 36 200 171 105
195 182 77 199 178 95 191 51 34 184 60 48 180 59 42 188 66 43
176 57 33 197 55 43 185 55 42 178 130 68 194 168 71 208 184 78
195 177 75 186 176 78 194 182 82 206 177 75 195 180 77 195 180 77
195 180 77 195 180 77 195 180 77 195 180 77 195 180 77 195 180 77
190 184 90 197 186 132 192 185 117 117 103 64 113 99 52 66 34 45
71 30 60 76 37 32 71 37 53 66 34 35 70 40 29 70 40 29 69 37 38
71 38 49 69 36 47 67 35 40 113 99 72 109 98 53 177 126 61 167 127 55
190 175 72 225 188 81 201 177 87 184 190 64 198 185 73 198 185 73
198 185 73 198 185 73 198 185 73 198 185 73 198 185 73 198 185 73
205 184 75 194 181 69 200 190 75 196 186 71 198 186 74 199 187 77
188 177 71 196 187 82 209 178 53 197 189 82 199 185 78 211 184 79
193 181 83 196 186 75 208 183 65 201 173 73 193 185 60 209 188 97
170 122 58 178 123 58 178 125 57 176 129 59 194 177 85 192 185 68
195 184 66 197 190 74 204 180 74 197 186 78 210 182 75 189 182 65
199 184 69 196 191 73 195 184 68 196 180 82 148 125 49 122 87 59
75 34 52 82 46 56 64 36 25 70 44 47 77 39 62 70 29 37 80 49 29
175 69 53 196 55 38 173 63 36 196 62 50 197 54 50 196 56 33 185 59 44
197 58 37 198 64 35 201 50 39 190 59 41 189 67 43 203 53 52
159 120 65 144 161 106 171 169 120 141 121 48 190 182 81 201 173 74
203 186 80 201 180 65 195 181 76 195 181 76 195 181 76 195 181 76
195 181 76 195 181 76 195 181 76 195 181 76 194 176 66 202 185 77
194 177 73 199 181 71 198 183 66 198 190 63 179 183 62 163 162 131
194 196 175 204 192 176 180 207 154 200 197 166 149 171 109
174 167 125 145 115 55 153 117 57 170 106 58 180 70 35 180 62 24
84 38 49 78 36 50 149 117 60 140 117 63 157 172 105 195 198 167
195 198 167 195 198 167 195 198 167 195 198 167 195 198 167
195 198 167 195 198 167 195 198 167 195 198 167 195 198 167
195 198 167 195 198 167 195 198 167 195 198 167 195 198 167
195 198 167 195 198 167 195 198 167 195 198 167 195 198 167
195 198 167 195 198 167 195 198 167 195 198 167 195 198 167
195 198 167 195 198 167 195 198 167 195 198 167 195 198 167
195 198 167 192 190 141 192 190 141 192 190 141 192 190 141
192 190 141 192 190 141 192 190 141 192 190 141 192 190 141
192 190 141 192 190 141 192 190 141 192 190 141 192 190 141
192 190 141 192 190 141 192 190 141 192 190 141 192 190 141
192 190 141 192 190 141 192 190 141 192 190 141 192 190 141
192 190 141 191 189 140 191 189 140 192 190 141 192 190 141
192 190 141 192 190 141 191 189 140 194 192 143 189 189 139
194 196 149 195 198 153 196 199 154 196 199 154 190 191 147
193 194 150 192 190 151 196 192 145 174 179 125 97 143 68 103 138 84
106 130 78 96 145 63 115 123 99 88 137 81 113 136 92 55 44 22
70 39 37 72 34 45 68 36 51 70 39 54 58 28 40 68 39 33 56 33 41
69 43 54 58 26 27 71 47 47 53 44 45 127 72 69 130 99 55 138 86 64
118 84 57 184 60 48 197 50 43 181 60 39 186 65 34 189 54 34 190 67 36
187 58 18 181 69 32 194 51 34 188 66 45 190 55 36 181 55 32 192 63 42
184 59 41 190 60 44 175 67 28 198 181 89 187 178 73 197 180 76
206 191 88 190 175 72 190 182 73 195 180 77 195 180 77 195 180 77
195 180 77 195 180 77 195 180 77 195 180 77 195 180 77 185 179 65
208 191 145 195 188 82 107 86 69 72 46 31 70 36 52 70 34 36 74 35 36
68 35 46 71 40 38 121 92 78 119 90 76 72 41 39 65 32 39 71 38 45
69 37 40 126 90 76 120 86 41 184 123 66 183 128 71 161 124 54
171 117 53 181 130 67 206 183 79 198 185 73 198 185 73 198 185 73
198 185 73 198 185 73 198 185 73 198 185 73 198 185 73 200 182 74
200 192 81 186 179 65 201 181 69 210 184 74 201 181 69 207 191 78
205 185 73 189 199 77 181 179 70 202 187 68 193 182 58 197 186 80
205 184 79 204 184 69 197 195 84 213 182 76 168 124 59 122 100 61
119 89 63 118 88 60 120 101 58 171 130 68 212 182 86 205 182 78
197 180 72 200 182 70 191 184 67 200 187 72 198 191 75 204 188 77
195 179 66 203 190 76 200 187 72 200 184 71 203 183 84 149 126 50
120 90 56 73 38 42 70 35 55 55 37 35 93 54 47 176 39 46 212 53 49
181 63 37 188 62 37 194 63 45 182 59 43 180 62 32 200 57 53 180 69 52
179 52 35 182 64 50 195 73 52 179 49 23 174 61 43 168 107 60
156 170 109 180 168 116 166 111 55 186 183 90 206 177 83 194 179 76
177 185 73 195 181 76 195 181 76 195 181 76 195 181 76 195 181 76
195 181 76 195 181 76 195 181 76 195 175 86 195 182 78 188 178 81
191 183 84 176 169 81 171 161 110 176 175 127 195 198 167 194 203 158
202 196 170 201 205 170 198 193 171 169 174 118 151 103 65 165 120 61
151 108 53 204 55 61 185 59 45 204 62 40 183 61 50 167 67 43
165 102 48 172 182 130 212 182 172 195 198 167 195 198 167
195 198 167 195 198 167 195 198 167 195 198 167 195 198 167
195 198 167 195 198 167 195 198 167 195 198 167 195 198 167
195 198 167 195 198 167 195 198 167 195 198 167 195 198 167
195 198 167 195 198 167 195 198 167 195 198 167 195 198 167
195 198 167 195 198 167 195 198 167 195 198 167 195 198 167
195 198 167 195 198 167 195 198 167 195 198 167 195 198 167
192 190 141 192 190 141 192 190 141 192 190 141 192 190 141
192 190 141 192 190 141 192 190 141 192 190 141 192 190 141
192 190 141 192 190 141 192 190 141 192 190 141 192 190 141
192 190 141 192 190 141 192 190 141 192 190 141 192 190 141
192 190 141 192 190 141 192 190 141 192 190 141 191 189 140
191 189 140 192 190 141 192 190 141 192 190 141 192 190 141
191 189 140 191 189 140 188 186 137 191 189 140 195 194 146
191 193 146 191 192 148 193 192 148 191 190 146 198 197 151
200 187 153 193 206 152 108 131 75 100 139 74 97 133 72 105 140 76
88 140 58 99 128 74 104 136 69 98 131 60 108 138 74 109 125 86
42 39 30 61 41 50 73 46 55 67 37 39 56 42 42 59 30 26 74 37 44
67 42 61 51 44 38 134 86 50 124 95 39 130 77 45 128 82 56 128 96 57
127 84 50 192 54 41 200 54 39 183 62 41 199 63 41 178 53 31 181 65 50
174 51 35 189 64 42 185 64 37 190 54 32 176 60 35 189 67 46 172 60 38
186 51 32 189 64 36 189 117 58 191 185 91 190 183 77 198 175 71
195 184 76 189 187 78 195 180 77 195 180 77 195 180 77 195 180 77
195 180 77 195 180 77 195 180 77 195 180 77 194 187 71 186 171 88
196 187 60 68 32 42 67 30 37 77 40 48 68 32 44 73 40 33 69 36 43
65 34 31 121 92 78 117 88 74 68 37 34 66 34 37 70 38 41 69 37 38
62 43 39 121 98 64 117 92 62 117 89 68 113 97 71 119 96 65 161 127 56
196 186 62 198 185 73 198 185 73 198 185 73 198 185 73 198 185 73
198 185 73 198 185 73 198 185 73 203 179 73 198 188 77 201 195 83
197 184 72 201 183 71 199 188 72 190 179 61 205 186 68 200 177 83
215 178 87 211 185 72 195 190 64 196 188 77 199 186 74 186 176 52
197 187 64 161 131 61 114 92 53 75 33 35 65 38 47 68 41 50 71 31 32
113 92 61 121 90 36 163 129 55 211 182 90 196 185 70 200 191 70
191 191 71 194 180 71 200 183 75 206 182 74 198 185 71 193 180 66
193 178 77 202 188 81 191 175 64 151 125 68 80 40 40 80 38 39
83 47 25 196 45 54 181 68 54 193 62 44 208 51 36 184 66 38 197 56 38
186 61 41 195 58 39 192 63 57 193 51 47 194 62 49 182 58 50 199 55 44
204 62 38 184 74 51 189 63 41 156 119 67 151 103 57 146 111 57
152 115 45 185 186 84 194 179 76 204 183 90 195 181 76 195 181 76
195 181 76 195 181 76 195 181 76 195 181 76 195 181 76 195 181 76
204 190 85 184 180 55 175 171 110 194 190 163 203 202 174 199 199 175
187 192 160 189 197 160 193 193 165 197 196 175 192 194 155
195 205 153 201 179 106 178 58 24 186 61 39 198 59 64 180 60 43
179 67 47 183 48 42 208 65 49 204 63 35 184 59 29 149 167 109
200 197 178 195 198 167 195 198 167 195 198 167 195 198 167
195 198 167 195 198 167 195 198 167 195 198 167 195 198 167
195 198 167 195 198 167 195 198 167 195 198 167 195 198 167
195 198 167 195 198 167 195 198 167 195 198 167 195 198 167
195 198 167 195 198 167 195 198 167 195 198 167 195 198 167
195 198 167 195 198 167 195 198 167 195 198 167 195 198 167
195 198 167 195 198 167 195 198 167 192 190 141 192 190 141
192 190 141 192 190 141 192 190 141 192 190 141 192 190 141
192 190 141 192 190 141 192 190 141 192 190 141 192 190 141
192 190 141 192 190 141 192 190 141 192 190 141 192 190 141
192 190 141 192 190 141 192 190 141 192 190 141 192 190 141
192 190 141 192 190 141 191 189 140 192 190 141 192 190 141
192 190 141 192 190 141 191 189 140 192 190 141 192 190 141
192 190 141 200 198 149 201 199 151 194 192 144 196 193 148
199 196 151 197 194 149 198 195 150 197 188 147 98 128 64 90 132 69
103 138 80 97 132 68 95 134 69 96 139 68 104 141 74 107 135 76
105 142 75 88 134 62 101 139 78 116 134 96 46 43 26 55 37 33 58 39 35
64 42 45 74 42 45 60 27 46 60 39 58 133 77 52 198 179 76 207 180 89
120 91 59 135 84 57 122 92 42 130 91 58 181 65 42 185 59 37 184 58 46
168 70 33 195 65 51 199 53 54 201 52 46 189 58 38 185 63 39 187 56 36
190 65 47 193 57 43 196 56 41 194 65 44 181 62 40 192 57 37
171 115 54 197 182 89 196 177 75 206 182 82 187 178 77 195 180 77
195 180 77 195 180 77 195 180 77 195 180 77 195 180 77 195 180 77
195 180 77 189 178 73 203 190 76 199 181 69 128 91 75 78 34 47
74 35 36 75 36 63 64 34 32 73 38 45 65 31 30 79 46 39 75 42 35
69 35 34 75 40 46 68 33 39 70 35 39 64 36 48 120 87 56 113 98 69
120 100 63 106 91 48 120 106 69 169 128 62 211 183 86 198 185 73
198 185 73 198 185 73 198 185 73 198 185 73 198 185 73 198 185 73
198 185 73 203 181 70 202 181 74 194 183 77 184 181 76 195 190 86
203 190 86 193 179 74 195 187 76 196 183 69 206 185 78 186 180 66
193 188 71 202 181 74 201 188 83 200 182 82 184 125 47 114 98 73
68 37 32 78 43 50 74 26 42 77 30 46 74 41 50 63 32 37 66 48 44
124 88 52 159 123 61 203 191 93 201 177 69 186 183 68 211 188 86
198 186 76 200 180 68 198 185 55 203 191 73 198 185 83 193 182 76
204 192 72 193 171 72 155 122 55 151 113 51 180 58 43 179 73 51
191 61 45 184 62 41 182 66 41 201 54 38 199 51 37 193 64 43 191 55 41
180 65 44 204 60 33 193 63 27 189 66 50 184 52 40 193 58 36 197 51 36
182 61 44 187 61 36 199 64 44 160 109 64 165 116 57 203 174 80
215 180 78 180 181 79 195 181 76 195 181 76 195 181 76 195 181 76
195 181 76 195 181 76 195 181 76 195 181 76 191 172 77 188 185 72
196 195 151 198 203 181 192 201 170 190 202 156 192 200 161
199 206 175 205 201 172 192 197 167 191 207 168 160 170 120
158 108 57 189 68 37 190 64 39 186 48 38 186 70 29 186 57 28
202 60 46 194 53 46 181 60 43 193 65 40 156 103 59 149 173 111
195 198 167 195 198 167 195 198 167 195 198 167 195 198 167
195 198 167 195 198 167 195 198 167 195 198 167 195 198 167
195 198 167 195 198 167 195 198 167 195 198 167 195 198 167
195 198 167 195 198 167 195 198 167 195 198 167 195 198 167
195 198 167 195 198 167 195 198 167 195 198 167 195 198 167
195 198 167 195 198 167 195 198 167 195 198 167 195 198 167
195 198 167 195 198 167 192 190 141 192 190 141 192 190 141
192 190 141 192 190 141 192 190 141 192 190 141 192 190 141
192 190 141 192 190 141 192 190 141 192 190 141 192 190 141
192 190 141 192 190 141 192 190 141 192 190 141 192 190 141
192 190 141 192 190 141 192 190 141 192 190 141 192 190 141
192 190 141 191 189 140 192 190 141 192 190 141 192 190 141
192 190 141 192 190 141 193 191 142 194 192 143 199 197 148
200 198 149 197 195 146 198 196 147 203 201 153 204 202 154
198 196 148 189 188 140 186 194 137 95 134 71 94 147 79 96 132 71
109 140 80 100 139 76 94 127 72 100 132 67 85 137 73 101 142 82
101 137 75 108 145 78 89 128 63 110 131 88 61 44 37 81 33 55 61 30 46
64 40 36 131 92 63 184 59 39 180 63 43 186 58 47 189 60 38 193 60 17
183 60 52 175 64 37 127 95 57 170 66 39 190 55 36 195 60 54 193 52 32
180 57 42 194 54 41 186 65 44 170 58 34 177 62 41 183 57 42 200 58 48
184 57 38 182 57 35 167 57 34 202 61 52 178 61 44 192 60 39
173 122 57 178 137 55 205 171 82 197 181 86 195 180 77 195 180 77
195 180 77 195 180 77 195 180 77 195 180 77 195 180 77 195 180 77
197 184 82 195 177 77 199 175 77 166 136 64 73 33 25 72 32 41
71 36 43 71 38 59 70 34 44 75 40 46 65 31 32 64 30 31 75 40 44
73 38 45 68 33 40 71 36 43 126 93 48 173 134 69 109 91 53 124 97 67
123 93 55 117 94 60 167 118 59 176 124 48 198 185 73 198 185 73
198 185 73 198 185 73 198 185 73 198 185 73 198 185 73 198 185 73
186 198 72 198 177 70 216 177 86 176 139 58 170 122 50 191 123 60
177 123 53 202 182 96 204 194 71 196 172 62 200 181 78 208 192 81
198 181 63 181 190 83 167 182 117 109 88 67 76 36 45 70 29 37
66 36 38 69 39 41 70 40 40 63 34 36 72 31 45 72 32 58 73 44 40
128 91 65 180 156 94 174 133 53 202 184 86 202 173 73 198 191 77
196 187 68 199 184 69 197 183 76 199 189 78 195 188 71 195 184 68
203 187 66 203 175 75 157 117 58 166 108 62 204 58 43 187 56 38
189 59 43 200 56 45 182 61 42 190 57 40 194 61 44 196 57 52 189 61 32
208 186 85 189 182 75 189 57 32 194 55 50 187 68 46 184 65 41
199 58 51 199 58 40 189 57 36 193 57 41 153 124 58 193 171 72
197 181 68 194 177 71 195 181 76 195 181 76 195 181 76 195 181 76
195 181 76 195 181 76 195 181 76 195 181 76 200 179 72 193 184 91
198 195 162 189 202 149 185 197 161 193 199 173 194 196 172
195 198 155 201 201 175 196 193 158 197 203 157 151 102 62 193 61 48
197 60 42 188 55 36 198 68 44 191 59 38 191 62 33 200 179 86
152 110 60 193 54 47 201 68 33 197 63 51 158 115 64 195 198 167
195 198 167 195 198 167 195 198 167 195 198 167 195 198 167
195 198 167 195 198 167 195 198 167 195 198 167 195 198 167
195 198 167 195 198 167 195 198 167 195 198 167 195 198 167
195 198 167 195 198 167 195 198 167 195 198 167 195 198 167
195 198 167 195 198 167 195 198 167 195 198 167 195 198 167
195 198 167 195 198 167 195 198 167 195 198 167 195 198 167
195 198 167 192 190 141 192 190 141 192 190 141 192 190 141
192 190 141 192 190 141 192 190 141 192 190 141 192 190 141
192 190 141 192 190 141 192 190 141 192 190 141 192 190 141
192 190 141 192 190 141 192 190 141 192 190 141 192 190 141
192 190 141 192 190 141 192 190 141 192 190 141 192 190 141
191 189 140 192 190 141 192 190 141 192 190 141 191 189 140
192 190 141 194 192 143 196 194 145 201 197 150 197 193 145
196 192 144 204 200 152 200 198 149 194 194 144 197 199 150
195 197 148 105 132 65 112 135 91 94 143 77 97 136 71 100 129 73
97 137 75 106 136 86 110 138 79 103 140 73 101 132 72 97 128 68
93 132 65 104 145 75 101 130 76 47 45 30 61 34 49 120 89 60 141 89 68
179 52 43 178 68 31 182 59 25 185 62 44 180 57 50 176 54 43 182 56 41
190 59 39 188 51 41 188 59 40 180 64 41 186 59 44 186 66 42 198 51 43
173 60 26 175 64 36 196 60 48 195 51 40 175 70 40 181 62 32 186 66 39
187 62 42 191 68 52 171 51 35 193 54 47 176 65 45 190 49 29
176 117 57 172 131 52 194 178 83 195 180 77 195 180 77 195 180 77
195 180 77 195 180 77 195 180 77 195 180 77 195 180 77 189 175 78
198 180 82 198 176 77 197 172 82 166 137 67 75 36 37 72 41 38
64 31 52 68 33 40 76 41 48 69 34 41 73 38 45 73 38 45 67 32 39
74 39 46 71 35 45 66 39 30 122 95 65 109 99 72 109 94 65 119 97 56
111 97 62 127 101 66 173 124 84 198 185 73 198 185 73 198 185 73
198 185 73 198 185 73 198 185 73 198 185 73 198 185 73 193 184 65
213 179 79 175 133 51 165 121 56 180 109 63 183 68 41 194 62 37
179 60 28 163 128 62 178 120 57 185 130 66 200 175 75 195 185 51
198 184 77 115 89 56 79 38 56 77 26 35 73 42 40 77 36 40 60 37 43
61 39 41 76 36 36 74 44 42 77 26 43 61 35 48 76 42 41 144 110 83
155 109 57 164 131 50 206 178 78 193 183 68 194 192 71 205 188 82
199 184 81 191 181 66 195 185 74 198 183 88 201 184 78 203 179 81
154 118 68 143 121 63 193 58 38 204 53 42 192 62 46 192 60 47
188 61 46 194 61 46 184 59 41 192 65 56 186 57 25 200 173 68
199 181 71 151 128 61 191 58 51 189 58 40 190 57 40 184 54 41
204 52 41 186 60 38 192 67 45 151 115 53 188 177 85 197 189 80
202 180 69 195 181 76 195 181 76 195 181 76 195 181 76 195 181 76
195 181 76 195 181 76 195 181 76 200 181 52 191 182 81 204 198 182
198 205 171 192 199 183 196 199 172 198 195 176 202 197 168
187 204 162 154 168 109 151 172 105 160 116 55 203 63 48 174 59 32
183 60 45 192 59 42 201 48 42 210 63 45 185 178 71 148 123 66
202 52 53 183 64 24 185 53 41 152 112 51 195 198 167 195 198 167
195 198 167 195 198 167 195 198 167 195 198 167 195 198 167
195 198 167 195 198 167 195 198 167 195 198 167 195 198 167
195 198 167 195 198 167 195 198 167 195 198 167 195 198 167
195 198 167 195 198 167 195 198 167 195 198 167 195 198 167
195 198 167 195 198 167 195 198 167 195 198 167 195 198 167
195 198 167 195 198 167 195 198 167 195 198 167 195 198 167
192 190 141 192 190 141 192 190 141 192 190 141 192 190 141
192 190 141 192 190 141 192 190 141 192 190 141 192 190 141
192 190 141 192 190 141 192 190 141 192 190 141 192 190 141
192 190 141 192 190 141 192 190 141 192 190 141 192 190 141
192 190 141 192 190 141 192 190 141 192 190 141 192 190 141
192 190 141 193 191 142 192 190 141 191 189 140 193 191 142
196 194 145 199 197 148 202 198 151 200 196 148 202 199 148
206 203 152 195 193 142 191 194 141 196 200 149 178 185 134
102 138 74 49 43 31 103 134 75 96 138 66 103 130 79 96 138 75
105 140 84 97 127 67 93 128 62 114 146 83 104 132 73 105 129 71
114 135 78 110 131 75 110 134 82 106 134 85 137 89 49 187 52 32
188 63 35 187 58 36 185 63 42 192 63 44 184 52 40 193 68 62 185 65 41
188 65 47 188 53 33 197 59 46 194 58 44 171 53 27 185 62 46 179 68 41
195 72 41 183 51 36 184 50 39 187 63 35 185 178 90 191 180 90
192 108 61 177 66 46 189 62 47 184 57 38 183 64 42 202 62 49
178 63 44 176 63 33 156 138 56 203 175 78 195 180 77 195 180 77
195 180 77 195 180 77 195 180 77 195 180 77 195 180 77 195 180 77
195 179 83 197 183 74 204 186 84 198 179 85 191 174 68 120 93 50
64 34 26 73 41 44 69 34 38 70 35 42 68 32 42 71 36 43 69 34 40
68 33 37 73 38 44 70 35 42 72 34 55 65 32 41 60 30 38 75 43 66
78 36 50 64 34 26 114 95 65 169 117 57 198 185 73 198 185 73
198 185 73 198 185 73 198 185 73 198 185 73 198 185 73 198 185 73
187 197 75 200 185 84 180 117 50 184 71 39 203 59 50 199 50 43
193 57 41 187 63 39 188 56 54 197 67 54 176 61 43 193 124 67
202 184 76 197 180 90 82 44 21 74 34 45 76 47 49 71 29 30 62 33 37
76 31 52 80 36 51 58 34 24 83 45 36 60 34 33 65 35 45 74 44 52
80 40 38 126 93 58 154 120 49 206 187 84 199 181 69 191 181 66
193 182 56 202 191 67 196 186 62 196 185 67 201 189 79 195 182 70
202 186 75 198 181 75 152 109 58 186 61 39 199 62 44 180 64 41
191 62 43 195 59 43 193 60 43 188 57 39 181 59 38 204 56 42 194 67 24
177 180 89 181 59 35 191 64 47 184 58 35 209 58 49 189 73 48
183 56 39 189 63 48 186 49 31 193 61 36 150 132 60 177 179 82
198 181 75 195 181 76 195 181 76 195 181 76 195 181 76 195 181 76
195 181 76 195 181 76 195 181 76 202 183 80 185 179 67 198 191 173
190 195 163 192 198 164 199 204 150 202 195 177 199 191 168
208 178 90 200 172 89 148 121 68 153 107 58 188 54 55 187 71 46
182 63 43 195 54 27 188 64 38 186 61 41 182 63 23 189 58 40 191 63 52
195 66 44 197 59 48 169 110 50 195 198 167 195 198 167 195 198 167
195 198 167 195 198 167 195 198 167 195 198 167 195 198 167
195 198 167 195 198 167 195 198 167 195 198 167 195 198 167
195 198 167 195 198 167 195 198 167 195 198 167 195 198 167
195 198 167 195 198 167 195 198 167 195 198 167 195 198 167
195 198 167 195 198 167 195 198 167 195 198 167 195 198 167
195 198 167 195 198 167 195 198 167 195 198 167 192 190 141
192 190 141 192 190 141 192 190 141 192 190 141 192 190 141
192 190 141 192 190 141 192 190 141 192 190 141 192 190 141
192 190 141 192 190 141 192 190 141 192 190 141 192 190 141
192 190 141 192 190 141 192 190 141 192 190 141 192 190 141
192 190 141 192 190 141 192 190 141 192 190 141 193 191 142
192 190 141 191 189 140 191 189 140 193 191 142 197 195 146
201 199 150 198 194 147 199 195 147 197 194 143 197 194 143
191 191 137 195 198 145 179 186 134 123 133 81 99 137 80 64 34 46
111 129 79 96 138 62 107 135 86 95 142 74 92 132 69 106 137 77
97 138 80 100 136 75 102 136 76 94 138 79 86 140 80 96 139 70
188 199 120 195 178 88 188 57 37 171 66 44 189 62 47 195 52 36
192 54 41 183 61 48 182 62 38 187 57 21 197 52 33 168 66 44 196 54 30
182 61 42 188 61 44 184 65 33 186 60 46 187 55 32 180 55 33 196 57 50
187 63 51 195 55 22 199 185 80 195 178 72 187 64 22 180 56 46
183 56 37 190 66 40 189 53 29 187 54 37 180 64 49 185 117 78
183 120 53 197 180 76 195 180 77 195 180 77 195 180 77 195 180 77
195 180 77 195 180 77 195 180 77 195 180 77 199 186 72 187 172 71
195 182 77 195 185 62 197 179 93 196 179 91 127 97 71 67 33 31
72 36 36 73 37 41 73 36 44 68 31 38 75 39 43 76 40 40 66 30 32
73 37 41 71 33 44 68 38 36 81 45 29 63 27 41 80 28 50 79 38 36
109 95 69 179 127 54 198 185 73 198 185 73 198 185 73 198 185 73
198 185 73 198 185 73 198 185 73 198 185 73 205 176 72 202 182 87
174 123 58 179 65 39 197 56 47 187 61 47 185 64 43 197 56 36
204 55 33 186 62 28 189 59 46 180 67 51 172 121 66 116 98 52 66 38 37
64 36 48 64 32 45 70 41 43 78 37 45 70 31 50 73 35 48 73 36 28
113 90 76 71 42 44 75 41 40 63 34 39 78 37 45 114 94 67 151 120 53
191 180 74 214 190 80 199 180 75 202 186 91 193 179 72 197 183 76
200 187 72 197 186 60 194 181 76 197 185 83 197 190 57 158 110 62
190 64 42 187 65 42 186 54 33 208 54 42 183 64 40 181 62 38 202 56 41
181 63 33 210 54 55 187 61 47 196 54 40 189 63 49 202 55 39 192 61 31
180 61 41 190 56 29 199 63 51 184 56 43 206 63 46 186 62 38
163 100 57 167 115 55 192 178 79 195 181 76 195 181 76 195 181 76
195 181 76 195 181 76 195 181 76 195 181 76 195 181 76 196 178 80
186 184 63 206 201 182 194 200 164 193 197 164 200 199 168
196 190 166 185 193 74 191 187 62 191 177 72 159 112 58 162 122 60
184 52 39 197 62 32 187 65 52 204 51 53 196 59 41 193 55 52 191 64 57
184 65 33 198 58 31 197 48 42 149 120 76 148 115 62 195 198 167
195 198 167 195 198 167 195 198 167 195 198 167 195 198 167
195 198 167 195 198 167 195 198 167 195 198 167 195 198 167
195 198 167 195 198 167 195 198 167 195 198 167 195 198 167
195 198 167 195 198 167 195 198 167 195 198 167 195 198 167
195 198 167 195 198 167 195 198 167 195 198 167 195 198 167
195 198 167 195 198 167 195 198 167 195 198 167 195 198 167
195 198 167 192 190 141 192 190 141 192 190 141 192 190 141
192 190 141 192 190 141 192 190 141 192 190 141 192 190 141
192 190 141 192 190 141 192 190 141 192 190 141 192 190 141
192 190 141 192 190 141 194 192 143 192 190 141 191 189 140
191 189 140 192 190 141 193 191 142 193 191 142 192 190 141
188 188 138 192 190 141 196 192 144 192 190 141 197 197 147
200 200 150 195 191 143 202 194 147 194 203 146 191 196 142
194 203 150 210 191 149 189 187 139 194 194 144 106 130 70 102 139 72
104 133 89 75 41 14 96 137 81 93 137 74 112 137 79 98 137 74
90 132 69 98 139 79 116 125 80 99 137 78 101 140 77 84 134 81
103 134 74 102 133 89 190 199 132 117 86 40 186 58 33 184 64 40
186 59 40 187 58 39 183 63 39 187 61 39 188 57 39 181 64 46 174 65 42
192 56 42 182 61 40 181 62 40 183 61 40 182 61 42 190 57 42 185 58 41
183 63 39 184 59 41 188 54 42 186 70 45 183 109 62 184 113 61
181 74 42 182 55 38 197 56 39 177 57 30 190 62 37 189 60 41 192 58 47
180 60 35 174 121 51 198 180 80 195 180 77 195 180 77 195 180 77
195 180 77 195 180 77 195 180 77 195 180 77 195 180 77 197 180 76
194 182 70 194 182 84 191 175 77 202 183 81 202 179 73 157 130 53
74 33 49 73 37 41 69 30 48 73 38 62 62 32 32 71 40 46 68 38 36
116 89 60 70 39 37 73 30 49 67 44 30 70 36 37 75 32 59 63 36 43
68 39 31 125 89 75 117 95 54 176 125 44 204 181 75 193 191 80
188 189 62 199 188 72 198 178 83 200 186 77 199 188 80 205 179 86
174 123 57 186 64 41 200 59 49 179 60 38 188 62 40 191 59 44
196 59 51 196 54 50 183 69 43 190 54 30 200 60 45 184 57 51
108 101 72 67 39 35 68 32 42 75 38 45 66 34 49 71 36 34 72 32 33
68 43 49 99 106 55 163 168 101 71 42 44 73 35 32 70 38 39 74 44 36
80 37 47 155 108 66 165 127 52 204 186 74 190 185 85 195 188 74
198 187 69 206 186 73 195 181 72 196 185 77 198 185 73 201 188 76
203 181 79 151 112 57 158 118 66 182 57 37 187 66 49 199 50 43
195 57 46 181 71 46 200 57 43 191 62 41 196 57 38 198 59 40 185 63 42
183 60 42 194 50 41 204 60 49 191 61 45 196 59 43 188 62 40 200 60 43
191 51 24 199 64 45 164 112 73 142 116 65 159 116 47 194 182 80
197 186 80 192 180 70 192 178 81 196 183 78 195 184 56 192 179 65
197 181 86 195 181 76 195 181 76 195 181 76 195 181 76 195 181 76
195 181 76 195 181 76 195 181 76 183 186 69 216 175 93 143 116 45
166 107 63 178 68 51 197 55 51 180 58 45 187 67 40 200 56 45
190 62 33 171 69 44 95 25 27 81 42 60 59 36 44 74 48 47 71 37 36
157 112 53 150 115 85 194 200 174 201 200 152 196 195 167 191 207 178
197 194 163 196 196 168 195 198 167 195 198 167 195 198 167
195 198 167 195 198 167 195 198 167 195 198 167 195 198 167
195 198 167 195 198 167 195 198 167 195 198 167 195 198 167
195 198 167 195 198 167 195 198 167 195 198 167 195 198 167
195 198 167 195 198 167 195 198 167 195 198 167 195 198 167
195 198 167 192 190 141 192 190 141 192 190 141 192 190 141
192 190 141 192 190 141 192 190 141 192 190 141 192 190 141
192 190 141 192 190 141 192 190 141 192 190 141 192 190 141
192 190 141 192 190 141 192 190 141 192 190 141 192 190 141
192 190 141 193 191 142 193 191 142 192 190 141 191 189 140
197 197 147 187 183 135 205 199 151 187 183 135 190 190 140
201 201 151 201 199 150 200 196 148 200 200 150 208 185 143
192 202 150 187 201 148 200 192 146 187 191 141 91 142 75 116 88 48
129 87 62 88 127 72 98 142 81 97 139 75 102 128 67 93 140 72
108 133 75 109 138 80 99 145 57 98 129 87 101 135 59 103 134 67
107 135 76 95 134 67 202 179 75 143 88 81 194 58 46 175 60 41
187 66 47 200 44 29 184 66 28 187 175 93 200 182 98 190 53 11
209 46 39 181 60 39 191 55 39 195 53 39 182 60 39 182 61 40 185 60 40
190 57 40 178 62 37 193 55 42 188 58 44 175 59 36 188 64 36 184 69 38
176 61 34 197 53 44 192 58 47 178 63 42 187 62 40 188 58 42 187 50 40
191 70 49 171 123 57 191 182 87 195 180 77 195 180 77 195 180 77
195 180 77 195 180 77 195 180 77 195 180 77 195 180 77 196 178 78
198 185 73 189 175 76 199 186 84 196 178 78 200 178 76 194 170 84
79 44 38 72 35 43 72 37 43 70 39 36 123 99 65 121 96 65 119 93 70
123 96 67 66 33 44 62 41 50 75 29 39 78 31 37 76 41 39 71 37 38
64 41 51 58 37 36 134 94 68 119 95 69 165 129 69 211 167 92
211 183 74 195 185 62 198 191 75 199 188 64 195 176 71 169 122 54
189 75 39 181 59 36 183 57 42 189 59 43 192 60 39 202 57 36 174 64 31
189 59 37 188 53 34 199 71 46 188 58 36 183 59 51 73 40 25 74 32 36
74 42 47 68 31 38 70 36 50 73 38 36 78 38 39 56 29 36 166 164 123
169 167 110 69 38 43 78 43 49 70 30 38 78 47 45 65 41 39 126 97 65
159 117 57 206 177 73 193 189 64 204 184 72 198 180 78 193 186 79
192 191 65 199 187 65 203 175 75 199 177 78 189 188 70 151 115 55
159 112 58 192 60 39 201 55 42 196 67 48 193 56 40 173 65 37
192 57 37 186 56 40 196 63 48 193 60 45 196 59 43 199 70 49 188 62 40
185 54 34 173 69 40 183 60 44 188 55 48 192 55 37 184 67 57
149 118 72 144 102 52 167 113 51 153 112 68 145 114 59 192 169 67
208 187 80 197 179 71 200 181 87 188 170 84 207 194 80 187 174 72
195 181 76 195 181 76 195 181 76 195 181 76 195 181 76 195 181 76
195 181 76 195 181 76 186 181 55 199 179 92 164 113 70 142 118 46
187 71 24 192 59 40 201 59 39 201 57 33 194 51 43 177 71 57 92 35 24
68 43 47 62 46 57 60 34 43 75 36 39 88 42 45 75 46 30 80 36 25
60 40 42 172 166 118 200 197 162 193 199 151 203 193 181 189 206 174
195 198 167 195 198 167 195 198 167 195 198 167 195 198 167
195 198 167 195 198 167 195 198 167 195 198 167 195 198 167
195 198 167 195 198 167 195 198 167 195 198 167 195 198 167
195 198 167 195 198 167 195 198 167 195 198 167 195 198 167
195 198 167 195 198 167 195 198 167 195 198 167 192 190 141
192 190 141 192 190 141 192 190 141 192 190 141 192 190 141
192 190 141 192 190 141 192 190 141 192 190 141 192 190 141
192 190 141 192 190 141 192 190 141 192 190 141 192 190 141
191 189 140 192 190 141 193 191 142 193 191 142 193 191 142
192 190 141 192 190 141 192 190 141 188 190 140 195 191 143
200 192 145 199 193 145 204 202 153 187 189 139 189 191 141
204 204 154 201 198 153 204 191 147 192 201 146 213 191 144
187 190 135 193 187 137 123 89 52 132 89 57 120 92 55 114 128 75
97 146 80 104 128 68 105 142 75 101 140 73 107 125 67 98 137 72
104 140 76 79 143 59 99 136 58 112 140 81 100 133 80 194 184 73
120 89 60 114 85 45 183 61 40 180 53 36 190 56 44 193 62 44 180 60 35
179 61 31 189 63 38 192 62 40 178 62 37 188 57 39 182 61 40 178 64 40
190 57 40 191 56 37 182 62 38 190 59 39 190 61 39 186 61 41 191 61 45
187 54 39 189 54 35 193 56 38 190 54 40 190 60 47 178 49 43 180 69 49
183 61 38 180 58 35 195 66 47 179 55 31 186 110 58 179 125 55
195 180 77 195 180 77 195 180 77 195 180 77 195 180 77 195 180 77
195 180 77 195 180 77 197 178 83 200 186 77 188 175 71 200 187 82
190 174 78 193 175 75 210 190 93 112 82 46 72 38 39 69 36 31 66 36 26
119 94 54 117 93 55 120 92 70 73 44 26 65 30 50 74 38 48 71 29 31
125 98 69 120 95 55 73 25 23 79 34 55 59 34 38 115 92 78 112 95 65
175 127 61 187 130 51 202 173 71 196 193 76 193 183 70 212 184 75
168 128 56 184 65 43 194 54 37 198 61 43 187 60 43 202 58 47
192 66 43 182 109 56 190 133 64 172 128 63 186 68 42 186 61 41
192 60 37 198 67 59 72 27 24 81 33 47 71 36 40 67 32 38 77 44 55
67 31 31 71 32 35 75 45 55 110 99 69 177 164 122 64 31 38 65 32 53
81 35 48 73 39 37 103 99 61 105 91 54 163 116 70 167 122 54
197 185 75 203 178 78 205 188 72 187 195 73 194 182 80 201 177 77
202 190 70 208 189 69 193 190 77 158 120 57 149 109 48 164 111 59
150 113 60 140 118 61 186 64 41 191 65 42 195 58 39 177 69 59
187 57 43 193 57 33 177 56 27 185 64 43 193 61 48 203 62 45 202 50 29
209 65 54 184 62 38 77 37 35 68 44 44 86 35 31 162 105 60 142 123 67
159 120 55 163 117 65 163 118 76 147 107 45 151 115 55 201 175 90
196 177 56 194 177 73 196 181 80 195 181 76 195 181 76 195 181 76
195 181 76 195 181 76 195 181 76 195 181 76 195 181 76 210 184 89
185 177 78 193 181 73 170 105 47 150 112 63 194 62 37 191 58 49
182 59 41 80 37 28 75 36 37 77 42 48 77 41 41 82 38 37 91 42 48
73 31 43 67 33 47 74 38 40 88 36 49 69 38 46 64 52 54 154 162 113
198 204 168 204 192 170 192 194 155 195 198 167 195 198 167
195 198 167 195 198 167 195 198 167 195 198 167 195 198 167
195 198 167 195 198 167 195 198 167 195 198 167 195 198 167
195 198 167 195 198 167 195 198 167 195 198 167 195 198 167
195 198 167 195 198 167 195 198 167 195 198 167 195 198 167
195 198 167 195 198 167 192 190 141 192 190 141 192 190 141
192 190 141 192 190 141 192 190 141 192 190 141 192 190 141
192 190 141 192 190 141 192 190 141 192 190 141 192 190 141
192 190 141 192 190 141 192 190 141 191 189 140 192 190 141
193 191 142 193 191 142 192 190 141 191 189 140 193 191 142
194 192 143 193 195 145 193 189 141 197 189 142 204 196 149
199 195 147 201 203 153 200 202 152 189 191 141 192 202 150
196 193 142 201 188 135 189 172 116 125 83 35 172 63 42 143 80 49
129 86 52 128 90 54 117 94 52 96 132 70 110 123 67 93 138 71
78 140 67 97 136 71 118 131 77 98 130 89 96 140 63 110 139 75
92 129 51 89 143 83 112 133 58 134 82 60 131 96 64 191 60 52
172 64 51 181 60 51 191 57 48 182 63 43 174 63 36 184 58 36 185 58 39
172 66 40 176 64 40 191 58 41 188 61 42 184 62 41 197 54 40 191 56 37
181 63 37 193 56 38 179 58 37 187 60 43 190 57 42 180 61 41 187 64 46
188 58 44 173 62 42 196 66 52 187 57 35 197 57 30 169 71 26
178 119 61 172 126 64 175 137 66 185 118 50 195 180 77 195 180 77
195 180 77 195 180 77 195 180 77 195 180 77 195 180 77 195 180 77
195 179 84 197 183 76 194 180 75 192 180 70 193 180 84 192 178 81
198 181 73 167 139 74 119 90 76 73 43 32 74 41 48 65 34 31 72 41 38
64 32 37 68 37 32 77 40 57 71 39 42 119 94 64 165 126 59 171 125 73
72 39 32 69 39 41 78 43 37 67 38 42 103 94 51 172 130 58 182 120 59
174 121 67 178 126 76 178 116 65 161 116 57 113 98 67 200 52 50
188 56 41 197 60 41 191 60 40 199 55 46 184 62 41 169 125 62
193 175 89 195 119 57 200 54 41 184 50 41 183 65 39 191 58 49
64 33 31 78 33 54 73 38 44 75 40 46 68 32 42 72 36 38 70 34 38
69 37 48 59 37 23 117 93 69 74 38 48 67 40 31 83 43 41 76 39 47
111 96 65 123 97 82 152 106 72 161 115 63 208 189 84 207 182 63
184 189 69 201 179 77 208 186 84 203 186 82 197 183 76 178 187 62
207 177 53 195 178 109 166 117 61 162 115 61 151 116 62 158 112 63
161 102 60 152 108 59 191 65 43 184 57 42 202 62 49 202 61 44
191 63 38 202 61 41 191 60 42 169 60 40 205 60 57 182 47 27 81 41 42
65 45 44 69 35 52 77 41 45 64 45 38 156 116 64 150 109 55 156 110 50
154 111 43 161 119 61 158 117 63 151 111 59 155 120 64 152 122 52
151 120 53 195 181 76 195 181 76 195 181 76 195 181 76 195 181 76
195 181 76 195 181 76 195 181 76 198 169 75 192 189 60 197 180 88
149 115 52 156 116 67 139 107 60 189 65 55 86 37 56 73 46 51 75 38 56
81 37 54 69 30 25 72 44 32 65 41 39 73 48 51 70 45 40 63 41 44
67 35 58 79 42 34 86 33 51 149 124 70 195 197 160 189 199 165
200 203 182 195 198 167 195 198 167 195 198 167 195 198 167
195 198 167 195 198 167 195 198 167 195 198 167 195 198 167
195 198 167 195 198 167 195 198 167 195 198 167 195 198 167
195 198 167 195 198 167 195 198 167 195 198 167 195 198 167
195 198 167 195 198 167 195 198 167 195 198 167 195 198 167
192 190 141 192 190 141 192 190 141 192 190 141 192 190 141
192 190 141 192 190 141 192 190 141 192 190 141 192 190 141
192 190 141 192 190 141 192 190 141 192 190 141 192 190 141
192 190 141 192 190 141 193 191 142 192 190 141 191 189 140
191 189 140 192 190 141 195 193 144 197 195 146 198 200 150
193 189 141 204 196 149 197 191 143 200 196 148 201 201 151
195 195 145 208 206 157 200 186 137 180 54 39 176 62 36 185 65 38
191 61 37 190 57 38 182 59 43 191 57 48 132 83 50 127 92 54 131 86 53
106 137 78 100 136 75 103 141 80 101 150 85 85 129 66 86 140 80
117 137 78 91 126 84 204 175 83 85 143 85 121 86 46 125 91 56
122 87 57 187 58 19 198 60 31 184 60 32 177 59 33 193 58 38 194 63 45
182 62 46 188 56 51 198 55 41 181 60 41 199 50 43 196 55 45 183 63 46
181 62 42 177 63 37 200 52 38 184 62 39 190 53 37 188 63 43 179 64 43
183 57 42 180 60 43 176 61 40 190 57 38 171 63 24 185 116 57
171 123 49 199 178 89 197 176 85 200 168 83 191 185 89 185 181 84
195 180 77 195 180 77 195 180 77 195 180 77 195 180 77 195 180 77
195 180 77 195 180 77 193 179 82 196 179 75 198 180 78 190 177 65
199 186 90 196 183 87 193 175 63 194 165 85 116 91 61 123 97 74
59 25 41 75 40 60 75 39 53 73 36 54 63 29 30 73 38 45 70 40 38
117 92 61 166 128 63 173 127 77 65 31 29 75 44 50 71 31 29 68 36 41
134 95 56 180 130 59 170 122 56 154 123 59 170 129 67 191 123 62
179 122 55 122 96 59 190 64 50 193 58 39 179 61 31 188 66 42
186 59 44 191 55 43 197 72 44 173 126 58 159 125 51 176 67 47
206 60 61 192 61 41 201 52 48 67 50 40 68 34 50 71 29 39 72 40 45
64 27 35 81 42 47 70 35 41 67 34 43 70 39 36 68 35 28 73 37 47
60 33 40 73 41 46 78 39 42 131 95 45 151 111 62 160 120 58 147 112 58
140 115 35 192 187 67 199 183 72 195 182 70 200 177 65 202 182 70
197 189 80 204 187 83 200 186 77 155 173 99 83 156 66 95 150 67
87 159 73 90 162 78 125 144 78 153 115 70 143 115 67 164 110 50
188 57 39 196 61 57 178 51 36 178 58 24 199 68 40 192 58 59 77 39 38
85 41 56 81 40 36 84 37 57 66 39 32 83 41 43 59 43 30 71 36 43
163 110 79 155 114 70 159 119 70 145 104 60 154 113 57 160 119 63
153 109 64 153 109 64 153 107 71 195 181 76 195 181 76 195 181 76
195 181 76 195 181 76 195 181 76 195 181 76 195 181 76 194 182 64
193 183 85 211 182 82 190 178 94 141 124 52 179 115 67 63 48 29
74 36 33 60 38 27 73 44 49 69 36 47 69 39 47 69 43 54 67 36 51
72 34 25 157 110 68 149 115 70 75 44 41 78 43 41 70 32 47 64 40 40
169 168 124 200 202 162 203 190 156 195 198 167 195 198 167
195 198 167 195 198 167 195 198 167 195 198 167 195 198 167
195 198 167 195 198 167 195 198 167 195 198 167 195 198 167
195 198 167 195 198 167 195 198 167 195 198 167 195 198 167
195 198 167 195 198 167 195 198 167 195 198 167 195 198 167
195 198 167 195 198 167 192 190 141 192 190 141 192 190 141
192 190 141 192 190 141 192 190 141 192 190 141 192 190 141
192 190 141 192 190 141 192 190 141 192 190 141 192 190 141
192 190 141 192 190 141 192 190 141 193 191 142 193 191 142
192 190 141 191 189 140 191 189 140 194 192 143 197 195 146
200 198 149 197 197 147 200 198 149 201 197 149 200 196 148
204 202 153 188 184 136 207 199 152 189 175 130 182 61 42 180 70 45
183 63 38 185 49 27 197 67 43 196 46 31 177 65 41 184 63 44 196 57 50
116 92 48 120 86 49 127 101 64 88 132 73 90 134 73 106 126 73
98 142 79 105 133 56 88 136 76 204 191 138 204 196 157 195 182 68
128 85 53 140 86 58 122 93 49 119 96 62 120 85 55 139 88 61 144 83 52
133 86 40 153 123 63 176 124 67 166 70 30 190 64 49 176 63 45
120 89 45 137 83 47 177 64 48 181 61 45 189 56 41 178 64 40 186 65 44
184 58 36 189 60 39 188 61 44 190 60 46 187 57 41 184 55 33 195 61 32
193 182 90 194 186 88 201 172 78 203 185 83 189 181 74 202 185 81
183 174 69 205 177 80 195 180 77 195 180 77 195 180 77 195 180 77
195 180 77 195 180 77 195 180 77 195 180 77 195 182 78 197 179 77
197 177 82 195 182 70 195 183 83 193 180 84 200 179 70 177 140 62
122 99 65 117 95 58 70 39 44 66 33 42 69 35 33 67 32 39 81 47 48
69 34 40 71 37 38 74 34 32 123 97 70 115 90 59 77 28 32 74 25 47
74 42 43 122 91 70 115 97 59 166 126 64 173 118 61 181 134 66
172 124 52 171 116 51 180 136 71 115 90 59 198 53 36 192 60 37
190 60 36 194 69 47 180 63 43 198 57 47 203 49 37 185 67 39 190 74 37
189 51 41 201 48 50 183 64 40 189 64 44 113 89 65 68 42 41 71 35 39
64 33 39 77 37 45 75 36 41 63 32 37 78 47 53 71 31 39 74 35 40
64 33 39 67 39 38 78 47 44 122 82 72 152 107 65 161 117 56 156 126 38
209 186 90 204 186 76 189 186 89 213 179 71 202 194 67 193 187 65
202 186 73 197 179 71 196 174 88 150 183 104 105 147 71 93 161 76
89 154 72 75 153 67 92 149 72 69 164 74 89 151 74 162 167 109
158 118 67 151 114 61 152 116 58 161 118 65 205 61 50 189 49 52
67 50 32 74 32 34 58 38 50 73 39 55 66 40 23 84 36 48 75 34 50
89 34 57 73 42 24 75 43 44 73 32 50 77 37 45 155 121 73 150 117 50
151 114 46 163 122 58 156 109 67 161 117 54 195 181 76 195 181 76
195 181 76 195 181 76 195 181 76 195 181 76 195 181 76 195 181 76
193 195 96 199 169 59 194 182 72 193 177 66 207 170 82 156 116 57
146 110 50 147 118 74 84 37 43 74 32 34 84 44 45 83 38 45 75 26 45
85 44 60 68 51 33 159 164 108 173 160 107 78 48 46 77 29 15 81 40 44
80 42 39 142 109 66 206 206 168 182 197 174 195 198 167 195 198 167
195 198 167 195 198 167 195 198 167 195 198 167 195 198 167
195 198 167 195 198 167 195 198 167 195 198 167 195 198 167
195 198 167 195 198 167 195 198 167 195 198 167 195 198 167
195 198 167 195 198 167 195 198 167 195 198 167 195 198 167
195 198 167 195 198 167 192 190 141 192 190 141 192 190 141
192 190 141 192 190 141 192 190 141 192 190 141 192 190 141
192 190 141 192 190 141 192 190 141 192 190 141 192 190 141
192 190 141 192 190 141 192 190 141 193 191 142 192 190 141
191 189 140 191 189 140 193 191 142 196 194 145 199 197 148
200 198 149 201 199 150 198 196 147 196 194 145 201 201 151
190 190 140 205 199 151 203 184 141 119 91 51 197 55 41 192 49 35
177 69 43 196 56 41 186 49 33 189 64 44 176 64 40 188 55 38 200 58 46
193 41 36 129 94 54 97 131 71 100 140 80 112 124 74 113 141 83
190 176 131 190 191 133 200 201 141 207 192 159 191 199 140
183 185 88 104 138 77 124 85 42 131 87 52 107 125 75 98 141 85
96 135 82 98 126 75 102 138 77 114 135 78 117 126 73 105 134 78
112 121 66 131 98 57 116 93 51 129 86 52 118 93 52 129 87 49
189 55 44 180 63 43 187 55 40 172 58 34 182 56 34 194 52 38 189 59 43
186 60 38 184 72 35 185 110 52 197 173 73 197 184 80 203 173 75
198 176 74 200 182 74 197 173 67 195 188 81 200 185 84 195 180 77
195 180 77 195 180 77 195 180 77 195 180 77 195 180 77 195 180 77
195 180 77 196 186 75 197 179 81 199 175 87 199 182 74 190 179 73
191 177 80 204 179 76 163 118 51 110 89 58 117 95 54 77 47 47
66 31 37 72 38 28 76 40 44 64 28 32 72 37 43 58 37 42 81 38 47
73 27 37 67 32 36 88 54 53 63 38 34 112 87 57 172 126 64 204 185 93
202 173 69 212 179 84 205 185 73 195 184 68 207 189 87 198 169 75
168 128 67 196 65 37 182 62 37 201 53 41 196 60 44 181 59 36
189 58 38 185 63 42 200 53 45 208 50 38 203 61 51 187 55 42 195 61 36
196 56 31 190 64 52 85 28 17 69 41 37 67 36 42 77 36 44 71 31 39
66 37 41 67 36 41 76 32 45 71 29 41 69 43 44 78 49 53 113 77 53
158 125 56 208 184 94 197 179 69 206 183 77 207 187 75 192 179 74
206 185 76 183 178 74 217 178 83 190 190 70 185 182 75 158 129 61
105 143 68 96 149 67 86 151 69 103 157 79 93 154 74 88 156 73
107 153 78 107 151 76 95 141 66 106 157 82 160 173 119 133 108 52
149 129 60 161 108 54 152 108 71 59 52 24 72 34 31 80 48 49 75 46 50
64 43 24 73 44 49 92 28 55 71 31 55 75 44 42 63 37 40 76 36 34
76 43 38 70 37 32 74 38 38 147 117 63 200 172 88 149 116 49
150 115 51 155 113 73 195 181 76 195 181 76 195 181 76 195 181 76
195 181 76 195 181 76 195 181 76 195 181 76 187 179 68 195 177 77
199 180 75 197 181 83 208 186 84 199 171 62 175 120 56 149 112 67
80 39 57 68 38 38 63 39 29 72 44 40 78 39 42 72 30 32 75 39 39
74 44 44 146 111 73 71 41 43 79 43 31 63 39 63 70 43 36 154 116 71
190 185 147 199 209 175 195 198 167 195 198 167 195 198 167
195 198 167 195 198 167 195 198 167 195 198 167 195 198 167
195 198 167 195 198 167 195 198 167 195 198 167 195 198 167
195 198 167 195 198 167 195 198 167 195 198 167 195 198 167
195 198 167 195 198 167 195 198 167 195 198 167 195 198 167
195 198 167 192 190 141 192 190 141 192 190 141 192 190 141
192 190 141 192 190 141 192 190 141 192 190 141 192 190 141
192 190 141 192 190 141 192 190 141 192 190 141 192 190 141
192 190 141 192 190 141 193 191 142 191 189 140 191 189 140
192 190 141 195 193 144 198 196 147 200 198 149 200 198 149
200 196 148 201 199 150 196 196 146 193 197 146 199 201 151
204 196 149 106 81 40 130 92 55 181 65 42 188 55 40 182 61 44
185 57 44 190 64 50 187 53 41 182 67 46 195 52 38 174 63 35 183 64 42
184 61 46 198 186 138 193 202 149 208 195 150 184 197 141 190 204 145
196 194 156 199 202 159 204 199 143 203 188 145 195 191 143
115 138 68 88 133 94 102 138 68 97 139 65 107 133 68 100 136 72
89 142 72 94 140 68 98 138 68 96 138 72 97 137 75 100 145 80
94 128 68 135 88 58 124 90 55 121 91 55 136 83 51 129 87 47 183 61 46
188 54 42 191 60 42 186 68 42 187 61 39 195 51 40 179 65 38
168 118 55 196 186 99 207 175 74 190 186 78 187 184 79 182 186 76
191 180 74 215 183 84 189 176 72 191 177 78 195 180 77 195 180 77
195 180 77 195 180 77 195 180 77 195 180 77 195 180 77 195 180 77
192 185 68 195 177 79 204 177 96 199 181 73 193 183 72 196 182 83
204 176 77 176 126 67 117 97 70 118 98 61 67 35 46 69 32 50 73 37 39
70 32 45 74 36 47 70 33 40 76 35 53 61 39 28 69 38 44 73 35 60
55 30 25 124 95 55 172 133 66 203 179 73 193 181 59 204 192 72
198 180 82 201 185 72 196 187 66 189 182 68 201 191 67 205 183 74
167 122 63 188 66 43 194 53 44 191 57 45 197 62 40 186 61 31
195 64 44 189 58 48 173 64 41 192 59 42 193 58 38 183 63 29
166 131 63 189 115 68 109 97 57 120 93 82 68 37 43 75 34 42 74 34 42
65 39 42 69 40 42 76 29 45 80 38 52 63 39 37 115 91 65 171 131 70
207 181 62 185 185 71 192 198 74 201 181 82 203 180 66 196 188 81
199 183 61 206 189 73 196 184 84 162 117 52 140 118 60 93 140 60
105 163 79 87 152 72 89 158 75 95 146 69 96 153 74 107 151 74
79 151 65 94 151 70 95 160 76 75 158 68 91 149 62 173 169 121
166 161 121 156 174 116 157 110 58 179 104 72 68 44 32 64 36 61
81 37 24 73 40 47 73 35 46 73 43 41 82 41 35 54 41 35 74 47 52
75 33 47 78 44 45 70 35 42 76 45 27 148 118 80 183 155 107 146 116 62
150 123 54 198 177 72 195 181 76 195 181 76 195 181 76 195 181 76
195 181 76 195 181 76 195 181 76 195 181 76 194 181 69 210 181 89
194 178 82 180 189 62 183 180 67 155 121 58 143 113 63 157 114 61
68 39 44 75 44 42 76 41 45 68 37 52 64 43 50 68 48 39 74 40 41
79 31 57 90 37 47 59 44 41 69 44 50 74 41 50 83 35 35 155 119 43
199 202 185 187 197 163 195 198 167 195 198 167 195 198 167
195 198 167 195 198 167 195 198 167 195 198 167 195 198 167
195 198 167 195 198 167 195 198 167 195 198 167 195 198 167
195 198 167 195 198 167 195 198 167 195 198 167 195 198 167
195 198 167 195 198 167 195 198 167 195 198 167 195 198 167
195 198 167 193 190 139 194 191 140 194 191 140 194 191 140
193 190 139 193 190 139 193 190 139 194 191 140 193 191 142
193 191 142 192 190 141 192 190 141 192 190 141 192 190 141
192 190 141 193 191 142 192 190 141 192 190 141 192 190 141
194 192 143 197 195 146 199 197 148 199 197 148 198 196 147
205 194 149 194 201 149 196 199 146 199 202 149 194 194 144
175 194 138 137 88 48 184 61 43 186 59 40 186 59 40 186 59 40
186 59 40 186 59 40 186 59 40 186 59 40 186 59 40 185 60 38 190 57 40
181 55 40 195 194 140 195 195 143 187 194 142 199 195 147 203 201 152
200 199 132 197 201 168 186 193 142 216 195 150 187 199 151
189 186 153 87 146 66 105 129 69 109 134 79 102 131 77 98 131 76
102 138 77 101 136 72 98 134 70 98 138 75 94 138 77 91 135 76
104 137 80 96 138 74 100 134 73 140 83 53 137 82 51 121 92 52
121 94 51 127 89 52 124 81 62 130 88 46 130 84 60 165 124 58
133 88 59 164 129 65 201 174 85 201 178 84 198 178 81 197 179 77
195 181 74 194 182 74 194 181 76 195 182 80 196 182 83 195 180 77
195 180 77 195 180 77 195 180 77 195 180 77 195 180 77 195 180 77
195 180 77 199 181 81 194 177 69 196 186 89 193 188 133 186 188 138
199 199 111 199 175 89 170 121 54 116 94 57 126 94 73 108 97 67
69 38 33 65 38 55 71 41 41 69 37 26 73 40 47 70 39 37 68 38 40
90 27 58 69 33 45 114 108 46 162 123 44 211 182 88 194 188 68
200 184 73 198 185 73 198 185 73 198 185 73 198 185 73 197 185 73
197 185 73 197 185 73 201 181 86 176 118 54 202 58 58 189 67 26
184 58 35 194 61 54 177 66 39 181 122 52 160 134 50 201 179 80
207 193 71 194 184 52 203 192 66 198 180 80 159 132 63 127 95 48
120 95 65 67 26 40 71 35 49 64 41 33 64 44 37 74 38 52 73 32 30
132 95 66 198 185 73 198 185 73 198 185 73 198 185 73 198 185 73
198 185 73 198 185 73 198 185 73 201 182 77 203 182 75 194 188 78
197 184 79 157 169 107 95 156 78 93 150 73 95 148 70 98 146 72
90 159 78 86 161 76 92 153 73 99 153 75 91 152 72 91 150 70
105 151 76 98 154 67 111 142 85 149 174 109 154 169 114 164 162 101
145 120 64 84 35 38 74 38 48 71 41 49 74 41 50 74 38 40 74 43 41
69 37 48 73 37 51 81 39 27 158 112 63 73 39 37 74 41 48 71 38 45
74 36 49 154 119 65 156 113 60 156 111 52 157 115 57 194 182 74
197 186 71 192 178 73 196 175 84 202 177 87 201 180 73 198 185 71
191 183 74 197 178 75 184 182 63 206 187 82 190 183 69 192 176 89
155 113 55 152 119 48 165 109 62 73 36 54 76 47 49 82 34 32 77 37 37
79 39 50 81 32 53 76 40 52 80 33 43 73 41 42 75 43 32 77 40 48
74 37 31 71 38 49 172 161 115 202 208 164 182 198 161 195 198 167
195 198 167 195 198 167 195 198 167 195 198 167 195 198 167
195 198 167 195 198 167 195 198 167 195 198 167 195 198 167
195 198 167 195 198 167 195 198 167 195 198 167 195 198 167
195 198 167 195 198 167 195 198 167 195 198 167 195 198 167
195 198 167 195 198 167 195 198 167 191 189 140 192 190 141
192 190 141 192 190 141 192 190 141 192 190 141 192 190 141
193 191 142 193 191 142 192 190 141 192 190 141 192 190 141
192 190 141 192 190 141 192 190 141 192 190 141 191 189 140
192 190 141 194 192 143 196 194 145 198 196 147 199 197 148
199 197 148 198 196 147 190 197 146 201 197 149 212 194 148
193 187 137 200 166 128 188 192 141 119 85 40 193 53 40 186 59 40
186 59 40 186 59 40 186 59 40 186 59 40 186 59 40 186 59 40 186 59 40
184 59 37 196 63 46 185 58 43 185 179 127 201 198 147 200 204 153
199 195 147 197 195 146 199 198 154 201 190 136 197 205 158
196 200 141 206 188 152 106 142 68 90 132 69 108 143 77 91 136 71
93 135 72 103 143 83 97 135 74 103 139 77 102 137 73 103 133 71
108 133 75 101 145 58 107 126 70 109 135 87 96 144 68 176 178 79
179 187 68 191 175 79 186 126 66 197 184 70 192 186 72 188 183 81
201 183 83 207 172 78 178 135 56 160 124 50 200 177 83 197 179 79
197 179 77 196 181 78 196 182 77 195 181 76 194 180 75 193 180 76
194 181 79 195 180 77 195 180 77 195 180 77 195 180 77 195 180 77
195 180 77 195 180 77 195 180 77 192 181 76 193 181 79 201 186 127
200 194 142 191 193 143 197 194 141 194 176 90 172 135 54 173 130 77
107 97 46 128 94 66 100 100 64 70 32 43 77 34 62 68 36 39 68 35 52
86 33 43 57 42 39 71 39 54 69 34 32 182 120 69 206 181 88 199 182 78
211 184 69 200 184 73 198 185 73 198 185 73 198 185 73 198 185 73
198 185 73 197 185 73 197 185 73 199 187 79 175 140 56 183 52 44
197 57 30 201 61 48 174 65 42 189 123 63 199 175 77 198 177 70
207 189 81 199 182 74 189 175 66 199 185 78 204 186 84 198 178 81
202 179 86 116 93 62 126 110 77 71 42 38 77 28 24 81 30 39 66 32 46
124 96 92 154 126 52 198 185 73 198 185 73 198 185 73 198 185 73
198 185 73 198 185 73 198 185 73 198 185 73 196 182 73 199 187 75
189 179 66 196 182 73 104 151 73 102 148 73 83 157 72 96 153 72
92 151 71 88 151 70 87 148 68 89 150 70 88 157 74 82 160 76 82 155 73
92 153 75 72 157 66 92 156 78 173 167 115 171 166 124 162 115 61
149 119 65 81 35 45 67 40 45 69 33 37 79 40 45 80 41 42 67 32 30
73 40 47 73 45 57 63 44 30 171 159 111 152 120 59 72 29 56 80 48 35
74 38 38 82 41 39 148 110 63 149 106 63 160 120 69 193 177 79
190 178 70 195 185 74 200 186 81 196 180 69 193 176 60 190 177 72
188 176 90 190 182 84 196 194 85 185 167 81 195 182 70 203 186 72
153 116 61 143 108 70 161 121 72 69 38 35 62 43 26 81 43 32 66 40 39
65 40 43 78 44 42 63 45 33 75 42 37 72 45 38 71 29 53 82 37 44
79 38 52 141 129 69 193 192 164 187 193 155 200 204 177 195 198 167
195 198 167 195 198 167 195 198 167 195 198 167 195 198 167
195 198 167 195 198 167 195 198 167 195 198 167 195 198 167
195 198 167 195 198 167 195 198 167 195 198 167 195 198 167
195 198 167 195 198 167 195 198 167 195 198 167 195 198 167
195 198 167 195 198 167 195 198 167 191 189 140 192 190 141
192 190 141 192 190 141 191 189 140 191 189 140 192 190 141
192 190 141 192 190 141 192 190 141 192 190 141 192 190 141
192 190 141 192 190 141 192 190 141 192 190 141 191 189 140
193 191 142 197 195 146 199 197 148 200 198 149 199 197 148
198 196 147 198 196 147 205 198 152 192 203 147 192 182 131
190 190 138 201 182 140 122 88 50 144 94 57 179 59 42 186 59 40
186 59 40 186 59 40 186 59 40 186 59 40 186 59 40 186 59 40 186 59 40
182 62 38 185 52 35 189 59 45 197 185 135 200 192 143 199 201 151
199 195 147 198 200 150 205 194 149 199 200 158 199 194 138
187 200 130 210 198 140 100 132 69 103 133 71 96 133 79 102 141 74
105 137 74 108 138 78 95 129 69 87 132 67 96 143 75 96 135 68
105 136 69 99 140 74 98 132 71 100 140 78 91 136 69 212 195 143
201 189 131 199 192 137 196 182 135 195 189 131 185 190 132
191 198 156 199 189 140 201 173 66 133 81 34 169 124 82 205 190 63
191 180 74 194 181 76 196 181 78 197 179 77 196 178 76 196 178 76
194 180 75 194 181 76 195 180 77 195 180 77 195 180 77 195 180 77
195 180 77 195 180 77 195 180 77 195 180 77 192 188 88 195 182 129
200 189 135 198 192 142 190 192 142 195 194 140 198 184 135
192 172 83 173 120 52 132 88 61 113 98 57 123 100 69 73 36 30
80 31 35 81 32 51 68 32 32 56 30 39 71 39 44 76 34 44 106 97 66
173 118 54 198 192 80 203 185 75 189 183 61 201 185 74 200 184 73
198 185 73 198 185 73 198 185 73 198 185 73 198 185 73 197 185 73
202 182 67 192 179 74 168 66 41 193 63 39 185 62 46 177 115 58
193 173 74 205 200 80 203 186 68 202 186 73 198 184 79 199 186 84
201 188 86 196 182 73 196 181 62 205 190 65 198 185 71 116 88 48
117 84 67 70 34 46 75 36 54 80 38 48 148 118 48 204 182 73 198 185 73
198 185 73 198 185 73 198 185 73 198 185 73 198 185 73 198 185 73
198 185 73 193 188 71 202 189 74 199 181 69 198 193 76 88 147 63
93 155 72 93 158 76 86 156 70 93 157 73 97 158 78 97 158 78 90 153 72
89 147 70 99 150 75 101 155 79 91 156 76 94 161 82 85 153 66
168 165 112 149 167 117 152 121 56 154 107 61 90 33 50 77 36 44
79 43 43 68 34 35 76 42 40 80 45 39 77 41 45 68 38 50 65 52 44
163 167 130 153 113 62 79 40 35 76 43 36 75 40 60 70 33 24 153 118 64
83 38 35 152 114 51 202 185 79 190 178 68 189 180 75 193 183 86
194 181 79 196 183 69 197 183 74 196 183 89 199 181 57 201 175 88
197 180 100 196 179 65 199 175 79 152 120 59 162 114 50 155 104 59
87 37 49 71 42 44 82 36 47 63 40 50 68 48 50 78 40 37 54 36 26
83 40 49 72 41 57 77 35 47 81 35 37 74 41 32 158 157 101 199 210 167
195 199 172 199 194 174 195 198 167 195 198 167 195 198 167
195 198 167 195 198 167 195 198 167 195 198 167 195 198 167
195 198 167 195 198 167 195 198 167 195 198 167 195 198 167
195 198 167 195 198 167 195 198 167 195 198 167 195 198 167
195 198 167 195 198 167 195 198 167 195 198 167 195 198 167
195 198 167 192 190 141 193 191 142 193 191 142 192 190 141
191 189 140 191 189 140 191 189 140 192 190 141 192 190 141
192 190 141 192 190 141 192 190 141 192 190 141 192 190 141
192 190 141 192 190 141 192 190 141 195 193 144 199 197 148
200 198 149 200 198 149 199 197 148 198 196 147 199 197 148
188 201 147 205 202 151 181 180 126 195 181 134 87 144 76 125 74 43
127 88 49 188 58 45 186 59 40 186 59 40 186 59 40 186 59 40 186 59 40
186 59 40 186 59 40 186 59 40 180 61 37 195 62 45 186 54 41 112 96 47
209 197 149 194 194 144 204 200 152 193 197 146 205 190 149
189 204 147 202 199 146 195 196 138 196 186 88 102 140 91 74 35 40
95 134 77 97 134 67 103 132 68 103 127 67 109 140 80 95 139 76
117 163 98 130 165 97 137 158 91 99 137 80 96 131 75 97 137 77
96 142 77 192 186 136 193 193 139 191 194 141 193 193 143 199 198 141
190 192 152 182 187 121 204 193 139 165 133 74 133 85 49 169 130 51
198 171 68 190 182 73 192 181 75 194 179 76 197 177 78 197 177 78
197 179 77 196 182 77 195 183 75 195 180 77 195 180 77 195 180 77
195 180 77 195 180 77 195 180 77 195 180 77 195 180 77 193 192 127
198 190 143 196 187 146 193 190 121 190 193 122 192 191 147
196 193 142 203 195 130 174 121 51 187 127 77 116 96 72 114 81 48
115 101 64 115 93 79 65 43 22 69 49 50 79 37 57 76 33 43 75 41 40
114 96 48 186 129 62 192 187 67 200 180 68 193 199 77 201 185 74
201 185 74 201 185 74 200 184 73 198 185 73 198 185 73 198 185 73
198 185 73 207 173 65 202 197 80 183 115 68 194 117 65 190 122 73
207 186 93 195 189 69 194 184 61 197 180 74 196 182 73 198 186 74
199 188 73 196 185 69 195 184 66 197 185 67 199 184 67 200 185 70
164 136 52 126 93 62 124 105 65 113 87 60 148 111 59 170 131 66
201 180 61 198 185 73 198 185 73 198 185 73 198 185 73 198 185 73
198 185 73 198 185 73 198 185 73 190 187 72 197 181 68 206 182 72
197 187 74 91 159 74 92 140 64 92 155 76 85 154 73 93 152 70
88 152 68 80 152 68 87 150 69 122 151 84 164 163 106 149 165 103
97 151 76 88 151 72 98 155 74 155 160 102 160 175 116 141 127 62
168 97 65 78 40 37 68 43 46 69 37 40 72 43 48 68 42 45 73 44 40
74 35 40 78 35 52 64 33 38 65 48 30 77 34 27 80 40 49 66 33 40
68 38 36 78 43 41 155 121 60 154 110 75 154 110 63 196 171 79
203 186 80 192 181 73 189 179 82 195 180 87 194 180 75 199 183 72
196 179 71 195 177 65 197 178 83 192 202 150 195 202 161 166 173 121
162 165 112 154 117 62 156 114 64 60 35 38 78 33 56 75 41 65 84 31 49
77 24 30 69 38 36 83 40 50 65 44 51 78 43 39 76 35 49 76 43 34
136 128 45 202 198 186 194 199 176 189 193 168 199 199 161
195 198 167 195 198 167 195 198 167 195 198 167 195 198 167
195 198 167 195 198 167 195 198 167 195 198 167 195 198 167
195 198 167 195 198 167 195 198 167 195 198 167 195 198 167
195 198 167 195 198 167 195 198 167 195 198 167 195 198 167
195 198 167 195 198 167 195 198 167 195 198 167 191 189 140
192 190 141 192 190 141 192 190 141 192 190 141 192 190 141
192 190 141 193 191 142 192 190 141 192 190 141 192 190 141
192 190 141 192 190 141 193 191 142 193 191 142 193 191 142
195 193 144 197 195 146 199 197 148 200 198 149 199 197 148
198 196 147 199 197 148 200 198 149 205 192 147 180 187 133
201 194 142 95 134 69 117 92 52 138 91 61 131 87 52 173 62 45
186 59 40 186 59 40 186 59 40 186 59 40 186 59 40 186 59 40 186 59 40
186 59 40 180 61 37 194 61 44 186 54 41 111 95 46 207 195 147
194 194 144 204 200 152 194 198 147 202 188 139 189 208 153
194 198 148 203 178 98 94 126 53 136 84 63 54 42 42 56 46 36
96 144 82 101 143 79 95 132 65 107 143 79 103 139 78 131 156 98
189 197 138 197 188 129 103 139 75 95 136 68 101 141 70 91 140 61
146 152 88 182 193 127 198 203 137 183 190 122 193 188 130
205 191 142 209 188 131 194 175 70 122 91 44 134 92 78 126 78 68
176 130 68 195 182 78 196 183 79 198 180 80 196 178 80 197 177 78
198 180 78 196 182 77 194 180 73 195 180 77 195 180 77 195 180 77
195 180 77 195 180 77 195 180 77 195 180 77 195 180 77 191 191 141
196 193 142 196 190 140 195 191 127 194 195 129 189 189 135
188 189 132 193 193 139 207 180 91 149 130 51 178 125 59 124 102 65
115 91 67 113 100 65 60 39 36 68 29 30 66 28 41 82 40 44 74 29 26
173 115 67 169 130 61 191 186 66 219 184 80 207 180 73 201 185 72
201 185 72 201 185 72 201 185 72 198 185 71 198 185 71 198 185 71
198 185 71 217 185 84 186 180 66 174 126 62 166 139 50 187 167 78
193 187 73 197 185 63 202 185 71 201 186 83 199 185 76 197 186 70
195 185 62 193 183 60 197 186 70 203 189 82 201 186 85 199 184 83
187 179 78 197 183 78 174 129 62 172 122 49 167 130 77 194 178 83
199 188 62 198 185 73 198 185 73 198 185 73 198 185 73 198 185 73
198 185 73 198 185 73 198 185 73 196 188 79 200 179 70 209 182 77
196 178 70 100 154 78 96 114 52 83 145 72 100 157 86 96 153 72
90 151 71 87 156 73 99 162 81 137 166 99 173 172 115 154 170 107
101 155 79 99 154 71 95 152 81 172 175 118 162 169 99 167 165 108
145 120 79 97 104 60 56 37 33 80 39 47 74 40 54 63 33 45 71 42 44
78 42 44 80 36 49 80 37 47 86 46 44 79 40 61 73 41 46 68 38 46
74 43 51 75 35 36 153 116 46 154 108 58 162 114 65 153 118 64
202 179 86 194 182 60 191 180 62 199 185 80 193 174 72 199 180 75
196 177 74 205 184 67 203 180 87 203 205 168 188 190 169 193 194 160
164 163 117 148 112 50 155 118 50 152 120 61 71 44 25 65 36 40
76 53 45 75 46 38 84 41 58 77 34 54 74 31 38 73 31 35 143 125 61
171 166 110 194 190 178 205 201 172 197 193 164 195 197 175
196 207 164 195 198 167 195 198 167 195 198 167 195 198 167
195 198 167 195 198 167 195 198 167 195 198 167 195 198 167
195 198 167 195 198 167 195 198 167 195 198 167 195 198 167
195 198 167 195 198 167 195 198 167 195 198 167 195 198 167
195 198 167 195 198 167 195 198 167 195 198 167 195 198 167
189 186 135 190 187 136 191 188 137 191 188 137 192 189 138
192 189 138 193 190 139 194 191 140 192 190 141 192 190 141
192 190 141 192 190 141 193 191 142 194 192 143 195 193 144
196 194 145 198 196 147 199 197 148 199 197 148 199 197 148
199 197 148 199 197 148 199 197 148 200 198 149 201 195 145
190 189 135 188 176 126 125 82 47 131 95 61 132 85 55 115 90 50
180 67 53 186 59 40 186 59 40 186 59 40 186 59 40 186 59 40 186 59 40
186 59 40 186 59 40 182 62 38 185 52 35 188 58 44 196 184 134
198 190 141 198 200 150 198 194 146 198 200 150 205 201 166
192 203 124 185 175 113 117 138 81 135 98 54 116 90 55 78 31 41
62 35 44 95 120 78 108 138 84 101 138 71 93 132 65 98 132 71
108 131 75 186 197 139 190 192 129 95 128 71 95 137 73 101 138 71
92 135 66 149 158 105 182 190 139 195 187 140 200 194 144 203 188 133
190 172 64 170 134 74 126 85 55 124 91 60 122 92 56 128 84 59
171 128 33 196 171 79 200 177 83 201 181 84 197 182 81 195 180 77
195 180 77 195 180 77 195 177 75 195 180 77 195 180 77 195 180 77
195 180 77 195 180 77 195 180 77 195 180 77 195 180 77 193 193 133
193 191 140 193 192 127 194 189 147 196 191 149 193 192 125
189 188 132 191 193 130 193 191 132 193 175 75 175 125 54 174 130 83
118 92 59 115 100 79 114 96 60 128 91 64 85 41 38 61 40 23 120 98 77
179 130 64 156 129 62 195 184 68 212 184 77 202 175 68 202 184 72
201 185 72 201 185 72 201 185 72 200 184 71 200 184 71 198 185 71
198 185 71 198 185 80 187 185 74 176 128 62 195 181 72 206 199 85
196 185 67 205 185 72 195 187 78 200 187 72 196 183 69 197 184 70
202 189 77 200 186 77 196 182 75 195 181 76 193 179 74 203 190 75
196 184 76 201 184 80 208 178 66 174 129 64 165 128 40 203 182 75
201 191 70 198 185 73 198 185 73 198 185 73 198 185 73 198 185 73
198 185 73 198 185 73 198 185 73 195 188 81 214 181 78 202 185 77
194 186 75 137 120 68 73 110 43 92 111 56 87 146 78 95 154 74
94 151 72 96 153 74 94 155 75 95 152 73 98 149 72 95 149 71 87 152 70
101 153 68 78 150 77 164 161 108 178 186 109 164 162 113 95 154 86
94 146 64 70 57 40 73 38 32 71 33 44 89 48 66 79 44 50 63 32 30
75 43 48 75 38 46 71 31 32 65 36 28 70 40 52 68 41 30 74 39 46
86 40 53 153 113 51 159 119 50 155 114 52 150 115 57 201 178 84
194 179 60 191 178 64 205 185 86 196 176 77 199 180 77 194 180 75
177 190 100 190 190 152 181 189 176 201 208 175 196 201 179
191 197 183 175 174 126 158 162 111 162 110 70 74 40 31 69 37 52
61 40 45 68 39 41 77 30 36 73 35 16 159 117 67 152 127 63 165 156 117
194 203 156 196 204 180 199 195 166 204 196 175 198 201 156
186 199 171 195 198 167 195 198 167 195 198 167 195 198 167
195 198 167 195 198 167 195 198 167 195 198 167 195 198 167
195 198 167 195 198 167 195 198 167 195 198 167 195 198 167
195 198 167 195 198 167 195 198 167 195 198 167 195 198 167
195 198 167 195 198 167 195 198 167 195 198 167 195 198 167
189 183 133 189 183 133 190 184 134 191 185 135 191 185 135
191 185 135 192 186 136 193 187 137 192 190 141 192 190 141
192 190 141 192 190 141 193 191 142 195 193 144 197 195 146
198 196 147 200 198 149 199 197 148 199 197 148 199 197 148
199 197 148 199 197 148 199 197 148 198 196 147 203 191 143
184 192 135 197 187 136 122 90 51 128 85 53 136 89 61 126 80 47
142 85 55 186 59 40 186 59 40 186 59 40 186 59 40 186 59 40 186 59 40
186 59 40 186 59 40 184 59 37 196 63 46 185 58 43 186 180 128
202 199 148 201 205 154 199 195 147 196 194 145 192 188 143
202 210 153 193 176 98 90 131 73 136 86 63 120 86 58 127 92 54
69 36 57 64 53 35 106 117 77 101 137 73 92 138 66 102 141 76
100 131 72 133 165 102 126 163 93 106 138 75 106 135 87 109 125 89
94 134 82 105 142 73 107 139 66 111 87 43 137 81 64 120 92 71
130 100 66 119 84 44 123 88 50 130 97 52 121 86 56 123 80 61
138 92 66 182 143 64 192 160 75 200 177 83 197 184 80 193 182 76
193 180 75 197 179 77 197 177 80 195 180 77 195 180 77 195 180 77
195 180 77 195 180 77 195 180 77 195 180 77 195 180 77 196 193 140
194 194 122 192 190 141 193 189 141 196 190 142 197 189 143
198 195 128 196 194 143 188 194 134 178 126 69 194 125 68 181 47 35
181 60 41 184 54 38 203 52 57 204 49 27 175 51 51 123 97 62 108 99 60
166 129 49 189 116 71 208 188 75 187 191 71 203 193 78 202 184 72
202 184 72 201 185 72 201 185 72 201 185 72 200 184 71 200 184 71
198 185 71 193 184 67 198 193 89 168 116 58 204 187 73 193 180 65
195 182 70 204 186 78 191 185 73 198 186 66 195 182 67 195 181 72
198 184 79 200 186 81 199 185 78 200 187 75 203 190 76 194 177 73
210 188 77 195 177 69 202 189 95 203 182 63 220 178 80 210 175 85
194 182 82 198 185 73 198 185 73 198 185 73 198 185 73 198 185 73
198 185 73 198 185 73 198 185 73 190 184 72 210 175 71 189 188 72
195 188 74 159 100 60 88 110 48 92 106 53 67 118 52 99 151 77
96 153 76 93 150 73 92 150 73 89 157 74 84 159 74 85 159 72 94 158 74
88 161 72 82 159 77 160 173 120 166 179 109 161 164 109 76 150 75
97 169 70 94 137 81 93 106 60 58 44 31 64 27 35 78 36 40 70 39 36
70 46 46 75 46 51 75 39 43 75 44 42 69 39 28 81 47 46 78 37 45
150 112 65 150 111 56 149 117 56 195 173 74 191 171 76 205 188 82
197 183 78 191 175 79 200 180 85 196 179 75 190 177 75 191 182 91
199 202 157 195 201 153 208 199 182 198 196 157 197 197 143
198 191 173 195 199 172 159 166 112 159 164 98 153 121 74 87 103 58
76 39 33 82 36 46 55 57 46 67 39 25 81 112 70 174 166 104 161 163 113
187 196 165 193 201 177 190 192 171 198 200 153 199 202 159
193 197 180 195 198 167 195 198 167 195 198 167 195 198 167
195 198 167 195 198 167 195 198 167 195 198 167 195 198 167
195 198 167 195 198 167 195 198 167 195 198 167 195 198 167
195 198 167 195 198 167 195 198 167 195 198 167 195 198 167
195 198 167 195 198 167 195 198 167 195 198 167 195 198 167
188 182 130 189 183 131 189 183 131 189 183 131 188 182 130
188 182 130 188 182 130 188 182 130 193 191 142 192 190 141
191 189 140 192 190 141 193 191 142 196 194 145 198 196 147
200 198 149 200 198 149 199 197 148 198 196 147 199 197 148
200 198 149 200 198 149 198 196 147 197 195 146 187 208 149
193 172 125 201 180 133 104 135 75 114 90 52 117 93 57 133 88 57
124 90 52 186 59 40 186 59 40 186 59 40 186 59 40 186 59 40 186 59 40
186 59 40 186 59 40 184 59 37 191 58 41 184 58 43 199 198 144
199 199 147 190 197 145 199 195 147 201 199 150 200 196 151
203 194 139 184 186 123 116 138 73 118 81 63 116 98 50 138 82 57
55 41 32 53 40 32 113 130 94 92 142 73 88 142 66 96 135 68 108 136 78
99 130 70 94 137 66 103 137 76 84 135 58 107 144 67 104 131 76
52 38 27 64 40 53 70 31 49 61 41 43 68 29 47 66 38 27 66 33 60
72 38 52 73 30 47 126 89 37 131 92 61 122 87 59 165 116 49 181 142 65
195 170 78 196 183 79 191 183 74 192 181 75 198 180 80 202 179 85
195 180 77 195 180 77 195 180 77 195 180 77 195 180 77 195 180 77
195 180 77 195 180 77 198 190 143 193 189 141 194 194 132 195 193 134
196 189 134 198 189 134 197 188 147 194 187 145 169 125 50 191 126 70
173 46 40 191 59 46 200 58 20 188 58 34 177 55 50 180 62 48 198 55 41
186 63 47 190 48 46 183 122 42 192 121 77 192 186 66 193 193 73
210 178 67 202 184 72 202 184 72 202 184 72 201 185 72 201 185 72
201 185 72 200 184 71 198 185 71 205 183 61 195 186 83 173 120 70
205 184 75 198 185 71 195 184 78 206 187 84 195 182 67 196 183 71
201 188 76 201 185 74 197 181 68 198 182 69 200 184 71 198 185 70
198 185 70 200 189 71 188 186 67 197 185 75 173 132 50 174 117 64
171 129 55 203 186 78 190 190 60 198 185 73 198 185 73 198 185 73
198 185 73 198 185 73 198 185 73 198 185 73 198 185 73 201 189 77
197 182 67 185 193 71 210 180 70 146 121 65 168 104 68 74 155 76
87 106 50 74 115 45 85 147 70 92 161 81 93 150 73 96 149 71 93 155 72
92 154 71 99 148 67 93 146 68 107 156 74 88 147 83 84 149 69
97 158 78 102 153 84 93 148 55 92 159 79 85 153 68 89 112 70 71 43 40
79 33 35 85 47 44 62 36 35 70 39 45 79 38 46 75 38 45 79 38 56
74 32 46 152 114 65 153 118 36 154 116 77 194 178 65 195 185 87
200 188 80 186 175 67 194 183 78 194 180 75 194 179 60 196 184 62
191 182 91 207 197 146 199 194 175 189 200 166 205 201 172
185 198 152 188 202 169 204 201 184 186 203 159 197 197 169
200 199 179 149 174 108 98 151 61 93 153 83 94 148 86 94 147 65
102 158 69 86 146 74 159 168 113 198 202 165 196 198 177 192 198 162
194 203 160 197 204 173 190 192 171 198 200 161 195 198 167
195 198 167 195 198 167 195 198 167 195 198 167 195 198 167
195 198 167 195 198 167 195 198 167 195 198 167 195 198 167
195 198 167 195 198 167 195 198 167 195 198 167 195 198 167
195 198 167 195 198 167 195 198 167 195 198 167 195 198 167
195 198 167 195 198 167 195 198 167 189 183 131 189 183 131
189 183 131 189 183 131 189 183 131 189 183 131 189 183 131
189 183 131 188 181 127 189 183 131 189 183 131 187 184 133
193 190 139 199 197 148 200 198 149 196 195 147 199 197 148
199 197 148 199 197 148 199 197 148 199 197 148 199 197 148
199 197 148 199 197 148 206 194 146 200 198 149 178 185 133
118 131 78 126 86 51 133 86 56 133 97 63 125 86 55 184 63 46
182 57 39 188 55 38 184 64 39 182 62 37 192 57 37 186 62 38 181 62 38
188 62 40 182 60 39 189 184 128 214 193 148 196 194 146 209 192 148
193 194 137 197 206 141 204 201 150 200 190 141 203 182 135 115 87 40
123 90 49 129 92 65 121 83 72 73 34 37 57 38 34 54 49 30 111 127 88
100 136 75 96 139 68 99 140 72 98 132 71 105 132 79 100 142 66
100 135 79 114 124 100 61 41 43 65 32 41 64 37 44 61 36 42 70 38 49
64 43 48 66 36 36 71 32 50 64 39 42 64 39 35 127 83 82 131 90 58
128 85 50 131 82 52 177 132 73 164 127 49 197 172 82 194 181 79
196 187 86 185 176 73 195 187 63 196 180 82 194 179 78 195 179 81
198 180 82 198 180 72 193 180 65 192 183 88 193 188 124 194 195 138
184 184 120 193 203 143 205 190 125 192 198 126 199 189 140
196 184 142 168 131 53 173 124 58 184 65 35 195 52 44 199 46 48
188 54 45 181 60 43 199 52 44 188 55 46 186 60 45 192 43 39 189 51 38
184 123 69 185 120 66 170 126 61 210 179 88 188 187 61 189 183 59
206 184 72 206 184 75 196 186 73 197 187 74 205 183 74 203 183 70
193 189 64 200 182 82 169 134 44 214 180 90 192 178 73 197 190 76
198 177 68 202 179 75 197 185 77 192 184 73 208 181 76 196 186 73
208 182 72 207 185 74 198 189 72 199 182 68 196 185 70 206 178 78
189 194 76 203 176 71 176 119 42 187 132 75 177 127 66 193 179 80
196 191 63 212 179 82 195 178 74 186 193 77 209 176 71 190 185 68
194 195 76 209 182 75 198 182 71 191 194 61 200 190 75 196 171 81
161 123 58 153 113 61 154 114 65 153 116 63 156 117 60 97 152 84
82 107 50 83 111 53 79 158 79 91 152 75 98 144 71 99 157 83 79 107 48
87 155 72 87 159 75 91 148 69 96 151 70 85 159 72 85 154 71 97 151 73
94 153 73 83 158 76 101 151 82 60 111 52 76 40 26 67 42 38 68 43 47
76 36 47 72 43 48 79 40 25 63 110 58 159 171 121 184 164 113
136 115 60 195 179 66 190 189 83 210 171 66 198 180 78 195 179 81
193 180 75 196 180 82 196 180 85 191 182 63 192 188 89 204 194 167
197 196 165 188 201 171 198 204 170 194 194 168 188 202 151
204 204 150 205 188 170 198 204 168 148 173 105 105 156 79 88 151 70
96 153 74 92 151 71 82 154 70 88 157 74 94 151 72 93 149 76
154 176 112 168 165 112 201 202 158 189 196 163 197 201 176
193 196 169 195 202 168 195 198 167 195 198 167 195 198 167
195 198 167 195 198 167 195 198 167 195 198 167 195 198 167
195 198 167 195 198 167 195 198 167 195 198 167 195 198 167
195 198 167 195 198 167 195 198 167 194 199 167 194 199 167
194 199 167 194 199 167 194 199 167 194 199 167 194 199 167
194 199 167 189 183 131 189 183 131 189 183 131 189 183 131
189 183 131 189 183 131 189 183 131 189 183 131 190 183 129
190 184 132 189 183 131 186 183 132 191 188 137 198 196 147
201 199 150 199 197 148 199 197 148 199 197 148 199 197 148
199 197 148 199 197 148 199 197 148 199 197 148 199 197 148
201 191 142 203 199 151 179 192 138 186 179 133 118 99 57 124 91 56
125 78 48 124 90 55 132 87 46 175 60 42 193 63 47 189 60 41 181 59 38
186 57 38 203 52 41 176 57 35 195 55 38 181 60 43 177 195 135
204 190 141 188 202 141 193 202 147 196 187 146 94 130 82 115 93 43
118 92 57 122 90 79 74 39 45 67 34 43 62 31 37 70 44 45 59 38 35
75 33 57 71 41 51 37 31 15 108 124 85 102 136 76 97 138 70 94 135 65
102 143 73 97 121 71 52 51 23 59 42 35 52 38 38 69 47 50 72 35 43
66 33 40 55 38 44 59 33 44 63 37 38 68 36 51 66 41 44 59 35 33
66 32 30 131 95 63 132 89 55 125 86 43 131 88 54 170 132 69
207 178 84 194 174 77 201 187 78 194 183 68 193 176 86 195 180 77
194 180 75 195 180 77 198 180 82 196 179 75 193 180 75 193 185 102
196 190 140 198 186 146 198 199 159 182 189 122 198 181 137
192 187 147 189 195 123 196 189 85 177 121 62 186 117 75 186 57 36
194 48 35 197 53 42 187 66 45 173 63 38 193 53 40 195 57 46 194 58 46
185 59 36 198 56 44 172 72 40 169 120 51 165 124 58 182 129 61
200 194 72 207 190 82 209 187 76 198 178 65 196 184 72 201 189 77
202 185 71 205 187 75 202 188 79 209 178 85 166 127 52 163 124 47
204 181 79 204 191 76 206 189 85 200 183 79 200 188 70 209 183 62
194 190 67 192 182 71 193 178 75 195 183 81 196 185 80 198 184 75
202 186 73 191 186 69 208 184 76 191 190 82 180 132 58 165 119 60
165 110 53 200 127 59 202 183 80 203 182 65 183 198 73 202 180 71
205 193 85 213 181 80 189 177 65 191 184 67 192 190 69 199 186 82
195 170 80 159 119 49 165 115 62 158 107 60 158 110 64 161 113 64
157 110 56 151 116 60 80 152 66 101 153 78 104 147 76 81 116 50
83 108 51 87 96 51 74 116 68 98 149 74 93 156 75 96 150 72 102 155 75
91 159 74 89 152 71 97 151 73 90 155 75 97 144 63 108 151 72
86 160 75 109 154 87 76 105 51 91 103 57 91 122 65 76 97 40
157 113 78 171 169 120 171 164 96 156 107 64 160 125 59 189 182 76
191 177 78 199 176 80 197 179 77 195 181 76 193 181 69 196 181 78
198 179 84 192 181 63 193 186 80 200 190 141 198 197 176 188 203 164
194 192 177 205 196 179 196 199 178 193 191 178 196 196 158
147 171 121 111 151 78 90 149 69 85 153 70 97 156 76 98 155 76
92 160 77 94 159 77 96 150 72 94 152 75 105 148 76 155 177 113
156 162 114 200 201 169 193 197 170 197 202 172 197 196 165
195 198 167 195 198 167 195 198 167 195 198 167 195 198 167
195 198 167 195 198 167 195 198 167 195 198 167 195 198 167
195 198 167 195 198 167 195 198 167 195 198 167 195 198 167
195 198 167 194 199 167 194 199 167 194 199 167 194 199 167
194 199 167 194 199 167 194 199 167 194 199 167 189 183 131
189 183 131 189 183 131 189 183 131 189 183 131 189 183 131
189 183 131 189 183 131 190 183 131 190 184 132 189 183 131
187 181 131 188 185 134 196 193 142 200 198 149 201 199 150
199 197 148 199 197 148 199 197 148 199 197 148 199 197 148
199 197 148 199 197 148 199 197 148 209 197 149 191 198 146
187 191 140 203 182 139 112 133 77 128 90 54 120 94 57 129 86 54
134 84 51 139 76 45 185 67 53 185 57 44 180 57 42 188 62 48 178 67 48
194 57 47 126 87 32 198 188 139 165 194 146 209 204 162 119 135 72
122 87 45 135 87 75 71 31 42 68 32 44 70 33 50 65 31 47 65 35 47
69 42 47 59 38 35 62 43 39 61 41 40 73 27 56 73 36 54 63 41 43
62 59 42 113 124 90 99 121 75 116 143 90 99 128 72 65 44 39 59 39 38
69 44 48 64 33 41 65 34 39 59 33 36 60 37 43 67 44 54 70 40 52
66 40 41 63 39 53 54 29 33 74 50 50 64 40 38 115 81 53 131 87 60
129 94 66 121 82 43 166 123 70 166 127 50 211 181 83 196 173 71
199 178 85 201 179 93 197 180 76 194 180 71 195 181 74 196 181 80
197 179 77 195 181 82 196 186 114 200 192 153 193 193 131 196 186 137
208 191 145 191 193 153 192 199 132 193 187 125 175 130 65 188 119 62
183 59 51 181 49 36 183 68 41 186 65 38 189 56 37 189 49 36 194 50 39
178 59 37 184 54 41 192 62 30 196 54 44 178 55 37 181 127 55
167 121 59 177 127 74 205 172 67 198 166 81 211 190 81 202 187 68
204 186 78 200 183 75 191 179 59 202 184 72 202 172 86 172 122 53
172 124 60 175 130 62 174 133 51 203 175 76 193 181 73 194 187 71
193 181 63 191 183 82 192 190 79 216 179 72 193 192 65 201 189 67
198 187 71 191 184 78 200 181 86 211 184 69 192 174 66 187 125 48
168 125 57 171 131 70 190 127 73 165 115 52 159 130 54 188 188 66
198 187 69 197 186 68 195 182 67 195 179 66 212 191 84 194 180 75
208 180 81 207 101 61 182 68 32 186 60 35 183 52 34 187 58 39
189 62 43 179 53 30 187 61 36 163 114 58 156 116 64 148 116 67
90 100 39 67 117 46 77 111 51 77 111 60 84 98 62 97 158 80 71 149 63
86 158 74 91 150 68 96 151 70 129 167 92 156 183 114 102 144 72
87 162 79 87 144 65 98 150 76 162 167 113 158 168 118 156 174 122
154 159 105 183 172 118 169 164 106 157 171 110 196 175 94 150 108 60
198 172 85 199 179 80 188 182 72 204 184 87 193 177 79 195 183 73
194 183 65 195 181 74 198 180 82 196 181 66 193 183 70 193 184 105
203 199 187 185 199 137 199 200 158 208 199 168 196 198 159
196 205 184 147 170 126 105 155 70 95 149 71 87 155 72 86 158 74
91 152 72 93 150 71 90 153 72 89 152 71 90 147 68 95 154 72 85 153 68
95 149 73 155 174 118 198 198 160 191 196 164 194 199 169 200 195 166
196 199 168 196 199 168 196 199 168 196 199 168 196 199 168
196 199 168 196 199 168 196 199 168 196 199 168 196 199 168
196 199 168 196 199 168 196 199 168 196 199 168 196 199 168
196 199 168 195 200 168 195 200 168 195 200 168 195 200 168
195 200 168 195 200 168 195 200 168 195 200 168 189 183 131
189 183 131 189 183 131 189 183 131 189 183 131 189 183 131
189 183 131 189 183 131 189 183 131 191 185 133 190 184 132
188 182 130 186 183 132 192 189 138 197 194 143 199 196 145
199 197 148 199 197 148 199 197 148 199 197 148 199 197 148
199 197 148 199 197 148 199 197 148 199 195 147 198 200 150
210 197 152 190 199 146 192 179 135 98 121 65 137 88 56 122 92 54
117 100 57 125 89 53 125 91 54 125 87 50 128 88 52 133 89 54
123 77 43 126 97 57 181 181 143 218 193 152 188 187 131 117 76 46
56 47 32 48 38 39 64 31 38 65 46 39 64 40 40 68 43 47 58 35 43
60 37 45 62 39 45 64 37 42 66 34 45 67 33 47 60 35 39 64 39 42
62 40 42 51 31 30 53 38 33 69 56 48 44 34 24 56 46 36 74 31 50
69 38 53 60 33 42 66 31 38 72 39 46 63 43 45 58 38 47 64 32 47
61 30 38 68 36 37 56 34 47 68 38 46 59 33 36 58 40 40 124 90 65
129 87 62 124 85 70 136 93 48 173 124 66 178 127 64 167 124 45
166 133 54 195 170 88 197 180 72 197 179 77 196 183 71 197 184 70
198 184 77 196 182 77 196 183 81 196 187 110 199 193 145 199 186 131
195 203 128 196 187 146 187 190 119 207 187 152 188 188 92 179 113 65
177 57 40 190 55 49 189 53 39 190 60 38 184 51 32 190 52 42 197 56 49
202 60 50 187 55 34 182 55 40 194 59 37 194 53 44 193 53 40
187 129 65 168 119 63 176 125 78 184 129 49 177 132 65 202 181 74
194 184 61 200 179 74 207 186 81 202 194 69 201 185 74 174 134 62
185 121 77 172 123 54 171 123 51 179 122 69 170 128 56 198 187 69
202 199 70 197 180 74 180 184 73 207 178 76 199 185 76 196 186 71
189 190 70 215 174 66 192 187 67 204 187 71 186 186 66 199 191 90
180 116 52 180 119 64 183 114 59 166 129 59 192 123 68 180 128 71
211 175 89 199 190 85 191 180 64 207 191 69 196 185 67 208 173 79
161 138 60 188 59 30 185 60 42 185 53 38 193 55 42 194 54 41
196 59 43 186 50 34 198 62 46 189 53 37 191 51 36 150 113 68
157 108 68 171 115 78 90 144 68 87 154 75 108 147 82 86 109 55
78 110 45 97 158 81 90 155 73 94 153 71 96 151 70 131 173 97
123 163 90 94 157 78 98 152 76 93 149 74 89 151 78 160 178 128
201 201 165 190 208 168 192 210 168 180 175 137 153 177 119
155 170 115 150 120 48 158 123 67 196 175 86 208 182 71 185 180 62
200 184 73 193 177 82 195 183 71 194 183 65 194 180 75 199 179 84
198 180 72 194 181 66 193 182 77 184 186 76 200 201 170 197 199 175
204 199 179 189 196 178 140 174 97 104 159 58 92 150 76 90 153 72
92 160 77 90 158 75 89 152 71 93 152 72 95 154 74 94 157 76 96 159 78
94 156 71 80 154 65 89 158 75 106 145 78 154 166 116 201 203 166
197 200 169 193 198 168 196 199 168 196 199 168 196 199 168
196 199 168 196 199 168 196 199 168 196 199 168 196 199 168
196 199 168 196 199 168 196 199 168 196 199 168 196 199 168
196 199 168 196 199 168 196 199 168 195 200 168 195 200 168
195 200 168 195 200 168 195 200 168 195 200 168 195 200 168
195 200 168 189 183 131 189 183 131 189 183 131 189 183 131
189 183 131 189 183 131 189 183 131 189 183 131 189 183 131
190 184 132 190 184 132 188 182 130 188 182 130 190 184 134
192 189 138 194 191 140 199 197 148 199 197 148 199 197 148
199 197 148 199 197 148 199 197 148 199 197 148 199 197 148
200 202 152 195 193 144 210 196 151 195 199 148 185 195 142
199 191 144 182 186 136 123 83 48 123 84 51 128 81 51 127 88 55
128 89 56 127 91 57 110 82 43 132 104 65 190 175 132 194 203 148
126 88 65 65 36 28 78 31 41 69 36 43 63 48 51 58 37 44 68 37 52
63 39 37 64 39 42 64 41 47 58 35 41 60 38 41 68 41 48 67 35 48
66 32 49 60 45 38 58 40 36 61 39 41 67 40 47 69 37 50 68 36 51
63 31 46 68 36 51 66 37 55 66 27 45 67 31 41 68 48 50 57 37 39
62 29 40 72 38 52 62 38 51 67 42 37 78 39 34 61 38 48 72 39 48
69 38 46 57 37 39 81 39 17 123 88 60 124 85 46 135 87 51 177 122 66
177 122 58 176 124 74 167 133 62 198 179 76 198 185 73 200 180 81
198 185 71 198 187 71 199 186 74 200 184 73 197 185 73 196 187 92
197 190 118 187 191 140 195 188 133 205 185 124 191 200 155
184 175 56 176 126 65 182 67 36 190 62 35 196 59 41 188 57 37
194 57 41 194 53 46 196 52 52 188 46 44 190 54 42 190 53 34 193 56 40
180 60 46 198 57 50 193 43 26 169 128 66 173 128 73 181 113 66
177 123 59 171 126 59 206 185 78 202 192 69 202 181 76 203 182 77
197 189 64 195 179 68 165 125 53 180 118 69 177 129 57 173 120 54
183 119 75 171 119 59 205 187 79 189 181 57 208 186 85 214 184 74
198 191 74 190 188 69 195 182 68 200 184 73 191 188 75 205 176 74
194 183 75 192 184 83 200 185 102 165 125 64 164 128 68 161 133 60
172 124 52 181 120 57 162 116 56 168 125 57 179 122 51 199 187 89
197 186 81 186 123 43 176 123 55 182 56 33 200 52 50 190 57 42
198 58 45 191 48 34 200 57 41 188 47 30 194 57 41 197 56 46 191 48 40
198 55 41 159 118 72 160 168 109 173 177 118 173 174 114 92 143 68
81 160 79 83 106 50 88 105 51 95 145 76 99 157 81 94 153 73 96 158 75
94 147 67 96 149 71 83 158 75 80 164 70 83 158 67 140 168 94
181 170 116 187 173 126 188 174 129 195 168 125 179 187 128
161 161 111 158 115 72 150 111 54 164 114 55 154 111 43 199 189 68
204 179 78 186 180 66 193 176 86 196 184 74 194 183 68 193 178 77
199 179 82 202 180 79 196 179 71 193 182 67 193 177 89 195 188 160
198 207 162 191 199 152 189 202 174 103 151 77 88 154 66 93 148 93
89 150 70 92 153 73 91 154 73 91 154 73 95 154 74 95 152 73 90 151 71
86 154 71 87 149 64 91 155 69 90 158 73 96 154 77 126 156 94
200 201 159 196 200 167 186 205 173 195 200 168 195 200 168
195 200 168 195 200 168 195 200 168 195 200 168 195 200 168
195 200 168 195 200 168 195 200 168 195 200 168 195 200 168
195 200 168 195 200 168 195 200 168 195 200 168 195 200 168
195 200 168 195 200 168 195 200 168 195 200 168 195 200 168
195 200 168 195 200 168 189 183 131 189 183 131 189 183 131
189 183 131 189 183 131 189 183 131 189 183 131 189 183 131
189 183 131 190 184 132 190 184 132 189 183 131 188 182 130
188 182 130 190 184 132 191 185 133 199 197 148 199 197 148
199 197 148 199 197 148 199 197 148 199 197 148 199 197 148
199 197 148 188 198 145 213 192 149 192 194 144 192 196 145
209 201 154 190 200 147 200 196 148 199 180 137 197 184 139
187 186 138 124 86 50 136 89 59 121 91 55 196 192 145 172 185 132
217 188 148 125 89 63 66 28 17 70 35 41 64 43 58 63 29 53 67 25 47
57 48 53 62 26 36 71 33 56 64 26 49 70 36 53 65 35 45 63 37 40
64 43 42 62 42 44 59 38 45 64 37 44 65 35 45 66 34 45 68 36 49
63 31 44 67 37 47 68 41 50 58 32 41 62 36 47 66 39 46 62 35 40
62 40 43 66 40 49 67 37 45 66 35 40 63 35 34 101 94 65 127 86 68
65 38 43 67 35 46 63 33 45 66 39 46 132 84 62 111 92 52 163 133 73
133 91 41 136 85 38 171 120 65 170 127 59 206 179 88 194 177 71
189 177 69 201 181 82 199 186 72 199 188 70 200 187 73 201 186 71
200 186 64 197 187 74 195 186 91 196 190 94 192 189 136 198 193 125
193 189 66 175 128 58 194 115 72 181 56 34 196 45 38 187 45 21
184 59 37 191 61 47 184 58 46 183 60 44 178 56 35 178 67 40 186 57 36
189 56 37 183 54 49 189 55 46 187 73 37 165 121 58 168 124 63
183 124 66 173 123 60 162 130 47 197 176 69 204 189 72 204 186 78
198 181 73 196 184 62 211 193 81 208 178 90 171 130 48 165 120 52
181 126 70 186 125 70 177 126 60 161 126 45 209 184 91 200 175 72
208 182 69 193 189 66 203 180 64 194 189 72 193 192 84 196 168 85
192 130 73 72 164 65 99 151 53 90 155 61 85 158 68 184 118 70
186 126 66 182 125 58 172 123 54 188 128 68 181 127 63 171 120 57
171 130 68 174 119 65 175 66 35 198 58 41 200 52 42 189 51 40
194 63 43 185 50 31 197 58 39 192 55 36 188 53 34 193 60 43 185 49 37
194 56 46 184 46 18 192 60 35 155 111 62 182 173 114 158 174 109
157 118 77 75 106 49 86 103 58 84 103 57 67 112 53 94 147 79
98 152 77 89 154 72 88 145 66 113 164 87 81 148 68 96 153 76
101 145 70 151 109 59 156 179 107 150 172 100 169 121 72 151 115 55
161 113 51 142 117 60 171 120 67 155 119 61 148 110 48 161 120 68
183 169 60 203 181 95 197 181 85 195 178 86 196 184 76 193 182 76
192 178 81 198 180 78 199 180 78 197 179 79 195 184 69 208 187 82
188 183 79 195 197 158 196 192 167 167 173 111 106 152 77 80 152 68
100 155 72 96 155 75 97 151 73 94 151 72 89 154 72 94 153 73
103 151 75 101 152 75 91 152 72 92 154 69 93 150 69 91 154 73
95 160 78 132 173 103 160 168 117 198 199 165 184 205 174 195 200 168
195 200 168 195 200 168 195 200 168 195 200 168 195 200 168
195 200 168 195 200 168 195 200 168 195 200 168 195 200 168
195 200 168 195 200 168 195 200 168 195 200 168 195 200 168
195 200 168 195 200 168 195 200 168 195 200 168 195 200 168
195 200 168 195 200 168 195 200 168 189 183 131 189 183 131
189 183 131 189 183 131 189 183 131 189 183 131 189 183 131
189 183 131 189 183 131 189 183 131 189 183 131 190 184 132
189 183 131 188 182 130 188 182 130 189 183 131 199 197 148
199 197 148 199 197 148 199 197 148 199 197 148 199 197 148
199 197 148 199 197 148 197 199 149 205 199 151 199 201 151
201 188 143 197 207 154 204 187 143 187 200 146 203 195 148
176 202 141 205 199 149 201 195 147 210 193 150 198 194 147
182 197 142 208 196 148 195 185 136 117 86 65 75 39 41 59 45 62
54 33 52 70 37 46 60 36 32 79 38 46 69 36 53 70 42 30 66 35 33
71 35 45 77 41 55 63 30 41 61 30 36 68 42 45 59 38 37 73 39 55
60 26 40 70 38 49 67 37 45 66 39 44 59 34 38 59 37 40 64 44 46
64 33 41 59 43 44 56 38 38 68 32 42 79 41 54 51 30 29 62 43 28
124 94 70 141 158 103 131 90 58 59 31 30 59 33 42 67 41 54 65 35 43
138 86 62 197 195 144 204 189 130 189 169 96 166 135 71 168 133 65
199 174 73 205 186 81 188 172 77 204 190 81 202 183 78 199 187 69
199 187 69 201 184 76 202 184 74 204 185 65 200 185 66 196 184 76
190 182 75 214 194 79 195 185 74 196 177 83 181 125 74 183 60 29
196 53 45 191 57 58 191 65 42 188 62 47 193 46 39 175 66 35
175 118 51 177 133 58 185 114 62 199 55 44 186 59 40 198 51 41
181 55 40 178 113 59 183 132 53 170 131 54 169 129 60 168 130 49
199 182 78 210 188 79 203 183 71 197 185 75 199 187 75 200 183 67
202 185 69 196 183 71 206 188 76 165 128 50 183 128 71 168 114 50
173 122 56 180 130 69 168 126 54 213 183 87 193 195 72 189 170 67
183 135 59 188 108 59 92 154 69 99 152 72 103 147 68 99 151 66
107 153 78 86 149 68 103 150 72 94 152 67 94 155 62 165 125 63
165 121 58 183 121 64 180 120 60 158 116 56 154 110 61 203 54 48
195 41 39 196 59 49 187 56 38 199 52 36 187 50 32 196 55 38 195 52 36
196 55 38 202 65 49 181 44 28 199 59 44 197 53 42 193 62 34 196 60 38
165 108 63 185 185 123 154 174 105 156 111 69 84 103 47 79 112 55
60 55 25 87 106 61 86 113 58 103 146 77 81 150 69 92 166 81 83 148 66
85 160 77 103 150 80 163 105 68 160 116 71 165 118 74 185 45 32
180 55 37 196 55 37 183 58 28 172 110 61 158 100 52 151 117 54
146 123 71 148 113 57 205 183 84 184 176 78 201 177 79 197 179 79
195 183 71 193 181 79 193 181 81 197 184 70 197 180 74 194 178 83
195 183 75 189 166 70 203 192 76 185 181 81 194 176 92 146 122 60
81 109 51 86 156 67 100 156 67 95 156 76 98 152 74 95 154 74
88 156 73 98 157 77 129 165 93 142 173 103 130 172 98 97 156 76
93 154 76 89 152 73 87 146 66 97 139 65 161 181 122 184 188 151
198 200 176 195 200 168 195 200 168 195 200 168 195 200 168
195 200 168 195 200 168 195 200 168 195 200 168 195 200 168
195 200 168 195 200 168 195 200 168 195 200 168 195 200 168
195 200 168 195 200 168 195 200 168 195 200 168 195 200 168
195 200 168 195 200 168 195 200 168 195 200 168 195 200 168
189 183 131 189 183 131 189 183 131 189 183 131 189 183 131
189 183 131 189 183 131 189 183 131 189 183 131 189 183 131
189 183 131 189 183 131 189 183 131 190 183 131 189 182 128
189 182 128 199 197 148 199 197 148 199 197 148 199 197 148
199 197 148 199 197 148 199 197 148 199 197 148 202 194 147
191 201 148 204 193 147 201 197 149 202 191 145 196 203 149
204 190 143 191 206 149 217 190 143 197 202 146 192 199 145
198 194 146 204 198 150 201 199 148 185 182 129 126 89 47 67 40 49
47 37 35 75 35 36 71 39 40 61 42 46 59 36 44 62 37 40 59 40 34
52 37 56 58 38 47 68 41 32 116 84 59 126 92 57 130 93 64 119 81 68
75 36 37 60 35 41 68 43 47 60 35 38 64 40 40 63 38 41 64 37 42
65 38 47 64 34 46 62 42 44 65 34 39 74 39 46 65 35 45 64 34 44
70 36 35 122 96 69 195 183 135 127 163 89 127 88 47 66 41 36 66 45 52
55 35 47 71 41 49 130 79 52 183 197 135 191 192 135 203 196 128
188 176 78 198 182 69 196 178 80 190 174 78 203 189 82 196 178 76
201 185 74 198 186 66 197 185 65 200 183 77 204 183 78 206 185 68
204 185 67 198 182 71 209 183 73 207 182 63 192 187 69 171 131 61
190 120 68 190 53 37 192 57 37 183 60 27 195 52 46 178 54 46
188 58 44 191 116 58 203 186 80 191 183 72 176 132 61 183 53 40
190 54 40 189 58 28 188 63 45 172 120 63 207 174 71 213 179 89
175 119 58 203 185 83 197 191 71 206 184 73 202 179 73 195 185 72
200 190 75 207 185 74 204 184 69 195 191 65 188 186 63 214 181 86
170 120 51 178 130 68 171 121 62 177 118 60 183 130 64 161 126 45
175 123 63 179 124 68 177 119 69 99 152 70 78 162 74 83 156 74
93 150 73 90 157 77 77 158 81 85 159 80 102 148 73 87 157 71
94 147 67 96 155 71 169 128 74 161 112 56 152 117 59 159 113 61
189 54 34 193 53 38 197 64 47 186 48 35 193 53 38 193 56 40 191 55 41
195 57 44 193 53 40 190 52 39 187 54 37 195 62 45 187 50 32 196 55 37
189 52 42 187 56 46 188 49 42 181 181 121 169 106 62 146 115 58
166 114 66 150 112 63 89 98 67 81 106 64 76 103 52 75 114 49
93 160 80 86 151 69 99 147 71 103 154 77 154 112 54 136 126 55
195 57 29 188 47 27 202 62 49 199 52 45 192 51 41 201 54 44 185 58 39
187 59 50 156 111 52 156 107 77 164 114 53 185 180 78 194 181 66
196 185 67 197 180 74 195 184 69 193 181 81 194 182 82 198 186 64
196 180 69 192 175 85 195 184 79 197 184 72 198 184 77 194 176 76
161 114 58 159 108 63 92 106 44 85 151 89 94 152 68 86 154 71
94 151 72 94 155 75 86 155 72 96 153 74 137 164 95 156 172 107
138 165 96 93 150 73 87 156 76 86 155 75 105 156 79 132 168 94
147 176 112 197 205 164 207 190 172 195 200 168 195 200 168
195 200 168 195 200 168 195 200 168 195 200 168 195 200 168
195 200 168 195 200 168 195 200 168 195 200 168 195 200 168
195 200 168 195 200 168 195 200 168 195 200 168 195 200 168
195 200 168 195 200 168 195 200 168 195 200 168 195 200 168
195 200 168 195 200 168 189 183 131 189 183 131 189 183 131
189 183 131 189 183 131 189 183 131 189 183 131 189 183 131
189 183 131 189 183 131 189 183 131 189 183 131 189 183 131
189 183 131 189 183 131 189 183 131 196 193 142 200 197 146
200 198 149 199 197 148 198 196 147 199 197 148 201 198 147
201 195 143 199 197 148 199 197 148 199 197 148 199 197 148
199 197 148 199 197 148 199 197 148 199 197 148 201 195 147
201 195 143 197 198 154 209 197 149 201 198 155 185 206 150
184 182 121 120 90 79 64 37 44 64 37 44 64 37 44 64 37 44 64 37 44
64 37 44 64 37 44 64 37 44 70 34 48 50 44 30 127 83 56 182 197 132
208 187 130 139 160 103 129 90 75 62 37 33 64 37 46 61 33 45 65 37 51
65 37 49 65 38 43 63 37 40 62 35 40 67 40 47 65 37 52 65 37 51
63 35 49 63 35 47 61 31 39 71 42 38 119 90 72 118 88 60 124 88 62
70 39 47 54 31 39 66 46 47 67 29 50 57 38 40 148 155 111 196 190 132
192 197 133 196 187 148 166 128 65 197 178 86 201 172 78 189 186 69
200 183 77 197 186 71 201 185 72 201 185 72 201 185 72 201 185 72
201 185 72 201 185 72 201 185 72 201 185 72 196 185 70 199 186 72
208 191 77 186 116 57 178 127 64 189 58 38 182 61 34 199 49 48
187 61 46 182 57 35 193 53 38 192 61 43 180 118 59 188 184 85
178 132 57 190 54 38 189 56 39 196 50 63 167 129 54 196 189 59
190 193 136 207 185 84 173 122 57 205 186 66 201 185 72 201 185 72
201 185 72 201 185 72 201 185 72 201 185 72 201 185 72 201 185 72
199 190 85 196 179 63 211 177 88 176 131 64 166 117 59 178 133 50
172 121 64 175 125 66 181 124 71 116 96 46 104 105 63 99 140 80
92 162 76 92 148 59 89 159 70 93 149 74 90 159 76 116 168 93
104 150 77 97 151 75 93 156 75 95 150 69 133 165 90 175 188 118
158 128 68 152 115 60 194 57 39 198 58 43 192 50 38 195 52 38
195 60 41 193 50 33 180 57 26 192 61 51 171 123 59 191 120 54
189 56 49 186 54 42 202 52 28 190 57 52 184 61 45 198 59 40 176 56 19
194 175 96 192 186 102 140 120 49 164 112 64 144 118 69 192 49 43
154 124 62 151 112 55 149 120 62 147 116 52 82 107 41 81 117 71
84 99 58 158 110 61 196 54 40 187 55 42 193 52 42 196 52 41 179 69 46
189 53 41 195 47 43 197 55 35 193 55 44 193 49 22 205 54 37
139 115 51 199 178 87 211 176 92 193 182 64 198 181 77 198 180 78
194 176 74 194 177 73 197 180 72 197 183 74 193 179 74 195 181 82
202 181 76 187 180 76 201 184 96 164 112 54 147 106 62 92 104 54
79 111 61 82 104 57 97 148 71 85 157 75 94 155 78 98 150 76 90 152 75
101 153 78 128 169 93 95 154 72 94 150 79 91 156 74 88 158 69
88 147 65 140 174 113 189 202 159 191 197 163 197 204 170 195 200 168
195 200 168 195 200 168 195 200 168 195 200 168 195 200 168
195 200 168 195 200 168 195 200 168 195 200 168 195 200 168
195 200 168 195 200 168 195 200 168 195 200 168 195 200 168
195 200 168 195 200 168 195 200 168 195 200 168 195 200 168
195 200 168 195 200 168 195 200 168 189 183 131 189 183 131
189 183 131 189 183 131 189 183 131 189 183 131 189 183 131
189 183 131 189 183 131 189 183 131 189 183 131 189 183 131
189 183 131 189 183 131 189 183 131 189 183 131 193 190 139
197 194 143 199 197 148 199 197 148 199 197 148 199 197 148
200 197 146 202 196 146 199 197 148 199 197 148 199 197 148
199 197 148 199 197 148 199 197 148 199 197 148 199 197 148
207 196 151 186 204 146 206 191 150 193 192 138 194 200 152
190 186 139 114 128 66 72 34 31 64 37 44 64 37 44 64 37 44 64 37 44
64 37 44 64 37 44 64 37 44 64 37 44 66 27 48 72 46 47 113 87 64
131 152 96 130 86 51 112 103 70 63 36 29 61 35 44 62 35 40 72 45 52
62 35 44 61 34 41 64 37 42 66 39 44 62 35 42 62 35 44 64 38 39
63 37 38 66 40 43 65 38 45 65 38 47 62 32 40 71 41 41 67 36 31
65 36 30 60 39 38 72 39 46 66 33 44 61 35 46 70 53 37 170 191 132
198 194 133 196 186 127 208 185 89 173 127 52 191 180 91 196 184 66
195 186 65 207 180 65 203 189 82 201 185 72 201 185 72 201 185 72
201 185 72 201 185 72 201 185 72 201 185 72 201 185 72 201 185 72
210 182 73 188 181 65 176 117 57 174 124 65 188 59 40 193 52 32
179 55 43 189 58 48 186 56 40 186 54 39 187 50 40 188 51 33 202 69 36
190 56 31 188 50 47 185 58 51 182 53 31 176 126 37 210 185 154
202 181 136 176 125 70 206 191 76 195 185 61 201 185 72 201 185 72
201 185 72 201 185 72 201 185 72 201 185 72 201 185 72 201 185 72
198 185 81 198 184 59 203 183 60 207 188 60 202 179 73 208 181 74
171 131 61 170 123 55 179 112 70 123 96 53 76 103 50 105 151 87
87 152 68 84 168 74 110 139 72 88 155 86 95 152 71 139 169 97
127 171 94 87 159 75 87 152 70 99 157 80 130 167 97 185 172 119
204 172 113 169 130 75 189 49 32 193 53 38 195 55 42 194 52 38
190 57 38 194 53 36 201 57 48 185 48 30 197 186 80 200 182 70
176 55 26 188 55 40 194 59 29 185 53 38 203 46 41 196 44 31 186 66 32
206 176 106 207 177 107 166 99 47 186 57 36 190 56 44 205 56 52
187 46 26 190 61 42 196 53 45 158 114 69 154 113 83 80 31 24 66 48 28
181 63 35 185 60 38 196 53 39 191 54 38 199 47 33 197 46 29 181 62 38
196 59 43 183 56 39 205 51 53 182 57 29 198 54 53 151 126 60
159 109 50 193 183 86 189 177 69 193 179 72 196 182 77 199 184 81
196 182 77 195 181 74 195 181 74 192 177 74 196 181 80 206 185 60
175 178 71 144 115 49 171 112 72 145 111 63 85 112 45 61 113 49
96 106 71 101 150 71 96 164 81 86 149 68 91 150 70 88 160 76
87 152 70 93 150 71 84 158 73 96 154 78 86 151 67 88 154 66
102 155 77 133 161 103 193 201 162 198 204 170 195 202 169
195 200 168 195 200 168 195 200 168 195 200 168 195 200 168
195 200 168 195 200 168 195 200 168 195 200 168 195 200 168
195 200 168 195 200 168 195 200 168 195 200 168 195 200 168
195 200 168 195 200 168 195 200 168 195 200 168 195 200 168
195 200 168 195 200 168 195 200 168 195 200 168 189 183 131
189 183 131 189 183 131 189 183 131 189 183 131 189 183 131
189 183 131 189 183 131 189 183 131 189 183 131 189 183 131
189 183 131 189 183 131 189 183 131 189 183 131 189 183 131
190 184 134 194 191 140 198 196 147 200 198 149 199 197 148
199 197 148 200 197 146 200 197 146 199 197 148 199 197 148
199 197 148 199 197 148 199 197 148 199 197 148 199 197 148
199 197 148 192 198 150 207 195 147 188 207 152 213 201 149
186 175 130 109 127 75 118 94 50 63 39 39 64 37 44 64 37 44 64 37 44
64 37 44 64 37 44 64 37 44 64 37 44 64 37 44 72 34 33 55 36 32
78 49 53 57 41 42 72 32 41 62 36 37 67 31 31 62 45 35 64 37 42
64 37 42 57 30 37 69 42 49 63 36 43 65 38 45 70 43 52 67 40 49
69 40 44 63 37 38 64 38 39 58 33 37 67 41 50 66 38 52 62 32 42
67 37 45 60 37 55 54 39 34 72 40 43 92 26 53 51 41 31 104 131 78
208 189 133 187 195 122 198 173 93 172 126 49 171 118 48 196 190 80
189 184 67 203 186 80 210 178 65 201 184 80 201 185 72 201 185 72
201 185 72 201 185 72 201 185 72 201 185 72 201 185 72 201 185 72
209 178 70 208 197 82 202 184 74 167 123 62 172 136 74 197 53 42
191 50 30 183 67 52 200 45 41 194 55 36 190 58 35 195 61 49 189 57 45
178 56 35 177 52 34 193 60 55 194 61 28 201 54 46 177 122 65
188 192 141 201 195 83 182 123 65 202 177 61 208 189 87 201 185 72
201 185 72 201 185 72 201 185 72 201 185 72 201 185 72 201 185 72
201 185 72 201 189 55 201 187 62 205 188 96 185 181 58 193 184 127
188 175 122 198 181 67 211 178 83 166 129 59 119 102 46 90 106 61
81 102 63 95 155 93 93 147 72 90 164 79 80 158 72 95 152 71
128 162 88 126 169 90 89 153 67 80 148 63 93 158 78 131 166 100
192 174 128 205 169 109 171 130 74 191 52 33 196 56 41 196 56 43
190 50 37 186 55 37 195 55 40 201 48 40 194 53 35 211 182 88
206 174 73 187 66 37 194 61 46 190 55 25 197 62 43 179 64 43
193 60 41 196 46 29 183 58 30 187 53 28 192 57 35 203 53 39 193 53 40
182 61 42 203 48 28 200 54 39 200 52 42 190 49 29 182 55 40 192 52 53
192 61 53 200 53 35 189 50 31 194 54 37 187 67 42 202 43 24 201 63 35
169 107 56 188 49 26 193 53 40 185 58 49 194 55 34 177 55 52
168 110 46 147 105 57 193 187 77 196 185 80 196 182 75 195 181 74
199 185 80 195 180 77 194 179 76 195 180 77 193 178 75 197 182 79
195 174 65 201 183 81 191 180 90 162 117 52 153 122 67 82 108 45
78 107 53 80 106 59 69 115 42 91 152 72 92 154 71 95 154 70 92 158 71
101 158 77 100 148 74 96 154 78 92 153 73 89 153 67 98 156 72
126 168 96 151 169 117 202 206 169 198 201 170 192 199 168
195 200 168 195 200 168 195 200 168 195 200 168 195 200 168
195 200 168 195 200 168 195 200 168 195 200 168 195 200 168
195 200 168 195 200 168 195 200 168 195 200 168 195 200 168
195 200 168 195 200 168 195 200 168 195 200 168 195 200 168
195 200 168 195 200 168 195 200 168 195 200 168 189 183 131
189 183 131 189 183 131 189 183 131 189 183 131 189 183 131
189 183 131 189 183 131 189 183 131 189 183 131 189 183 131
189 183 131 189 183 131 189 183 131 189 183 131 189 183 131
188 182 130 192 189 138 198 194 146 200 198 149 200 198 149
199 197 148 200 196 148 200 197 146 199 197 148 199 197 148
199 197 148 199 197 148 199 197 148 199 197 148 199 197 148
199 197 148 202 194 155 187 202 145 204 190 145 182 182 122
197 189 142 118 88 54 106 99 55 69 31 44 64 37 44 64 37 44 64 37 44
64 37 44 64 37 44 64 37 44 64 37 44 64 37 44 70 44 53 59 38 45
67 29 40 69 27 37 62 43 47 61 40 47 73 39 53 66 38 52 68 38 50
65 35 45 64 34 42 66 39 46 62 35 44 59 32 41 59 32 39 62 35 40
65 34 52 64 36 50 67 40 47 62 37 43 66 41 47 65 39 48 62 35 40
66 40 43 63 32 63 66 34 35 48 44 35 52 32 31 129 93 69 178 189 129
205 189 130 190 183 103 168 131 60 136 82 48 184 135 69 200 175 83
191 172 78 206 187 82 203 180 78 201 188 76 201 185 72 201 185 72
201 185 72 201 185 72 201 185 72 201 185 72 201 185 72 201 185 72
202 182 70 200 172 63 203 191 79 160 129 64 173 116 61 186 59 42
185 66 36 188 47 38 196 53 39 189 65 37 174 62 25 178 57 30 188 56 41
190 56 44 193 57 41 197 54 37 180 53 47 187 58 29 169 127 69
205 184 59 171 120 65 174 127 45 170 122 48 188 184 87 201 185 72
201 185 72 201 185 72 201 185 72 201 185 72 201 185 72 201 185 72
201 185 72 199 183 70 204 185 82 201 183 81 196 188 103 182 181 127
182 183 123 190 177 132 199 187 69 170 131 54 167 120 64 110 97 52
75 112 60 90 102 52 87 150 71 80 153 64 99 157 72 80 159 76 99 150 75
102 153 74 97 156 72 99 154 71 87 152 70 124 170 98 192 178 129
170 132 70 162 120 62 198 57 39 195 58 42 191 53 40 191 51 38
188 56 41 193 53 38 196 62 37 192 51 42 175 66 37 178 59 29 185 51 42
190 58 45 196 46 29 194 51 45 192 49 35 196 54 40 197 55 41 186 57 38
186 57 38 192 63 44 198 55 41 200 48 37 190 48 38 188 54 29 183 61 40
194 50 41 188 69 35 198 54 30 192 56 34 189 52 18 192 57 37 196 53 37
185 58 39 191 50 32 197 72 42 184 170 99 184 180 107 188 59 30
198 51 35 191 55 33 177 64 34 205 48 43 164 111 41 147 127 68
200 176 66 193 182 76 199 184 81 189 175 70 193 180 75 187 174 70
192 179 77 197 182 81 196 181 78 197 183 76 208 178 92 193 182 77
200 179 70 185 183 72 191 175 87 149 112 57 94 104 54 76 109 62
76 116 54 90 143 73 99 161 84 91 159 74 76 146 58 90 155 71 93 156 75
83 150 70 93 155 70 96 154 70 127 173 98 131 159 98 196 205 158
195 196 162 197 200 171 193 199 171 195 200 168 195 200 168
195 200 168 195 200 168 195 200 168 195 200 168 195 200 168
195 200 168 195 200 168 195 200 168 195 200 168 195 200 168
195 200 168 195 200 168 195 200 168 195 200 168 195 200 168
195 200 168 195 200 168 195 200 168 195 200 168 195 200 168
195 200 168 195 200 168 189 183 131 189 183 131 189 183 131
189 183 131 189 183 131 189 183 131 189 183 131 189 183 131
189 183 131 189 183 131 189 183 131 189 183 131 189 183 131
189 183 131 189 183 131 189 183 131 187 181 129 193 187 135
197 194 143 201 199 150 201 199 150 199 197 148 198 196 147
200 196 148 199 197 148 199 197 148 199 197 148 199 197 148
199 197 148 199 197 148 199 197 148 199 197 148 202 199 156
208 198 149 192 194 144 198 187 131 117 89 49 121 91 57 125 86 55
77 45 60 64 37 44 64 37 44 64 37 44 64 37 44 64 37 44 64 37 44
64 37 44 64 37 44 49 39 48 65 29 43 70 41 46 75 46 48 56 30 33
68 43 49 47 34 44 67 32 54 65 34 49 67 37 47 71 42 47 61 32 37
69 42 51 70 43 52 62 35 40 66 40 41 65 34 52 66 38 52 65 38 45
65 40 46 60 34 43 62 36 45 67 40 47 61 35 38 67 33 50 57 44 38
68 45 39 124 96 75 123 148 82 211 193 143 192 193 135 171 121 48
136 90 64 122 84 35 168 130 68 171 117 73 209 171 88 201 187 64
197 191 81 194 184 61 201 185 72 201 185 72 201 185 72 201 185 72
201 185 72 201 185 72 201 185 72 201 185 72 205 189 78 207 183 73
187 195 74 184 115 58 184 125 67 174 109 67 206 55 36 193 52 43
180 53 46 202 54 52 202 50 47 190 49 42 190 50 51 198 49 55 197 55 53
177 58 36 185 55 39 200 114 81 211 180 89 180 120 50 188 120 71
155 114 68 195 138 71 198 185 81 201 185 72 201 185 72 201 185 72
201 185 72 201 185 72 201 185 72 201 185 72 201 185 72 208 194 85
203 182 75 198 178 55 200 189 74 178 175 104 177 180 109 191 184 132
195 183 75 194 115 72 185 117 70 181 126 72 172 120 60 185 123 62
175 119 62 95 159 75 101 143 79 80 159 80 98 151 79 83 150 70
83 157 70 99 151 69 83 147 61 133 182 101 193 171 114 160 120 59
161 116 59 196 55 37 190 53 37 190 52 39 193 55 42 189 59 43
192 52 37 175 57 31 196 53 47 202 47 43 213 49 47 199 53 53 183 53 40
202 56 43 196 48 44 197 56 39 191 51 36 187 51 37 200 56 47 193 59 47
179 52 35 178 57 36 189 60 39 188 61 46 209 56 42 194 55 48 196 58 56
190 46 35 190 52 41 208 53 51 200 53 35 184 51 34 193 53 40 184 63 46
187 51 35 186 56 32 194 58 32 212 42 29 188 62 37 202 51 42 189 53 27
187 45 35 191 61 37 159 119 58 151 112 57 195 175 80 202 177 87
201 180 91 191 172 77 205 190 87 196 183 78 198 185 83 198 183 82
193 178 75 193 176 68 195 183 75 197 167 69 189 188 80 189 183 69
197 175 64 214 185 93 150 119 62 81 99 51 91 104 61 86 109 57
102 144 80 99 157 81 96 155 73 91 153 70 91 155 71 94 156 73
105 159 75 115 161 86 138 170 107 158 175 123 197 202 161 198 198 164
192 195 166 199 205 177 195 200 168 195 200 168 195 200 168
195 200 168 195 200 168 195 200 168 195 200 168 195 200 168
195 200 168 195 200 168 195 200 168 195 200 168 195 200 168
195 200 168 195 200 168 195 200 168 195 200 168 195 200 168
195 200 168 195 200 168 195 200 168 195 200 168 195 200 168
195 200 168 189 183 131 189 183 131 189 183 131 189 183 131
189 183 131 189 183 131 189 183 131 189 183 131 189 183 131
189 183 131 189 183 131 189 183 131 189 183 131 189 183 131
189 183 131 189 183 131 189 182 128 191 185 133 195 192 141
199 197 148 200 198 150 199 197 149 198 196 147 199 197 148
199 197 148 199 197 148 199 197 148 199 197 148 199 197 148
199 197 148 199 197 148 199 197 148 194 190 145 206 198 149
190 184 136 192 181 127 124 92 54 136 89 61 124 81 49 61 31 43
64 37 44 64 37 44 64 37 44 64 37 44 64 37 44 64 37 44 64 37 44
64 37 44 64 39 43 63 38 44 62 47 52 58 35 43 67 37 47 68 32 42
70 48 51 58 40 40 73 43 45 54 25 21 69 40 32 74 46 42 61 32 37
61 34 43 68 41 46 62 36 35 67 38 42 65 39 40 61 35 36 65 40 44
59 33 44 64 36 51 71 40 55 64 34 46 70 41 33 59 40 26 120 83 67
122 156 95 212 191 134 183 194 136 191 196 138 182 127 63 127 83 56
128 100 52 113 81 40 191 125 73 182 135 53 203 180 78 192 194 61
207 188 67 201 185 72 201 185 72 201 185 72 201 185 72 201 185 72
201 185 72 201 185 72 201 185 72 202 179 73 194 193 75 185 183 60
196 122 57 171 124 52 169 129 70 188 61 29 189 59 46 187 62 34
182 52 36 189 57 45 190 58 43 187 60 43 180 57 42 185 58 41 189 55 28
174 73 43 174 122 46 173 118 53 170 134 60 166 133 64 177 130 52
188 112 62 197 179 55 201 185 72 201 185 72 201 185 72 201 185 72
201 185 72 201 185 72 201 185 72 201 185 72 193 184 47 199 178 63
215 187 87 200 188 52 194 180 141 190 176 141 202 180 69 177 129 55
164 127 72 181 50 22 191 62 30 174 120 56 162 128 56 171 132 67
186 115 73 74 110 40 89 108 44 89 152 73 87 159 77 93 156 77
88 162 75 99 157 72 166 172 100 165 131 70 159 119 60 159 114 59
194 55 36 191 55 39 192 56 42 191 53 40 187 56 38 195 55 40 190 66 58
196 50 37 189 54 22 184 54 20 195 52 36 190 56 45 189 62 45 194 51 35
190 55 36 197 60 44 191 58 43 199 50 43 194 56 45 194 52 40 194 63 45
190 55 36 191 57 22 185 173 91 196 47 27 189 53 41 194 58 42
195 50 45 200 51 55 177 57 41 205 52 44 191 64 49 197 63 52 198 47 40
187 58 37 185 67 41 189 49 32 190 57 40 189 54 50 193 56 40 207 62 57
158 106 58 156 112 67 159 111 63 150 119 55 149 114 50 147 117 47
151 125 41 191 171 72 191 177 70 194 181 77 196 181 80 196 182 77
200 183 75 192 181 63 190 191 74 201 178 76 200 178 76 203 184 81
190 167 71 187 178 87 152 122 49 75 108 51 77 113 52 91 148 79
86 153 76 103 157 81 99 150 71 101 150 69 131 168 91 121 162 86
135 167 102 153 173 122 194 202 161 190 192 155 203 204 170
194 197 166 197 201 174 195 200 168 195 200 168 195 200 168
195 200 168 195 200 168 195 200 168 195 200 168 195 200 168
195 200 168 195 200 168 195 200 168 195 200 168 195 200 168
195 200 168 195 200 168 195 200 168 195 200 168 195 200 168
195 200 168 195 200 168 195 200 168 195 200 168 195 200 168
195 200 168 189 183 131 189 183 131 189 183 131 189 183 131
189 183 131 189 183 131 189 183 131 189 183 131 189 183 131
189 183 131 189 183 131 189 183 131 189 183 131 189 183 131
189 183 131 189 183 131 190 183 129 190 184 132 192 189 138
197 195 146 200 198 150 198 197 149 198 196 147 199 197 148
199 197 148 199 197 148 199 197 148 199 197 148 199 197 148
199 197 148 199 197 148 199 197 148 205 201 154 197 196 142
182 174 127 196 191 136 116 86 50 139 81 57 135 97 61 60 38 41
64 37 44 64 37 44 64 37 44 64 37 44 64 37 44 64 37 44 64 37 44
64 37 44 71 29 49 59 46 53 51 29 31 63 38 34 67 44 38 64 34 34
73 32 40 57 38 42 116 88 64 123 98 67 118 93 62 116 91 71 65 37 36
59 32 41 73 46 55 61 35 38 61 35 36 62 36 37 64 38 41 70 43 52
65 37 51 66 36 48 59 28 34 72 40 41 134 80 56 123 100 68 121 166 99
197 188 131 196 195 141 208 184 138 190 188 127 136 156 87 134 91 48
121 84 58 125 98 68 177 121 60 163 120 52 167 126 60 201 183 73
210 176 78 201 185 72 201 185 72 201 185 72 201 185 72 201 185 72
201 185 72 201 185 72 201 185 72 208 189 84 188 179 62 210 190 67
201 182 88 177 129 47 182 123 65 167 123 62 176 63 47 175 59 59
92 37 40 65 44 49 77 38 41 85 37 37 66 40 39 62 47 44 76 45 40
75 33 43 166 135 55 184 124 52 164 123 67 169 126 58 178 124 62
182 118 44 200 194 84 201 185 72 201 185 72 201 185 72 201 185 72
201 185 72 201 185 72 201 185 72 201 185 72 202 186 75 211 190 85
201 181 66 196 186 75 186 172 127 203 172 118 186 114 66 171 62 33
189 49 22 203 73 49 186 57 38 196 45 36 197 61 47 199 46 32 178 57 28
181 130 73 149 110 51 116 149 70 98 155 74 96 139 67 101 153 78
131 163 90 196 176 115 177 128 72 154 113 57 155 112 59 194 54 37
194 58 42 194 58 44 191 51 36 186 53 34 198 57 40 188 46 42 191 52 33
190 67 33 180 64 27 195 60 38 192 52 37 183 54 35 192 56 34 183 56 37
189 49 34 188 55 38 201 49 38 198 58 43 202 44 35 194 54 39 190 54 38
161 118 49 201 181 95 144 124 53 196 66 42 184 50 21 182 60 36
196 53 47 186 53 34 200 52 38 185 45 32 192 51 41 194 58 46 196 48 36
192 49 33 183 60 42 201 52 45 174 59 40 195 54 45 150 115 49
150 115 61 141 109 48 160 123 71 161 104 59 153 120 66 152 112 63
156 123 52 204 180 84 201 184 76 198 184 77 194 179 76 192 178 73
196 179 71 191 183 76 193 181 69 192 180 68 208 176 75 198 178 83
184 189 87 199 184 81 205 172 67 119 173 89 100 152 70 92 167 82
74 160 73 84 148 70 92 153 75 95 154 72 130 171 93 141 168 101
156 174 122 192 200 163 196 199 168 203 207 174 191 197 161
201 207 173 191 196 166 195 200 168 195 200 168 195 200 168
195 200 168 195 200 168 195 200 168 195 200 168 195 200 168
195 200 168 195 200 168 195 200 168 195 200 168 195 200 168
195 200 168 195 200 168 195 200 168 195 200 168 195 200 168
195 200 168 195 200 168 195 200 168 195 200 168 195 200 168
195 200 168 189 183 131 189 183 131 189 183 131 189 183 131
189 183 131 189 183 131 189 183 131 189 183 131 189 183 131
189 183 131 189 183 131 189 183 131 189 183 131 189 183 131
189 183 131 189 183 131 189 182 128 188 182 130 189 186 135
195 193 144 198 197 149 198 197 149 198 196 148 199 197 148
199 197 148 199 197 148 199 197 148 199 197 148 199 197 148
199 197 148 199 197 148 199 197 148 197 200 147 197 194 139
200 202 153 184 181 128 119 89 55 140 89 62 123 83 47 54 43 39
64 37 44 64 37 44 64 37 44 64 37 44 64 37 44 64 37 44 64 37 44
64 37 44 64 40 36 66 34 39 77 36 54 58 37 54 69 35 52 63 44 46
63 34 26 129 87 75 118 94 46 209 186 134 161 139 89 119 94 63
69 42 35 64 37 46 62 34 46 62 35 42 67 39 54 64 36 50 65 37 51
61 33 47 64 34 44 71 41 43 69 39 28 119 88 67 124 89 47 198 193 138
193 190 121 199 191 129 198 189 148 177 198 133 185 201 128
130 160 106 133 86 60 130 83 53 116 88 48 142 91 72 123 89 44
178 124 60 171 128 73 173 122 57 201 185 72 201 185 72 201 185 72
201 185 72 201 185 72 201 185 72 201 185 72 201 185 72 215 175 77
182 199 71 212 188 62 201 177 79 194 180 81 177 128 62 175 116 60
139 85 49 128 88 52 68 39 33 68 40 55 79 39 48 77 43 42 66 45 50
68 42 55 81 34 50 76 35 53 77 48 44 69 42 51 130 83 53 183 122 67
108 99 66 176 125 62 172 121 64 201 185 72 201 185 72 201 185 72
201 185 72 201 185 72 201 185 72 201 185 72 201 185 72 202 183 80
202 181 76 200 190 67 191 192 75 190 178 128 170 125 66 172 65 31
207 46 52 191 55 43 188 52 40 199 47 42 186 54 41 188 56 43 198 51 41
194 57 41 183 57 35 174 127 59 162 128 64 124 165 86 128 175 103
191 173 125 184 182 125 175 186 118 180 112 65 156 115 59 157 114 61
192 52 35 187 51 35 192 56 42 196 56 41 189 56 37 197 54 37 206 55 34
183 57 35 192 50 49 195 48 54 189 57 44 192 49 33 207 59 47 184 53 33
197 57 42 200 50 36 193 64 43 187 50 32 181 61 37 203 51 38 195 55 38
191 55 39 177 55 42 206 54 41 193 46 38 199 44 42 200 59 39 186 57 35
185 55 41 208 53 35 188 56 33 195 62 43 190 50 37 194 52 40 196 59 43
188 55 36 191 58 43 194 51 43 200 55 26 156 114 66 187 180 73
186 188 115 202 175 86 151 111 50 156 120 60 156 111 56 156 110 74
156 118 56 200 174 81 196 178 68 195 181 72 194 180 75 194 180 75
198 181 73 195 180 77 193 179 82 197 178 83 193 180 75 192 183 64
196 186 65 187 175 65 200 180 85 199 178 99 137 117 44 122 138 63
130 172 96 129 162 93 133 174 104 114 168 92 130 168 95 152 170 110
193 202 157 196 199 168 200 200 174 191 196 164 197 205 168
190 198 161 197 202 170 195 200 168 195 200 168 195 200 168
195 200 168 195 200 168 195 200 168 195 200 168 195 200 168
195 200 168 195 200 168 195 200 168 195 200 168 195 200 168
195 200 168 195 200 168 195 200 168 195 200 168 195 200 168
195 200 168 195 200 168 195 200 168 195 200 168 195 200 168
195 200 168 189 183 131 189 183 131 189 183 131 189 183 131
189 183 131 189 183 131 189 183 131 189 183 131 189 183 131
189 183 131 189 183 131 189 183 131 189 183 131 189 183 131
189 183 131 189 183 131 186 183 130 187 184 131 190 184 134
189 183 133 205 199 149 200 197 146 198 196 147 196 196 146
196 196 144 195 195 143 202 200 149 197 197 147 194 203 150
196 205 152 190 194 143 199 201 151 200 203 150 202 194 145
195 198 145 199 185 140 175 182 130 123 88 50 124 95 55 117 95 54
67 41 44 60 36 32 63 43 36 59 38 37 63 37 48 60 32 46 65 34 42
68 36 39 62 39 47 62 36 45 61 34 43 68 39 43 66 36 34 119 90 84
64 35 31 68 38 36 61 33 47 63 39 52 66 40 49 62 35 40 62 37 41
66 41 47 59 33 36 63 40 32 68 32 58 63 40 48 68 32 36 69 35 60
63 43 36 132 85 55 123 88 68 127 165 92 197 190 136 196 189 135
198 188 135 182 196 135 185 193 134 197 187 134 196 199 142
189 192 135 121 162 84 117 92 51 134 93 65 129 90 59 115 86 54
147 84 66 136 88 50 167 123 62 201 185 72 201 185 72 201 185 72
201 185 72 201 185 72 201 185 72 201 185 72 201 185 72 202 188 83
201 188 57 196 181 64 203 187 74 202 185 93 199 182 66 168 137 55
131 85 49 73 44 46 72 43 48 71 40 48 74 41 48 73 41 44 69 39 41
71 42 47 67 40 49 75 38 45 68 51 44 68 41 50 71 40 37 114 98 64
132 94 83 171 118 50 174 132 46 168 123 58 218 192 82 194 182 64
201 191 80 200 186 64 203 184 64 207 189 81 198 185 70 199 185 78
201 185 64 193 186 56 193 193 79 184 119 55 189 59 35 178 57 36
205 53 42 183 54 48 190 55 36 193 61 46 205 45 47 194 48 25 187 62 42
196 53 49 200 48 37 185 58 43 172 128 57 191 176 119 188 175 120
183 182 136 181 174 130 188 177 113 183 184 127 154 117 62 164 111 59
184 52 27 187 63 39 188 61 44 190 41 34 189 56 41 196 56 41 203 55 43
190 53 37 189 52 36 188 52 36 196 59 43 193 51 37 194 58 42 195 55 40
194 52 38 192 55 39 183 62 41 181 59 38 176 57 35 202 54 42 191 48 34
188 61 42 192 55 39 192 55 39 192 55 39 192 55 39 192 55 39 192 55 39
192 55 39 192 55 39 198 51 44 190 61 40 187 57 31 194 58 36 195 52 36
182 68 44 186 45 25 163 117 58 147 117 63 184 178 128 190 197 166
202 200 175 190 188 127 184 176 137 186 171 90 160 123 43 154 113 61
152 116 56 198 172 87 200 184 73 198 186 74 193 179 80 193 177 79
200 184 71 195 180 77 196 182 77 198 181 73 197 180 72 197 180 76
195 180 77 194 182 74 193 183 72 187 183 76 160 115 56 137 121 62
96 147 54 97 156 64 129 170 91 140 167 100 156 168 120 195 200 168
195 200 168 195 200 168 195 200 168 195 200 168 195 200 168
195 200 168 195 200 168 195 200 168 195 200 168 195 200 168
195 200 168 195 200 168 195 200 168 195 200 168 195 200 168
195 200 168 195 200 168 195 200 168 195 200 168 195 200 168
195 200 168 195 200 168 195 200 168 195 200 168 195 200 168
195 200 168 195 200 168 195 200 168 195 200 168 195 200 168
195 200 168 189 183 131 189 183 131 189 183 131 189 183 131
189 183 131 189 183 131 189 183 131 189 183 131 189 183 131
189 183 131 189 183 131 189 183 131 189 183 131 189 183 131
189 183 131 189 183 131 190 187 134 187 181 129 192 186 136
188 182 132 187 181 131 188 185 134 196 194 145 204 204 154
206 198 151 206 198 151 197 199 149 199 199 149 206 192 147
205 188 144 203 192 146 206 195 149 203 189 144 191 198 146
204 202 153 183 198 143 219 176 141 188 188 138 126 91 53 152 72 49
68 30 51 68 34 50 69 39 49 60 34 47 67 43 59 66 42 58 64 41 51
62 37 41 61 38 46 61 35 46 69 41 56 66 35 50 70 38 49 66 35 41
64 34 42 71 41 51 68 42 41 62 36 39 62 35 40 66 39 46 67 40 47
65 37 49 62 36 49 66 38 52 59 38 47 57 43 30 70 44 31 58 40 38
131 79 65 128 89 50 121 159 100 189 195 131 183 191 132 196 197 140
184 194 134 197 194 139 212 192 142 188 196 137 201 183 133
200 190 137 197 199 124 175 120 79 134 80 44 117 89 42 115 98 52
127 86 54 112 92 42 182 127 71 201 185 72 201 185 72 201 185 72
201 185 72 201 185 72 201 185 72 201 185 72 201 185 72 197 180 74
206 191 72 206 191 76 200 185 68 195 181 72 204 185 80 202 178 68
132 88 63 66 37 41 76 47 52 72 41 47 70 37 44 77 45 50 77 47 49
74 45 50 74 44 52 74 44 46 71 35 37 75 48 53 63 45 31 73 42 37
122 91 71 120 87 70 168 128 69 175 127 65 195 165 67 202 187 72
202 190 78 199 184 69 202 183 65 204 187 73 197 184 70 200 178 66
205 191 82 198 184 77 209 185 87 178 118 55 187 58 39 198 51 44
194 55 36 200 47 42 196 68 43 186 48 35 181 57 29 187 67 42 180 55 25
180 63 45 192 60 39 191 53 42 188 113 58 186 181 125 182 180 131
207 209 170 196 207 165 195 180 125 183 177 129 163 127 75 157 107 56
171 110 63 204 42 31 193 49 38 189 63 48 196 58 45 191 50 33
193 51 37 196 53 39 182 63 41 192 50 36 192 49 35 180 58 37 196 53 39
191 54 38 198 56 42 187 51 35 198 55 41 193 60 43 201 50 39 200 58 44
199 51 39 187 58 39 192 55 39 192 55 39 192 55 39 192 55 39 192 55 39
192 55 39 192 55 39 192 55 39 185 52 33 183 67 42 194 43 34 182 56 44
153 110 75 155 112 67 171 121 58 184 169 76 189 174 119 204 198 174
205 213 174 196 202 166 201 196 174 182 174 111 205 188 80 149 105 68
157 116 64 151 115 55 209 183 99 193 176 68 197 185 73 193 179 80
192 176 78 197 181 70 195 181 76 195 181 74 195 181 74 194 180 75
194 179 76 195 180 79 195 180 77 194 180 75 209 182 79 189 178 89
144 164 103 136 171 115 148 173 105 160 172 122 183 194 164
191 204 158 195 200 168 195 200 168 195 200 168 195 200 168
195 200 168 195 200 168 195 200 168 195 200 168 195 200 168
195 200 168 195 200 168 195 200 168 195 200 168 195 200 168
195 200 168 195 200 168 195 200 168 195 200 168 195 200 168
195 200 168 195 200 168 195 200 168 195 200 168 195 200 168
195 200 168 195 200 168 195 200 168 195 200 168 195 200 168
195 200 168 195 200 168 195 200 168 189 183 131 189 183 131
189 183 131 189 183 131 189 183 131 189 183 131 189 183 131
189 183 131 189 183 131 189 183 131 189 183 131 189 183 131
189 183 131 189 183 131 189 183 131 189 183 131 190 184 132
182 176 124 190 184 132 191 185 135 189 183 133 200 197 146
198 196 145 198 198 146 175 175 125 208 208 158 199 195 147
191 187 139 204 202 153 205 203 154 205 201 153 200 196 148
198 211 158 194 192 144 213 192 149 212 195 151 180 195 140
182 182 132 187 187 137 133 163 103 124 80 55 136 96 70 117 83 58
70 43 26 59 34 29 57 35 37 61 39 42 59 37 39 62 42 35 57 36 35
65 39 48 66 38 52 65 35 47 69 39 49 62 32 42 61 33 45 64 40 40
71 34 41 65 38 47 63 40 50 67 34 43 63 34 39 61 41 50 64 32 53
74 40 41 123 88 60 110 83 54 123 167 114 124 163 98 208 186 136
202 194 132 200 190 131 195 200 142 193 186 132 210 182 135
191 190 134 186 185 129 187 191 132 199 192 137 185 189 130
188 171 79 181 130 64 180 125 68 179 118 64 132 102 50 125 84 52
136 85 56 176 114 75 201 185 72 201 185 72 201 185 72 201 185 72
201 185 72 201 185 72 201 185 72 201 185 72 199 183 72 200 183 75
203 186 78 200 188 70 199 185 60 204 185 83 208 189 68 121 81 73
71 42 46 72 41 46 72 41 47 72 39 46 72 40 45 68 37 42 68 37 42
72 43 47 70 40 48 85 43 47 71 38 59 67 49 29 73 41 46 66 39 44
117 100 80 124 93 65 177 127 68 168 132 48 206 188 76 201 188 74
198 181 75 203 183 68 203 187 66 198 184 75 204 190 81 188 178 65
207 184 90 179 116 63 199 58 41 177 59 29 186 60 35 188 50 40
193 57 35 187 51 39 187 57 23 188 113 71 189 120 65 171 127 78
178 116 59 195 52 36 200 51 45 181 68 34 179 178 122 192 204 164
208 213 183 180 204 168 192 180 132 184 172 130 193 172 119
150 120 66 152 117 63 191 54 35 198 62 46 192 50 38 187 51 35
195 58 39 195 52 38 181 62 40 192 63 44 206 54 43 204 52 41 190 59 41
180 59 38 196 53 39 197 60 44 187 47 32 195 55 40 197 54 40 194 48 35
193 53 38 193 57 41 194 52 38 192 55 39 192 55 39 192 55 39 192 55 39
192 55 39 192 55 39 192 55 39 192 55 39 213 43 52 187 54 39 202 58 34
162 113 54 149 110 53 160 109 64 169 184 117 199 187 127 204 202 177
202 201 173 194 203 158 191 207 158 201 204 175 195 179 130
147 115 58 159 120 51 155 114 60 148 112 54 143 116 37 195 178 72
187 175 63 205 192 90 194 179 78 196 180 69 197 180 72 195 181 74
193 180 75 193 180 76 194 181 79 197 179 79 198 179 77 200 178 76
201 163 78 197 209 145 171 204 161 189 200 168 203 199 172
190 189 159 202 204 165 199 205 159 195 200 168 195 200 168
195 200 168 195 200 168 195 200 168 195 200 168 195 200 168
195 200 168 195 200 168 195 200 168 195 200 168 195 200 168
195 200 168 195 200 168 195 200 168 195 200 168 195 200 168
195 200 168 195 200 168 195 200 168 195 200 168 195 200 168
195 200 168 195 200 168 195 200 168 195 200 168 195 200 168
195 200 168 195 200 168 195 200 168 195 200 168 195 200 168
189 183 131 189 183 131 189 183 131 189 183 131 189 183 131
189 183 131 189 183 131 189 183 131 189 183 131 189 183 131
189 183 131 189 183 131 189 183 131 189 183 131 189 183 131
189 183 131 189 182 130 189 182 130 193 186 134 190 184 132
185 179 129 200 197 146 192 190 139 197 195 144 201 190 144
180 178 129 191 178 133 213 196 152 195 198 145 190 193 140
204 198 148 188 195 141 184 197 144 193 195 146 198 202 152
204 196 149 210 197 152 202 194 147 194 203 150 180 184 133
185 193 133 169 181 119 144 162 100 132 156 94 132 160 99 105 135 75
98 129 69 110 141 81 135 118 88 116 98 78 60 37 31 68 42 45 54 27 32
64 38 41 75 49 50 62 37 40 69 28 46 60 41 47 66 32 46 70 29 47
63 44 46 62 39 33 76 37 38 59 39 48 61 33 30 143 153 100 195 193 145
215 183 136 191 193 130 181 201 138 195 191 120 191 199 142
202 178 130 188 204 141 177 191 129 203 196 141 176 123 83 189 57 44
188 58 44 183 62 45 192 66 43 192 50 38 166 122 75 169 127 67
178 119 63 172 125 71 166 125 63 176 122 48 201 185 72 201 185 72
201 185 72 201 185 72 201 185 72 201 185 72 201 185 72 201 185 72
207 190 76 199 182 76 195 181 76 199 186 72 200 187 57 201 183 75
156 134 48 82 48 49 74 45 49 65 34 39 72 41 46 76 45 50 73 40 47
75 43 48 74 42 43 69 38 36 70 40 38 69 37 48 70 31 50 80 47 42
69 45 45 62 37 59 117 97 44 120 96 62 176 121 64 161 121 49
205 184 75 198 186 68 199 179 80 206 186 73 202 187 60 200 186 79
200 189 63 173 120 40 166 135 71 182 119 68 180 45 23 200 62 52
194 51 43 200 55 36 183 51 28 208 58 44 170 122 74 206 177 97
189 171 121 188 182 106 154 129 63 197 60 41 197 46 37 190 58 37
189 172 118 194 211 177 195 197 173 187 208 177 200 206 158
186 178 139 186 174 124 187 186 129 149 103 54 155 112 61 199 45 33
185 54 36 201 58 42 189 52 33 200 54 41 189 56 39 205 48 39 175 53 32
178 57 36 202 50 39 193 57 41 201 49 38 193 56 40 190 53 37 195 58 42
184 59 39 190 50 35 178 57 36 188 59 40 198 50 38 192 55 39 192 55 39
192 55 39 192 55 39 192 55 39 192 55 39 192 55 39 192 55 39 184 50 47
203 60 43 148 115 38 206 171 90 178 193 112 189 178 132 197 197 171
192 199 183 193 203 178 199 200 169 197 201 166 195 210 179
195 199 174 194 179 84 158 116 56 152 106 70 159 116 63 155 116 59
157 127 54 198 180 78 198 185 73 186 173 71 198 183 82 199 182 74
197 180 72 194 180 75 193 180 76 194 183 78 195 182 77 196 182 75
200 179 74 202 179 75 196 183 91 189 210 153 197 211 175 204 192 166
198 199 185 192 205 188 194 194 170 204 195 178 195 200 168
195 200 168 195 200 168 195 200 168 195 200 168 195 200 168
195 200 168 195 200 168 195 200 168 195 200 168 195 200 168
195 200 168 195 200 168 195 200 168 195 200 168 195 200 168
195 200 168 195 200 168 195 200 168 195 200 168 195 200 168
195 200 168 195 200 168 195 200 168 195 200 168 195 200 168
195 200 168 195 200 168 195 200 168 195 200 168 195 200 168
195 200 168 189 183 131 189 183 131 189 183 131 189 183 131
189 183 131 189 183 131 189 183 131 189 183 131 189 183 131
189 183 131 189 183 131 189 183 131 189 183 131 189 183 131
189 183 131 189 183 131 191 184 132 190 183 131 187 181 129
191 185 133 192 189 136 196 193 142 179 176 125 186 183 132
182 197 142 188 182 134 194 188 138 190 188 137 188 180 131
185 185 131 179 188 131 193 186 134 193 180 135 204 193 147
195 205 152 190 199 146 194 192 143 207 194 149 190 195 141
197 204 150 201 193 147 203 196 150 194 192 144 191 193 143
203 206 151 196 199 142 199 199 145 194 193 139 105 88 58 67 46 27
65 42 36 63 37 40 68 41 46 65 39 42 57 32 35 64 39 42 66 36 48
79 45 44 68 40 37 54 29 35 75 42 51 65 37 33 57 36 31 67 37 49
61 42 44 125 94 63 194 192 143 185 187 122 189 195 135 190 201 145
193 184 119 191 186 144 191 190 133 197 198 140 202 189 136 191 49 39
191 58 43 189 51 38 187 49 36 201 53 43 195 52 46 191 41 43 190 56 45
182 61 30 177 121 64 169 122 66 178 129 63 191 124 46 201 185 72
201 185 72 201 185 72 201 185 72 201 185 72 201 185 72 201 185 72
201 185 72 204 184 71 204 189 74 198 185 80 198 184 77 206 187 69
216 195 78 109 79 53 69 38 44 73 42 48 72 42 44 73 43 45 68 37 42
73 42 50 79 46 53 71 40 38 76 43 34 111 96 57 85 55 47 77 39 36
71 35 49 73 41 44 75 46 50 120 92 53 162 127 63 174 119 62 180 141 66
203 182 73 197 185 67 200 180 81 208 188 76 201 186 59 200 186 81
203 185 75 211 186 85 155 136 57 194 53 43 201 56 51 197 50 30
186 56 30 191 52 45 197 58 35 189 51 48 181 119 62 189 186 119
183 187 113 176 175 118 188 116 58 191 55 43 201 56 39 187 56 36
169 128 72 197 210 182 211 210 182 196 204 180 185 213 162
203 205 165 184 183 135 189 168 121 176 191 124 164 129 75 187 58 37
201 60 43 176 60 35 207 49 37 189 60 41 188 52 36 199 51 39 204 50 40
207 59 47 188 48 33 190 57 40 192 55 39 182 55 36 205 53 42 185 60 40
195 53 39 192 59 42 201 53 41 182 60 39 198 50 38 192 55 39 192 55 39
192 55 39 192 55 39 192 55 39 192 55 39 192 55 39 192 55 39 196 57 34
178 64 28 153 113 54 181 187 123 205 200 160 208 196 172 207 202 180
201 207 179 192 208 172 202 201 173 206 202 175 199 208 181
193 197 164 195 181 74 159 118 54 159 108 77 157 112 57 153 112 58
198 168 98 196 176 79 201 187 78 191 178 74 195 180 79 198 181 75
198 181 77 194 179 76 194 181 79 195 182 77 195 183 71 194 181 67
196 179 71 197 180 76 200 200 164 188 200 164 209 201 190 201 188 172
181 201 152 190 213 171 192 195 168 199 202 155 195 200 168
195 200 168 195 200 168 195 200 168 195 200 168 195 200 168
195 200 168 195 200 168 195 200 168 195 200 168 195 200 168
195 200 168 195 200 168 195 200 168 195 200 168 195 200 168
195 200 168 195 200 168 195 200 168 195 200 168 195 200 168
195 200 168 195 200 168 195 200 168 195 200 168 195 200 168
195 200 168 195 200 168 195 200 168 195 200 168 195 200 168
195 200 168 189 183 131 189 183 131 189 183 131 189 183 131
189 183 131 189 183 131 189 183 131 189 183 131 189 183 131
189 183 131 189 183 131 189 183 131 189 183 131 189 183 131
189 183 131 189 183 131 189 184 129 187 182 127 184 178 126
192 189 136 198 192 140 191 185 133 187 179 130 196 188 139
187 185 134 137 95 57 104 88 39 127 92 50 188 50 40 203 51 46
181 66 47 197 48 41 140 88 51 194 187 135 175 180 124 206 194 146
202 207 153 197 202 148 203 197 147 203 195 146 202 199 144
198 195 144 196 194 146 201 199 151 201 199 150 194 187 141
206 194 156 196 181 148 72 49 41 60 36 36 61 34 43 65 34 50 73 42 57
56 28 42 65 37 51 63 37 50 61 42 35 115 81 53 114 96 58 61 44 34
67 29 44 65 34 42 58 42 45 74 36 61 59 35 48 55 34 17 202 199 148
198 198 136 201 182 140 194 188 140 196 211 142 195 186 147
207 191 139 190 183 128 126 94 47 188 56 41 176 66 43 192 59 42
195 59 43 192 49 35 177 65 28 195 65 43 202 56 41 184 50 25 204 59 42
195 46 40 165 127 80 170 121 63 201 185 72 201 185 72 201 185 72
201 185 72 201 185 72 201 185 72 201 185 72 201 185 72 202 182 69
200 188 68 197 185 75 204 186 84 208 184 76 203 176 69 80 42 53
76 47 52 70 39 45 79 49 51 72 42 42 64 33 38 76 44 55 67 34 43
71 37 35 129 96 81 190 190 130 163 123 64 79 44 48 60 39 44 89 42 50
68 34 33 123 102 83 180 123 54 175 125 62 205 169 83 202 184 72
198 185 70 201 184 78 207 187 74 200 184 63 198 184 77 202 181 62
210 173 82 173 129 58 180 120 58 183 60 29 197 54 46 201 46 42
199 58 38 193 49 38 185 64 43 196 49 41 158 117 53 187 186 130
176 125 70 207 61 48 194 52 38 192 53 32 189 59 43 172 118 56
195 201 175 198 198 164 205 207 183 191 223 174 190 200 163
202 203 159 185 179 129 195 172 118 179 184 117 193 52 34 193 56 38
178 53 33 206 54 41 182 53 34 191 66 46 202 51 40 182 57 37 178 62 39
181 48 31 189 68 47 188 51 35 182 60 39 206 49 40 181 48 31 185 60 40
199 51 39 210 47 40 190 54 38 192 55 39 192 55 39 192 55 39 192 55 39
192 55 39 192 55 39 192 55 39 192 55 39 192 55 39 189 63 40 190 40 26
154 123 77 183 175 136 203 202 174 200 198 173 189 215 170
184 202 150 196 208 170 197 196 175 205 201 174 196 201 161
200 202 163 192 181 115 139 108 44 161 117 54 156 111 56 152 111 59
161 127 63 198 178 83 188 174 65 206 193 88 192 177 76 197 180 74
196 181 78 195 180 79 197 179 79 196 182 75 194 181 67 190 180 67
191 181 83 194 184 97 198 202 165 195 198 169 204 202 177 201 209 168
189 207 159 196 201 171 198 199 181 182 201 169 195 200 168
195 200 168 195 200 168 195 200 168 195 200 168 195 200 168
195 200 168 195 200 168 195 200 168 195 200 168 195 200 168
195 200 168 195 200 168 195 200 168 195 200 168 195 200 168
195 200 168 195 200 168 195 200 168 195 200 168 195 200 168
195 200 168 195 200 168 195 200 168 195 200 168 195 200 168
195 200 168 195 200 168 195 200 168 195 200 168 195 200 168
195 200 168 189 183 131 189 183 131 189 183 131 189 183 131
189 183 131 189 183 131 189 183 131 189 183 131 189 183 131
189 183 131 189 183 131 189 183 131 189 183 131 189 183 131
189 183 131 189 183 131 185 182 127 190 187 132 190 187 132
188 185 132 180 174 122 180 173 121 201 189 139 190 178 128 140 81 47
185 52 43 191 54 44 183 61 46 198 51 43 181 58 40 176 61 40 220 40 41
188 54 42 195 53 43 178 61 43 194 187 133 206 190 141 188 201 145
194 184 135 209 203 155 197 199 152 198 201 156 194 200 154
189 196 144 194 200 140 200 205 141 183 183 123 103 100 47 62 35 42
62 34 46 67 36 52 63 32 48 61 31 43 76 46 56 61 33 45 67 39 54
119 86 81 154 160 100 203 185 121 128 91 73 58 47 55 63 37 50
80 32 46 55 35 47 73 31 51 55 51 42 180 191 131 199 188 132
201 181 146 190 189 133 188 190 127 193 193 143 191 189 132
163 129 83 186 48 35 203 59 48 173 59 35 189 52 36 195 55 38
178 59 35 182 57 35 182 45 37 198 53 48 191 55 39 181 56 34 197 53 42
187 116 70 169 130 55 201 185 72 201 185 72 201 185 72 201 185 72
201 185 72 201 185 72 201 185 72 201 185 72 207 187 74 198 185 71
193 184 65 203 184 81 204 176 69 169 134 52 77 38 39 67 38 40
69 38 44 71 41 41 73 43 41 72 41 46 79 47 58 70 37 46 83 48 44
149 116 97 194 192 141 165 120 65 78 41 58 68 55 46 76 33 40 78 46 59
106 92 55 178 115 62 175 127 61 211 182 80 203 188 71 197 185 73
202 187 72 205 185 70 200 182 72 198 184 75 199 191 80 200 188 70
210 173 69 161 133 50 197 57 34 183 57 34 182 56 34 196 54 42
202 49 43 192 56 40 184 58 33 195 68 53 171 122 63 196 48 36
199 47 36 181 52 33 202 63 44 185 48 40 174 125 56 211 213 189
198 205 164 192 202 177 199 211 175 196 207 177 200 207 163
186 180 130 205 169 119 173 130 79 182 56 33 211 46 40 185 60 40
190 50 35 198 55 41 195 44 33 203 49 39 188 179 120 176 181 117
197 66 48 188 48 33 205 54 43 191 58 41 190 53 37 186 59 40
155 119 69 197 60 44 184 55 36 201 47 37 186 59 40 192 55 39
192 55 39 192 55 39 192 55 39 192 55 39 192 55 39 192 55 39 192 55 39
206 50 51 189 55 43 201 50 39 161 107 69 200 197 154 198 210 172
200 199 168 215 200 171 196 205 160 196 199 182 208 209 177
200 199 169 203 201 186 177 180 123 192 184 75 154 113 69 163 116 60
161 117 68 143 109 46 203 182 91 192 178 69 186 173 68 196 181 80
197 183 78 195 183 75 194 179 76 198 179 77 200 179 74 196 179 71
190 180 82 191 188 111 197 196 139 199 204 172 203 198 194
191 201 176 192 212 161 196 200 167 199 192 164 201 206 165
189 205 166 195 200 168 195 200 168 195 200 168 195 200 168
195 200 168 195 200 168 195 200 168 195 200 168 195 200 168
195 200 168 195 200 168 195 200 168 195 200 168 195 200 168
195 200 168 195 200 168 195 200 168 195 200 168 195 200 168
195 200 168 195 200 168 195 200 168 195 200 168 195 200 168
195 200 168 195 200 168 195 200 168 195 200 168 195 200 168
195 200 168 195 200 168 195 200 168 189 183 131 189 183 131
189 183 131 189 183 131 189 183 131 189 183 131 189 183 131
189 183 131 189 183 131 189 183 131 189 183 131 189 183 131
189 183 131 189 183 131 189 183 131 189 183 131 187 184 129
186 185 129 184 183 127 185 182 129 189 183 131 199 189 138
192 178 129 112 96 47 190 53 43 193 61 49 182 56 41 188 56 43
199 52 42 194 50 39 188 63 43 175 65 40 184 59 39 189 53 39 183 56 39
182 61 44 203 175 128 198 201 146 194 212 154 200 189 143 205 196 137
198 191 139 200 196 149 204 200 153 201 198 147 198 191 145
161 151 116 56 41 18 61 34 41 71 41 51 62 32 42 71 40 46 69 39 41
63 35 32 60 34 35 66 40 43 60 44 45 110 88 38 161 153 78 105 94 62
71 35 49 60 30 40 60 43 35 73 39 37 77 30 50 63 34 39 129 167 92
188 194 132 200 187 152 189 202 133 203 184 126 192 196 135
200 191 136 128 91 46 192 59 44 186 46 33 205 54 43 182 68 42
190 50 33 175 123 76 187 121 71 194 52 40 174 67 47 185 56 37
192 56 42 193 59 48 172 58 31 187 123 59 201 185 72 201 185 72
201 185 72 201 185 72 201 185 72 201 185 72 201 185 72 201 185 72
201 181 68 200 186 79 198 190 66 203 185 77 211 181 71 170 130 71
121 85 59 75 47 46 76 43 50 67 37 37 78 48 46 71 40 45 67 35 48
78 42 52 73 38 32 79 44 24 113 99 60 87 41 54 73 38 36 63 44 38
72 46 55 60 39 44 122 103 47 175 121 74 171 126 58 205 179 66
202 190 68 194 184 73 202 188 66 203 184 66 203 184 81 199 186 74
190 183 69 201 189 71 201 189 69 209 175 77 180 125 61 201 50 41
182 55 40 193 56 37 190 57 48 185 56 27 198 52 39 196 48 36 199 49 25
177 67 34 197 52 47 192 60 37 193 51 37 197 48 50 171 133 58
195 197 175 200 213 169 189 212 183 200 192 169 199 207 184
178 181 138 190 176 131 170 179 114 192 56 34 196 59 40 191 45 32
192 62 46 191 53 40 189 53 37 193 60 43 171 59 35 195 180 123
181 181 119 188 104 70 188 67 46 191 49 35 187 56 38 203 49 39
160 113 67 184 175 116 148 115 64 195 55 40 184 57 38 194 54 39
192 55 39 192 55 39 192 55 39 192 55 39 192 55 39 192 55 39 192 55 39
192 55 39 186 53 38 196 60 38 175 63 26 154 115 60 191 177 132
193 209 172 195 203 180 195 200 180 200 201 183 194 207 164
192 200 159 207 203 178 197 201 166 190 197 190 190 190 116
197 172 71 157 110 54 154 110 61 149 115 54 203 179 89 196 182 73
195 181 74 197 182 81 194 180 75 193 183 72 194 180 75 199 177 76
202 179 75 197 180 76 194 184 97 196 195 138 203 207 174 195 206 166
202 201 170 192 205 177 191 208 174 207 203 168 205 198 179
194 197 180 201 197 162 195 200 168 195 200 168 195 200 168
195 200 168 195 200 168 195 200 168 195 200 168 195 200 168
195 200 168 195 200 168 195 200 168 195 200 168 195 200 168
195 200 168 195 200 168 195 200 168 195 200 168 195 200 168
195 200 168 195 200 168 195 200 168 195 200 168 195 200 168
195 200 168 195 200 168 195 200 168 195 200 168 195 200 168
195 200 168 195 200 168 195 200 168 195 200 168 188 185 134
188 185 134 188 185 134 187 184 133 187 184 133 187 184 133
188 185 134 188 185 134 189 183 131 189 183 131 189 183 131
189 183 131 189 183 131 189 183 131 190 184 132 190 184 132
176 185 130 203 181 134 183 186 129 187 179 130 199 180 137
188 186 137 122 91 45 186 54 39 191 53 40 195 57 44 180 57 39
183 56 37 211 52 46 179 52 35 183 57 42 184 58 44 189 47 37 200 58 44
187 58 36 204 54 39 112 91 36 201 205 154 194 189 151 207 196 168
195 198 143 193 195 148 202 199 156 198 195 142 205 201 138
199 190 135 99 79 52 73 45 42 64 37 44 64 37 44 64 37 44 64 37 44
64 37 44 64 37 44 64 37 44 64 37 44 49 39 40 70 44 47 59 42 35
60 34 43 70 32 53 69 34 58 58 37 44 62 41 36 62 40 53 63 35 21
201 195 147 188 191 138 208 185 141 205 192 139 188 197 132
199 188 134 168 126 76 186 56 34 187 61 38 190 52 39 185 59 45
202 50 39 196 63 32 191 181 94 184 117 72 185 59 44 202 51 42
189 61 36 183 56 37 192 49 45 183 67 44 170 121 52 200 187 72
204 179 76 213 181 80 205 183 71 189 183 71 192 187 83 204 185 80
213 180 64 212 186 73 201 178 82 200 187 82 194 196 61 195 182 52
174 122 49 139 86 70 56 44 44 72 41 46 72 41 46 72 41 46 72 41 46
72 41 46 72 41 46 72 41 46 72 41 46 64 38 47 76 44 49 72 36 40
73 42 47 70 48 34 71 41 49 83 35 57 169 119 58 176 122 58 196 189 85
194 189 69 211 183 74 202 181 72 196 181 64 208 187 72 198 186 74
203 181 70 192 197 77 195 180 65 212 183 79 188 123 59 181 55 41
185 54 46 188 62 37 198 54 43 186 50 36 190 57 40 197 60 42 199 49 34
201 54 38 189 48 31 191 62 41 206 48 36 176 74 34 186 167 124
193 210 176 199 207 170 192 202 175 196 211 188 206 202 164
193 171 121 190 175 120 167 120 76 199 57 43 190 57 40 204 52 41
165 59 33 199 55 44 194 51 35 182 66 41 197 54 38 184 169 110
185 184 120 188 121 79 182 53 32 194 57 39 190 53 35 190 59 41
163 108 67 182 176 118 186 188 123 169 106 62 185 52 33 187 62 42
195 53 41 186 61 43 194 53 36 191 56 37 198 52 37 201 47 37 185 58 41
191 53 42 182 59 41 187 53 41 196 53 37 192 62 36 172 176 117
197 207 170 198 205 174 204 198 164 197 201 178 202 203 169
199 197 172 199 203 170 198 208 174 198 207 164 200 197 182
187 187 87 198 170 86 153 125 51 146 117 49 147 121 44 197 178 83
191 177 68 202 188 79 191 178 73 201 180 73 197 176 71 199 177 91
191 183 74 181 186 66 201 198 181 202 202 176 203 203 179 198 203 171
198 203 171 199 204 172 199 204 172 198 203 171 197 202 170
196 201 169 195 200 168 194 199 167 194 199 167 195 200 168
195 200 168 195 200 168 195 200 168 195 200 168 195 200 168
195 200 168 195 200 168 195 200 168 195 200 168 195 200 168
195 200 168 195 200 168 195 200 168 195 200 168 195 200 168
195 200 168 195 200 168 195 200 168 195 200 168 195 200 168
195 200 168 195 200 168 195 200 168 195 200 168 195 200 168
195 200 168 195 200 168 195 200 168 195 200 168 188 182 130
188 182 130 188 182 130 188 182 130 188 182 130 189 183 131
189 183 131 189 183 131 190 184 132 190 184 132 189 183 131
189 183 131 189 183 131 189 183 131 188 182 130 188 182 130
184 187 134 196 182 133 178 181 126 202 188 141 178 176 127 124 86 49
135 93 51 193 53 40 183 60 42 194 56 43 185 52 37 182 57 37 180 61 41
192 59 44 183 193 132 186 189 132 188 74 48 180 51 32 186 60 45
185 57 46 187 48 43 206 177 133 194 202 143 196 197 139 207 202 147
203 195 149 200 191 150 196 196 146 180 188 128 145 144 96 123 97 82
74 26 40 64 37 44 64 37 44 64 37 44 64 37 44 64 37 44 64 37 44
64 37 44 64 37 44 72 33 54 60 38 41 75 33 43 64 41 33 60 43 49
64 39 43 81 29 52 67 37 47 73 38 45 128 90 71 176 191 132 197 200 145
186 189 136 176 192 129 200 191 136 124 167 98 129 84 42 201 48 40
200 57 43 188 50 39 190 57 48 195 59 47 181 51 25 189 71 31 182 61 34
189 53 41 192 51 41 182 58 34 199 59 46 193 47 47 191 55 41
178 127 62 168 131 61 199 175 75 198 188 64 197 188 67 204 191 77
204 184 69 202 183 65 198 182 69 190 182 55 194 189 71 191 188 73
207 173 73 191 127 65 128 86 61 66 45 40 84 37 45 72 41 46 72 41 46
72 41 46 72 41 46 72 41 46 72 41 46 72 41 46 72 41 46 69 43 46
75 43 48 75 40 47 71 39 52 68 45 37 70 41 46 80 34 45 183 136 64
175 120 53 201 190 85 193 187 67 208 184 74 207 189 81 203 188 73
207 187 72 197 184 72 194 189 71 209 176 71 200 190 75 193 192 76
184 117 46 188 58 36 205 50 46 203 47 34 193 53 38 200 60 45
188 51 35 187 54 37 194 64 48 181 51 35 192 62 46 187 55 40 195 56 35
185 104 57 196 182 137 195 206 172 197 205 168 203 210 179
194 201 170 181 177 130 184 193 128 179 177 116 190 61 42 201 50 39
183 50 33 180 70 45 195 49 36 198 52 39 193 53 36 192 51 34 196 55 38
180 72 44 175 116 72 194 53 36 192 55 37 195 54 37 184 59 37
208 45 38 145 125 74 182 180 121 144 111 58 162 116 66 192 52 35
187 54 37 191 54 38 189 58 40 197 54 40 192 55 39 190 59 41 196 53 39
192 52 37 195 59 43 196 46 31 208 55 49 187 51 35 190 48 26
156 123 72 180 170 134 196 207 173 194 209 170 196 202 176
202 206 169 208 211 166 192 199 157 196 203 185 197 203 165
203 196 170 189 180 101 204 182 80 196 173 80 202 177 95 195 173 87
202 184 84 186 172 63 193 179 72 193 180 78 193 181 81 190 181 62
196 190 80 208 196 170 202 198 169 200 201 185 194 197 176
201 210 157 198 203 171 198 203 171 198 203 171 199 204 172
198 203 171 197 202 170 196 201 169 196 201 169 195 200 168
195 200 168 195 200 168 195 200 168 195 200 168 195 200 168
195 200 168 195 200 168 195 200 168 195 200 168 195 200 168
195 200 168 195 200 168 195 200 168 195 200 168 195 200 168
195 200 168 195 200 168 195 200 168 195 200 168 195 200 168
195 200 168 195 200 168 195 200 168 195 200 168 195 200 168
195 200 168 195 200 168 195 200 168 195 200 168 195 200 168
195 200 168 190 184 132 189 183 131 189 183 131 189 183 131
189 183 131 189 183 131 190 184 132 190 184 132 189 183 131
189 183 131 190 184 132 190 184 132 190 184 132 190 184 132
189 183 131 189 183 131 188 186 135 184 168 119 189 192 137
192 186 136 205 175 137 117 89 49 175 68 48 192 60 45 193 57 43
178 51 34 203 59 48 190 63 44 188 50 37 203 171 122 204 172 125
188 187 131 182 46 30 196 63 48 192 43 37 189 54 48 196 63 54
177 183 123 188 205 137 194 204 135 194 187 133 205 198 152
207 200 158 194 181 139 199 177 136 122 95 65 64 37 30 60 37 47
64 37 44 64 37 44 64 37 44 64 37 44 64 37 44 64 37 44 64 37 44
64 37 44 68 32 46 72 37 57 65 33 38 73 41 54 48 46 25 59 39 38
41 44 27 66 35 41 53 37 22 140 163 109 197 182 125 203 193 140
202 185 139 196 191 136 127 168 100 127 84 52 113 92 49 208 56 53
168 63 41 189 48 38 175 66 46 198 54 46 195 51 40 190 49 31 191 54 36
194 56 45 190 56 44 181 60 39 186 59 44 188 55 48 204 42 39 184 61 30
182 118 74 174 133 51 201 184 70 198 187 71 198 180 68 203 184 66
202 194 69 193 195 72 214 191 75 205 183 82 170 124 49 182 126 79
122 87 67 77 44 51 74 36 49 59 42 35 72 41 46 72 41 46 72 41 46
72 41 46 72 41 46 72 41 46 72 41 46 72 41 46 72 47 43 70 38 41
74 39 46 70 37 56 75 49 50 76 47 51 70 28 30 162 123 48 179 122 51
204 183 78 195 185 64 197 179 69 199 185 78 197 184 69 202 182 67
199 183 72 205 193 73 212 174 73 195 185 74 192 193 74 194 183 78
179 120 60 193 60 41 189 56 39 178 58 34 193 57 41 188 56 41
191 47 38 184 61 45 198 57 47 192 52 39 205 48 39 172 72 38
167 121 69 183 179 132 200 203 172 198 208 173 200 204 171
185 180 142 183 178 120 170 173 106 187 129 83 188 53 34 201 45 33
188 59 40 204 47 38 193 53 38 194 57 41 190 59 41 193 57 41 194 57 41
185 43 29 186 65 44 203 46 37 199 56 42 185 56 37 188 62 40 194 47 37
173 174 116 190 184 126 160 109 62 152 112 60 204 58 43 188 52 36
190 55 36 195 58 40 199 55 44 188 48 35 181 62 42 197 62 43 196 45 28
175 65 32 187 70 35 201 48 40 182 56 42 205 55 38 164 106 56
184 174 125 196 206 169 190 207 171 195 203 162 196 199 178
200 205 173 198 207 160 194 197 176 208 204 175 187 174 130
198 185 83 198 183 64 198 181 73 197 179 81 198 180 82 198 184 79
200 186 79 196 181 78 192 176 80 188 191 74 205 195 170 202 196 182
201 201 175 197 203 165 202 209 175 198 210 160 193 200 167
197 202 170 198 203 171 198 203 171 198 203 171 198 203 171
198 203 171 197 202 170 197 202 170 195 200 168 195 200 168
195 200 168 195 200 168 195 200 168 195 200 168 195 200 168
195 200 168 195 200 168 195 200 168 195 200 168 195 200 168
195 200 168 195 200 168 195 200 168 195 200 168 195 200 168
195 200 168 195 200 168 195 200 168 195 200 168 195 200 168
195 200 168 195 200 168 195 200 168 195 200 168 195 200 168
195 200 168 195 200 168 195 200 168 195 200 168 195 200 168
191 186 131 191 186 131 190 185 130 190 185 130 189 184 129
189 184 129 189 184 129 189 184 129 187 184 133 188 185 134
189 186 135 190 187 136 191 188 137 191 188 137 191 188 137
190 187 136 185 182 129 203 189 140 178 178 124 186 182 134 129 82 52
123 98 58 197 42 38 182 55 36 183 50 35 211 54 47 188 50 37 177 63 39
195 65 49 179 62 42 188 186 129 201 46 42 186 60 45 198 56 44
190 63 44 198 52 39 175 54 35 130 88 48 187 184 139 189 184 144
151 162 102 105 94 48 122 88 53 129 91 55 115 90 49 103 89 50
62 44 24 66 36 34 64 37 44 64 37 44 64 37 44 64 37 44 64 37 44
64 37 44 64 37 44 64 37 44 57 44 38 62 31 37 64 41 67 55 35 36
63 32 37 87 142 84 91 124 81 101 125 77 80 133 77 130 159 93
193 192 127 186 187 129 203 197 147 180 200 137 116 161 94 126 91 61
136 82 54 120 95 54 182 52 39 193 57 43 200 58 46 190 49 39 184 58 43
196 58 48 184 59 39 189 55 43 184 50 38 192 56 44 183 51 39 190 51 44
183 61 46 192 56 40 170 115 48 182 131 68 170 128 56 208 177 86
206 183 81 205 181 83 199 175 75 206 184 73 166 121 53 172 120 73
131 83 63 82 43 38 68 36 41 67 47 49 60 40 41 81 47 46 72 41 46
72 41 46 72 41 46 72 41 46 72 41 46 72 41 46 72 41 46 72 41 46
69 41 40 71 40 45 80 48 51 71 39 54 66 37 42 73 42 48 86 46 54
164 127 75 185 131 61 200 168 69 210 193 77 200 187 75 201 190 82
199 186 72 204 187 71 208 190 80 194 182 60 201 187 78 204 183 78
207 180 67 206 196 81 164 131 50 182 61 34 205 40 36 192 62 40
181 55 33 206 53 45 186 50 38 203 44 38 191 60 42 192 49 32 187 59 32
174 117 74 186 177 122 197 204 160 202 202 174 191 202 172
203 209 173 187 176 131 183 179 116 189 123 73 160 104 53 180 69 41
178 62 37 206 54 43 184 55 36 184 55 36 199 57 43 191 51 36 191 55 39
189 53 37 195 59 43 188 48 33 196 60 44 193 47 34 189 52 36 189 52 36
174 109 71 184 177 122 196 176 123 143 113 59 160 110 61 196 46 32
191 60 42 190 58 35 194 54 37 197 57 44 190 46 37 181 60 41 193 58 39
200 51 31 173 110 57 193 165 92 192 60 45 184 60 50 200 55 38
155 110 51 185 191 131 193 198 158 202 201 173 201 206 183
198 205 171 197 203 175 196 198 185 203 201 178 182 178 107
201 188 92 191 174 60 192 180 60 196 183 69 193 179 74 193 178 75
190 176 69 197 183 76 196 181 78 196 180 82 198 192 166 207 207 173
196 203 159 196 205 178 195 203 180 192 201 158 196 206 154
199 205 179 197 202 170 197 202 170 198 203 171 198 203 171
198 203 171 198 203 171 198 203 171 197 202 170 196 201 169
196 201 169 196 201 169 195 200 168 195 200 168 195 200 168
195 200 168 195 200 168 195 200 168 195 200 168 195 200 168
195 200 168 195 200 168 195 200 168 195 200 168 195 200 168
195 200 168 195 200 168 195 200 168 195 200 168 195 200 168
195 200 168 195 200 168 195 200 168 195 200 168 195 200 168
195 200 168 195 200 168 195 200 168 195 200 168 195 200 168
195 200 168 189 183 131 189 183 131 189 183 131 189 183 131
189 183 131 189 183 131 189 183 131 189 183 131 189 186 135
190 187 136 192 189 138 193 190 139 193 190 139 194 191 140
193 190 139 193 190 139 189 179 128 191 185 133 189 183 133 114 89 49
122 96 59 142 81 53 195 57 47 194 57 41 194 54 41 189 57 42 194 54 41
177 55 34 186 50 36 176 53 35 189 63 48 176 61 43 190 53 35 189 53 37
181 48 33 207 55 54 127 88 57 127 90 71 141 81 80 69 36 31 63 30 37
67 41 50 54 34 43 62 41 46 68 37 42 79 44 51 65 31 48 70 37 64
64 37 44 64 37 44 64 37 44 64 37 44 64 37 44 64 37 44 64 37 44
64 37 44 66 41 37 59 42 52 54 34 35 69 43 52 84 127 71 91 129 72
72 134 49 114 172 96 113 168 100 134 171 94 121 173 88 200 191 136
202 186 137 183 195 133 133 88 49 140 82 60 129 84 51 110 97 52
203 51 46 192 54 41 188 55 36 200 48 35 197 48 41 182 59 44 186 53 38
203 63 50 188 54 42 206 54 49 203 54 48 200 46 38 129 93 45
177 119 82 173 132 53 168 121 65 175 125 74 171 124 56 172 130 46
179 133 58 168 118 59 184 129 75 130 92 71 74 40 28 68 42 41 72 45 54
75 39 49 74 45 47 69 39 39 86 34 46 72 41 46 72 41 46 72 41 46
72 41 46 72 41 46 72 41 46 72 41 46 72 41 46 74 43 51 70 39 47
70 41 35 72 41 46 69 40 44 73 42 48 67 29 50 78 42 28 172 124 62
176 134 48 206 184 75 196 186 75 199 187 79 196 183 68 197 182 65
200 182 72 192 186 62 201 189 79 206 185 80 199 184 67 206 176 66
169 126 47 177 111 61 201 64 46 197 49 35 194 53 36 185 56 35
203 62 45 188 53 33 183 62 33 184 114 65 168 132 70 193 172 129
197 213 166 199 215 176 202 206 181 191 205 180 200 210 175
180 174 124 187 183 122 165 124 62 154 114 55 185 53 30 200 58 44
183 53 37 187 60 43 195 52 38 181 56 34 198 56 42 199 51 39 199 59 44
201 55 42 185 52 35 184 57 38 191 58 41 207 55 44 180 61 41
182 177 121 188 176 124 199 179 128 135 119 60 173 119 72 197 49 35
190 61 42 195 59 37 185 50 31 190 57 42 200 53 45 190 57 42 189 48 31
198 64 39 188 160 95 183 188 104 189 59 43 191 54 48 190 51 32
145 115 51 181 189 129 200 196 159 207 201 175 200 207 176
189 197 158 202 205 188 207 202 180 184 178 102 190 176 88 195 176 82
206 186 71 193 181 71 196 183 78 200 187 83 197 184 80 196 182 77
192 178 71 194 180 75 195 181 76 190 192 82 202 199 180 197 202 179
194 205 173 199 207 170 196 202 154 201 200 198 198 202 175
197 202 170 197 202 170 198 203 171 198 203 171 198 203 171
198 203 171 198 203 171 198 203 171 197 202 170 197 202 170
196 201 169 195 200 168 195 200 168 195 200 168 195 200 168
195 200 168 195 200 168 195 200 168 195 200 168 195 200 168
195 200 168 195 200 168 195 200 168 195 200 168 195 200 168
195 200 168 195 200 168 195 200 168 195 200 168 195 200 168
195 200 168 195 200 168 195 200 168 195 200 168 195 200 168
195 200 168 195 200 168 195 200 168 195 200 168 195 200 168
187 184 131 188 185 132 188 185 132 188 185 132 189 186 133
190 187 134 191 188 135 192 189 136 192 190 141 192 190 141
193 191 142 193 191 142 193 191 142 193 191 142 192 190 141
192 190 141 195 188 136 187 180 128 191 179 131 129 90 57 126 91 59
128 79 49 182 56 44 191 55 39 184 61 43 190 52 39 188 52 38 198 65 48
197 53 42 194 54 41 201 60 50 183 53 40 188 56 35 183 57 43 138 87 66
62 39 25 64 39 35 67 32 36 71 39 42 54 43 37 53 37 40 75 45 53
73 31 43 71 34 41 58 37 34 52 34 30 67 41 44 69 31 42 64 37 44
64 37 44 64 37 44 64 37 44 64 37 44 64 37 44 64 37 44 64 37 44
71 28 48 63 37 38 67 31 31 81 132 66 83 135 69 126 164 81 103 144 74
69 127 51 105 125 64 115 152 75 115 164 83 133 162 96 131 160 96
118 173 92 136 161 95 123 84 51 142 91 60 128 88 53 128 90 51
183 56 41 183 57 35 192 60 39 186 57 38 187 59 46 185 51 39 197 55 41
184 52 37 187 53 44 174 55 35 188 68 41 114 98 39 128 86 48
178 117 70 178 122 65 176 122 62 177 122 65 178 124 62 165 119 59
137 98 67 68 33 37 74 32 44 62 52 43 68 45 37 81 36 41 69 43 44
61 48 40 69 50 46 61 40 47 72 41 46 72 41 46 72 41 46 72 41 46
72 41 46 72 41 46 72 41 46 72 41 46 73 41 52 73 41 52 73 45 34
72 42 40 67 36 41 73 41 46 76 41 63 73 41 46 165 124 80 176 127 58
199 169 71 199 188 80 201 187 78 205 188 72 202 190 72 201 184 76
208 189 71 195 192 77 194 181 69 194 194 72 205 186 81 176 128 56
169 135 74 168 121 65 181 117 71 175 60 29 193 61 36 189 51 25
179 121 71 164 133 76 189 185 121 191 169 112 200 202 162 189 209 174
181 201 166 200 206 178 201 210 191 196 207 173 172 172 118
193 184 129 156 116 54 168 115 61 197 52 35 190 58 43 197 50 42
187 49 36 214 60 48 187 57 35 190 59 41 190 53 37 205 44 36 190 53 37
202 50 39 186 59 40 189 60 41 194 46 34 174 106 69 178 181 124
183 180 125 184 173 119 153 122 68 149 106 55 197 56 39 180 49 31
194 54 37 186 55 35 193 57 43 197 50 40 196 54 42 197 51 36 188 64 38
167 122 67 164 109 53 192 45 35 198 51 44 198 56 36 152 117 59
186 176 127 209 203 171 195 205 171 194 204 154 202 207 177
208 205 190 177 170 100 206 198 63 152 124 59 141 111 57 197 178 73
195 181 82 190 175 74 191 176 75 191 176 73 200 185 82 196 182 77
197 183 76 194 180 73 185 179 59 204 197 155 204 209 179 191 204 150
196 200 177 206 205 175 208 208 184 192 198 162 198 203 171
198 203 171 198 203 171 198 203 171 198 203 171 198 203 171
198 203 171 198 203 171 198 203 171 197 202 170 196 201 169
195 200 168 195 200 168 195 200 168 195 200 168 195 200 168
195 200 168 195 200 168 195 200 168 195 200 168 195 200 168
195 200 168 195 200 168 195 200 168 195 200 168 195 200 168
195 200 168 195 200 168 195 200 168 195 200 168 195 200 168
195 200 168 195 200 168 195 200 168 195 200 168 195 200 168
195 200 168 195 200 168 195 200 168 195 200 168 190 188 137
190 188 137 191 189 138 191 189 138 192 190 139 192 190 139
193 191 140 194 192 141 193 191 142 193 191 142 193 191 142
193 191 142 192 190 141 192 190 141 192 190 141 192 190 141
180 179 125 199 187 137 110 91 48 129 84 53 133 86 60 118 94 56
171 64 46 189 58 40 176 57 37 203 49 41 192 65 48 186 46 31 193 51 39
191 58 43 183 49 37 197 60 50 121 91 63 70 39 21 58 39 32 57 45 49
65 37 51 62 45 55 65 29 39 51 42 37 63 42 47 51 28 36 66 36 44
72 36 46 72 35 43 66 34 39 64 42 45 57 43 43 64 37 44 64 37 44
64 37 44 64 37 44 64 37 44 64 37 44 64 37 44 64 37 44 57 40 46
83 34 38 90 140 79 78 131 63 79 131 48 80 131 62 90 122 57 86 138 74
73 133 61 151 160 97 141 164 96 118 168 99 123 158 92 129 163 86
139 162 90 120 96 52 130 85 52 109 87 50 122 87 55 126 93 52
186 64 43 194 57 38 179 57 36 178 58 41 188 62 48 186 53 34 193 56 38
185 62 47 165 66 37 189 122 69 171 118 66 121 89 48 134 89 50
179 127 69 178 119 49 180 121 63 130 83 41 122 91 60 62 42 31
66 46 58 89 40 59 59 33 34 68 51 43 80 39 37 115 84 64 91 130 75
74 121 75 80 51 55 72 41 46 72 41 46 72 41 46 72 41 46 72 41 46
72 41 46 72 41 46 72 41 46 74 41 48 70 38 49 70 43 32 70 40 42
78 45 54 77 46 44 68 37 45 71 46 42 125 91 64 176 123 71 177 140 52
196 183 78 198 177 68 204 183 66 199 188 70 197 183 76 202 180 68
190 191 72 197 184 69 211 184 71 203 179 83 173 124 65 178 116 67
174 124 63 183 128 71 170 124 64 189 109 58 170 130 68 183 116 71
181 174 119 187 174 132 197 214 169 199 209 172 203 213 189
194 209 176 194 204 169 200 202 181 202 214 178 174 184 124
187 169 121 143 118 52 155 114 58 165 98 56 201 46 41 196 58 48
194 54 41 151 109 59 156 110 58 142 121 64 142 123 65 155 103 56
140 130 69 165 113 66 157 113 64 148 118 64 155 113 63 192 172 121
184 183 127 181 178 125 184 179 123 157 110 64 152 112 60 197 57 40
203 63 48 192 52 37 192 61 43 197 54 40 189 49 34 192 55 39 199 57 43
183 56 37 166 56 31 187 61 38 198 54 45 196 56 41 199 52 32
149 111 62 190 174 140 198 203 171 192 207 168 197 201 174
197 201 151 181 178 127 202 184 122 196 171 71 147 111 53 205 178 97
200 183 91 199 181 81 199 181 79 199 185 78 194 180 75 193 178 75
190 175 72 195 181 76 197 183 76 202 179 103 191 187 87 197 199 175
197 208 165 201 208 166 196 194 169 196 199 170 198 211 158
198 203 171 198 203 171 198 203 171 198 203 171 198 203 171
198 203 171 198 203 171 198 203 171 199 204 172 198 203 171
197 202 170 195 200 168 195 200 168 195 200 168 195 200 168
195 200 168 195 200 168 195 200 168 195 200 168 195 200 168
195 200 168 195 200 168 195 200 168 195 200 168 195 200 168
195 200 168 195 200 168 195 200 168 195 200 168 195 200 168
195 200 168 195 200 168 195 200 168 195 200 168 195 200 168
195 200 168 195 200 168 195 200 168 195 200 168 195 200 168
193 191 142 193 191 142 192 190 141 192 190 141 192 190 141
192 190 141 192 190 141 192 190 141 191 189 141 191 189 141
191 189 141 191 189 141 191 189 141 192 190 142 192 190 142
192 190 142 189 186 133 187 181 129 119 94 53 147 81 57 112 89 55
138 89 59 136 80 45 196 54 40 193 63 47 196 48 38 184 59 41 190 54 38
186 69 49 181 56 38 208 51 46 117 90 43 65 33 46 72 38 52 56 41 46
63 33 43 78 37 51 57 36 43 68 35 46 75 37 52 67 36 42 69 36 45
66 36 44 62 39 45 56 41 46 56 39 45 64 37 46 69 31 44 64 37 44
64 37 44 64 37 44 64 37 44 64 37 44 64 37 44 64 37 44 64 37 44
65 42 36 75 129 79 75 131 66 82 135 63 87 132 73 84 132 74 75 140 76
80 131 64 115 170 102 73 134 56 87 127 57 128 162 101 133 159 94
137 161 85 111 159 75 129 169 99 123 89 54 123 94 64 140 85 65
135 84 55 183 53 40 181 59 36 194 61 44 204 49 44 187 53 42 181 55 32
198 52 37 196 52 44 188 53 34 174 123 58 191 119 69 117 167 96
133 156 86 151 136 67 178 125 55 180 121 61 126 89 60 73 48 54
70 34 46 86 37 33 65 38 43 77 50 59 73 36 54 62 43 39 131 161 97
122 173 72 139 155 90 69 41 37 72 41 46 72 41 46 72 41 46 72 41 46
72 41 46 72 41 46 72 41 46 72 41 46 71 39 40 72 41 49 78 51 44
68 37 45 73 39 53 71 41 33 71 44 35 116 95 74 74 45 31 175 117 77
164 123 41 204 191 86 202 180 69 208 186 67 200 190 69 199 185 78
206 190 77 200 177 65 197 191 69 210 180 70 200 176 88 175 191 118
188 177 113 174 123 57 171 123 57 184 123 60 178 129 62 171 119 59
192 184 121 184 177 131 193 207 172 197 205 184 197 209 173
199 198 180 195 205 171 199 210 168 206 201 181 193 204 164
172 184 120 200 176 132 181 121 67 155 116 61 151 121 69 86 108 44
70 110 40 151 117 71 142 115 60 135 170 90 135 165 91 140 168 94
129 166 89 130 171 93 129 161 86 151 115 63 137 167 93 184 180 117
182 181 124 169 179 119 198 180 132 180 175 119 156 109 63 167 121 71
187 47 30 195 52 38 194 56 43 190 57 42 200 46 34 193 58 39 189 60 39
188 51 35 189 56 41 217 47 47 200 49 40 179 58 41 183 58 36 199 50 30
152 120 73 204 201 168 186 203 169 204 206 169 201 202 184
179 181 132 183 174 115 143 116 71 158 117 63 155 112 70 205 184 69
187 178 59 193 176 70 198 181 73 199 183 72 198 181 73 194 180 75
196 181 80 195 180 77 193 179 74 199 178 63 187 183 75 201 204 161
195 205 170 199 201 190 200 200 176 198 201 180 192 207 164
199 204 172 199 204 172 198 203 171 198 203 171 198 203 171
198 203 171 198 203 171 198 203 171 199 204 172 198 203 171
197 202 170 195 200 168 195 200 168 195 200 168 195 200 168
196 201 169 195 200 168 195 200 168 195 200 168 195 200 168
195 200 168 195 200 168 195 200 168 195 200 168 195 200 168
195 200 168 195 200 168 195 200 168 195 200 168 195 200 168
195 200 168 195 200 168 195 200 168 195 200 168 195 200 168
195 200 168 195 200 168 195 200 168 195 200 168 195 200 168
192 190 141 192 190 141 192 190 141 192 190 141 192 190 141
192 190 141 192 190 141 192 190 141 192 190 141 192 190 141
192 190 141 192 190 141 192 190 141 192 190 141 192 190 141
192 190 141 201 180 133 182 187 131 128 89 50 144 83 54 139 82 52
116 99 56 137 86 55 181 51 49 177 61 38 194 56 43 193 46 36 208 53 35
175 65 28 190 54 40 134 86 72 63 36 43 64 37 44 62 36 39 68 42 45
66 36 46 68 35 52 63 32 40 70 41 27 118 92 57 131 86 57 117 91 68
60 42 32 68 36 47 77 39 54 64 33 41 61 36 42 62 34 46 64 36 48
67 36 54 61 31 31 76 35 49 72 36 50 62 38 38 71 35 47 69 35 33
60 32 29 93 134 90 84 135 68 86 123 54 75 137 64 80 132 66 132 160 99
89 132 60 130 164 90 125 161 91 89 139 68 78 128 57 129 166 96
121 163 89 127 160 91 197 196 140 126 161 93 129 161 94 128 90 45
130 94 46 186 59 42 203 46 39 179 58 39 196 56 43 190 57 52 173 59 35
202 54 40 193 56 46 190 56 44 187 55 32 196 199 132 198 193 138
191 189 140 185 197 123 215 183 80 165 126 59 177 124 74 119 92 47
72 40 51 132 86 62 87 36 55 67 38 40 74 36 49 71 52 48 127 158 98
195 186 127 195 195 143 120 169 88 74 39 43 71 45 58 66 40 39 78 44 9
124 90 55 71 45 44 70 44 57 73 38 42 76 39 47 70 38 41 73 43 43
69 39 41 75 40 47 80 44 54 69 38 44 70 41 45 73 41 64 66 42 40
186 117 50 171 126 71 161 126 62 200 182 74 202 185 93 197 189 65
212 185 70 206 177 60 198 192 82 181 176 121 181 176 136 183 186 119
176 177 119 189 182 128 193 174 132 183 176 134 183 180 125
181 186 120 197 210 166 213 195 175 193 213 176 205 200 181
196 207 173 197 204 171 200 205 175 199 209 184 190 204 181
198 207 180 207 205 166 188 176 126 178 183 117 151 112 73 76 109 56
76 113 61 86 109 53 76 149 68 88 163 80 70 149 66 84 156 74 75 155 70
81 146 66 89 158 75 123 164 88 126 170 93 129 163 87 129 172 93
175 180 124 192 174 124 189 167 117 176 192 127 142 115 62 155 111 62
175 60 33 194 55 36 192 54 43 187 55 40 193 56 40 188 57 37 195 48 32
184 58 36 198 57 47 190 57 48 199 47 42 189 67 46 188 59 38
165 106 66 189 175 130 193 209 164 203 198 166 201 202 171
206 207 167 176 179 124 147 115 58 164 108 57 162 114 66 146 115 58
155 117 44 204 178 83 193 180 75 194 182 74 196 184 74 196 182 75
198 183 80 195 180 79 190 175 72 196 184 76 197 183 78 184 185 57
204 202 181 198 203 180 194 202 163 198 202 177 202 203 172
204 204 166 199 203 176 200 205 175 199 204 172 198 203 173
198 202 177 200 204 179 200 205 173 198 204 168 193 204 162
200 215 174 187 195 172 202 199 182 199 195 158 188 206 164
202 199 180 202 190 178 201 202 171 188 200 160 199 195 166
200 204 177 186 203 167 194 200 136 208 203 174 195 197 175
195 200 168 195 200 168 195 200 168 195 200 168 195 200 168
195 200 168 195 200 168 195 200 168 195 198 167 195 198 167
195 198 167 195 198 167 195 198 167 195 198 167 195 198 167
195 198 167 192 190 141 192 190 141 192 190 141 192 190 141
192 190 141 192 190 141 192 190 141 192 190 141 192 190 141
192 190 141 192 190 141 192 190 141 192 190 141 192 190 141
192 190 141 192 190 141 190 195 139 178 176 125 131 172 106 115 87 47
111 97 52 119 87 49 124 86 50 142 89 58 139 83 48 176 66 49 193 50 46
176 55 46 130 90 64 130 86 73 51 39 27 75 34 40 68 41 50 61 34 39
66 40 43 66 36 46 65 35 47 71 41 43 115 88 67 202 177 136 204 185 143
123 92 61 75 40 34 54 30 46 52 32 44 71 43 40 69 39 39 67 40 59
71 33 32 63 40 46 69 41 40 58 34 48 57 32 51 60 49 55 62 37 56
50 41 42 59 52 33 78 128 75 79 134 66 92 133 63 76 136 66 78 129 63
131 161 97 120 164 87 124 162 87 128 168 97 78 130 58 81 131 60
131 167 97 127 167 94 132 163 95 192 187 132 194 195 137 189 195 135
193 180 125 162 130 79 187 51 35 202 54 44 186 61 43 189 53 41
196 53 49 190 59 39 183 59 35 184 48 36 196 58 47 188 53 31
164 127 74 185 188 131 197 190 136 205 199 147 193 184 109
187 190 137 149 155 95 121 96 42 75 41 39 130 84 58 46 42 31 83 47 47
76 41 47 56 42 29 128 92 60 199 192 138 207 186 139 131 158 91
67 46 43 75 36 54 60 45 42 136 168 119 124 156 107 61 46 43 78 39 57
65 44 41 78 45 54 66 35 40 75 46 48 78 49 51 72 41 46 68 37 42
67 38 40 76 51 47 87 35 37 68 43 47 173 130 52 185 115 66 174 133 41
191 123 74 176 117 47 198 183 66 198 185 83 192 183 66 196 192 67
193 184 115 201 199 174 210 199 169 195 210 169 201 200 182
196 212 163 192 212 163 206 203 184 192 194 172 200 210 173
196 210 187 189 209 181 185 215 161 195 209 183 197 206 177
199 203 170 200 205 173 195 206 176 200 211 181 199 207 170
177 179 139 189 177 117 143 158 101 85 105 56 80 107 56 88 151 80
78 150 68 79 142 61 75 165 77 71 155 69 74 160 73 83 156 74 67 153 64
88 158 72 85 159 72 119 168 87 127 170 91 117 168 93 204 180 132
187 180 126 175 173 116 200 183 129 161 109 62 158 112 62 192 56 34
193 52 34 197 55 45 193 54 47 189 55 43 197 58 37 198 56 32 192 51 33
183 51 38 193 51 39 184 47 29 195 56 37 157 119 74 177 180 133
205 202 169 183 202 170 199 209 182 179 176 133 177 176 120
168 117 64 156 113 58 136 115 58 162 116 64 146 116 43 188 184 87
198 185 81 193 181 73 194 180 71 193 179 72 193 178 75 199 184 83
199 185 80 192 180 72 197 178 84 185 182 65 204 199 177 199 204 174
196 205 162 199 204 174 199 202 173 200 201 170 200 205 175
199 205 171 198 204 168 196 202 168 197 202 172 198 203 173
198 203 171 196 202 168 200 202 178 200 195 153 201 200 179
193 199 173 131 169 84 161 119 59 66 105 38 160 120 58 156 107 51
124 176 104 190 219 165 186 189 170 202 208 170 191 204 184
191 196 156 189 201 179 195 200 168 195 200 168 195 200 168
195 200 168 195 200 168 195 200 168 195 200 168 195 200 168
195 198 167 195 198 167 195 198 167 195 198 167 195 198 167
195 198 167 195 198 167 195 198 167 192 190 141 192 190 141
192 190 141 192 190 141 192 190 141 192 190 141 192 190 141
192 190 141 192 190 141 192 190 141 192 190 141 192 190 141
192 190 141 192 190 141 192 190 141 192 190 141 195 183 135
191 206 149 177 177 125 125 159 98 132 97 59 128 90 54 132 79 48
112 99 55 130 91 58 122 77 44 143 92 65 119 80 65 67 38 40 70 26 43
63 40 46 67 43 41 66 38 50 60 33 40 65 38 43 67 37 45 63 33 41
68 39 35 116 90 67 201 178 136 188 182 130 117 90 61 76 36 37
62 34 49 60 45 52 63 43 42 60 32 31 63 32 40 126 94 56 121 86 64
123 86 60 63 47 34 63 33 33 60 40 33 65 33 44 73 37 39 96 114 72
77 139 74 72 132 60 89 132 63 78 135 66 94 140 75 127 156 89
122 167 86 120 161 85 126 167 97 86 139 67 80 132 60 123 159 89
122 162 89 130 159 92 199 192 138 198 185 130 201 188 133 207 195 137
188 126 85 197 51 38 184 51 34 184 57 40 188 56 43 187 49 39
190 60 36 195 54 34 190 54 40 182 62 45 192 53 32 180 116 72
212 191 144 185 185 123 204 189 150 188 196 139 132 164 114
123 169 96 116 83 30 78 44 45 72 38 37 77 50 59 63 34 54 64 36 51
86 44 48 71 45 28 130 159 103 117 163 90 121 94 51 82 43 44 70 42 54
64 33 38 129 81 69 89 41 29 65 34 39 73 45 57 81 42 43 68 38 46
69 42 47 66 40 43 62 33 37 71 42 44 76 48 47 68 40 37 70 42 39
59 47 47 80 40 64 63 34 52 172 119 65 171 121 60 183 126 49
163 120 69 175 131 56 161 131 58 201 187 78 184 175 132 177 174 133
188 179 122 183 176 122 181 133 59 164 119 60 182 171 126 176 191 124
186 176 115 202 205 186 195 209 186 188 216 168 202 190 174
206 208 171 194 209 188 195 205 178 197 203 169 204 208 171
198 208 173 192 206 171 196 211 178 194 208 175 193 174 118
120 176 105 93 105 57 78 108 54 66 161 77 83 151 68 87 152 70
67 160 71 77 152 69 80 155 72 88 149 71 72 152 65 80 149 66 77 153 65
125 167 91 142 169 98 139 166 97 117 171 93 170 178 119 192 174 124
187 178 123 153 115 66 167 114 64 162 109 55 181 58 42 199 49 35
192 53 34 186 55 37 194 51 45 190 56 47 208 52 40 183 67 30 193 58 39
196 64 43 154 111 60 170 178 118 198 207 160 203 198 168 202 202 178
189 199 175 189 181 134 121 172 95 169 107 58 136 116 53 165 114 67
142 112 58 162 114 52 195 173 90 197 182 81 191 177 72 196 182 75
198 184 77 191 176 73 195 180 79 201 187 82 193 179 72 199 178 89
191 183 76 204 198 172 198 204 168 196 205 160 199 205 171
198 202 175 197 201 174 198 203 171 197 203 167 197 204 163
198 205 164 199 205 171 198 203 171 198 203 173 198 203 171
204 197 191 200 210 175 121 172 95 76 113 46 74 46 42 83 24 52
61 48 55 63 37 40 83 35 57 93 109 47 151 104 60 191 203 183
216 182 170 194 192 153 202 201 181 195 206 148 194 199 167
194 199 167 194 199 167 194 199 167 194 199 167 194 199 167
194 199 167 194 199 167 195 198 167 195 198 167 195 198 167
195 198 167 195 198 167 195 198 167 195 198 167 195 198 167
192 190 141 192 190 141 192 190 141 192 190 141 192 190 141
192 190 141 192 190 141 192 190 141 192 190 141 192 190 141
192 190 141 192 190 141 192 190 141 192 190 141 192 190 141
192 190 141 196 188 139 198 181 135 194 186 137 200 189 143
183 185 135 141 76 48 131 101 63 118 88 50 128 82 49 129 95 58
120 89 58 65 44 25 66 36 38 68 36 51 57 36 45 50 40 39 63 36 45
63 36 43 66 39 46 64 37 44 65 35 43 63 35 34 76 50 35 113 89 61
113 96 53 68 48 41 58 30 42 75 40 44 66 35 40 51 33 49 66 45 50
121 89 64 195 180 125 186 180 132 136 167 97 124 157 100 114 93 62
140 81 65 58 37 36 64 40 40 92 134 71 74 140 66 80 138 64 86 131 64
79 130 64 115 154 89 134 161 92 124 165 86 131 169 96 122 159 90
83 134 65 76 127 58 129 166 97 127 169 95 130 163 94 192 189 134
195 196 136 192 192 130 163 119 72 174 58 33 200 52 40 180 58 37
190 63 46 190 58 45 191 61 45 187 57 31 176 58 28 187 57 41 179 64 43
198 57 39 165 61 32 208 184 138 188 199 133 192 188 143 184 188 127
126 158 91 132 160 86 136 93 51 73 37 51 65 45 72 87 37 36 63 33 45
73 50 56 73 32 40 72 38 54 81 34 44 63 47 34 88 33 52 72 38 37
68 38 48 82 51 59 81 43 40 71 33 30 83 52 60 65 35 45 74 40 39
72 46 49 74 45 50 74 43 51 74 43 49 74 45 49 72 43 45 70 39 44
76 43 50 66 40 41 76 42 30 81 51 40 187 118 63 178 123 66 172 121 68
185 119 69 179 125 63 216 181 77 181 174 122 184 178 120 173 122 65
74 118 69 80 33 53 67 44 54 64 46 24 68 46 32 78 114 52 170 125 60
186 177 120 195 215 180 192 192 156 197 219 173 194 200 186
194 204 177 197 208 178 197 207 173 199 209 175 196 206 172
194 204 170 201 208 175 202 207 175 185 180 122 114 160 95 88 104 55
68 114 52 68 157 73 83 151 66 79 158 69 77 155 71 82 151 70 84 153 72
95 149 73 120 183 102 126 172 97 118 171 93 134 167 96 134 164 92
116 178 93 137 164 93 134 180 107 189 162 115 184 177 123 180 186 124
145 114 59 151 116 58 151 110 46 202 71 51 182 59 52 199 44 50
190 57 50 190 50 37 205 37 36 192 58 47 156 114 64 149 106 55
127 170 90 178 179 121 190 183 137 199 197 159 202 197 165
200 212 176 186 174 124 124 167 88 157 121 63 155 110 55 158 116 66
153 109 60 165 116 60 158 119 52 201 183 85 198 180 78 196 182 75
200 186 79 194 181 77 190 177 73 195 181 76 195 181 74 199 180 77
194 186 79 206 200 168 198 202 167 196 204 167 197 203 167
199 203 176 198 204 176 197 202 172 197 203 169 198 205 164
199 206 165 199 205 171 198 203 173 198 202 175 199 203 176
194 208 146 126 170 91 79 108 52 75 47 35 72 25 31 82 35 53 74 48 57
80 35 29 53 49 38 75 41 13 90 31 51 68 114 52 182 209 166 205 200 180
189 195 159 201 189 175 195 198 167 195 198 167 195 198 167
195 198 167 195 198 167 195 198 167 195 198 167 195 198 167
195 198 167 195 198 167 195 198 167 195 198 167 195 198 167
195 198 167 195 198 167 195 198 167 192 190 141 192 190 141
192 190 141 192 190 141 192 190 141 192 190 141 192 190 141
192 190 141 192 190 141 192 190 141 192 190 141 192 190 141
192 190 141 192 190 141 192 190 141 192 190 141 184 193 138
200 190 141 194 190 142 190 194 143 187 181 133 187 191 140
206 178 138 190 179 133 179 184 126 151 143 94 115 92 51 127 93 65
126 89 71 62 33 27 82 39 49 81 29 52 65 38 43 65 38 43 65 38 45
63 36 45 67 39 51 67 37 45 61 32 34 66 38 34 72 37 33 55 32 42
59 39 48 66 35 33 75 35 44 63 29 53 62 42 35 197 180 128 186 201 158
196 197 163 188 202 141 184 195 137 133 165 102 124 87 58 57 38 42
71 27 52 78 132 57 71 131 57 85 136 67 86 131 66 85 131 67
130 165 101 140 165 97 124 163 84 134 165 97 121 153 88 85 135 66
85 135 66 117 157 87 118 164 89 123 160 90 189 192 135 187 188 128
187 208 141 174 115 73 196 56 41 193 60 43 185 52 35 192 54 41
189 53 41 188 56 41 194 49 28 222 177 120 179 60 40 189 47 37
196 53 36 201 58 42 179 188 133 192 193 136 194 203 150 202 194 129
135 155 83 113 101 49 125 84 52 77 37 38 64 38 49 62 53 38 72 40 51
71 39 42 73 45 42 86 39 57 61 50 48 75 42 37 64 43 50 69 44 40
74 37 45 66 39 46 46 46 38 60 60 52 65 38 45 72 35 43 70 45 41
70 42 39 66 34 39 74 36 47 77 41 51 68 37 43 72 43 48 80 47 58
72 33 52 81 31 68 74 46 43 61 41 40 166 129 61 185 118 66 162 124 61
176 127 51 202 180 81 175 180 122 186 126 66 88 113 56 75 46 38
60 43 33 83 35 49 52 45 53 95 35 61 78 36 60 79 34 54 76 34 46
184 123 78 184 182 121 204 206 185 220 197 165 197 206 185
198 202 165 202 212 178 193 208 179 189 205 179 194 207 179
204 208 175 202 198 161 183 174 133 176 186 126 83 108 51 85 112 59
99 147 85 81 156 74 77 153 65 83 159 71 73 142 61 82 162 77 71 155 69
81 146 66 112 170 93 140 163 95 137 167 97 137 168 98 119 172 94
118 167 85 128 169 93 137 158 91 132 173 103 191 178 126 192 179 126
126 164 91 162 111 64 165 117 69 181 51 25 198 53 34 191 52 47
69 47 24 83 47 33 73 114 58 76 117 41 135 168 97 127 174 96
117 175 91 144 171 102 115 171 98 134 169 105 177 188 132 190 169 122
193 177 125 184 172 112 157 116 60 170 118 68 141 114 59 163 112 65
159 107 57 130 117 47 189 168 75 203 185 85 193 179 74 190 178 70
197 184 79 194 181 77 194 180 75 194 180 73 191 179 59 193 189 82
205 201 164 198 201 170 198 203 180 196 202 168 199 204 174
198 205 171 199 203 178 199 204 174 198 204 170 197 203 169
197 202 172 197 201 174 198 202 175 198 203 173 207 199 176 96 97 79
53 35 35 88 40 56 81 40 48 69 37 40 66 44 46 89 31 43 80 110 82
157 117 58 84 104 45 84 41 58 81 106 67 192 200 176 197 197 161
193 200 158 195 198 167 195 198 167 195 198 167 195 198 167
195 198 167 195 198 167 195 198 167 195 198 167 195 198 167
195 198 167 195 198 167 195 198 167 195 198 167 195 198 167
195 198 167 195 198 167 192 190 141 192 190 141 192 190 141
192 190 141 192 190 141 192 190 141 192 190 141 192 190 141
192 190 141 192 190 141 192 190 141 192 190 141 192 190 141
192 190 141 192 190 141 192 190 141 195 195 145 181 183 133
186 193 141 193 197 146 192 192 142 195 199 148 187 185 136
194 194 144 201 200 143 197 187 134 186 180 128 124 86 49 129 94 64
63 40 22 53 31 33 57 39 51 64 38 41 64 37 42 63 36 45 65 37 49
67 39 51 63 35 47 62 34 46 67 40 49 64 30 54 76 43 52 66 40 41
55 32 40 68 36 49 84 44 44 110 87 56 201 204 149 206 193 161
196 204 167 203 194 137 200 192 130 123 168 87 125 86 45 67 35 38
68 45 61 84 142 66 80 130 59 85 130 65 81 130 65 84 133 67 122 157 91
133 164 96 125 163 90 124 157 88 133 168 102 74 123 57 93 144 75
93 133 63 87 133 58 129 166 96 189 192 135 197 187 134 141 160 96
140 95 53 180 53 36 179 58 37 204 56 46 202 51 42 192 56 42 184 54 40
191 55 31 174 118 67 181 62 42 198 54 45 201 62 43 168 54 28
193 200 146 213 180 139 180 179 131 194 192 133 120 171 96 87 126 71
73 129 66 81 144 73 71 139 66 84 130 55 84 131 63 70 140 67 81 131 72
60 43 27 66 36 36 75 48 55 75 37 60 73 39 40 74 45 49 76 41 48
84 34 46 87 37 49 70 35 42 77 48 52 71 37 38 70 42 38 81 46 52
78 36 50 75 37 48 74 45 47 66 42 40 69 38 44 74 35 53 68 44 42
66 34 47 70 45 49 114 102 54 178 128 59 184 183 139 181 183 118
199 172 117 178 121 54 83 32 47 86 36 35 52 39 31 78 52 55 70 44 31
74 48 61 74 34 24 82 36 36 63 47 60 72 39 60 72 48 38 72 103 33
182 175 121 192 210 184 191 205 169 205 207 167 196 206 172
188 204 178 195 210 187 199 208 179 199 199 161 195 191 144
180 173 121 143 160 105 84 107 55 73 103 51 76 111 53 78 149 69
71 156 65 84 145 65 90 165 83 78 151 69 76 156 71 115 172 95
135 172 102 189 180 125 179 177 120 169 179 118 131 171 100
138 166 92 140 178 101 122 169 91 112 175 94 195 175 124 160 178 116
191 177 128 182 176 126 153 115 53 149 106 55 95 113 55 81 109 58
81 103 57 68 102 52 89 109 60 71 151 82 66 158 71 66 149 61 96 153 72
102 140 65 84 149 67 114 167 89 134 166 91 131 170 89 186 184 127
180 180 118 139 117 59 144 113 56 162 114 65 155 114 62 161 105 56
157 128 68 151 127 37 196 176 79 199 182 78 189 177 69 196 183 78
195 182 78 196 182 77 196 179 73 185 177 66 193 189 100 201 201 165
198 202 175 200 204 187 196 202 164 198 203 171 197 203 169
198 202 177 199 204 174 197 202 170 196 201 171 199 203 176
202 207 177 198 204 168 191 198 157 112 164 82 72 50 36 94 48 51
78 32 42 87 35 71 74 38 42 69 104 48 78 109 65 145 111 39 214 189 182
121 173 90 81 108 63 58 38 13 153 114 55 196 206 172 201 195 159
195 198 167 195 198 167 195 198 167 195 198 167 195 198 167
195 198 167 195 198 167 195 198 167 195 198 167 195 198 167
195 198 167 195 198 167 195 198 167 195 198 167 195 198 167
195 198 167 192 190 141 192 190 141 192 190 141 192 190 141
192 190 141 192 190 141 192 190 141 192 190 141 192 190 141
192 190 141 192 190 141 192 190 141 192 190 141 192 190 141
192 190 141 192 190 141 195 187 140 194 194 144 198 187 141
188 188 138 183 190 138 202 183 140 188 195 143 193 187 139
165 188 132 197 197 143 180 194 132 129 86 52 118 91 70 64 39 35
67 42 46 70 34 44 62 36 39 63 36 43 63 36 45 65 38 47 64 37 44
60 33 40 62 35 42 67 40 49 66 42 56 63 31 36 65 32 39 63 37 48
60 40 33 111 91 54 197 187 136 189 196 154 195 208 154 177 201 151
205 186 130 141 164 94 124 158 82 115 98 46 63 45 35 45 33 35
77 134 63 87 129 65 91 133 70 79 136 68 76 132 61 91 134 63
117 157 87 121 166 97 123 166 95 87 132 65 85 140 72 72 125 55
90 127 58 126 166 93 128 157 90 199 192 137 143 156 100 104 90 41
127 85 43 184 63 46 184 59 41 195 51 40 194 47 37 189 59 43 185 53 41
187 63 39 183 63 36 191 59 46 182 48 36 179 47 26 177 133 84
200 186 139 204 186 136 198 197 149 200 199 143 130 161 93 86 123 71
132 161 103 134 168 84 139 155 82 124 163 98 132 158 87 131 162 92
84 137 65 74 133 65 77 55 31 61 41 34 82 33 36 72 43 47 68 38 40
76 44 49 78 43 50 72 37 44 73 41 46 70 40 42 71 42 46 66 42 38
77 42 49 76 35 51 75 40 47 66 46 37 63 47 31 71 51 40 75 43 44
76 40 52 78 50 47 87 29 41 175 125 74 192 169 117 174 187 117
176 177 117 171 130 68 64 50 65 67 41 54 64 46 62 82 41 49 69 41 37
71 40 56 65 34 49 64 47 37 72 41 21 63 50 41 75 39 27 77 38 59
79 51 37 161 130 75 192 200 176 195 216 177 203 211 174 192 203 171
193 203 176 206 211 181 199 200 160 182 184 134 169 178 121
146 164 104 85 110 55 74 98 48 83 111 62 81 112 55 84 153 73
77 163 72 87 150 69 69 148 67 80 149 68 83 152 71 132 174 102
134 159 93 196 176 125 193 177 125 195 179 127 173 179 119 120 171 94
134 154 85 124 171 91 133 170 93 129 159 89 182 189 135 206 212 166
185 172 137 191 177 128 141 168 97 164 103 58 81 110 46 94 100 62
90 118 77 75 146 76 89 155 68 87 154 75 85 158 76 70 154 66 72 156 68
82 155 73 86 161 78 125 169 90 125 175 88 131 162 95 138 171 100
140 160 89 135 116 57 160 117 66 169 113 64 152 117 61 160 98 51
150 124 37 195 172 78 201 183 81 195 183 75 195 182 77 191 178 73
198 184 79 196 179 73 193 187 109 197 196 139 199 202 175 193 203 169
200 205 183 196 204 157 200 203 172 197 200 173 197 202 170
199 204 172 197 202 172 196 200 173 201 205 178 200 206 170
182 190 143 158 167 110 78 118 58 72 38 29 82 24 48 60 44 45
60 110 59 78 50 11 65 113 63 73 44 38 79 113 63 159 113 61 131 166 82
129 166 88 87 45 46 74 110 62 189 206 172 196 192 181 195 198 167
195 198 167 195 198 167 195 198 167 195 198 167 195 198 167
195 198 167 195 198 167 195 198 167 195 198 167 195 198 167
195 198 167 195 198 167 195 198 167 195 198 167 195 198 167
192 190 141 192 190 141 192 190 141 192 190 141 192 190 141
192 190 141 192 190 141 192 190 141 192 190 141 192 190 141
192 190 141 192 190 141 192 190 141 192 190 141 192 190 141
192 190 141 181 191 138 202 188 143 201 188 143 189 191 141
184 193 140 186 196 143 197 186 140 189 193 142 199 193 157
190 178 130 132 163 95 133 89 64 61 33 32 70 31 52 66 43 53 59 35 31
64 37 44 66 39 48 63 35 47 63 36 43 65 39 42 66 40 39 67 41 42
61 34 39 59 39 28 60 37 43 74 41 60 70 33 41 110 94 61 141 151 88
194 205 149 199 194 164 196 194 143 190 205 164 197 192 150
98 164 103 135 91 66 148 74 61 70 33 41 62 41 56 77 134 65 90 128 69
86 127 67 75 138 68 77 141 65 78 128 55 93 140 70 79 130 61 83 137 62
79 132 62 73 134 64 82 137 69 126 161 93 128 161 90 180 201 136
201 184 132 116 173 104 129 85 50 141 87 51 188 51 41 196 54 44
183 58 40 188 58 42 178 57 38 199 51 47 190 55 35 187 55 34 193 55 45
198 54 46 187 58 37 204 188 129 190 188 137 189 193 132 191 188 137
191 195 134 129 158 78 80 144 70 126 162 98 77 132 48 129 164 106
134 159 102 116 170 82 126 163 86 131 157 94 120 161 91 89 124 82
73 40 49 66 48 46 68 41 46 75 45 47 71 41 43 68 39 43 74 45 49
73 43 45 71 41 43 70 43 48 68 47 46 68 36 47 81 43 58 69 39 41
67 52 33 154 148 116 181 170 142 72 49 33 67 44 38 69 39 49 76 49 42
73 32 50 194 178 119 182 181 125 119 159 89 84 36 52 76 40 28
70 43 34 70 32 53 80 41 59 71 41 49 77 41 45 77 43 33 77 41 53
83 37 65 65 45 46 71 43 57 55 47 36 82 34 50 75 37 50 189 176 131
200 204 167 190 205 176 196 209 183 204 208 181 204 200 163
191 185 133 174 180 118 134 161 94 71 116 51 73 106 51 87 111 63
86 109 63 68 108 48 86 148 71 75 155 66 75 157 72 80 157 79 75 159 73
77 155 71 124 172 98 128 165 95 178 179 121 183 184 126 185 172 119
190 181 126 125 165 94 132 173 97 121 168 87 132 177 96 134 164 92
185 171 124 203 205 165 193 209 172 188 176 128 167 183 121
180 189 126 136 165 101 70 111 51 74 109 51 74 158 72 79 154 61
90 148 71 66 161 69 88 151 70 70 160 72 86 150 74 69 152 70 74 160 71
143 158 89 125 171 99 118 166 92 187 178 119 134 175 97 154 108 56
156 110 58 148 119 61 154 115 60 197 171 86 206 183 90 194 176 74
194 182 74 195 182 77 191 178 73 199 185 80 194 177 71 206 199 153
205 204 173 199 204 184 190 200 163 198 205 174 197 204 152
203 203 175 198 200 179 197 203 167 200 206 172 199 204 172
197 201 174 199 204 174 190 197 156 154 163 106 116 127 58 80 103 61
70 43 48 84 35 39 72 38 29 76 40 52 75 41 42 85 34 33 75 35 59
75 35 36 76 42 41 71 110 63 87 104 60 63 38 44 82 38 55 124 167 78
201 198 163 196 199 168 196 199 168 196 199 168 196 199 168
196 199 168 196 199 168 196 199 168 196 199 168 195 198 167
195 198 167 195 198 167 195 198 167 195 198 167 195 198 167
195 198 167 195 198 167 192 190 141 192 190 141 192 190 141
192 190 141 192 190 141 192 190 141 192 190 141 192 190 141
192 190 141 192 190 141 192 190 141 192 190 141 192 190 141
192 190 141 192 190 141 192 190 141 192 190 141 192 190 141
192 190 141 192 190 141 192 190 141 192 190 141 192 190 141
192 190 141 197 190 138 191 192 135 130 159 95 122 96 69 56 37 30
70 29 43 73 40 49 38 46 35 64 38 49 63 39 52 59 37 49 60 36 50
59 31 46 65 34 50 69 41 56 60 36 49 77 29 51 68 36 39 53 41 19
117 97 62 133 157 97 192 195 142 204 207 160 188 195 153 194 203 146
207 193 166 182 200 150 125 160 78 123 93 55 78 35 52 43 38 35
83 133 64 78 133 68 81 136 68 77 130 60 83 136 66 79 131 65 82 133 67
78 128 59 85 135 62 88 134 72 76 137 67 75 131 56 98 129 59
134 160 89 130 163 92 172 194 129 198 195 142 144 153 96 121 91 53
124 98 63 186 48 45 189 62 47 191 54 38 184 50 38 196 54 50 199 51 49
175 59 44 199 50 43 178 64 38 188 47 29 200 52 42 193 189 144
186 212 167 201 201 151 179 197 139 120 161 93 85 137 65 81 132 65
83 132 66 84 134 63 83 133 60 129 163 86 129 165 95 128 165 98
122 159 89 125 162 85 133 163 93 100 123 71 42 57 24 78 39 60
66 41 37 75 43 46 83 41 53 57 42 39 81 40 54 75 33 53 74 43 41
63 40 50 79 47 58 70 36 35 77 48 40 70 38 51 192 175 105 176 178 141
126 163 83 75 46 38 66 33 50 76 46 44 64 35 29 196 172 138
202 180 130 63 34 26 76 45 51 71 37 51 71 42 47 69 46 38 67 44 36
73 43 41 79 44 50 73 36 54 75 38 56 79 43 47 76 41 45 62 41 56
76 37 42 76 47 41 54 43 47 197 178 120 191 209 169 191 204 174
203 205 183 195 204 175 193 212 166 192 172 122 190 178 120
122 164 98 80 108 57 77 114 62 82 102 53 80 107 54 87 110 56
69 160 80 87 151 73 78 150 66 78 157 66 79 154 71 80 158 74 81 153 69
114 171 92 133 171 96 137 167 95 129 161 86 128 165 88 133 167 93
70 154 68 81 156 73 130 166 94 144 167 97 167 182 123 205 207 170
206 201 181 191 206 163 201 179 138 180 178 127 73 106 51 63 122 54
88 152 68 93 148 65 71 156 71 76 156 71 81 153 71 72 152 67 77 159 74
86 151 71 84 147 68 86 147 69 125 171 98 127 165 88 127 167 94
181 185 126 185 175 122 131 162 92 153 120 66 155 119 59 141 122 53
163 118 59 193 168 68 199 187 69 192 178 79 201 180 91 199 179 82
186 176 91 186 184 127 198 203 171 198 203 171 198 203 171
198 203 171 198 203 171 198 203 171 198 203 171 198 203 171
193 197 172 206 206 168 195 205 168 200 199 181 195 203 166
121 175 91 134 118 59 87 105 67 92 103 61 54 38 22 83 40 49 74 43 51
63 45 41 78 34 33 92 39 45 58 42 42 75 42 37 85 37 33 73 30 57
74 51 43 64 37 42 75 41 39 147 119 46 187 198 182 195 198 167
195 198 167 195 198 167 195 198 167 195 198 167 195 198 167
195 198 167 195 198 167 195 198 167 195 198 167 195 198 167
195 198 167 195 198 167 195 198 167 195 198 167 195 198 167
192 190 141 192 190 141 192 190 141 192 190 141 192 190 141
192 190 141 192 190 141 192 190 141 192 190 141 192 190 141
192 190 141 192 190 141 192 190 141 192 190 141 192 190 141
192 190 141 192 190 141 192 190 141 192 190 141 192 190 141
192 190 141 192 190 141 192 190 141 192 190 141 179 193 142
199 192 140 201 178 128 122 86 50 119 90 74 67 32 38 73 45 59
74 29 50 66 34 35 66 38 37 60 35 30 65 40 33 74 45 41 69 39 37
60 32 31 66 41 44 72 37 31 107 92 71 123 96 69 135 156 100
199 185 138 191 216 159 198 195 154 192 199 158 186 201 144
200 201 167 186 174 134 142 168 94 72 132 60 128 82 84 71 43 39
80 130 67 83 129 64 83 133 64 82 132 61 81 131 62 82 131 66 87 135 73
88 134 70 83 129 64 73 130 59 128 165 98 130 167 98 118 170 95
125 158 89 195 193 136 199 196 141 129 155 90 125 167 93 112 91 44
119 85 47 211 47 48 183 56 37 178 60 34 203 68 49 181 54 37 182 56 41
183 60 44 191 58 43 198 55 39 181 67 41 175 116 76 205 188 144
185 192 148 187 196 143 136 160 100 93 136 67 81 134 64 82 135 67
79 125 60 89 134 65 122 168 95 128 160 85 129 162 93 124 159 93
128 166 93 135 174 95 120 158 83 97 132 74 93 124 82 62 52 43
65 47 45 83 27 38 64 53 49 69 36 45 72 37 44 77 42 46 74 45 47
71 39 44 72 43 48 68 34 35 80 41 44 67 38 60 187 188 130 201 196 176
195 178 132 68 38 36 80 47 64 70 40 40 76 46 44 69 42 23 151 127 93
75 45 43 73 42 47 79 42 50 72 40 41 69 40 44 71 41 43 75 40 44
70 35 39 73 43 32 75 49 32 52 36 21 71 50 47 73 41 54 74 40 41
73 43 43 83 36 56 130 162 89 199 210 180 195 209 176 205 207 183
197 206 179 192 210 168 193 176 130 189 178 122 126 169 100 84 113 57
78 104 56 83 113 63 87 111 61 75 110 52 75 103 44 84 144 70 77 157 70
66 163 68 79 151 69 78 151 69 79 151 67 90 155 73 121 175 97
122 175 95 114 173 91 93 158 74 77 152 67 76 160 74 82 154 72
70 154 66 114 167 89 182 185 132 193 210 166 191 207 178 182 174 128
175 185 125 135 170 104 85 103 53 82 112 58 72 147 65 85 159 74
84 156 80 91 150 70 77 157 70 83 152 69 80 149 66 67 162 70 84 159 74
133 171 98 126 168 94 123 178 95 132 163 93 183 176 122 204 177 134
180 179 125 130 170 99 120 161 85 174 103 61 155 110 55 161 129 68
190 174 86 197 191 79 181 172 71 191 182 117 206 205 161 191 202 159
198 203 171 198 203 171 198 203 171 198 203 171 198 203 171
198 203 171 198 203 171 198 203 171 202 208 182 205 205 167
194 200 164 201 204 183 204 210 174 119 163 84 102 104 41 85 106 65
86 107 64 74 51 37 81 35 45 69 39 47 63 34 36 85 43 44 74 34 35
70 45 48 79 34 37 69 43 46 72 42 42 60 32 28 83 38 61 91 37 37
87 108 39 211 195 170 195 198 167 195 198 167 195 198 167 195 198 167
195 198 167 195 198 167 195 198 167 195 198 167 195 198 167
195 198 167 195 198 167 195 198 167 195 198 167 195 198 167
195 198 167 195 198 167 192 190 141 192 190 141 192 190 141
192 190 141 192 190 141 192 190 141 192 190 141 192 190 141
192 190 141 192 190 141 192 190 141 192 190 141 192 190 141
192 190 141 192 190 141 192 190 141 192 190 141 192 190 141
192 190 141 192 190 141 192 190 141 192 190 141 192 190 141
192 190 141 203 190 156 180 191 135 181 196 127 133 164 94 119 93 60
80 30 31 54 31 41 70 32 55 63 34 38 67 40 49 63 36 51 61 30 48
71 34 51 71 32 35 74 38 26 117 85 62 105 97 58 121 93 56 134 144 92
206 208 158 190 203 150 188 185 142 181 203 157 206 200 168
188 205 151 199 195 158 207 208 164 125 162 92 90 127 58 88 126 75
59 44 21 98 121 77 82 131 66 83 134 65 82 138 65 78 135 64 76 132 67
76 132 69 78 134 69 78 133 66 93 133 60 119 159 88 129 170 100
118 153 87 187 196 139 200 190 139 194 193 137 138 158 95 128 166 93
136 86 49 132 87 54 135 89 56 190 49 42 198 56 44 196 56 41 184 51 34
204 57 39 180 51 30 200 52 40 185 63 42 157 113 66 201 201 141
191 200 143 198 202 152 131 155 97 89 125 61 79 129 58 82 138 67
86 139 71 83 129 64 90 131 63 117 157 86 130 164 90 131 164 95
126 158 91 125 161 89 127 168 89 111 155 76 89 136 68 82 132 73
85 125 73 79 37 41 75 46 48 69 43 42 74 40 54 74 46 45 77 43 34
62 39 45 75 39 43 78 48 50 72 42 40 69 39 41 62 48 61 126 146 83
187 204 168 174 182 123 75 44 50 61 29 44 75 45 45 75 45 47 68 38 36
74 46 35 73 42 48 69 39 41 72 38 39 72 42 32 78 43 63 76 40 50
73 33 41 81 45 47 148 126 79 193 177 125 91 109 71 83 42 48 59 47 49
77 35 37 78 36 46 77 32 52 79 123 48 193 205 181 193 204 170
198 202 175 196 205 178 188 206 168 194 182 140 182 177 122
124 167 96 81 111 49 86 101 58 94 103 60 72 106 55 82 112 58
75 119 56 87 155 80 65 158 69 94 148 70 74 152 68 80 160 75 79 159 74
74 149 66 82 154 72 77 149 65 80 155 70 69 152 64 69 155 68 79 154 72
90 148 72 72 167 77 130 176 103 186 165 120 202 218 173 194 201 168
196 180 128 131 163 88 91 152 75 90 103 57 82 98 53 75 154 75
74 160 73 77 147 74 83 155 71 72 150 64 131 177 102 126 166 93
75 150 65 79 151 67 122 166 91 125 176 99 138 166 91 126 166 93
186 178 129 190 204 153 184 211 158 193 175 137 194 172 131
132 174 108 129 169 81 119 160 92 121 163 91 140 175 83 167 185 111
198 198 170 209 208 190 198 204 166 198 203 171 198 203 171
198 203 171 198 203 171 198 203 171 198 203 171 198 203 171
198 203 171 190 201 171 203 205 166 200 200 166 190 200 176
200 204 171 134 165 97 85 112 45 81 107 62 75 108 63 68 38 27
78 31 41 69 38 46 81 44 51 77 38 41 63 33 33 79 44 50 77 41 53
68 39 35 71 51 53 81 38 32 84 28 53 59 48 52 143 106 54 188 206 164
195 198 167 195 198 167 195 198 167 195 198 167 195 198 167
195 198 167 195 198 167 195 198 167 195 198 167 195 198 167
195 198 167 195 198 167 195 198 167 195 198 167 195 198 167
195 198 167 192 190 141 192 190 141 192 190 141 192 190 141
192 190 141 192 190 141 192 190 141 192 190 141 192 190 141
192 190 141 192 190 141 192 190 141 192 190 141 192 190 141
192 190 141 192 190 141 192 190 141 192 190 141 192 190 141
192 190 141 192 190 141 192 190 141 192 190 141 192 190 141
188 184 146 192 199 147 199 189 130 187 192 128 130 87 52 121 84 65
71 44 37 64 38 37 66 42 64 52 29 45 64 44 46 61 36 29 122 89 70
125 88 61 123 84 51 131 96 58 146 149 94 198 191 139 187 197 144
188 196 145 196 205 158 204 206 166 188 201 158 201 199 161
197 200 155 195 196 154 175 195 146 175 199 141 143 166 98 81 132 57
67 134 67 56 51 22 90 129 74 89 130 70 75 124 58 78 131 63 83 138 71
83 138 71 77 130 62 85 137 65 142 164 91 118 165 87 122 162 92
194 196 146 208 195 151 198 205 153 182 195 139 191 190 134
124 165 97 121 160 97 130 86 57 128 91 62 121 97 61 176 47 41
202 47 43 194 62 49 189 58 30 191 59 38 190 48 34 186 113 78
205 206 146 184 193 130 190 187 132 207 185 138 121 160 97 95 140 73
84 137 65 74 131 60 77 129 63 92 137 72 122 159 90 139 172 101
126 164 91 124 160 90 129 162 93 129 163 89 125 162 84 126 169 90
113 161 87 84 135 68 77 134 63 69 46 32 62 48 48 81 33 47 69 36 45
68 43 39 72 39 34 76 49 58 69 47 50 66 35 40 72 38 39 79 45 46
83 42 50 165 129 77 193 175 127 175 186 108 76 45 53 77 46 52
63 33 33 77 46 51 72 41 49 73 42 50 66 35 41 74 44 42 60 51 46
61 50 30 67 43 65 71 38 45 74 33 37 85 40 47 161 128 75 196 168 118
91 101 64 66 36 44 73 48 52 74 40 39 78 43 50 89 43 54 120 164 87
197 200 179 199 209 174 198 207 176 205 211 185 194 211 177
201 197 159 184 182 133 127 167 97 80 109 42 72 109 57 82 114 64
95 104 61 70 105 51 86 104 52 78 152 77 82 153 75 84 146 69 73 157 72
77 161 76 68 150 66 78 157 74 79 154 72 81 154 72 80 153 71 85 158 76
85 154 74 73 152 69 83 152 71 83 141 64 145 161 99 186 175 129
203 210 166 186 178 142 178 186 126 133 163 91 63 113 42 84 106 60
91 117 70 79 151 75 77 155 69 76 153 71 64 158 64 130 177 99
127 159 86 132 170 95 130 171 95 90 154 70 81 153 67 128 170 94
132 166 89 121 174 96 192 175 131 212 202 166 200 208 171 176 204 163
197 209 171 190 201 159 193 175 129 196 184 134 180 173 127
180 174 138 208 201 175 211 203 182 195 193 168 198 202 175
198 203 171 198 203 171 198 203 171 198 203 171 198 203 171
198 203 171 198 203 171 198 203 171 201 212 180 196 202 164
203 198 168 193 208 179 201 202 170 146 161 104 69 116 48 77 103 56
69 107 60 73 54 37 86 39 45 73 33 42 78 41 49 73 38 42 77 45 48
72 32 40 66 36 46 73 44 40 81 34 54 77 34 28 66 44 46 82 40 52
138 165 96 200 197 162 195 198 167 195 198 167 195 198 167
195 198 167 195 198 167 195 198 167 195 198 167 195 198 167
195 198 167 195 198 167 195 198 167 195 198 167 195 198 167
195 198 167 195 198 167 195 198 167 192 190 141 192 190 141
192 190 141 192 190 141 192 190 141 192 190 141 192 190 141
192 190 141 192 190 141 192 190 141 192 190 141 192 190 141
192 190 141 192 190 141 192 190 141 192 190 141 192 190 141
192 190 141 192 190 141 192 190 141 192 190 141 192 190 141
192 190 141 192 190 141 196 185 140 200 194 144 198 184 135
184 187 132 188 190 140 139 157 105 119 86 53 125 96 64 70 31 32
75 40 44 60 30 38 74 44 52 62 34 33 120 95 75 119 101 61 150 139 85
192 192 142 184 205 149 199 196 153 191 207 160 194 195 155
184 201 156 201 193 154 187 196 151 198 197 153 199 206 162
195 202 158 195 203 154 127 160 91 124 161 83 80 133 63 88 130 84
36 61 21 87 117 67 98 136 77 92 134 70 82 127 60 92 135 66 96 136 66
119 157 84 120 157 79 145 166 99 184 189 135 198 200 153 199 202 159
186 192 146 195 197 148 191 191 141 129 160 92 111 165 90 140 90 55
103 86 42 148 84 57 135 97 58 119 93 42 163 126 74 163 122 70
184 121 80 121 169 95 178 198 135 200 184 132 182 194 130 216 193 143
112 166 91 85 136 69 79 130 61 76 132 61 82 137 69 83 135 69
85 131 66 123 160 91 128 158 86 124 166 92 121 158 88 129 162 91
134 166 93 129 161 86 131 165 89 132 170 97 122 164 92 95 127 62
90 137 83 79 39 47 71 33 54 80 39 45 80 50 48 66 43 49 74 32 44
70 40 50 76 41 47 78 46 51 62 40 43 61 39 42 70 55 14 141 147 99
129 164 96 71 40 48 72 42 42 74 44 44 69 39 41 71 39 50 71 39 54
77 47 49 70 41 37 87 34 52 80 35 29 78 34 57 77 41 41 77 49 45
64 48 51 93 101 52 86 104 62 65 50 29 67 36 52 68 41 48 74 44 44
64 41 35 57 45 29 183 188 124 202 205 176 198 205 171 190 204 171
200 206 180 190 205 174 197 201 166 179 180 136 132 164 101 87 112 47
83 116 63 54 104 45 82 109 58 101 149 91 80 103 51 73 113 51
86 117 57 75 152 74 85 149 75 88 152 78 78 144 70 87 155 78 84 155 77
81 154 73 77 148 68 80 149 68 85 152 73 76 162 75 74 162 75
130 159 93 174 182 125 205 220 165 177 175 127 170 180 130
132 163 104 89 111 49 81 112 53 88 109 66 64 102 51 86 159 78
78 151 61 80 159 68 81 161 72 135 158 88 136 168 95 117 172 91
128 166 91 111 175 91 79 158 69 139 162 92 127 174 93 132 169 99
179 170 127 198 206 169 207 195 173 196 207 177 194 214 179
202 203 172 192 200 177 193 205 157 196 209 155 200 208 171
200 203 174 201 201 163 201 201 167 201 199 186 198 203 171
198 203 171 198 203 171 198 203 171 198 203 171 198 203 171
198 203 171 198 203 171 187 198 164 198 206 169 212 209 178
190 203 173 196 201 169 199 202 157 118 169 103 83 110 59 81 115 65
87 92 62 74 39 35 84 39 46 65 38 43 69 38 43 77 36 44 75 40 44
76 43 38 68 34 50 71 29 39 90 48 49 73 34 29 72 111 64 189 207 165
197 191 159 195 198 167 195 198 167 195 198 167 195 198 167
195 198 167 195 198 167 195 198 167 195 198 167 195 198 167
195 198 167 195 198 167 195 198 167 195 198 167 195 198 167
195 198 167 195 198 167 192 190 141 192 190 141 192 190 141
192 190 141 192 190 141 192 190 141 192 190 141 192 190 141
192 190 141 192 190 141 192 190 141 192 190 141 192 190 141
192 190 141 192 190 141 192 190 141 192 190 141 192 190 141
192 190 141 192 190 141 192 190 141 192 190 141 192 190 141
192 190 141 193 196 141 175 186 130 192 205 152 198 191 147
194 192 143 184 198 139 196 185 131 127 161 87 120 165 98 121 166 97
126 169 97 129 162 91 133 154 87 175 186 126 189 196 144 194 200 152
194 197 154 189 202 158 190 201 159 204 196 160 183 205 159
200 201 159 202 201 157 198 206 157 195 198 153 193 199 155
197 198 158 189 198 153 194 205 149 123 161 88 148 161 105 65 137 71
90 127 83 85 128 74 74 125 59 81 138 67 76 134 60 70 124 49 84 132 58
128 172 95 129 165 95 187 192 136 211 198 154 196 199 156 189 204 161
197 205 164 197 198 158 202 203 161 205 190 135 192 198 134
129 163 87 120 167 89 133 162 95 117 157 84 116 168 86 139 163 85
195 198 143 178 185 131 187 189 139 201 199 148 205 185 134
191 189 130 128 168 97 137 157 94 78 133 65 81 134 64 78 129 60
81 133 67 83 135 71 80 129 63 128 168 97 131 161 87 123 163 92
131 169 96 127 163 91 126 160 86 131 163 90 126 158 85 124 156 83
134 166 93 137 162 97 63 127 53 54 48 32 80 42 57 72 41 39 66 36 38
75 51 65 76 33 42 76 40 50 64 34 36 73 40 47 86 44 64 69 36 55
67 48 42 73 43 41 83 32 39 70 39 45 67 38 34 73 42 47 77 47 47
74 43 48 73 41 54 68 38 36 71 41 41 72 41 56 70 45 38 71 44 53
68 41 34 67 38 34 56 29 38 69 52 36 59 46 40 77 46 43 80 38 60
60 44 47 75 38 46 65 58 30 80 103 61 200 169 125 198 208 171
201 208 175 193 208 175 203 207 180 196 209 179 204 211 178
196 198 159 167 192 137 136 153 98 82 105 49 74 105 48 83 123 63
63 104 46 90 152 87 81 104 52 83 100 48 74 118 55 76 105 47 80 111 52
77 116 53 70 123 53 78 146 69 74 151 69 81 163 79 79 159 74 81 145 67
88 151 72 107 175 92 170 178 118 213 210 159 173 180 128 190 169 122
138 170 103 76 110 60 85 110 55 75 104 50 87 99 61 76 110 59
74 154 69 78 153 60 81 154 65 74 149 64 125 171 96 135 171 99
130 172 98 131 177 102 85 148 67 85 154 71 120 171 94 131 168 91
117 173 98 183 180 137 210 201 172 192 201 174 202 204 180
204 198 174 193 200 169 206 210 183 193 199 163 193 201 162
196 203 169 188 198 164 193 205 167 200 212 172 192 204 164
198 203 171 198 203 171 198 203 171 198 203 171 198 203 171
198 203 171 198 203 171 198 203 171 202 208 174 190 200 165
194 197 166 197 202 172 192 202 168 201 197 162 129 168 113 85 109 57
75 105 51 87 110 66 68 53 32 71 36 34 68 46 48 70 37 44 78 31 41
77 45 46 74 41 36 74 41 52 75 42 49 79 36 27 75 101 54 134 162 114
193 209 172 200 199 171 195 198 167 195 198 167 195 198 167
195 198 167 195 198 167 195 198 167 195 198 167 195 198 167
195 198 167 195 198 167 195 198 167 195 198 167 195 198 167
195 198 167 195 198 167 195 198 167 192 190 141 192 190 141
192 190 141 192 190 141 192 190 141 192 190 141 192 190 141
192 190 141 192 190 141 192 190 141 192 190 141 192 190 141
192 190 141 192 190 141 192 190 141 192 190 141 192 190 141
192 190 141 192 190 141 192 190 141 192 190 141 192 190 141
192 190 141 192 190 141 197 187 138 205 192 147 184 181 136
201 189 147 188 192 141 197 194 141 192 185 131 201 194 142
201 186 129 196 187 130 190 187 134 194 193 145 186 189 144
200 207 163 193 206 160 182 202 153 194 199 158 199 206 164
195 200 159 190 192 152 193 200 156 193 199 153 190 193 148
196 202 154 195 201 155 189 196 155 195 199 162 194 195 153
195 209 158 204 197 153 117 159 96 128 157 93 85 128 72 83 132 67
88 144 71 75 136 59 76 134 60 91 142 73 121 164 95 123 160 93
192 202 149 188 196 145 196 197 153 205 206 166 182 190 151
189 205 166 194 204 167 198 198 164 188 206 156 195 192 141
205 183 133 189 192 135 200 188 140 189 199 147 199 185 140
203 187 136 191 204 160 198 196 157 195 204 159 194 181 136
195 190 135 132 172 99 115 161 88 77 135 61 78 133 65 85 136 67
86 135 69 78 129 63 81 133 69 82 133 66 126 168 96 129 161 86
125 158 89 132 168 96 128 164 90 122 160 87 130 167 97 132 168 98
128 162 88 130 162 87 124 165 89 134 169 101 84 133 78 68 46 33
65 44 41 74 45 50 66 35 41 75 43 46 80 40 51 74 43 41 70 40 40
72 38 54 70 48 60 51 42 45 69 53 54 74 36 59 73 42 50 78 48 46
75 43 56 63 33 33 70 40 38 76 44 55 73 44 40 73 41 52 70 38 49
66 40 41 66 42 42 69 44 40 77 47 49 78 45 56 77 46 51 70 41 46
75 32 41 61 44 50 83 46 53 73 37 47 80 100 47 185 186 144 198 200 161
199 206 173 196 202 174 188 208 173 199 202 173 195 206 174
198 209 177 203 204 172 192 207 164 178 187 140 131 161 97 92 120 59
85 98 45 87 112 57 76 100 48 80 115 59 83 107 55 71 104 49 93 111 63
85 105 54 73 102 46 69 115 50 82 148 74 77 156 73 78 160 75 70 150 63
83 150 71 130 174 99 124 168 91 185 191 131 185 168 122 184 174 125
189 184 128 120 167 87 81 108 65 76 100 48 85 118 63 92 105 62
82 109 58 82 151 70 85 157 71 75 152 70 83 163 76 77 155 69
119 167 91 132 165 94 110 167 88 85 150 68 79 147 64 77 163 74
128 165 88 127 166 99 193 202 157 202 205 174 190 205 176 211 194 174
201 200 170 192 206 170 194 199 158 200 203 172 205 205 179
202 206 179 200 209 182 196 206 181 193 205 169 195 208 154
198 203 171 198 203 171 198 203 171 198 203 171 198 203 171
198 203 171 198 203 171 198 203 171 202 203 171 200 210 175
194 205 171 206 202 173 191 207 171 217 208 179 179 196 152
138 158 105 79 110 50 86 115 61 82 92 55 62 49 33 70 41 43 81 44 52
83 44 49 69 35 34 63 38 41 81 41 41 72 43 45 71 109 52 84 108 48
195 204 173 182 192 155 195 198 167 195 198 167 195 198 167
195 198 167 195 198 167 195 198 167 195 198 167 195 198 167
195 198 167 195 198 167 195 198 167 195 198 167 195 198 167
195 198 167 195 198 167 195 198 167 195 198 167 192 190 141
192 190 141 192 190 141 192 190 141 192 190 141 192 190 141
192 190 141 192 190 141 192 190 141 192 190 141 192 190 141
192 190 141 192 190 141 192 190 141 192 190 141 192 190 141
192 190 141 192 190 141 192 190 141 192 190 141 192 190 141
192 190 141 192 190 141 192 190 141 176 195 139 195 194 146
190 188 140 195 189 141 186 191 137 197 183 136 178 203 148
193 183 147 188 188 152 190 193 150 183 190 139 199 204 150
196 196 142 201 199 150 197 196 152 197 198 158 190 199 154
198 195 154 197 200 155 188 200 152 201 196 154 197 200 155
189 203 154 196 197 153 191 208 156 197 197 161 194 194 158
194 206 160 192 195 152 188 199 159 203 202 156 192 204 138
186 204 146 133 155 91 133 163 93 126 159 88 129 159 95 137 158 102
191 201 151 198 201 154 197 196 152 196 202 158 192 201 156
191 202 160 192 203 163 197 207 172 189 199 165 194 203 172
198 195 176 182 210 170 191 204 160 195 204 161 188 206 166
190 199 168 186 203 167 197 203 169 193 196 165 197 209 173
190 201 159 182 201 146 126 161 93 132 159 90 96 127 60 72 140 65
82 135 67 79 129 60 90 135 70 81 130 65 85 137 73 82 135 67
117 160 88 133 167 90 135 162 95 126 157 87 127 165 90 126 168 94
117 160 89 119 160 90 127 167 94 126 164 87 121 166 81 123 162 95
88 130 64 96 126 76 70 39 44 74 47 54 69 42 35 70 44 45 65 38 45
75 44 41 76 43 38 72 41 46 75 35 36 88 38 41 74 37 29 65 46 48
72 40 51 68 38 38 72 39 60 77 47 49 70 41 37 70 39 45 73 44 40
71 38 55 77 42 48 73 42 48 70 44 43 68 41 46 72 39 50 76 38 49
72 34 47 77 41 45 73 42 48 68 44 44 63 37 38 87 39 55 81 110 46
182 179 134 193 209 180 191 206 175 198 204 178 192 212 177
201 204 173 197 206 175 193 207 174 204 204 176 202 212 175
197 202 162 192 179 127 178 177 123 119 170 101 83 108 51 85 112 59
91 100 55 72 113 57 96 105 60 78 106 57 81 109 58 78 111 56 94 143 78
88 154 80 78 153 71 75 148 66 88 156 73 74 158 72 87 146 64
121 173 91 134 159 91 194 182 134 179 179 127 125 169 94 86 153 60
81 106 64 89 107 55 74 110 49 80 104 56 85 109 59 70 117 47 86 147 70
67 158 79 76 143 63 79 163 77 81 150 69 88 149 71 76 158 73 81 159 75
80 147 67 72 158 71 135 169 95 129 166 99 197 213 166 205 195 168
186 210 176 199 199 171 191 209 171 203 203 167 190 203 177
196 205 174 197 203 167 196 200 163 197 203 169 199 203 176
201 201 177 204 198 176 198 203 171 198 203 171 198 203 171
198 203 171 198 203 171 198 203 171 198 203 171 198 203 171
203 200 167 196 207 173 183 200 164 214 204 177 189 209 174
204 194 169 197 199 162 189 208 153 131 166 100 84 109 51 78 106 58
98 104 78 75 39 41 75 34 42 65 35 37 85 45 46 82 39 49 62 43 45
83 105 59 83 114 54 131 165 104 193 199 161 207 197 187 196 203 159
195 198 167 195 198 167 195 198 167 195 198 167 195 198 167
195 198 167 195 198 167 195 198 167 195 198 167 195 198 167
195 198 167 195 198 167 195 198 167 195 198 167 195 198 167
195 198 167 192 190 141 192 190 141 192 190 141 192 190 141
192 190 141 192 190 141 192 190 141 192 190 141 192 190 141
192 190 141 192 190 141 192 190 141 192 190 141 192 190 141
192 190 141 192 190 141 192 190 141 192 190 141 192 190 141
192 190 141 192 190 141 192 190 141 192 190 141 192 190 141
191 191 141 191 189 140 192 190 139 194 191 140 193 190 139
191 189 140 190 190 140 192 191 143 186 192 148 188 194 150
191 197 153 194 200 156 195 201 157 195 201 157 194 200 156
193 199 155 194 200 156 194 200 156 194 200 156 194 200 156
194 200 156 194 200 156 194 200 156 194 200 156 194 200 156
194 200 156 194 200 156 194 200 156 194 200 156 194 200 156
194 200 156 194 200 156 194 200 156 194 200 156 194 200 156
194 200 156 194 200 156 194 200 156 194 200 156 194 200 156
196 199 154 194 200 156 193 200 159 193 201 162 192 202 165
192 202 167 192 202 167 191 201 166 192 202 167 192 202 167
192 202 167 192 202 167 192 202 167 192 202 167 192 202 167
192 202 167 189 206 174 201 199 160 190 189 133 193 187 127
131 167 97 122 161 96 82 139 68 85 132 64 86 136 67 80 131 62
79 130 63 85 136 69 83 134 65 77 127 58 92 139 69 118 165 93
129 163 87 125 161 87 123 160 90 127 167 97 121 161 91 127 164 94
130 166 92 124 161 84 194 188 136 175 202 135 132 166 92 97 124 69
63 44 27 73 44 46 67 31 45 71 46 50 66 45 42 85 35 38 73 42 37
60 40 33 89 39 48 76 41 48 53 41 41 78 43 49 71 38 45 75 40 47
78 35 45 86 39 49 77 38 43 70 45 48 67 42 48 74 41 52 68 48 49
72 40 45 75 33 43 79 37 47 75 39 49 76 40 50 75 39 49 76 40 50
68 48 57 70 28 38 71 53 41 82 99 55 174 185 127 211 209 160
200 206 172 194 207 189 197 206 175 197 206 175 197 206 175
197 206 175 197 206 175 197 206 175 197 206 175 197 206 175
200 208 171 191 171 134 184 185 127 126 166 93 124 164 94 82 117 53
79 107 46 99 100 43 80 102 56 89 101 51 68 118 49 72 157 72 79 150 70
89 151 74 73 148 65 78 157 68 83 150 71 83 155 73 78 160 75
124 168 93 142 165 97 116 177 99 118 174 99 84 108 46 92 107 66
81 103 57 83 105 58 79 106 55 82 113 56 69 111 47 89 153 77 78 155 73
82 147 63 80 165 74 84 149 69 76 158 74 77 156 73 85 147 70 72 156 70
87 156 73 147 157 94 174 181 129 204 206 169 197 200 171 204 210 182
195 201 173 200 205 175 198 198 172 196 202 176 200 204 177
195 200 168 200 206 172 199 205 169 195 201 167 201 208 175
194 201 170 198 203 173 198 203 173 198 203 173 198 203 173
198 203 173 198 203 173 198 203 173 198 203 173 197 202 170
197 202 170 198 203 171 198 203 171 198 203 171 197 202 170
196 201 169 195 200 168 124 161 91 136 173 104 76 113 46 71 105 44
83 112 58 85 109 61 83 101 59 85 102 60 76 111 47 81 110 52
141 163 114 187 199 161 194 199 167 196 199 170 193 196 165
197 200 169 195 198 167 195 198 167 195 198 167 195 198 167
195 198 167 195 198 167 195 198 167 195 198 167 195 198 167
195 198 167 195 198 167 195 198 167 195 198 167 195 198 167
195 198 167 195 198 167 192 190 141 192 190 141 192 190 141
192 190 141 192 190 141 192 190 141 192 190 141 192 190 141
192 190 141 192 190 141 192 190 141 192 190 141 192 190 141
192 190 141 192 190 141 192 190 141 192 190 141 192 190 141
192 190 141 192 190 141 192 190 141 192 190 141 192 190 141
192 190 141 192 190 141 192 190 141 192 190 139 192 190 139
192 190 141 191 191 141 190 192 143 190 192 145 192 198 154
193 199 155 194 200 156 195 201 157 195 201 157 195 201 157
194 200 156 194 200 156 194 200 156 194 200 156 194 200 156
194 200 156 194 200 156 194 200 156 194 200 156 194 200 156
194 200 156 194 200 156 194 200 156 194 200 156 194 200 156
194 200 156 194 200 156 194 200 156 194 200 156 194 200 156
194 200 156 194 200 156 194 200 156 194 200 156 194 200 156
194 200 156 196 199 154 194 200 156 193 200 159 193 201 162
192 202 165 192 202 167 192 202 167 191 201 166 192 202 167
192 202 167 192 202 167 192 202 167 192 202 167 192 202 167
192 202 167 192 202 167 188 202 169 194 196 156 198 192 140
192 201 136 128 155 88 80 131 62 77 128 61 83 133 64 81 131 62
85 136 67 84 135 68 79 132 64 82 133 66 84 135 66 83 133 64 82 132 61
124 162 89 131 169 96 123 161 88 131 169 96 130 168 95 125 161 91
126 157 90 135 166 99 197 204 163 203 187 138 128 154 93 130 167 97
73 132 68 72 43 35 91 57 56 71 37 51 80 37 54 66 40 51 60 50 58
63 45 57 77 35 55 82 31 48 82 48 49 64 46 34 79 39 37 72 48 46
63 47 48 68 46 48 64 40 36 66 48 36 70 43 32 80 39 37 74 36 33
70 46 42 62 47 44 69 50 52 62 44 44 64 49 44 62 42 33 74 42 31
70 41 35 88 105 73 89 106 62 182 167 126 191 182 141 196 207 167
189 202 172 196 206 181 197 206 175 197 206 175 197 206 175
197 206 175 197 206 175 197 206 175 197 206 175 197 206 175
186 212 173 195 206 164 197 207 157 187 183 136 204 176 139
174 171 126 130 172 108 121 175 100 84 110 62 93 111 59 85 141 68
74 162 76 80 155 73 85 152 73 78 156 72 81 161 72 89 151 74 72 158 71
69 149 64 84 164 77 78 141 62 86 147 69 86 161 79 87 109 47 74 105 46
77 112 54 84 108 56 91 111 62 83 101 53 87 111 59 61 113 49 82 148 77
82 154 68 72 144 60 82 160 76 81 154 73 76 147 67 85 157 75 85 157 75
71 149 63 136 170 94 163 188 123 187 199 151 179 184 144 193 200 159
194 201 160 204 210 172 202 208 172 201 208 177 193 198 166
202 207 175 193 196 165 200 203 172 201 206 174 191 196 164
201 208 175 198 203 171 198 203 171 198 203 171 198 203 171
198 203 171 198 203 171 198 203 171 198 203 171 197 202 170
198 203 171 198 203 171 199 204 172 198 203 171 197 202 170
196 201 169 196 201 169 198 204 168 195 206 166 131 146 103 95 117 68
73 102 46 77 111 50 80 116 52 75 112 45 138 166 108 139 162 110
177 192 149 196 206 169 194 199 167 198 201 172 194 197 166
197 200 169 195 198 167 195 198 167 195 198 167 195 198 167
195 198 167 195 198 167 195 198 167 195 198 167 195 198 167
195 198 167 195 198 167 195 198 167 195 198 167 195 198 167
195 198 167 195 198 167 192 190 141 192 190 141 192 190 141
192 190 141 192 190 141 192 190 141 192 190 141 192 190 141
192 190 141 192 190 141 192 190 141 192 190 141 192 190 141
192 190 141 192 190 141 192 190 141 192 190 141 192 190 141
192 190 141 192 190 141 192 190 141 192 190 141 192 190 141
192 190 141 191 189 140 193 191 142 192 190 141 191 189 140
192 191 143 194 196 149 194 197 152 191 197 153 196 202 158
196 202 158 195 201 157 195 201 157 194 200 156 194 200 156
194 200 156 195 201 157 194 200 156 194 200 156 194 200 156
194 200 156 194 200 156 194 200 156 194 200 156 194 200 156
194 200 156 194 200 156 194 200 156 194 200 156 194 200 156
194 200 156 194 200 156 194 200 156 194 200 156 194 200 156
194 200 156 194 200 156 194 200 156 194 200 156 194 200 156
194 200 156 196 199 154 194 200 156 193 200 159 193 201 162
192 202 165 192 202 167 192 202 167 191 201 166 192 202 167
192 202 167 192 202 167 192 202 167 192 202 167 192 202 167
192 202 167 192 202 167 188 198 164 201 210 167 193 185 136
135 157 92 139 164 98 73 133 61 88 137 71 81 133 67 81 131 62
85 136 67 84 135 68 81 133 67 81 133 67 80 133 65 79 130 63 81 132 63
88 129 63 123 164 94 123 164 88 125 164 85 124 158 82 131 160 93
131 156 98 188 208 157 201 196 166 198 205 174 191 188 133 112 166 91
136 167 99 74 124 53 65 46 39 70 35 41 67 37 45 74 43 48 69 35 36
83 49 47 73 45 42 64 35 37 71 40 48 70 38 51 72 43 37 65 45 38
62 41 40 77 44 55 77 38 57 74 40 57 68 38 48 74 42 47 73 46 53
77 34 44 82 35 43 64 34 36 74 49 52 70 38 49 76 43 62 67 44 64
85 107 58 83 107 49 184 181 126 196 179 135 196 202 168 188 207 179
201 210 183 199 206 173 197 206 175 197 206 175 197 206 175
197 206 175 197 206 175 197 206 175 197 206 175 197 206 175
203 203 177 202 213 179 200 207 173 194 198 165 197 209 171
200 207 165 171 180 127 136 169 98 78 106 57 80 111 54 89 151 76
67 155 68 74 154 69 76 147 67 75 155 70 72 152 63 63 159 69 76 154 70
86 166 79 71 146 61 93 156 77 81 156 73 65 147 63 80 148 71 83 111 52
91 111 58 73 114 58 82 104 58 91 104 60 74 103 49 85 116 56 88 152 76
79 152 71 73 158 73 72 151 70 73 155 73 80 153 74 86 150 72 73 157 72
72 158 71 125 168 88 129 169 96 132 172 102 125 164 97 137 174 107
137 163 102 168 178 126 204 203 157 194 202 161 207 213 177
198 201 170 202 205 176 198 201 174 202 205 176 195 200 168
200 206 172 198 203 171 198 203 171 198 203 171 198 203 171
198 203 171 198 203 171 198 203 171 198 203 171 198 203 171
198 203 171 198 203 171 199 204 172 198 203 171 198 203 171
197 202 170 196 201 169 196 188 169 204 199 177 194 197 166
184 196 156 144 166 117 131 160 102 129 164 100 131 168 99
186 202 155 185 198 155 200 208 171 198 202 169 191 194 163
197 200 169 194 197 166 195 200 168 195 198 167 195 198 167
195 198 167 195 198 167 195 198 167 195 198 167 195 198 167
195 198 167 195 198 167 195 198 167 195 198 167 195 198 167
195 198 167 195 198 167 195 198 167 195 198 167 192 190 141
192 190 141 192 190 141 192 190 141 192 190 141 192 190 141
192 190 141 192 190 141 192 190 141 192 190 141 192 190 141
192 190 141 192 190 141 192 190 141 192 190 141 192 190 141
192 190 141 192 190 141 192 190 141 192 190 141 192 190 141
192 190 141 192 190 141 192 190 141 191 189 140 193 191 142
192 190 141 191 189 140 193 192 144 196 199 154 197 203 159
194 201 159 195 201 157 194 200 156 194 200 156 193 199 155
193 199 155 194 200 156 194 200 156 195 201 157 194 200 156
194 200 156 194 200 156 194 200 156 194 200 156 194 200 156
194 200 156 194 200 156 194 200 156 194 200 156 194 200 156
194 200 156 194 200 156 194 200 156 194 200 156 194 200 156
194 200 156 194 200 156 194 200 156 194 200 156 194 200 156
194 200 156 194 200 156 194 200 156 196 199 154 194 200 156
193 200 159 193 201 162 192 202 165 192 202 167 192 202 167
191 201 166 192 202 167 192 202 167 192 202 167 192 202 167
192 202 167 192 202 167 192 202 167 192 202 167 197 204 170
193 200 159 192 191 143 176 198 134 124 155 87 78 134 61 83 134 67
76 128 64 83 133 64 83 134 65 81 132 65 81 133 67 82 134 68 80 132 66
81 133 67 90 141 74 88 132 69 121 164 95 121 162 84 131 168 88
133 163 89 133 157 95 194 212 164 185 199 163 193 197 172 187 206 161
183 211 173 210 190 140 133 161 84 121 166 101 84 135 69 71 51 42
74 42 45 82 40 44 69 45 41 50 40 28 75 53 42 70 47 39 70 46 46
89 43 54 89 132 76 127 163 99 122 157 91 86 105 60 66 46 39 92 34 56
88 39 58 60 46 45 69 36 45 84 54 64 73 37 49 83 43 52 67 53 44
81 103 65 75 106 49 88 106 46 117 165 89 183 178 122 188 174 127
196 209 165 195 210 179 198 203 181 204 210 184 196 203 169
197 206 175 197 206 175 197 206 175 197 206 175 197 206 175
197 206 175 197 206 175 197 206 175 204 207 178 191 206 175
210 202 183 197 201 178 184 222 181 205 203 164 197 175 128
119 166 88 81 108 57 74 114 52 87 154 77 73 155 70 79 159 74
82 155 74 82 157 74 74 153 64 81 155 70 129 169 96 77 149 65
70 156 67 76 160 74 74 162 75 79 150 70 89 162 81 81 151 81 65 110 53
73 99 52 83 106 62 72 112 59 90 156 85 72 147 64 76 157 65 83 114 55
78 107 49 74 158 81 69 113 50 95 109 56 72 103 43 82 101 45 84 158 83
72 153 61 85 155 69 94 148 70 95 142 64 122 166 87 128 170 94
128 169 99 128 167 102 167 181 128 192 204 158 196 202 166
203 206 179 200 200 176 198 201 174 206 209 178 194 200 166
199 203 170 199 203 170 199 203 170 199 203 170 199 203 170
199 203 170 199 203 170 199 203 170 198 203 171 198 203 171
198 203 171 198 203 171 198 203 171 198 203 171 197 202 170
197 202 170 198 204 170 190 196 162 191 198 164 201 209 172
187 197 160 190 200 163 190 201 161 196 207 167 195 201 165
196 200 165 201 202 170 193 194 163 192 192 164 196 199 168
193 196 165 195 201 167 195 198 167 195 198 167 195 198 167
195 198 167 195 198 167 195 198 167 195 198 167 195 198 167
195 198 167 195 198 167 195 198 167 195 198 167 195 198 167
195 198 167 195 198 167 195 198 167 192 190 141 192 190 141
192 190 141 192 190 141 192 190 141 192 190 141 192 190 141
192 190 141 192 190 141 192 190 141 192 190 141 192 190 141
192 190 141 192 190 141 192 190 141 192 190 141 192 190 141
192 190 141 192 190 141 192 190 141 192 190 141 192 190 141
192 190 141 192 190 141 192 190 141 193 191 142 192 190 141
191 189 140 192 191 143 195 198 153 195 201 157 194 201 159
193 199 155 193 199 155 193 199 155 194 200 156 194 200 156
194 200 156 194 200 156 194 200 156 194 200 156 194 200 156
194 200 156 194 200 156 194 200 156 194 200 156 194 200 156
194 200 156 194 200 156 194 200 156 194 200 156 194 200 156
194 200 156 194 200 156 194 200 156 194 200 156 194 200 156
194 200 156 194 200 156 194 200 156 194 200 156 194 200 156
194 200 156 194 200 156 196 199 154 194 200 156 193 200 159
193 201 162 192 202 165 192 202 167 192 202 167 191 201 166
192 202 167 192 202 167 192 202 167 192 202 167 192 202 167
192 202 167 192 202 167 192 202 167 192 202 167 193 195 158
200 212 164 187 198 142 128 168 98 91 132 62 79 134 66 82 132 69
82 132 63 84 135 68 81 132 66 78 130 64 84 136 70 86 138 72 81 132 65
76 127 60 83 128 63 125 168 99 131 169 94 123 155 80 138 163 95
180 199 144 184 196 156 194 203 174 187 206 161 182 205 177
197 201 166 194 195 163 205 204 158 126 164 87 126 160 109 87 120 65
65 47 33 85 38 46 89 33 60 83 43 67 49 39 38 98 128 90 74 129 62
114 162 86 123 159 95 190 174 123 200 180 127 132 161 94 67 100 43
68 50 28 73 33 34 60 45 48 76 36 47 70 38 39 57 51 29 86 104 62
87 107 56 94 100 52 94 108 59 124 163 108 188 179 120 186 185 137
190 212 173 191 215 183 201 197 172 209 205 176 194 208 173
194 205 173 197 206 175 197 206 175 197 206 175 197 206 175
197 206 175 197 206 175 197 206 175 197 206 175 199 209 175
188 205 173 202 210 186 201 205 180 193 194 162 202 180 143
175 174 118 87 159 73 83 105 56 70 119 54 80 147 68 78 153 70
75 153 69 80 153 72 83 152 71 83 155 71 128 168 95 134 159 91
137 167 97 78 158 73 72 158 71 79 148 67 75 159 73 78 145 65
88 152 74 81 153 77 90 108 56 91 111 62 77 97 48 89 107 55 80 159 80
74 156 72 89 137 79 90 110 61 94 91 48 98 106 59 70 108 51 73 121 61
81 111 57 92 95 50 84 156 72 77 152 69 73 153 66 73 159 68 79 166 71
73 148 57 92 149 70 126 169 100 142 164 100 145 164 108 195 206 163
194 199 167 200 203 176 197 200 173 203 206 175 196 202 168
198 203 171 198 203 171 198 203 171 198 203 171 198 203 171
198 203 171 198 203 171 198 203 171 198 203 171 198 203 171
198 203 171 198 203 171 198 203 171 198 203 171 197 202 170
197 202 170 191 203 163 192 202 165 193 201 164 192 198 164
196 197 166 205 204 176 195 193 168 196 191 169 197 196 166
198 197 167 198 197 167 196 195 167 198 199 168 196 199 168
192 196 163 195 201 167 195 198 167 195 198 167 195 198 167
195 198 167 195 198 167 195 198 167 195 198 167 195 198 167
195 198 167 195 198 167 195 198 167 195 198 167 195 198 167
195 198 167 195 198 167 195 198 167 192 190 141 192 190 141
192 190 141 192 190 141 192 190 141 192 190 141 192 190 141
192 190 141 192 190 141 192 190 141 192 190 141 192 190 141
192 190 141 192 190 141 192 190 141 192 190 141 192 190 141
192 190 141 192 190 141 192 190 141 192 190 141 192 190 141
192 190 141 192 190 141 193 191 142 192 190 141 192 190 141
191 189 140 190 189 141 190 192 145 192 195 150 192 198 154
194 200 156 194 200 156 195 201 157 195 201 157 195 201 157
194 200 156 194 200 156 193 199 155 194 200 156 194 200 156
194 200 156 194 200 156 194 200 156 194 200 156 194 200 156
194 200 156 194 200 156 194 200 156 194 200 156 194 200 156
194 200 156 194 200 156 194 200 156 194 200 156 194 200 156
194 200 156 194 200 156 194 200 156 194 200 156 194 200 156
194 200 156 194 200 156 196 199 154 194 200 156 193 200 159
193 201 162 192 202 165 192 202 167 192 202 167 191 201 166
192 202 167 192 202 167 192 202 167 192 202 167 192 202 167
192 202 167 192 202 167 192 202 167 189 203 168 200 201 169
184 197 154 189 191 142 126 161 93 130 161 93 84 140 69 81 131 68
84 133 67 82 133 66 81 132 66 83 134 68 84 135 69 80 129 63 83 130 62
90 137 67 86 129 58 122 164 92 124 160 90 129 158 92 138 159 102
189 205 160 191 201 166 198 204 176 192 204 166 193 204 162
189 198 179 188 205 173 192 204 164 187 195 158 138 160 95
127 167 104 71 137 63 92 130 79 63 40 26 71 39 28 100 129 83
81 133 61 126 161 81 134 174 86 180 206 159 182 214 175 182 197 166
181 176 136 150 169 103 112 169 92 79 110 66 72 42 44 72 46 49
68 38 40 79 43 43 71 44 33 85 99 63 70 119 54 120 161 85 177 188 112
200 168 129 192 204 166 187 207 180 190 198 177 202 211 180
199 209 172 192 196 163 204 213 184 197 206 175 197 206 175
197 206 175 197 206 175 197 206 175 197 206 175 197 206 175
197 206 175 198 205 172 199 204 174 190 212 176 200 212 174
193 175 137 170 181 125 121 167 95 83 112 46 90 113 61 84 141 72
84 155 75 91 160 77 77 155 71 81 156 73 90 157 77 101 169 86
130 168 93 174 185 119 146 162 97 119 173 97 88 153 73 80 147 67
83 163 78 80 152 68 128 174 84 122 165 83 94 148 70 70 109 44
85 112 59 81 109 60 84 107 61 70 108 57 74 122 64 83 107 55 70 114 55
84 114 60 68 107 50 89 147 86 80 106 58 78 112 61 67 157 69 75 160 75
80 157 75 76 151 68 78 154 66 81 157 67 82 154 70 79 148 68
128 164 90 131 160 94 165 185 132 201 212 172 198 203 171 198 201 172
197 202 170 200 205 173 198 203 171 198 203 171 198 203 171
198 203 171 198 203 171 198 203 171 198 203 171 198 203 171
197 204 173 196 203 172 196 203 172 196 203 172 196 203 172
196 203 172 196 203 172 196 203 172 197 197 173 201 201 175
199 199 173 195 195 167 195 196 165 193 197 164 190 196 162
200 208 171 199 198 170 199 198 170 197 196 166 197 198 167
200 201 170 196 199 168 193 197 164 196 200 167 195 198 167
195 198 167 195 198 167 195 198 167 195 198 167 195 198 167
195 198 167 195 198 167 195 198 167 195 198 167 195 198 167
195 198 167 195 198 167 195 198 167 195 198 167 195 198 167
192 190 141 192 190 141 192 190 141 192 190 141 192 190 141
192 190 141 192 190 141 192 190 141 192 190 141 192 190 141
192 190 141 192 190 141 192 190 141 192 190 141 192 190 141
192 190 141 192 190 141 192 190 141 192 190 141 192 190 141
192 190 141 192 190 141 192 190 141 192 190 141 193 191 142
191 189 140 192 190 139 193 191 140 191 189 140 188 188 138
190 192 143 195 197 150 195 201 157 195 201 157 195 201 157
195 201 157 194 200 156 194 200 156 194 200 156 193 199 155
194 200 156 194 200 156 194 200 156 194 200 156 194 200 156
194 200 156 194 200 156 194 200 156 194 200 156 194 200 156
194 200 156 194 200 156 194 200 156 194 200 156 194 200 156
194 200 156 194 200 156 194 200 156 194 200 156 194 200 156
194 200 156 194 200 156 194 200 156 194 200 156 196 199 154
194 200 156 193 200 159 193 201 162 192 202 165 192 202 167
192 202 167 191 201 166 192 202 167 192 202 167 192 202 167
192 202 167 192 202 167 192 202 167 192 202 167 192 202 167
186 200 165 200 207 174 196 200 165 189 192 145 184 202 140
123 153 83 81 127 55 83 135 69 84 135 68 81 132 66 81 132 66
85 136 69 83 132 66 78 125 55 93 139 67 122 165 93 123 166 86
124 162 89 138 170 105 129 154 99 184 201 157 196 208 170 187 197 163
194 204 170 191 195 160 197 203 175 188 209 168 187 201 175
190 204 179 206 210 175 189 201 163 175 193 135 181 190 125
115 158 87 129 168 105 126 161 95 113 170 89 133 164 94 180 178 129
188 201 158 205 196 163 204 203 173 194 204 170 194 201 157
185 180 124 173 167 105 142 161 97 119 168 102 122 168 103 124 165 97
122 158 88 138 160 95 178 177 121 192 173 130 193 181 143 194 205 163
200 206 172 202 209 178 208 204 179 201 204 177 191 215 179
188 205 169 206 207 176 199 204 172 197 206 175 197 206 175
197 206 175 197 206 175 197 206 175 197 206 175 197 206 175
197 206 175 188 208 173 199 208 177 197 207 172 208 200 161
185 175 126 127 173 101 87 153 81 88 102 53 82 106 54 83 151 78
76 154 70 84 153 70 71 153 68 69 151 66 86 153 73 90 159 76
138 170 95 171 173 110 133 177 102 80 149 68 79 159 74 67 157 69
90 149 69 125 171 96 123 172 90 172 185 116 127 169 93 128 171 99
80 154 75 59 156 75 84 113 59 92 105 59 78 102 44 75 111 49 86 110 52
64 106 42 94 138 75 83 112 56 80 118 61 84 100 53 79 153 66 75 150 67
75 154 73 74 158 73 70 153 65 84 156 70 113 168 87 133 175 101
124 171 90 136 177 101 134 163 99 187 205 155 193 204 164 199 205 171
197 202 172 199 204 174 196 203 172 196 203 172 196 203 172
196 203 172 196 203 172 196 203 172 196 203 172 196 203 172
194 203 174 194 203 174 194 203 174 194 203 174 194 203 174
194 203 174 194 203 174 194 203 174 202 201 180 194 194 170
191 191 165 200 200 172 204 208 175 195 201 165 188 199 159
188 201 158 194 197 166 195 198 167 193 196 165 195 198 167
195 199 166 195 199 166 196 200 167 194 198 165 195 198 167
195 198 167 195 198 167 195 198 167 195 198 167 195 198 167
195 198 167 195 198 167 195 198 167 195 198 167 195 198 167
195 198 167 195 198 167 195 198 167 195 198 167 195 198 167
192 190 141 192 190 141 192 190 141 192 190 141 192 190 141
192 190 141 192 190 141 192 190 141 192 190 141 192 190 141
192 190 141 192 190 141 192 190 141 192 190 141 192 190 141
192 190 141 192 190 141 192 190 141 192 190 141 192 190 141
192 190 141 192 190 141 192 190 141 192 190 141 191 191 141
190 188 139 192 190 139 196 193 142 194 191 140 189 187 138
192 192 142 200 199 151 194 200 156 194 200 156 193 199 155
193 199 155 193 199 155 194 200 156 194 200 156 194 200 156
194 200 156 194 200 156 194 200 156 194 200 156 194 200 156
194 200 156 194 200 156 194 200 156 194 200 156 194 200 156
194 200 156 194 200 156 194 200 156 194 200 156 194 200 156
194 200 156 194 200 156 194 200 156 194 200 156 194 200 156
194 200 156 194 200 156 194 200 156 194 200 156 196 199 154
194 200 156 193 200 159 193 201 162 192 202 165 192 202 167
192 202 167 191 201 166 192 202 167 192 202 167 192 202 167
192 202 167 192 202 167 192 202 167 192 202 167 192 202 167
191 205 172 180 194 161 207 200 171 197 205 158 188 189 131
131 163 90 131 168 99 76 131 63 79 130 64 85 136 70 83 134 68
80 129 63 84 131 63 94 140 68 111 153 81 126 166 93 123 165 79
129 166 89 124 154 94 190 212 166 190 206 169 188 199 165 197 208 174
188 200 164 194 207 181 189 195 161 200 204 169 187 205 167
194 204 179 189 190 172 203 202 171 194 207 161 200 197 164
194 200 172 193 201 180 196 205 178 189 201 163 197 205 164
196 203 172 190 202 180 192 196 179 191 211 176 186 207 164
193 200 169 194 196 182 201 210 189 193 198 157 189 179 120
186 176 114 191 179 121 191 179 127 179 177 129 195 208 165
183 205 167 188 202 176 204 203 185 186 211 182 199 206 173
197 205 164 195 207 167 201 201 175 200 205 182 188 205 173
202 210 173 197 206 175 197 206 175 197 206 175 197 206 175
197 206 175 197 206 175 197 206 175 197 206 175 208 197 177
192 211 179 190 208 168 178 181 134 138 163 97 73 116 44 72 110 51
79 108 64 78 105 50 82 159 81 71 155 69 79 151 67 76 162 75 70 156 69
86 155 74 76 148 64 120 172 90 132 173 97 125 165 92 87 156 75
78 153 70 81 156 73 75 155 68 124 168 93 199 169 135 180 176 129
195 177 129 174 184 123 138 158 89 153 168 99 117 168 89 127 169 93
137 166 100 124 167 96 131 168 98 123 177 102 90 146 73 76 115 52
67 109 46 85 108 54 82 158 67 79 151 67 82 150 73 85 152 75 90 153 74
116 171 90 133 176 97 130 162 89 120 174 88 121 165 86 133 169 99
143 164 107 193 206 162 201 209 172 193 200 169 196 202 174
194 203 174 194 203 174 194 203 174 194 203 174 194 203 174
194 203 174 194 203 174 194 203 174 193 203 176 193 203 176
192 202 175 192 202 175 192 202 175 192 202 175 193 203 176
193 203 176 190 204 168 193 205 169 194 201 168 193 198 166
190 193 162 194 195 164 201 204 173 192 195 164 193 198 166
196 201 169 195 201 167 195 201 167 193 199 165 196 200 167
199 203 170 195 196 164 195 198 167 195 198 167 195 198 167
195 198 167 195 198 167 195 198 167 195 198 167 195 198 167
195 198 167 195 198 167 195 198 167 195 198 167 195 198 167
195 198 167 195 198 167 195 198 167 192 190 141 192 190 141
192 190 141 192 190 141 192 190 141 192 190 141 192 190 141
192 190 141 192 190 141 192 190 141 192 190 141 192 190 141
192 190 141 192 190 141 192 190 141 192 190 141 192 190 141
192 190 141 192 190 141 192 190 141 192 190 141 192 190 141
192 190 141 192 190 141 195 192 141 193 191 140 192 190 141
190 189 141 189 191 142 191 193 146 194 197 150 197 200 155
194 200 156 194 200 156 194 200 156 194 200 156 194 200 156
194 200 156 194 200 156 194 200 156 194 200 156 194 200 156
194 200 156 194 200 156 194 200 156 194 200 156 194 200 156
194 200 156 194 200 156 194 200 156 194 200 156 194 200 156
194 200 156 194 200 156 194 200 156 194 200 156 194 200 156
194 200 156 194 200 156 194 200 156 194 200 156 194 200 156
194 200 156 194 200 156 198 199 155 192 197 156 196 206 171
193 204 172 187 198 168 200 207 176 196 197 163 201 199 161
191 196 164 199 204 174 196 202 174 189 198 169 192 203 173
191 202 168 192 204 168 188 200 162 194 204 169 193 203 168
193 203 168 195 205 168 191 202 159 175 187 137 152 166 107
135 149 87 84 134 65 82 132 63 78 128 57 83 133 62 82 132 61
87 137 66 78 128 59 119 169 100 128 152 100 144 166 117 182 199 155
192 204 166 192 202 167 194 204 169 186 196 161 195 205 170
193 202 171 193 202 171 193 202 171 193 202 171 193 202 171
193 202 171 193 202 171 193 202 171 193 202 171 193 202 171
193 202 171 193 202 171 193 202 171 193 202 171 193 202 171
193 202 171 193 202 171 193 202 171 193 202 171 193 202 171
193 202 171 193 202 171 193 202 171 193 202 171 193 202 171
193 202 171 193 202 171 193 202 171 193 202 171 194 203 172
196 205 174 198 207 176 197 206 175 197 206 175 197 206 175
197 206 175 197 206 175 197 206 175 197 206 175 197 206 175
197 206 175 197 206 175 197 206 175 197 206 175 197 206 175
197 206 175 197 206 175 197 206 175 196 208 168 195 204 185
200 202 178 189 180 125 124 168 89 78 106 57 82 107 65 83 113 53
84 104 55 73 113 53 88 150 75 81 159 75 74 154 65 72 150 64 83 158 75
78 155 73 82 153 85 74 149 67 76 160 64 75 155 60 81 156 73 85 149 73
86 151 71 114 176 90 177 187 134 194 203 160 201 208 177 197 206 179
198 207 176 197 207 172 194 205 171 199 209 182 190 178 138
188 171 117 118 173 82 139 180 101 74 148 73 76 104 56 79 107 56
80 111 51 70 153 65 75 158 70 76 156 71 77 150 69 90 150 76
122 164 98 183 211 152 143 162 106 139 164 96 134 168 91 133 175 93
131 166 102 185 202 168 191 198 180 198 204 178 196 207 167
194 203 174 194 203 174 194 203 174 194 203 174 194 203 174
194 203 174 194 203 174 194 203 174 194 203 174 194 203 174
194 203 174 194 203 174 194 203 174 194 203 174 194 203 174
194 203 174 192 205 175 193 204 174 194 201 170 194 199 169
195 198 167 194 197 166 195 199 166 195 199 166 195 198 167
195 198 167 195 198 167 195 198 167 195 198 167 195 198 167
195 198 167 195 198 167 195 198 167 195 198 167 195 198 167
195 198 167 195 198 167 195 198 167 195 198 167 195 198 167
195 198 167 195 198 167 195 198 167 195 198 167 195 198 167
195 198 167 195 198 167 195 198 167 191 189 140 191 189 140
191 189 140 191 189 140 191 189 140 191 189 140 191 189 140
191 189 140 192 190 141 192 190 141 192 190 141 192 190 141
192 190 141 192 190 141 192 190 141 192 190 141 192 190 141
192 190 141 192 190 141 192 190 141 192 190 141 192 190 141
192 190 141 192 190 141 195 192 141 192 190 141 191 189 140
191 190 142 191 193 146 194 197 152 195 198 153 196 199 154
194 200 156 194 200 156 194 200 156 194 200 156 194 200 156
194 200 156 194 200 156 194 200 156 194 200 156 194 200 156
194 200 156 194 200 156 194 200 156 194 200 156 194 200 156
194 200 156 194 200 156 194 200 156 194 200 156 194 200 156
194 200 156 194 200 156 194 200 156 194 200 156 194 200 156
194 200 156 194 200 156 194 200 156 194 200 156 194 200 156
194 200 156 194 200 156 193 201 154 192 198 154 196 201 161
192 198 160 198 206 167 180 193 150 194 210 163 184 202 152
193 209 160 181 197 150 186 203 158 188 203 160 191 206 167
193 205 169 186 196 162 201 208 177 192 202 168 190 200 166
190 200 166 193 203 169 196 206 169 195 206 163 190 202 152
186 199 145 122 157 89 127 163 93 138 174 104 127 163 91 121 157 85
130 166 96 124 160 90 129 164 96 187 206 160 185 202 157 196 211 170
192 204 166 191 201 166 195 205 170 187 197 162 193 203 168
193 202 171 193 202 171 193 202 171 193 202 171 193 202 171
193 202 171 193 202 171 193 202 171 193 202 171 193 202 171
193 202 171 193 202 171 193 202 171 193 202 171 193 202 171
193 202 171 193 202 171 193 202 171 193 202 171 193 202 171
193 202 171 193 202 171 193 202 171 193 202 171 193 202 171
193 202 171 193 202 171 193 202 171 193 202 171 194 203 172
196 205 174 198 207 176 197 206 175 197 206 175 197 206 175
197 206 175 197 206 175 197 206 175 197 206 175 197 206 175
197 206 175 197 206 175 197 206 175 197 206 175 197 206 175
197 206 175 197 206 175 197 206 175 195 207 169 204 205 187
199 212 182 189 176 123 119 173 89 89 109 60 78 109 65 73 101 43
84 108 58 78 113 55 80 133 63 84 156 74 73 156 68 79 162 74 77 152 69
83 152 72 77 148 68 82 156 71 86 158 74 74 158 72 69 148 67 76 151 69
128 176 100 131 163 87 192 201 158 201 208 174 201 207 181
196 205 178 198 208 174 197 207 170 194 206 170 197 208 176
205 197 160 187 186 132 116 174 89 135 150 83 78 119 59 90 113 69
79 107 58 91 108 54 83 161 75 77 155 69 85 160 77 80 151 71
113 174 97 131 176 107 180 212 149 135 159 99 128 165 95 125 168 88
119 162 80 134 169 103 194 212 174 196 201 179 198 204 178
190 200 165 194 203 174 194 203 174 194 203 174 194 203 174
194 203 174 194 203 174 194 203 174 194 203 174 194 203 174
194 203 174 194 203 174 194 203 174 194 203 174 194 203 174
194 203 174 194 203 174 191 204 174 193 204 174 195 202 171
195 200 170 195 198 167 195 198 167 195 199 166 195 199 166
195 198 167 195 198 167 195 198 167 195 198 167 195 198 167
195 198 167 195 198 167 195 198 167 195 198 167 195 198 167
195 198 167 195 198 167 195 198 167 195 198 167 195 198 167
195 198 167 195 198 167 195 198 167 195 198 167 195 198 167
195 198 167 195 198 167 195 198 167 195 198 167 192 190 141
192 190 141 192 190 141 192 190 141 192 190 141 192 190 141
192 190 141 192 190 141 192 190 141 192 190 141 192 190 141
192 190 141 192 190 141 192 190 141 192 190 141 192 190 141
192 190 141 192 190 141 192 190 141 192 190 141 192 190 141
192 190 141 192 190 141 192 190 141 193 191 142 191 189 140
190 188 140 192 191 145 195 196 152 197 200 155 197 200 157
193 199 155 194 200 156 194 200 156 194 200 156 194 200 156
194 200 156 194 200 156 194 200 156 194 200 156 194 200 156
194 200 156 194 200 156 194 200 156 194 200 156 194 200 156
194 200 156 194 200 156 194 200 156 194 200 156 194 200 156
194 200 156 194 200 156 194 200 156 194 200 156 194 200 156
194 200 156 194 200 156 194 200 156 194 200 156 194 200 156
194 200 156 194 200 156 194 200 156 193 201 154 202 208 162
194 197 150 188 192 142 196 206 154 141 165 107 121 157 95
124 166 102 124 156 89 135 167 100 135 165 101 126 154 95 192 212 161
187 202 161 193 200 169 190 194 169 192 202 168 192 202 168
191 200 169 191 200 169 191 201 167 192 202 167 192 203 163
192 203 161 193 209 164 195 211 166 181 197 150 177 193 146
142 158 111 190 206 159 188 204 159 191 207 162 194 209 168
188 200 162 192 202 165 188 198 163 191 201 166 197 207 172
190 200 165 194 204 169 193 202 171 193 202 171 193 202 171
193 202 171 193 202 171 193 202 171 193 202 171 193 202 171
193 202 171 193 202 171 193 202 171 193 202 171 193 202 171
193 202 171 193 202 171 193 202 171 193 202 171 193 202 171
193 202 171 193 202 171 193 202 171 193 202 171 193 202 171
193 202 171 193 202 171 193 202 171 193 202 171 193 202 171
193 202 171 194 203 172 196 205 174 197 206 175 197 206 175
197 206 175 197 206 175 197 206 175 197 206 175 197 206 175
197 206 175 197 206 175 197 206 175 197 206 175 197 206 175
197 206 175 197 206 175 197 206 175 197 206 175 197 206 175
193 205 169 211 206 187 179 201 163 185 174 120 93 151 66 96 110 61
72 108 62 90 112 63 81 108 57 77 112 54 76 127 58 81 150 69 76 156 69
79 162 74 74 149 66 84 151 72 82 157 64 77 146 63 82 153 75 76 154 78
75 163 79 82 154 72 131 164 93 181 182 124 200 207 176 202 208 182
196 204 180 195 204 175 198 208 174 198 208 171 196 206 171
198 207 176 205 205 171 177 181 131 124 175 100 102 107 49 77 101 49
87 102 61 81 103 57 84 101 49 77 151 66 79 152 70 72 145 63 84 153 72
88 149 71 116 166 93 140 180 110 129 161 94 122 178 103 119 174 91
124 172 88 129 161 94 192 209 167 194 199 176 197 203 177 193 203 169
194 203 174 194 203 174 194 203 174 194 203 174 194 203 174
194 203 174 194 203 174 194 203 174 194 203 174 194 203 174
194 203 174 194 203 174 194 203 174 194 203 174 194 203 174
194 203 174 193 204 174 193 204 174 194 203 172 196 201 171
195 200 168 195 198 167 194 197 166 194 198 165 195 198 167
195 198 167 195 198 167 195 198 167 195 198 167 195 198 167
195 198 167 195 198 167 195 198 167 195 198 167 195 198 167
195 198 167 195 198 167 195 198 167 195 198 167 195 198 167
195 198 167 195 198 167 195 198 167 195 198 167 195 198 167
195 198 167 195 198 167 195 198 167 192 190 141 192 190 141
192 190 141 192 190 141 192 190 141 192 190 141 192 190 141
192 190 141 193 191 142 193 191 142 193 191 142 193 191 142
193 191 142 193 191 142 193 191 142 193 191 142 193 191 142
193 191 142 193 191 142 193 191 142 193 191 142 193 191 142
193 191 142 193 191 142 192 190 141 191 189 140 190 189 141
194 193 147 196 197 153 198 201 158 195 200 159 193 198 157
194 200 156 194 200 156 194 200 156 194 200 156 194 200 156
194 200 156 194 200 156 194 200 156 194 200 156 194 200 156
194 200 156 194 200 156 194 200 156 194 200 156 194 200 156
194 200 156 194 200 156 194 200 156 194 200 156 194 200 156
194 200 156 194 200 156 194 200 156 194 200 156 194 200 156
194 200 156 194 200 156 194 200 156 194 200 156 194 200 156
194 200 156 194 200 156 196 194 155 198 199 155 191 199 148
198 213 154 125 151 86 122 162 92 84 131 61 82 135 65 85 133 59
88 134 61 124 168 93 122 159 89 131 161 99 187 205 157 195 205 170
198 202 175 190 200 163 192 202 167 193 203 169 193 202 171
193 202 171 191 201 167 191 201 166 190 200 165 193 198 168
190 195 165 198 203 171 199 204 172 185 190 158 199 204 172
197 202 172 191 196 166 189 199 164 190 197 163 197 204 170
196 203 169 196 203 169 196 206 171 190 200 165 192 202 167
193 202 171 193 202 171 193 202 171 193 202 171 193 202 171
193 202 171 193 202 171 193 202 171 193 202 171 193 202 171
193 202 171 193 202 171 193 202 171 193 202 171 193 202 171
193 202 171 193 202 171 193 202 171 193 202 171 193 202 171
193 202 171 193 202 171 193 202 171 193 202 171 193 202 171
193 202 171 193 202 171 193 202 171 193 202 171 194 203 172
195 204 173 196 205 174 197 206 175 197 206 175 197 206 175
197 206 175 197 206 175 197 206 175 197 206 175 197 206 175
197 206 175 197 206 175 197 206 175 197 206 175 197 206 175
197 206 175 197 206 175 197 206 175 199 206 175 201 199 178
198 216 178 181 182 125 122 169 91 83 102 47 72 105 58 86 108 61
83 105 56 74 112 53 82 142 72 77 150 69 77 155 71 76 151 66 80 155 72
79 157 73 76 156 61 84 156 74 70 149 70 85 156 78 77 156 67
124 173 94 143 169 108 204 200 162 197 206 179 197 206 179
196 205 176 196 205 174 198 208 174 197 207 173 197 206 175
198 207 178 197 205 166 177 173 128 130 170 100 77 107 43 69 115 53
83 107 59 85 112 59 71 117 52 82 155 73 82 157 74 85 160 77 79 153 68
83 151 68 90 151 71 115 168 90 122 170 94 76 147 67 87 151 67
134 183 102 130 160 96 194 209 166 195 201 173 193 199 173
193 202 173 194 203 174 194 203 174 194 203 174 194 203 174
194 203 174 194 203 174 194 203 174 194 203 174 194 203 174
194 203 174 194 203 174 194 203 174 194 203 174 194 203 174
194 203 174 194 203 174 193 204 174 194 203 174 194 203 172
196 203 172 196 201 171 195 200 170 193 198 166 193 198 166
195 198 167 195 198 167 195 198 167 195 198 167 195 198 167
195 198 167 195 198 167 195 198 167 195 198 167 195 198 167
195 198 167 195 198 167 195 198 167 195 198 167 195 198 167
195 198 167 195 198 167 195 198 167 195 198 167 195 198 167
195 198 167 195 198 167 195 198 167 195 198 167 189 187 136
189 187 136 189 187 136 189 187 136 189 187 136 189 187 136
189 187 136 189 187 136 191 189 138 191 189 138 191 189 138
191 189 138 191 189 138 191 189 138 191 189 138 191 189 138
191 189 138 191 189 138 191 189 138 191 189 138 191 189 138
191 189 138 191 189 138 191 189 138 191 189 140 191 189 140
192 191 143 193 195 148 195 198 153 197 200 157 194 199 158
193 198 158 194 200 156 194 200 156 194 200 156 194 200 156
194 200 156 194 200 156 194 200 156 194 200 156 194 200 156
194 200 156 194 200 156 194 200 156 194 200 156 194 200 156
194 200 156 194 200 156 194 200 156 194 200 156 194 200 156
194 200 156 194 200 156 194 200 156 194 200 156 194 200 156
194 200 156 194 200 156 194 200 156 194 200 156 194 200 156
194 200 156 194 200 156 194 200 156 202 194 158 193 196 153
190 209 154 128 165 98 85 132 60 84 136 64 93 144 75 81 130 64
87 139 73 72 125 55 83 135 63 92 138 66 116 153 86 138 166 108
188 204 159 187 198 158 193 204 162 192 203 163 191 201 164
191 201 166 192 202 167 194 204 169 195 205 170 196 206 171
198 206 169 191 199 160 196 204 165 194 202 161 198 206 165
192 200 161 193 201 162 196 204 167 198 203 171 196 203 170
198 205 172 196 203 169 192 202 167 192 202 167 191 201 166
193 203 168 193 202 171 193 202 171 193 202 171 193 202 171
193 202 171 193 202 171 193 202 171 193 202 171 193 202 171
193 202 171 193 202 171 193 202 171 193 202 171 193 202 171
193 202 171 193 202 171 193 202 171 193 202 171 193 202 171
193 202 171 193 202 171 193 202 171 193 202 171 193 202 171
193 202 171 193 202 171 193 202 171 193 202 171 193 202 171
193 202 171 194 203 172 195 204 173 197 206 175 197 206 175
197 206 175 197 206 175 197 206 175 197 206 175 197 206 175
197 206 175 197 206 175 197 206 175 197 206 175 197 206 175
197 206 175 197 206 175 197 206 175 197 206 175 203 210 179
196 198 174 199 206 172 166 185 129 140 162 97 86 114 55 78 108 56
83 110 59 86 104 56 74 115 57 85 155 82 82 161 80 79 152 70 81 150 67
85 160 75 68 156 69 81 156 73 65 153 69 88 155 76 75 154 63
136 167 87 123 161 86 202 211 168 189 205 179 198 207 176 198 208 174
198 208 174 198 208 174 196 205 176 196 205 178 198 207 180
197 206 179 203 206 161 184 184 134 117 168 93 94 152 75 76 148 72
91 151 81 91 144 74 81 154 73 76 154 70 74 152 68 75 153 69 75 153 67
80 155 70 79 151 67 83 151 68 89 154 72 82 157 74 87 150 69
116 159 87 136 161 103 192 204 164 198 204 176 199 205 179
197 203 175 194 203 174 194 203 174 194 203 174 194 203 174
194 203 174 194 203 174 194 203 174 194 203 174 194 203 174
194 203 174 194 203 174 194 203 174 194 203 174 194 203 174
194 203 174 194 203 174 194 203 174 194 203 174 195 204 175
195 204 173 196 203 172 194 201 170 194 199 169 193 198 168
195 198 167 195 198 167 195 198 167 195 198 167 195 198 167
195 198 167 195 198 167 195 198 167 195 198 167 195 198 167
195 198 167 195 198 167 195 198 167 195 198 167 195 198 167
195 198 167 195 198 167 195 198 167 195 198 167 195 198 167
195 198 167 195 198 167 195 198 167 195 198 167 189 187 136
189 187 136 189 187 136 189 187 136 189 187 136 189 187 136
189 187 136 189 187 136 189 187 136 189 187 136 189 187 136
189 187 136 189 187 136 189 187 136 189 187 136 189 187 136
189 187 136 189 187 136 189 187 136 189 187 136 189 187 136
189 187 136 189 187 136 189 187 136 190 188 137 190 190 138
192 192 142 192 194 145 194 197 152 194 200 156 194 199 158
194 199 158 194 200 156 194 200 156 194 200 156 194 200 156
194 200 156 194 200 156 194 200 156 194 200 156 194 200 156
194 200 156 194 200 156 194 200 156 194 200 156 194 200 156
194 200 156 194 200 156 194 200 156 194 200 156 194 200 156
194 200 156 194 200 156 194 200 156 194 200 156 194 200 156
194 200 156 194 200 156 194 200 156 194 200 156 194 200 156
194 200 156 194 200 156 194 200 156 203 201 160 194 206 158
125 156 97 82 132 63 74 134 62 73 130 59 75 126 59 89 133 70
74 125 66 83 138 73 81 133 67 84 135 66 91 136 69 117 152 88
133 158 100 191 212 156 194 205 163 193 204 164 191 202 162
190 200 163 191 201 164 191 201 164 190 200 165 189 199 164
188 199 165 193 204 170 187 199 163 191 203 165 192 204 166
192 204 168 184 195 161 190 201 167 195 202 169 192 199 166
188 198 163 188 198 163 191 201 166 193 203 168 194 204 169
195 202 169 193 202 171 193 202 171 193 202 171 193 202 171
193 202 171 193 202 171 193 202 171 193 202 171 193 202 171
193 202 171 193 202 171 193 202 171 193 202 171 193 202 171
193 202 171 193 202 171 193 202 171 193 202 171 193 202 171
193 202 171 193 202 171 193 202 171 193 202 171 193 202 171
193 202 171 193 202 171 193 202 171 193 202 171 193 202 171
193 202 171 194 203 172 194 203 172 197 206 175 197 206 175
197 206 175 197 206 175 197 206 175 197 206 175 197 206 175
197 206 175 197 206 175 197 206 175 197 206 175 197 206 175
197 206 175 197 206 175 197 206 175 197 206 175 192 201 170
202 208 180 202 206 173 192 219 168 172 176 125 133 163 101 85 116 57
70 103 46 86 104 56 75 114 57 80 143 73 87 161 84 77 148 68 88 157 76
79 154 69 67 151 63 79 153 78 90 154 78 71 157 68 128 158 84
139 177 100 184 176 129 188 210 172 191 213 192 197 207 172
197 207 170 199 209 172 198 208 174 195 204 177 199 208 181
202 209 178 196 203 169 175 180 126 136 165 99 76 151 66 80 152 68
77 157 72 66 160 72 76 156 71 73 153 66 77 155 71 80 160 75 70 150 65
82 162 75 77 155 69 82 160 74 74 149 64 79 154 69 85 153 70
115 169 93 134 169 105 190 210 161 197 208 174 182 192 165
191 200 173 197 203 175 194 203 174 194 203 174 194 203 174
194 203 174 194 203 174 194 203 174 194 203 174 194 203 174
194 203 174 194 203 174 194 203 174 194 203 174 194 203 174
194 203 174 194 203 174 194 203 174 194 203 174 194 203 174
195 204 175 195 204 175 194 203 174 195 202 171 194 201 170
194 199 169 195 198 167 195 198 167 195 198 167 195 198 167
195 198 167 195 198 167 195 198 167 195 198 167 195 198 167
195 198 167 195 198 167 195 198 167 195 198 167 195 198 167
195 198 167 195 198 167 195 198 167 195 198 167 195 198 167
195 198 167 195 198 167 195 198 167 195 198 167 195 198 167
190 188 137 190 188 137 190 188 137 190 188 137 190 188 137
190 188 137 190 188 137 190 188 137 189 187 136 189 187 136
189 187 136 189 187 136 189 187 136 189 187 136 189 187 136
189 187 136 189 187 136 189 187 136 189 187 136 189 187 136
189 187 136 189 187 136 189 187 136 189 187 136 189 189 135
188 188 134 188 188 136 190 192 143 194 197 150 195 201 155
195 201 157 192 199 157 194 200 156 194 200 156 194 200 156
194 200 156 194 200 156 194 200 156 194 200 156 194 200 156
194 200 156 194 200 156 194 200 156 194 200 156 194 200 156
194 200 156 194 200 156 194 200 156 194 200 156 194 200 156
194 200 156 194 200 156 194 200 156 194 200 156 194 200 156
194 200 156 194 200 156 194 200 156 194 200 156 194 200 156
194 200 156 194 200 156 194 200 156 194 200 156 179 200 143
131 161 101 87 127 64 82 133 66 88 143 75 76 131 63 87 138 71
85 131 66 83 133 70 82 133 67 78 130 64 79 132 64 85 135 66 87 130 61
131 168 99 129 160 93 190 200 165 191 201 166 193 203 168 194 204 167
195 205 170 194 204 169 193 203 168 192 202 167 193 203 176
193 203 176 195 206 176 182 193 161 196 207 175 188 199 169
197 207 180 193 203 176 196 203 169 194 204 169 191 203 165
192 204 166 193 205 167 193 203 168 195 202 168 192 199 166
193 202 171 193 202 171 193 202 171 193 202 171 193 202 171
193 202 171 193 202 171 193 202 171 193 202 171 193 202 171
193 202 171 193 202 171 193 202 171 193 202 171 193 202 171
193 202 171 193 202 171 193 202 171 193 202 171 193 202 171
193 202 171 193 202 171 193 202 171 193 202 171 192 201 170
193 202 171 193 202 171 193 202 171 193 202 171 193 202 171
193 202 171 194 203 172 197 206 175 197 206 175 197 206 175
197 206 175 197 206 175 197 206 175 197 206 175 197 206 175
197 206 175 197 206 175 197 206 175 197 206 175 197 206 175
197 206 175 197 206 175 197 206 175 196 211 178 198 201 172
201 208 175 183 199 160 184 183 139 141 162 103 95 136 66 78 117 50
79 107 58 80 109 55 79 117 58 82 139 68 76 151 69 80 160 75 77 149 65
93 156 75 94 147 75 109 174 94 128 164 92 130 176 104 181 176 134
198 212 176 200 198 173 190 209 179 196 207 173 194 206 170
197 207 172 197 206 175 196 205 178 201 208 177 194 203 160
175 185 132 126 166 96 94 151 74 70 156 67 73 151 65 88 160 76
63 156 65 84 162 76 72 152 65 79 154 71 80 155 72 81 156 73 73 148 65
84 159 76 68 146 62 81 159 75 78 156 72 117 172 89 125 167 95
138 161 107 189 203 167 193 206 178 195 208 182 197 206 179
194 199 169 194 203 174 194 203 174 194 203 174 194 203 174
194 203 174 194 203 174 194 203 174 194 203 174 194 203 174
194 203 174 194 203 174 194 203 174 194 203 174 194 203 174
194 203 174 194 203 174 195 201 173 194 203 174 194 203 174
193 204 174 193 204 174 194 203 174 195 201 173 196 200 173
195 198 167 195 198 167 195 198 167 195 198 167 195 198 167
195 198 167 195 198 167 195 198 167 195 198 167 195 198 167
195 198 167 195 198 167 195 198 167 195 198 167 195 198 167
195 198 167 195 198 167 195 198 167 195 198 167 195 198 167
195 198 167 195 198 167 195 198 167 195 198 167 189 187 136
189 187 136 189 187 136 189 187 136 189 187 136 189 187 136
189 187 136 189 187 136 190 188 137 190 188 137 190 188 137
190 188 137 190 188 137 190 188 137 190 188 137 190 188 137
190 188 137 190 188 137 190 188 137 190 188 137 190 188 137
190 188 137 190 188 137 190 188 137 190 191 134 187 187 133
183 186 133 188 190 140 194 197 150 196 202 156 195 201 157
192 199 157 194 200 156 194 200 156 194 200 156 194 200 156
194 200 156 194 200 156 194 200 156 194 200 156 194 200 156
194 200 156 194 200 156 194 200 156 194 200 156 194 200 156
194 200 156 194 200 156 194 200 156 194 200 156 194 200 156
194 200 156 194 200 156 194 200 156 194 200 156 194 200 156
194 200 156 194 200 156 194 200 156 194 200 156 194 200 156
194 200 156 194 200 156 194 200 156 124 166 94 94 135 65 88 131 62
82 127 62 84 133 67 83 134 67 77 130 60 81 134 64 87 134 64 82 132 63
80 133 63 78 133 65 81 134 64 84 131 61 125 167 95 124 162 89
193 202 171 193 202 171 192 202 168 191 201 167 190 200 166
190 200 165 192 202 168 194 204 170 193 201 162 197 205 164
190 199 156 199 208 165 190 199 156 196 205 162 193 201 160
191 199 160 189 199 164 192 204 166 191 203 163 190 205 164
190 202 162 189 199 162 195 202 169 197 202 170 193 202 171
193 202 171 193 202 171 193 202 171 193 202 171 193 202 171
193 202 171 193 202 171 193 202 171 193 202 171 193 202 171
193 202 171 193 202 171 193 202 171 193 202 171 193 202 171
193 202 171 193 202 171 193 202 171 193 202 171 193 202 171
193 202 171 193 202 171 193 202 171 192 201 170 193 202 171
193 202 171 193 202 171 193 202 171 192 201 170 193 202 171
193 202 171 197 206 175 197 206 175 197 206 175 197 206 175
197 206 175 197 206 175 197 206 175 197 206 175 197 206 175
197 206 175 197 206 175 197 206 175 197 206 175 197 206 175
197 206 175 197 206 175 192 214 178 198 197 167 197 211 178
206 211 181 200 202 163 173 184 126 122 173 96 127 169 97 76 113 61
84 104 55 88 102 51 76 116 53 81 158 78 65 158 69 82 151 68
127 169 93 121 170 91 135 173 96 129 165 93 194 208 159 190 207 175
201 200 180 205 209 182 203 203 165 199 209 182 196 207 175
198 207 176 197 206 177 196 205 178 198 205 171 179 189 136
148 161 92 78 158 73 79 148 67 76 158 73 77 161 73 80 149 66
82 151 68 95 152 75 71 157 70 79 153 68 85 158 76 77 149 67 80 152 70
81 154 72 78 151 70 84 159 77 75 152 70 125 170 89 136 167 100
191 207 162 198 207 178 186 198 174 191 205 180 191 201 174
198 203 171 194 203 174 194 203 174 194 203 174 194 203 174
194 203 174 194 203 174 194 203 174 194 203 174 194 203 174
194 203 174 194 203 174 194 203 174 194 203 174 194 203 174
194 203 174 194 203 174 195 201 173 194 203 174 193 204 174
193 204 174 193 204 174 194 203 174 196 202 174 197 201 174
195 198 167 195 198 167 195 198 167 195 198 167 195 198 167
195 198 167 195 198 167 195 198 167 195 198 167 195 198 167
195 198 167 195 198 167 195 198 167 195 198 167 195 198 167
195 198 167 195 198 167 195 198 167 195 198 167 195 198 167
195 198 167 195 198 167 195 198 167 195 198 167 189 187 136
189 187 136 189 187 136 189 187 136 189 187 136 189 187 136
189 187 136 189 187 136 189 187 136 189 187 136 189 187 136
189 187 136 189 187 136 189 187 136 189 187 136 189 187 136
189 187 136 189 187 136 189 187 136 189 187 136 189 187 136
189 187 136 189 187 136 189 187 136 189 187 136 189 187 136
192 190 139 187 185 134 188 188 138 194 198 148 193 199 151
194 202 155 194 200 156 194 200 156 194 200 156 194 200 156
194 200 156 194 200 156 194 200 156 194 200 156 194 200 156
194 200 156 194 200 156 194 200 156 194 200 156 194 200 156
194 200 156 194 200 156 194 200 156 194 200 156 194 200 156
194 200 156 194 200 156 194 200 156 194 200 156 194 200 156
196 195 151 196 202 158 195 204 161 190 197 156 198 200 160
201 204 159 182 196 143 135 161 100 84 133 67 83 132 66 82 133 66
80 133 65 79 132 64 82 133 66 83 134 67 81 130 64 132 164 99
125 162 92 123 167 90 81 133 58 82 137 69 79 129 66 127 166 101
127 158 88 192 202 167 192 202 167 192 202 167 192 202 167
192 202 167 192 202 167 192 202 167 192 202 167 192 202 167
192 202 167 192 202 167 192 202 167 192 202 167 192 202 167
192 202 167 192 202 167 192 202 167 192 202 167 192 202 167
192 202 167 192 202 167 192 202 167 192 202 167 192 202 167
193 202 171 193 202 171 193 202 171 193 202 171 193 202 171
193 202 171 193 202 171 193 202 171 193 202 171 193 202 171
193 202 171 193 202 171 193 202 171 193 202 171 193 202 171
193 202 171 193 202 171 193 202 171 193 202 171 193 202 171
193 202 171 193 202 171 193 202 171 193 202 171 193 202 171
193 202 171 193 202 171 193 202 171 193 202 171 193 202 171
193 202 171 193 202 171 196 205 174 197 206 175 197 206 175
197 206 175 197 206 175 197 206 175 197 206 175 197 206 175
197 206 175 197 206 175 197 206 175 197 206 175 197 206 175
197 206 175 197 206 175 197 206 175 197 206 175 196 205 174
196 205 176 198 207 178 200 207 174 195 199 164 184 186 146
177 176 132 114 168 92 98 145 75 75 111 49 80 110 56 79 109 55
72 112 49 97 149 77 113 174 96 145 158 89 177 187 134 196 203 169
196 205 178 197 206 177 197 206 175 195 206 174 199 209 182
207 206 175 192 201 172 188 211 182 198 208 174 200 203 156
130 170 97 111 175 89 90 155 71 79 154 71 79 154 71 79 154 71
79 154 71 79 154 71 79 154 71 79 154 71 79 154 71 74 154 67 78 158 73
74 152 68 81 156 73 78 153 70 78 155 73 69 151 67 75 157 73
135 171 101 134 160 97 195 205 178 207 211 184 185 191 163
197 205 181 191 203 165 193 203 178 194 203 174 194 203 174
194 203 174 194 203 174 194 203 174 194 203 174 194 203 174
194 203 174 194 203 174 194 203 174 194 203 174 194 203 174
194 203 174 194 203 174 194 203 174 194 203 174 194 203 172
194 203 174 193 204 174 193 204 174 194 203 174 196 203 172
196 201 171 196 199 168 195 198 167 195 198 167 195 198 167
195 198 167 195 198 167 195 198 167 195 198 167 195 198 167
195 198 167 195 198 167 195 198 167 195 198 167 195 198 167
195 198 167 195 198 167 195 198 167 195 198 167 195 198 167
195 198 167 195 198 167 195 198 167 195 198 167 195 198 167
195 198 167 189 187 136 189 187 136 189 187 136 189 187 136
189 187 136 189 187 136 189 187 136 189 187 136 189 187 136
189 187 136 189 187 136 189 187 136 189 187 136 189 187 136
189 187 136 189 187 136 189 187 136 189 187 136 189 187 136
189 187 136 189 187 136 189 187 136 189 187 136 189 187 136
189 187 136 188 186 135 191 189 138 187 185 134 190 190 140
197 199 152 194 200 154 194 200 156 194 200 156 194 200 156
194 200 156 194 200 156 194 200 156 194 200 156 194 200 156
194 200 156 194 200 156 194 200 156 194 200 156 194 200 156
194 200 156 194 200 156 194 200 156 194 200 156 194 200 156
194 200 156 194 200 156 194 200 156 194 200 156 194 200 156
194 200 156 194 200 156 200 201 157 190 196 152 199 206 164
193 198 157 194 197 154 184 192 143 190 211 154 128 160 97 85 134 68
80 131 64 79 130 63 82 135 67 84 137 69 82 133 66 83 132 66 86 135 69
128 159 92 129 162 91 122 164 90 82 132 59 80 132 66 77 126 61
127 167 97 131 161 89 192 202 167 192 202 167 192 202 167 192 202 167
192 202 167 192 202 167 192 202 167 192 202 167 192 202 167
192 202 167 192 202 167 192 202 167 192 202 167 192 202 167
192 202 167 192 202 167 192 202 167 192 202 167 192 202 167
192 202 167 192 202 167 192 202 167 192 202 167 192 202 167
193 202 171 193 202 171 193 202 171 193 202 171 193 202 171
193 202 171 193 202 171 193 202 171 193 202 171 193 202 171
193 202 171 193 202 171 193 202 171 193 202 171 193 202 171
193 202 171 193 202 171 193 202 171 193 202 171 193 202 171
193 202 171 193 202 171 193 202 171 193 202 171 193 202 171
193 202 171 193 202 171 193 202 171 193 202 171 193 202 171
193 202 171 193 202 171 195 204 173 196 205 174 197 206 175
198 207 176 197 206 175 197 206 175 197 206 175 197 206 175
197 206 175 197 206 175 197 206 175 197 206 175 197 206 175
197 206 175 197 206 175 197 206 175 197 207 173 196 205 174
196 205 176 198 207 178 199 208 177 201 207 173 199 204 164
198 200 160 194 186 123 171 180 113 135 168 97 126 177 102 121 173 98
122 158 86 158 171 102 181 180 115 174 184 131 193 202 159
201 208 177 196 205 178 197 206 175 197 207 172 194 206 170
195 206 172 187 208 167 197 212 183 211 202 187 191 208 172
187 176 131 124 175 96 83 148 66 76 148 72 79 154 71 79 154 71
79 154 71 79 154 71 79 154 71 79 154 71 79 154 71 79 154 71 78 156 70
78 153 68 82 154 70 82 149 69 90 157 77 80 152 70 80 155 72 79 157 73
130 166 94 181 207 144 194 204 177 193 197 170 202 209 178
196 204 180 188 200 162 195 205 180 194 203 174 194 203 174
194 203 174 194 203 174 194 203 174 194 203 174 194 203 174
194 203 174 194 203 174 194 203 174 194 203 174 194 203 174
194 203 174 194 203 174 194 203 174 194 203 174 194 203 172
194 203 174 193 204 174 193 204 174 194 203 174 196 203 172
196 201 171 196 199 168 195 198 167 195 198 167 195 198 167
195 198 167 195 198 167 195 198 167 195 198 167 195 198 167
195 198 167 195 198 167 195 198 167 195 198 167 195 198 167
195 198 167 195 198 167 195 198 167 195 198 167 195 198 167
195 198 167 195 198 167 195 198 167 195 198 167 195 198 167
195 198 167 189 187 136 189 187 136 189 187 136 189 187 136
189 187 136 189 187 136 189 187 136 189 187 136 189 187 136
189 187 136 189 187 136 189 187 136 189 187 136 189 187 136
189 187 136 189 187 136 189 187 136 189 187 136 189 187 136
189 187 136 189 187 136 189 187 136 189 187 136 189 187 136
190 188 137 188 186 135 190 188 137 188 186 137 192 191 143
198 200 153 196 199 156 194 199 158 194 200 156 194 200 156
194 200 156 194 200 156 194 200 156 194 200 156 194 200 156
194 200 156 194 200 156 194 200 156 194 200 156 194 200 156
194 200 156 194 200 156 194 200 156 194 200 156 194 200 156
194 200 156 194 200 156 194 200 156 194 200 156 194 200 156
194 200 156 194 200 156 199 201 161 189 194 153 189 194 153
198 204 160 193 199 153 192 206 153 134 164 102 84 125 57 82 133 66
81 134 66 80 133 65 82 135 67 83 134 67 77 128 61 88 137 71
114 160 95 136 165 98 124 157 88 128 168 98 79 126 58 83 134 68
87 136 70 122 162 91 130 162 86 192 202 167 192 202 167 192 202 167
192 202 167 192 202 167 192 202 167 192 202 167 192 202 167
192 202 167 192 202 167 192 202 167 192 202 167 192 202 167
192 202 167 192 202 167 192 202 167 192 202 167 192 202 167
192 202 167 192 202 167 192 202 167 192 202 167 192 202 167
192 202 167 193 202 171 193 202 171 193 202 171 193 202 171
193 202 171 193 202 171 193 202 171 193 202 171 193 202 171
193 202 171 193 202 171 193 202 171 193 202 171 193 202 171
193 202 171 193 202 171 193 202 171 193 202 171 193 202 171
193 202 171 193 202 171 193 202 171 193 202 171 193 202 171
193 202 171 193 202 171 193 202 171 193 202 171 193 202 171
193 202 171 193 202 171 193 202 171 194 203 172 196 205 174
197 206 175 198 207 176 198 207 176 197 206 175 197 206 175
197 206 175 197 206 175 197 206 175 197 206 175 197 206 175
197 206 175 197 206 175 197 206 175 197 206 175 198 208 174
198 207 176 197 208 178 196 207 177 196 205 176 197 207 173
202 209 175 205 211 175 202 205 176 202 205 176 194 197 168
200 203 174 195 198 169 182 187 157 191 198 167 196 203 172
196 203 169 202 209 178 199 208 181 196 205 178 198 208 174
198 208 171 196 206 169 196 206 171 199 205 171 203 214 184
194 194 170 189 199 162 138 174 110 64 150 61 100 111 53 75 155 82
79 154 71 79 154 71 79 154 71 79 154 71 79 154 71 79 154 71 79 154 71
79 154 71 77 145 60 94 158 74 115 172 93 117 170 92 114 168 90
90 151 71 82 151 70 79 154 71 127 163 91 176 202 137 191 201 174
191 197 169 198 205 174 192 200 176 195 207 169 193 201 177
194 203 174 194 203 174 194 203 174 194 203 174 194 203 174
194 203 174 194 203 174 194 203 174 194 203 174 194 203 174
194 203 174 194 203 174 194 203 174 194 203 174 194 203 174
194 203 174 194 203 172 194 203 174 193 204 174 193 204 174
194 203 174 196 203 172 196 201 171 196 199 168 195 198 167
195 198 167 195 198 167 195 198 167 195 198 167 195 198 167
195 198 167 195 198 167 195 198 167 195 198 167 195 198 167
195 198 167 195 198 167 195 198 167 195 198 167 195 198 167
195 198 167 195 198 167 195 198 167 195 198 167 195 198 167
195 198 167 195 198 167 195 198 167 189 187 136 189 187 136
189 187 136 189 187 136 189 187 136 189 187 136 189 187 136
189 187 136 189 187 136 189 187 136 189 187 136 189 187 136
189 187 136 189 187 136 189 187 136 189 187 136 189 187 136
189 187 136 189 187 136 189 187 136 189 187 136 189 187 136
189 187 136 189 187 136 190 188 137 188 186 135 190 188 137
188 186 137 192 190 142 197 198 154 195 198 155 197 199 159
194 200 156 194 200 156 194 200 156 194 200 156 194 200 156
194 200 156 194 200 156 194 200 156 194 200 156 194 200 156
194 200 156 194 200 156 194 200 156 194 200 156 194 200 156
194 200 156 194 200 156 194 200 156 194 200 156 194 200 156
194 200 156 194 200 156 194 200 156 194 200 156 190 197 155
195 200 159 205 208 165 186 192 146 193 205 155 132 157 99 122 161 96
84 134 63 79 132 64 83 136 68 81 134 66 81 134 66 82 133 66 77 126 60
90 136 71 119 164 99 127 160 89 128 164 94 129 170 102 83 132 66
84 136 70 81 131 60 121 163 89 129 163 86 192 202 167 192 202 167
192 202 167 192 202 167 192 202 167 192 202 167 192 202 167
192 202 167 192 202 167 192 202 167 192 202 167 192 202 167
192 202 167 192 202 167 192 202 167 192 202 167 192 202 167
192 202 167 192 202 167 192 202 167 192 202 167 192 202 167
192 202 167 192 202 167 193 202 171 193 202 171 193 202 171
193 202 171 193 202 171 193 202 171 193 202 171 193 202 171
193 202 171 193 202 171 193 202 171 193 202 171 193 202 171
193 202 171 193 202 171 193 202 171 193 202 171 193 202 171
193 202 171 193 202 171 193 202 171 193 202 171 193 202 171
193 202 171 193 202 171 193 202 171 193 202 171 193 202 171
193 202 171 193 202 171 193 202 171 193 202 171 193 202 171
195 204 173 197 206 175 198 207 176 198 207 176 197 206 175
197 206 175 196 205 174 197 206 175 197 206 175 197 206 175
197 206 175 197 206 175 197 206 175 197 206 175 197 206 175
197 207 173 198 207 176 197 208 176 196 207 177 194 205 175
194 205 175 195 206 174 196 207 173 190 206 180 197 207 182
200 204 177 208 208 180 206 206 178 195 201 173 195 209 183
192 212 185 197 206 179 198 207 180 196 205 178 196 205 176
198 208 174 198 208 174 197 207 173 197 206 175 205 206 175
203 200 165 199 213 164 131 173 109 82 139 70 70 119 53 68 110 46
87 147 77 79 154 71 79 154 71 79 154 71 79 154 71 79 154 71 79 154 71
79 154 71 79 154 71 123 174 95 129 176 98 128 169 93 137 175 100
129 173 98 116 170 92 87 155 72 76 151 66 128 166 91 134 163 97
189 202 172 199 205 177 188 195 164 195 203 179 195 207 169
193 201 177 194 203 174 194 203 174 194 203 174 194 203 174
194 203 174 194 203 174 194 203 174 194 203 174 194 203 174
194 203 174 194 203 174 194 203 174 194 203 174 194 203 174
194 203 174 194 203 174 194 203 172 194 203 174 193 204 174
193 204 174 194 203 174 196 203 172 195 200 170 195 198 167
195 198 167 195 198 167 195 198 167 195 198 167 195 198 167
195 198 167 195 198 167 195 198 167 195 198 167 195 198 167
195 198 167 195 198 167 195 198 167 195 198 167 195 198 167
195 198 167 195 198 167 195 198 167 195 198 167 195 198 167
195 198 167 195 198 167 195 198 167 195 198 167 189 187 136
189 187 136 189 187 136 189 187 136 189 187 136 189 187 136
189 187 136 189 187 136 189 187 136 189 187 136 189 187 136
189 187 136 189 187 136 189 187 136 189 187 136 189 187 136
189 187 136 189 187 136 189 187 136 189 187 136 189 187 136
189 187 136 189 187 136 189 187 136 190 188 137 188 186 135
191 189 138 188 186 137 189 187 139 194 193 147 194 195 153
198 200 160 194 200 156 194 200 156 194 200 156 194 200 156
194 200 156 194 200 156 194 200 156 194 200 156 194 200 156
194 200 156 194 200 156 194 200 156 194 200 156 194 200 156
194 200 156 194 200 156 194 200 156 194 200 156 194 200 156
194 200 156 194 200 156 194 200 156 194 200 156 194 200 156
197 204 163 185 190 149 189 195 149 192 202 152 133 154 97 122 158 94
84 131 61 82 135 63 80 133 65 83 136 68 78 131 63 79 132 64 88 139 72
85 134 68 82 128 63 91 136 71 119 161 87 126 169 98 86 132 67
77 128 62 76 131 63 85 137 63 128 170 96 128 162 88 192 202 167
192 202 167 192 202 167 192 202 167 192 202 167 192 202 167
192 202 167 192 202 167 192 202 167 192 202 167 192 202 167
192 202 167 192 202 167 192 202 167 192 202 167 192 202 167
192 202 167 192 202 167 192 202 167 192 202 167 192 202 167
192 202 167 192 202 167 192 202 167 193 202 171 193 202 171
193 202 171 193 202 171 193 202 171 193 202 171 193 202 171
193 202 171 193 202 171 193 202 171 193 202 171 193 202 171
193 202 171 193 202 171 193 202 171 193 202 171 193 202 171
193 202 171 193 202 171 193 202 171 193 202 171 193 202 171
193 202 171 193 202 171 193 202 171 193 202 171 193 202 171
193 202 171 193 202 171 193 202 171 193 202 171 193 202 171
192 201 170 194 203 172 196 205 174 198 207 176 198 207 176
197 206 175 197 206 175 196 205 174 197 206 175 197 206 175
197 206 175 197 206 175 197 206 175 197 206 175 197 206 175
197 206 175 195 205 171 196 206 172 197 206 175 198 207 178
197 208 178 197 208 178 196 207 177 194 207 177 198 205 172
196 208 172 191 208 164 189 211 164 189 211 164 190 209 164
194 208 172 196 206 172 197 206 177 196 205 174 197 207 173
198 208 174 196 205 174 196 205 176 197 206 179 197 206 179
190 212 174 189 176 131 115 164 82 125 172 92 92 110 58 72 109 58
78 114 53 76 156 67 79 154 71 79 154 71 79 154 71 79 154 71 79 154 71
79 154 71 79 154 71 79 154 71 130 166 92 132 166 92 126 158 85
133 167 93 127 169 95 117 171 93 89 158 75 77 155 69 129 170 94
128 157 90 193 206 176 199 206 175 195 202 171 199 207 183
186 198 160 198 206 183 194 203 174 194 203 174 194 203 174
194 203 174 194 203 174 194 203 174 194 203 174 194 203 174
194 203 174 194 203 174 194 203 174 194 203 174 194 203 174
194 203 174 194 203 174 194 203 174 194 203 172 194 203 174
193 204 174 193 204 174 194 203 174 195 202 171 195 200 170
195 198 167 195 198 167 195 198 167 195 198 167 195 198 167
195 198 167 195 198 167 195 198 167 195 198 167 195 198 167
195 198 167 195 198 167 195 198 167 195 198 167 195 198 167
195 198 167 195 198 167 195 198 167 195 198 167 195 198 167
195 198 167 195 198 167 195 198 167 195 198 167 195 198 167
189 187 136 189 187 136 189 187 136 189 187 136 189 187 136
189 187 136 189 187 136 189 187 136 189 187 136 189 187 136
189 187 136 189 187 136 189 187 136 189 187 136 189 187 136
189 187 136 189 187 136 189 187 136 189 187 136 189 187 136
189 187 136 189 187 136 189 187 136 189 187 136 189 187 136
188 186 135 192 190 139 189 186 135 187 185 136 191 190 142
190 192 145 197 198 154 194 200 156 194 200 156 194 200 156
194 200 156 194 200 156 194 200 156 194 200 156 194 200 156
194 200 156 194 200 156 194 200 156 194 200 156 194 200 156
194 200 156 194 200 156 194 200 156 194 200 156 194 200 156
194 200 156 194 200 156 194 200 156 194 200 156 194 200 156
194 200 156 190 197 155 202 208 164 198 206 157 187 204 149
131 163 100 92 137 70 80 131 62 81 134 64 81 132 65 83 136 68
80 133 65 79 132 64 85 136 69 84 135 68 80 129 63 82 128 63 84 134 61
89 139 70 73 122 57 87 140 72 87 140 68 121 168 96 118 155 86
130 158 97 192 202 167 192 202 167 192 202 167 192 202 167
192 202 167 192 202 167 192 202 167 192 202 167 192 202 167
192 202 167 192 202 167 192 202 167 192 202 167 192 202 167
192 202 167 192 202 167 192 202 167 192 202 167 192 202 167
192 202 167 192 202 167 192 202 167 192 202 167 192 202 167
193 202 171 193 202 171 193 202 171 193 202 171 193 202 171
193 202 171 193 202 171 193 202 171 193 202 171 193 202 171
193 202 171 193 202 171 193 202 171 193 202 171 193 202 171
193 202 171 193 202 171 193 202 171 193 202 171 193 202 171
193 202 171 193 202 171 193 202 171 193 202 171 193 202 171
193 202 171 193 202 171 193 202 171 193 202 171 193 202 171
193 202 171 193 202 171 192 201 170 194 203 172 196 205 174
197 206 175 197 206 175 197 206 175 197 206 175 197 206 175
197 206 175 197 206 175 197 206 175 197 206 175 197 206 175
197 206 175 197 206 175 197 206 175 197 208 174 196 207 173
196 205 174 196 205 174 198 207 176 199 208 179 198 209 179
195 208 178 201 206 184 200 205 182 198 204 178 198 204 176
199 205 177 199 205 179 199 204 181 198 203 181 197 206 175
196 206 171 198 208 171 198 208 174 195 204 175 197 205 181
202 208 182 200 207 176 178 176 138 122 168 95 142 171 89 83 156 67
81 101 50 81 99 59 86 121 65 86 148 65 79 154 71 79 154 71 79 154 71
79 154 71 79 154 71 79 154 71 79 154 71 79 154 71 126 168 92
131 172 96 136 178 104 126 170 95 117 170 92 91 154 73 78 151 69
72 152 67 128 169 91 137 168 100 191 206 173 193 202 171 194 203 172
195 203 179 190 202 164 194 202 179 194 203 174 194 203 174
194 203 174 194 203 174 194 203 174 194 203 174 194 203 174
194 203 174 194 203 174 194 203 174 194 203 174 194 203 174
194 203 174 194 203 174 194 203 174 194 203 174 194 203 172
194 203 174 193 204 174 193 204 174 194 203 174 195 202 171
195 200 170 195 198 167 195 198 167 195 198 167 195 198 167
195 198 167 195 198 167 195 198 167 195 198 167 195 198 167
195 198 167 195 198 167 195 198 167 195 198 167 195 198 167
195 198 167 195 198 167 195 198 167 195 198 167 195 198 167
195 198 167 195 198 167 195 198 167 195 198 167 195 198 167
195 198 167 189 187 136 189 187 136 189 187 136 189 187 136
189 187 136 189 187 136 189 187 136 189 187 136 189 187 136
189 187 136 189 187 136 189 187 136 189 187 136 189 187 136
189 187 136 189 187 136 189 187 136 189 187 136 189 187 136
189 187 136 189 187 136 189 187 136 189 187 136 189 187 136
189 189 137 188 186 135 191 189 138 189 186 133 188 186 135
191 189 138 189 189 139 191 193 144 194 200 156 194 200 156
194 200 156 194 200 156 194 200 156 194 200 156 194 200 156
194 200 156 194 200 156 194 200 156 194 200 156 194 200 156
194 200 156 194 200 156 194 200 156 194 200 156 194 200 156
194 200 156 194 200 156 194 200 156 194 200 156 194 200 156
194 200 156 194 200 156 195 200 159 188 194 148 190 200 148
128 154 93 120 163 94 89 142 70 79 132 62 82 133 66 82 131 65
84 135 68 84 135 68 80 133 65 78 131 63 80 131 64 85 134 68 88 137 71
79 132 62 78 129 62 87 136 71 79 129 60 83 131 57 122 162 91
141 166 108 188 204 157 192 202 167 192 202 167 192 202 167
192 202 167 192 202 167 192 202 167 192 202 167 192 202 167
192 202 167 192 202 167 192 202 167 192 202 167 192 202 167
192 202 167 192 202 167 192 202 167 192 202 167 192 202 167
192 202 167 192 202 167 192 202 167 192 202 167 192 202 167
192 202 167 193 202 171 193 202 171 193 202 171 193 202 171
193 202 171 193 202 171 193 202 171 193 202 171 193 202 171
193 202 171 193 202 171 193 202 171 193 202 171 193 202 171
193 202 171 193 202 171 193 202 171 193 202 171 193 202 171
193 202 171 193 202 171 193 202 171 193 202 171 193 202 171
193 202 171 193 202 171 193 202 171 193 202 171 193 202 171
193 202 171 193 202 171 193 202 171 192 201 170 194 203 172
195 204 173 196 205 174 197 206 175 197 206 175 197 206 175
198 207 176 197 206 175 197 206 175 197 206 175 197 206 175
197 206 175 197 206 175 197 206 175 197 206 175 198 209 175
197 208 174 197 207 173 198 205 172 198 205 174 197 206 175
197 206 175 195 206 174 204 203 175 199 202 173 199 206 175
196 207 175 196 207 175 200 207 176 201 204 175 205 204 176
196 207 175 193 205 169 197 207 170 198 208 174 195 204 177
200 206 180 200 207 173 191 200 157 178 186 127 125 165 94 73 114 44
78 159 82 88 102 53 86 116 66 69 106 52 82 105 51 79 154 71 79 154 71
79 154 71 79 154 71 79 154 71 79 154 71 79 154 71 79 154 71 90 155 73
85 150 68 83 148 66 77 144 64 87 156 75 80 153 71 82 157 74 81 159 75
126 169 90 134 165 95 188 203 170 193 202 171 190 199 168 192 200 176
197 209 171 190 198 175 194 203 174 194 203 174 194 203 174
194 203 174 194 203 174 194 203 174 194 203 174 194 203 174
194 203 174 194 203 174 194 203 174 194 203 174 194 203 174
194 203 174 194 203 174 194 203 174 194 203 172 194 203 174
193 204 174 193 204 174 194 203 174 195 202 171 195 200 170
194 197 166 195 198 167 195 198 167 195 198 167 195 198 167
195 198 167 195 198 167 195 198 167 195 198 167 195 198 167
195 198 167 195 198 167 195 198 167 195 198 167 195 198 167
195 198 167 195 198 167 195 198 167 195 198 167 195 198 167
195 198 167 195 198 167 195 198 167 195 198 167 195 198 167
189 187 136 189 187 136 189 187 136 189 187 136 189 187 136
189 187 136 189 187 136 189 187 136 189 187 136 189 187 136
189 187 136 189 187 136 189 187 136 189 187 136 189 187 136
189 187 136 189 187 136 189 187 136 189 187 136 189 187 136
189 187 136 189 187 136 189 187 136 189 187 136 189 189 139
187 185 134 190 189 135 189 186 133 190 187 134 191 190 136
186 186 134 189 189 139 194 200 156 194 200 156 194 200 156
194 200 156 194 200 156 194 200 156 194 200 156 194 200 156
194 200 156 194 200 156 194 200 156 194 200 156 194 200 156
194 200 156 194 200 156 194 200 156 194 200 156 194 200 156
194 200 156 194 200 156 194 200 156 194 200 156 194 200 156
194 200 156 193 199 155 196 202 156 192 205 151 131 161 97 85 135 64
71 128 57 82 137 69 81 130 65 85 134 68 81 130 64 81 132 65 82 135 67
81 134 66 82 133 66 82 133 66 81 130 64 80 133 65 87 136 71 82 128 64
86 131 62 127 169 95 124 157 88 182 200 148 194 200 164 192 202 167
192 202 167 192 202 167 192 202 167 192 202 167 192 202 167
192 202 167 192 202 167 192 202 167 192 202 167 192 202 167
192 202 167 192 202 167 192 202 167 192 202 167 192 202 167
192 202 167 192 202 167 192 202 167 192 202 167 192 202 167
192 202 167 192 202 167 192 202 167 193 202 171 193 202 171
193 202 171 193 202 171 193 202 171 193 202 171 193 202 171
193 202 171 193 202 171 193 202 171 193 202 171 193 202 171
193 202 171 193 202 171 193 202 171 193 202 171 193 202 171
193 202 171 193 202 171 193 202 171 193 202 171 193 202 171
193 202 171 193 202 171 193 202 171 193 202 171 193 202 171
193 202 171 193 202 171 193 202 171 193 202 171 193 202 171
192 201 170 194 203 172 195 204 173 196 205 174 196 205 174
197 206 175 197 206 175 198 207 176 197 206 175 197 206 175
197 206 175 197 206 175 197 206 175 197 206 175 197 206 175
197 206 175 193 207 172 196 207 173 198 208 174 200 207 174
201 206 174 199 206 173 199 206 173 197 206 175 192 210 172
193 207 172 199 208 177 200 205 175 199 204 174 196 205 174
192 206 171 194 212 174 199 209 182 194 205 171 197 207 172
198 207 176 196 205 178 199 206 175 192 201 158 175 185 132
142 163 86 69 152 70 85 108 62 79 102 58 77 115 56 83 96 42 75 116 60
87 108 69 79 154 71 79 154 71 79 154 71 79 154 71 79 154 71 79 154 71
79 154 71 79 154 71 70 156 67 74 160 73 70 156 69 76 160 74 73 155 70
77 156 73 75 150 68 82 155 74 127 170 90 132 165 94 192 207 174
193 202 171 198 207 176 197 205 181 189 201 163 196 204 181
194 203 174 194 203 174 194 203 174 194 203 174 194 203 174
194 203 174 194 203 174 194 203 174 194 203 174 194 203 174
194 203 174 194 203 174 194 203 174 194 203 174 194 203 174
194 203 174 194 203 172 194 203 174 193 204 174 193 204 174
194 203 174 195 202 171 194 199 169 194 197 166 195 198 167
195 198 167 195 198 167 195 198 167 195 198 167 195 198 167
195 198 167 195 198 167 195 198 167 195 198 167 195 198 167
195 198 167 195 198 167 195 198 167 195 198 167 195 198 167
195 198 167 195 198 167 195 198 167 195 198 167 195 198 167
195 198 167 195 198 167 195 198 167 189 187 136 189 187 136
189 187 136 189 187 136 189 187 136 189 187 136 189 187 136
189 187 136 189 187 136 189 187 136 189 187 136 189 187 136
189 187 136 189 187 136 189 187 136 189 187 136 189 187 136
189 187 136 189 187 136 189 187 136 189 187 136 189 187 136
189 187 136 189 187 136 189 187 136 190 188 137 190 188 137
188 186 135 187 185 134 189 187 136 193 191 140 196 194 143
198 201 156 196 199 154 193 199 155 192 199 157 193 200 158
193 200 156 193 199 155 192 198 152 194 200 156 194 200 156
194 200 156 194 200 156 194 200 156 194 200 156 194 200 156
194 200 156 194 200 156 194 200 156 194 200 156 194 200 156
194 200 156 194 200 156 194 200 156 194 200 156 198 199 159
194 195 151 190 203 149 130 165 99 72 130 56 75 141 67 81 140 72
81 126 67 82 138 65 80 133 61 78 131 61 85 138 68 81 132 65 78 129 62
85 136 69 80 131 65 79 131 69 83 136 68 80 130 57 92 136 59
123 159 89 142 165 109 182 195 152 200 205 173 192 202 167
192 202 167 192 202 167 192 202 167 192 202 167 192 202 167
192 202 167 192 202 167 192 202 167 192 202 167 192 202 167
192 202 167 192 202 167 192 202 167 192 202 167 192 202 167
192 202 167 192 202 167 192 202 167 192 202 165 192 202 167
192 202 167 193 203 169 193 202 171 193 202 171 193 202 171
193 202 171 193 202 171 193 202 171 193 202 171 193 202 171
193 202 171 193 202 171 193 202 171 193 202 171 193 202 171
193 202 171 193 202 171 193 202 171 193 202 171 193 202 171
193 202 171 193 202 171 193 202 171 193 202 171 193 202 171
193 202 171 193 202 171 193 202 171 193 202 171 193 202 171
193 202 171 193 202 171 193 202 171 193 202 171 193 202 171
193 202 171 193 202 171 194 203 172 195 204 173 197 206 175
198 207 176 197 206 175 196 205 174 197 206 175 197 206 175
197 206 175 198 207 176 198 207 176 197 206 175 197 206 175
197 206 175 197 206 175 197 206 175 197 206 175 197 206 175
197 206 175 197 206 175 197 206 175 197 206 175 197 206 175
197 206 175 197 206 175 197 206 175 197 206 175 197 206 175
197 206 175 197 206 175 197 208 178 195 206 176 194 203 174
196 205 176 200 209 178 200 207 173 189 197 158 176 184 143
134 176 92 78 99 40 86 113 68 78 111 68 76 100 50 83 153 81 90 113 59
73 102 54 78 116 59 92 144 78 80 151 75 75 153 69 81 153 67 79 151 65
78 157 68 67 156 66 72 156 70 81 156 73 77 144 64 83 154 74 81 158 76
76 149 67 91 149 72 127 170 98 133 159 98 186 208 162 195 210 181
193 201 178 198 205 174 192 199 165 194 203 174 191 201 177
194 203 174 194 203 174 194 203 174 194 203 174 194 203 174
194 203 174 194 203 174 194 203 174 194 203 174 194 203 174
194 203 174 194 203 174 194 203 174 194 203 174 194 203 174
194 203 174 193 202 175 193 204 174 194 205 175 194 205 173
193 202 171 194 201 168 195 198 167 197 198 167 195 198 167
195 198 167 195 198 167 195 198 167 195 198 167 195 198 167
195 198 167 195 198 167 195 198 167 195 198 167 195 198 167
195 198 167 195 198 167 195 198 167 195 198 167 195 198 167
195 198 167 195 198 167 195 198 167 195 198 167 195 198 167
195 198 167 195 198 167 195 198 167 189 187 136 189 187 136
189 187 136 189 187 136 189 187 136 189 187 136 189 187 136
189 187 136 189 187 136 189 187 136 189 187 136 189 187 136
189 187 136 189 187 136 189 187 136 189 187 136 189 187 136
189 187 136 189 187 136 189 187 136 189 187 136 189 187 136
189 187 136 189 187 136 188 186 135 189 187 136 190 188 137
189 187 136 188 186 135 188 186 135 190 188 137 192 190 139
194 197 150 196 199 154 195 201 157 194 201 157 193 200 158
192 199 155 194 200 156 195 201 155 194 200 156 194 200 156
194 200 156 194 200 156 194 200 156 194 200 156 194 200 156
194 200 156 194 200 156 194 200 156 194 200 156 194 200 156
194 200 156 194 200 156 194 200 156 194 200 156 191 196 155
201 204 159 186 196 143 128 157 93 85 135 62 79 137 63 78 131 63
87 131 70 82 133 64 82 133 64 81 132 63 84 135 68 80 131 64 83 134 67
84 135 68 82 133 66 82 134 68 80 131 62 87 133 61 123 160 91
131 159 98 180 198 148 192 203 163 193 200 167 192 202 167
192 202 167 192 202 167 192 202 167 192 202 167 192 202 167
192 202 167 192 202 167 192 202 167 192 202 167 192 202 167
192 202 167 192 202 167 192 202 167 192 202 167 192 202 167
192 202 167 192 202 167 192 202 167 192 202 165 192 202 167
192 202 167 193 203 169 193 202 171 193 202 171 193 202 171
193 202 171 193 202 171 193 202 171 193 202 171 193 202 171
193 202 171 193 202 171 193 202 171 193 202 171 193 202 171
193 202 171 193 202 171 193 202 171 193 202 171 193 202 171
193 202 171 193 202 171 193 202 171 193 202 171 193 202 171
193 202 171 193 202 171 193 202 171 193 202 171 193 202 171
193 202 171 193 202 171 193 202 171 193 202 171 193 202 171
192 201 170 192 201 170 193 202 171 194 203 172 196 205 174
198 207 176 197 206 175 197 206 175 197 206 175 197 206 175
197 206 175 197 206 175 197 206 175 197 206 175 197 206 175
197 206 175 197 206 175 197 206 175 197 206 175 197 206 175
197 206 175 197 206 175 197 206 175 197 206 175 197 206 175
197 206 175 197 206 175 197 206 175 197 206 175 197 206 175
197 206 175 197 206 175 195 206 174 196 207 175 197 206 177
196 205 176 197 206 175 199 206 172 196 204 167 191 199 160
124 164 93 81 108 55 76 112 64 80 108 57 81 118 48 74 160 69 75 98 42
80 112 71 69 92 38 82 128 64 76 148 72 73 159 72 76 160 72 79 154 69
84 156 74 83 155 73 74 154 69 86 159 77 89 158 77 78 151 69 73 153 68
83 158 75 91 152 72 120 166 91 146 169 113 183 201 159 188 201 175
192 200 177 199 205 177 194 201 167 198 207 178 197 207 183
194 203 174 194 203 174 194 203 174 194 203 174 194 203 174
194 203 174 194 203 174 194 203 174 194 203 174 194 203 174
194 203 174 194 203 174 194 203 174 194 203 174 194 203 174
194 203 174 193 202 175 193 204 174 194 205 175 193 204 172
193 202 171 194 201 168 195 198 167 197 198 167 195 198 167
195 198 167 195 198 167 195 198 167 195 198 167 195 198 167
195 198 167 195 198 167 195 198 167 195 198 167 195 198 167
195 198 167 195 198 167 195 198 167 195 198 167 195 198 167
195 198 167 195 198 167 195 198 167 195 198 167 195 198 167
195 198 167 195 198 167 195 198 167 189 187 136 189 187 136
189 187 136 189 187 136 189 187 136 189 187 136 189 187 136
189 187 136 189 187 136 189 187 136 189 187 136 189 187 136
189 187 136 189 187 136 189 187 136 189 187 136 189 187 136
189 187 136 189 187 136 189 187 136 189 187 136 189 187 136
189 187 136 189 187 136 187 185 134 189 187 136 190 188 137
190 188 137 188 186 135 187 185 134 188 186 135 189 187 136
190 192 143 194 196 149 197 200 155 196 202 158 192 199 155
192 198 154 194 200 156 197 203 157 194 200 156 194 200 156
194 200 156 194 200 156 194 200 156 194 200 156 194 200 156
194 200 156 194 200 156 194 200 156 194 200 156 194 200 156
194 200 156 194 200 156 194 200 156 194 200 156 193 202 159
198 204 158 179 187 136 135 155 96 97 136 69 80 130 59 79 130 61
87 133 68 80 129 64 84 135 69 82 133 66 81 132 65 78 129 62 87 138 71
80 131 64 82 133 66 81 133 59 91 137 65 121 158 91 129 157 98
188 206 156 189 202 159 194 204 167 195 202 169 192 202 167
192 202 167 192 202 167 192 202 167 192 202 167 192 202 167
192 202 167 192 202 167 192 202 167 192 202 167 192 202 167
192 202 167 192 202 167 192 202 167 192 202 167 192 202 167
192 202 167 192 202 167 192 202 167 192 202 165 192 202 167
192 202 167 193 203 169 193 202 171 193 202 171 193 202 171
193 202 171 193 202 171 193 202 171 193 202 171 193 202 171
193 202 171 193 202 171 193 202 171 193 202 171 193 202 171
193 202 171 193 202 171 193 202 171 193 202 171 193 202 171
193 202 171 193 202 171 193 202 171 193 202 171 193 202 171
193 202 171 193 202 171 193 202 171 193 202 171 193 202 171
193 202 171 193 202 171 193 202 171 193 202 171 193 202 171
193 202 171 192 201 170 193 202 171 194 203 172 195 204 173
197 206 175 197 206 175 197 206 175 197 206 175 197 206 175
196 205 174 196 205 174 197 206 175 197 206 175 197 206 175
198 207 176 197 206 175 197 206 175 197 206 175 197 206 175
197 206 175 197 206 175 197 206 175 197 206 175 197 206 175
197 206 175 197 206 175 197 206 175 197 206 175 197 206 175
197 206 175 197 206 175 198 208 174 199 208 177 199 208 177
197 206 175 196 205 174 196 206 172 197 204 170 196 203 169
130 166 96 84 149 81 82 105 61 96 103 59 80 105 39 67 158 65
77 160 80 94 103 60 87 118 58 90 141 72 79 152 73 72 157 72 73 155 70
75 148 67 82 151 71 84 152 75 80 155 72 71 144 62 81 153 71 78 156 70
75 158 70 78 153 68 113 172 92 126 170 95 183 200 155 196 210 175
194 202 179 198 203 181 198 204 176 191 198 165 193 202 173
191 201 176 194 203 174 194 203 174 194 203 174 194 203 174
194 203 174 194 203 174 194 203 174 194 203 174 194 203 174
194 203 174 194 203 174 194 203 174 194 203 174 194 203 174
194 203 174 194 203 174 192 202 175 193 204 174 193 204 174
194 203 172 195 202 171 194 199 167 195 198 167 197 198 167
195 198 167 195 198 167 195 198 167 195 198 167 195 198 167
195 198 167 195 198 167 195 198 167 195 198 167 195 198 167
195 198 167 195 198 167 195 198 167 195 198 167 195 198 167
195 198 167 195 198 167 195 198 167 195 198 167 195 198 167
195 198 167 195 198 167 195 198 167 195 198 167 189 187 136
189 187 136 189 187 136 189 187 136 189 187 136 189 187 136
189 187 136 189 187 136 189 187 136 189 187 136 189 187 136
189 187 136 189 187 136 189 187 136 189 187 136 189 187 136
189 187 136 189 187 136 189 187 136 189 187 136 189 187 136
189 187 136 189 187 136 189 187 136 188 186 135 189 187 136
190 188 137 189 187 136 188 186 135 188 186 135 187 185 134
188 186 135 186 186 136 190 192 143 195 198 151 195 201 155
194 200 156 192 198 154 193 199 155 197 200 157 194 200 156
194 200 156 194 200 156 194 200 156 194 200 156 194 200 156
194 200 156 194 200 156 194 200 156 194 200 156 194 200 156
194 200 156 194 200 156 194 200 156 194 200 156 194 200 156
192 199 157 194 200 156 200 203 156 180 195 140 128 158 94 89 134 65
83 136 64 76 134 60 81 131 68 86 137 71 82 134 68 81 133 67 78 131 63
85 138 70 76 127 60 84 135 66 90 136 61 123 163 93 127 155 96
190 208 160 189 200 160 189 196 162 202 209 175 190 200 165
192 202 167 192 202 167 192 202 167 192 202 167 192 202 167
192 202 167 192 202 167 192 202 167 192 202 167 192 202 167
192 202 167 192 202 167 192 202 167 192 202 167 192 202 167
192 202 167 192 202 167 192 202 167 192 202 167 192 202 165
192 202 167 192 202 167 193 203 169 193 202 171 193 202 171
193 202 171 193 202 171 193 202 171 193 202 171 193 202 171
193 202 171 193 202 171 193 202 171 193 202 171 193 202 171
193 202 171 193 202 171 193 202 171 193 202 171 193 202 171
193 202 171 193 202 171 193 202 171 193 202 171 193 202 171
193 202 171 193 202 171 193 202 171 193 202 171 193 202 171
193 202 171 193 202 171 193 202 171 193 202 171 193 202 171
193 202 171 194 203 172 194 203 172 193 202 171 194 203 172
194 203 172 195 204 173 196 205 174 197 206 175 198 207 176
197 206 175 197 206 175 197 206 175 197 206 175 197 206 175
197 206 175 198 207 176 197 206 175 197 206 175 197 206 175
197 206 175 197 206 175 197 206 175 197 206 175 197 206 175
197 206 175 197 206 175 197 206 175 197 206 175 197 206 175
197 206 175 197 206 175 197 206 175 199 209 175 198 208 174
197 206 175 197 206 175 198 207 176 197 206 175 193 202 171
189 198 167 114 176 90 129 166 96 98 101 54 68 111 58 77 111 61
84 102 50 84 146 71 84 153 70 81 148 69 81 152 72 79 154 71 80 155 70
84 156 72 82 154 72 79 154 72 72 154 72 81 158 76 80 155 72 78 156 70
71 150 61 81 156 71 88 153 71 127 173 100 136 168 101 197 207 170
197 206 177 194 199 177 199 202 181 198 204 176 194 201 170
197 206 177 193 203 176 194 203 174 194 203 174 194 203 174
194 203 174 194 203 174 194 203 174 194 203 174 194 203 174
194 203 174 194 203 174 194 203 174 194 203 174 194 203 174
194 203 174 194 203 174 194 203 174 192 202 175 193 204 174
194 203 174 194 203 172 194 201 170 194 199 167 195 198 167
195 198 167 195 198 167 195 198 167 195 198 167 195 198 167
195 198 167 195 198 167 195 198 167 195 198 167 195 198 167
195 198 167 195 198 167 195 198 167 195 198 167 195 198 167
195 198 167 195 198 167 195 198 167 195 198 167 195 198 167
195 198 167 195 198 167 195 198 167 195 198 167 195 198 167
189 187 136 189 187 136 189 187 136 189 187 136 189 187 136
189 187 136 189 187 136 189 187 136 189 187 136 189 187 136
189 187 136 189 187 136 189 187 136 189 187 136 189 187 136
189 187 136 189 187 136 189 187 136 189 187 136 189 187 136
189 187 136 189 187 136 189 187 136 189 187 136 189 187 136
189 187 136 189 187 136 189 187 136 188 186 135 188 186 135
189 187 136 189 187 136 186 184 133 189 189 139 192 194 145
196 199 154 195 201 157 195 201 157 196 199 156 195 198 155
194 200 156 194 200 156 194 200 156 194 200 156 194 200 156
194 200 156 194 200 156 194 200 156 194 200 156 194 200 156
194 200 156 194 200 156 194 200 156 194 200 156 194 200 156
194 200 156 197 203 159 194 197 154 195 198 153 184 194 142
133 158 100 85 127 61 74 132 58 76 140 64 79 131 65 81 133 67
76 131 64 79 134 66 77 132 64 79 132 64 76 127 58 90 140 71
123 159 87 132 161 97 186 204 152 189 200 160 194 200 166 197 202 170
188 195 162 194 206 170 192 202 167 192 202 167 192 202 167
192 202 167 192 202 167 192 202 167 192 202 167 192 202 167
192 202 167 192 202 167 192 202 167 192 202 167 192 202 167
192 202 167 192 202 167 192 202 167 192 202 167 192 202 167
192 202 167 192 202 165 192 202 167 192 202 167 193 203 169
193 202 171 193 202 171 193 202 171 193 202 171 193 202 171
193 202 171 193 202 171 193 202 171 193 202 171 193 202 171
193 202 171 193 202 171 193 202 171 193 202 171 193 202 171
193 202 171 193 202 171 193 202 171 193 202 171 193 202 171
193 202 171 193 202 171 193 202 171 193 202 171 193 202 171
193 202 171 193 202 171 193 202 171 193 202 171 193 202 171
193 202 171 193 202 171 193 202 171 194 203 172 194 203 172
194 203 172 194 203 172 194 203 172 195 204 173 197 206 175
198 207 176 199 208 177 198 207 176 198 207 176 198 207 176
197 206 175 197 206 175 197 206 175 197 206 175 197 206 175
197 206 175 197 206 175 197 206 175 197 206 175 197 206 175
197 206 175 197 206 175 197 206 175 197 206 175 197 206 175
197 206 175 197 206 175 197 206 175 197 206 175 197 206 175
196 206 172 195 205 171 195 205 171 197 206 175 198 207 176
196 205 174 193 202 173 191 200 171 181 176 121 131 172 96 79 153 66
85 106 50 89 107 69 80 105 66 91 111 58 70 155 62 78 162 74 73 157 69
72 155 67 74 153 64 78 152 65 81 155 70 78 156 70 77 157 72 79 158 75
79 157 73 75 150 65 87 159 75 91 154 73 125 172 102 125 153 94
186 203 149 195 202 171 193 199 173 193 198 175 196 202 176
195 201 173 197 203 175 199 208 179 193 203 176 194 203 174
194 203 174 194 203 174 194 203 174 194 203 174 194 203 174
194 203 174 194 203 174 194 203 174 194 203 174 194 203 174
194 203 174 194 203 174 194 203 174 194 203 174 194 203 174
193 203 176 194 203 174 194 203 174 195 202 171 195 200 170
195 198 167 195 198 167 195 198 167 195 198 167 195 198 167
195 198 167 195 198 167 195 198 167 195 198 167 195 198 167
195 198 167 195 198 167 195 198 167 195 198 167 195 198 167
195 198 167 195 198 167 195 198 167 195 198 167 195 198 167
195 198 167 195 198 167 195 198 167 195 198 167 195 198 167
195 198 167 195 198 167 189 187 136 189 187 136 189 187 136
189 187 136 189 187 136 189 187 136 189 187 136 189 187 136
189 187 136 189 187 136 189 187 136 189 187 136 189 187 136
189 187 136 189 187 136 189 187 136 189 187 136 189 187 136
189 187 136 189 187 136 189 187 136 189 187 136 189 187 136
189 187 136 189 187 136 189 187 136 189 187 136 188 186 135
189 187 136 189 187 136 190 188 137 190 188 137 189 186 133
190 188 137 192 192 142 194 196 149 197 200 155 198 201 158
197 200 157 195 198 155 194 200 156 194 200 156 194 200 156
194 200 156 194 200 156 194 200 156 194 200 156 194 200 156
194 200 156 194 200 156 194 200 156 194 200 156 194 200 156
194 200 156 194 200 156 194 200 156 196 199 156 198 199 157
195 198 153 195 203 156 182 200 148 134 165 106 86 133 65 79 135 64
82 133 66 83 134 67 79 132 64 84 137 69 86 137 68 83 130 62 97 142 75
112 154 88 144 166 104 183 202 147 187 200 156 190 198 161
199 204 172 192 199 168 194 204 170 189 201 165 192 202 167
192 202 167 192 202 167 192 202 167 192 202 167 192 202 167
192 202 167 192 202 167 192 202 167 192 202 167 192 202 167
192 202 167 192 202 167 192 202 167 192 202 167 192 202 167
192 202 167 192 202 167 192 202 167 192 202 165 192 202 167
192 202 167 193 203 169 193 202 171 193 202 171 193 202 171
193 202 171 193 202 171 193 202 171 193 202 171 193 202 171
193 202 171 193 202 171 193 202 171 193 202 171 193 202 171
193 202 171 193 202 171 193 202 171 193 202 171 193 202 171
193 202 171 193 202 171 193 202 171 193 202 171 193 202 171
193 202 171 193 202 171 193 202 171 193 202 171 193 202 171
193 202 171 193 202 171 193 202 171 193 202 171 193 202 171
192 201 170 193 202 171 193 202 171 193 202 171 194 203 172
195 204 173 197 206 175 199 208 177 197 206 175 198 207 176
198 207 176 198 207 176 198 207 176 197 206 175 197 206 175
197 206 175 197 206 175 197 206 175 197 206 175 197 206 175
197 206 175 197 206 175 197 206 175 197 206 175 197 206 175
197 206 175 197 206 175 197 206 175 197 206 175 197 206 175
197 206 175 197 206 175 199 205 177 200 207 176 199 208 177
197 207 173 193 202 171 190 199 168 191 200 171 194 203 174
194 204 169 195 171 127 127 175 91 76 146 58 72 114 51 83 104 63
80 117 66 74 105 48 82 149 70 78 150 68 81 159 75 75 159 71 70 154 66
76 156 69 79 153 68 83 153 67 77 150 68 83 155 73 86 154 71
109 166 87 132 175 106 129 157 99 194 207 163 205 211 175 197 203 177
197 203 177 198 204 176 197 203 175 194 200 172 194 203 174
194 203 174 190 199 170 194 203 174 194 203 174 194 203 174
194 203 174 194 203 174 194 203 174 194 203 174 194 203 174
194 203 174 194 203 174 194 203 174 194 203 174 194 203 174
194 203 174 194 203 174 194 203 174 193 203 176 194 203 174
196 202 174 196 201 171 196 199 170 195 198 167 195 198 167
195 198 167 195 198 167 195 198 167 195 198 167 195 198 167
195 198 167 195 198 167 195 198 167 195 198 167 195 198 167
195 198 167 195 198 167 195 198 167 195 198 167 195 198 167
195 198 167 195 198 167 195 198 167 195 198 167 195 198 167
195 198 167 195 198 167 195 198 167 195 198 167 195 198 167
189 187 136 189 187 136 189 187 136 189 187 136 189 187 136
189 187 136 189 187 136 189 187 136 189 187 136 189 187 136
189 187 136 189 187 136 189 187 136 189 187 136 189 187 136
189 187 136 189 187 136 189 187 136 189 187 136 189 187 136
189 187 136 189 187 136 189 187 136 189 187 136 189 187 136
189 187 136 188 186 135 189 187 136 189 187 136 189 187 136
189 187 136 189 187 136 191 188 133 190 187 134 189 189 139
189 191 142 192 195 150 195 198 155 196 199 156 196 199 156
194 200 156 194 200 156 194 200 156 194 200 156 194 200 156
194 200 156 194 200 156 194 200 156 194 200 156 194 200 156
194 200 156 194 200 156 194 200 156 194 200 156 194 200 156
194 200 156 198 201 156 192 198 154 186 192 148 184 190 146
196 203 159 178 192 141 135 160 103 129 160 100 86 129 60 87 132 63
83 128 59 86 131 62 92 134 68 88 124 60 126 158 95 135 163 102
181 189 140 192 199 155 192 200 159 199 209 174 185 195 161
192 202 168 203 215 179 184 196 160 192 202 167 192 202 167
192 202 167 192 202 167 192 202 167 192 202 167 192 202 167
192 202 167 192 202 167 192 202 167 192 202 167 192 202 167
192 202 167 192 202 167 192 202 167 192 202 167 192 202 167
192 202 167 192 202 167 192 202 165 192 202 167 192 202 167
193 203 169 193 202 171 193 202 171 193 202 171 193 202 171
193 202 171 193 202 171 193 202 171 193 202 171 193 202 171
193 202 171 193 202 171 193 202 171 193 202 171 193 202 171
193 202 171 193 202 171 193 202 171 193 202 171 193 202 171
193 202 171 193 202 171 193 202 171 193 202 171 193 202 171
193 202 171 193 202 171 193 202 171 193 202 171 193 202 171
193 202 171 193 202 171 193 202 171 193 202 171 192 201 170
193 202 171 193 202 171 193 202 171 193 202 171 193 202 171
195 204 173 196 205 174 194 203 172 195 204 173 197 206 175
198 207 176 198 207 176 198 207 176 197 206 175 196 205 174
197 206 175 197 206 175 197 206 175 197 206 175 197 206 175
197 206 175 197 206 175 197 206 175 197 206 175 197 206 175
197 206 175 197 206 175 197 206 175 197 206 175 197 206 175
197 206 175 201 207 181 200 206 178 199 206 175 196 206 172
192 202 168 188 197 166 188 199 167 192 203 173 188 198 171
197 207 170 190 168 127 139 175 105 59 164 69 81 105 43 78 102 50
84 111 66 71 111 49 75 117 54 90 141 74 89 151 78 81 154 75 85 160 78
81 154 72 78 150 66 99 157 80 107 164 85 129 180 103 133 173 102
128 153 95 197 213 168 195 204 173 194 199 176 193 201 177
192 201 172 195 205 171 195 205 171 195 204 173 196 205 176
195 204 177 199 205 177 194 203 174 194 203 174 194 203 174
194 203 174 194 203 174 194 203 174 194 203 174 194 203 174
194 203 174 194 203 174 194 203 174 194 203 174 194 203 174
194 203 174 194 203 174 194 203 174 193 203 176 194 203 174
196 202 174 196 201 171 195 198 169 195 198 167 195 198 167
195 198 167 195 198 167 195 198 167 195 198 167 195 198 167
195 198 167 195 198 167 195 198 167 195 198 167 195 198 167
195 198 167 195 198 167 195 198 167 195 198 167 195 198 167
195 198 167 195 198 167 195 198 167 195 198 167 195 198 167
195 198 167 195 198 167 195 198 167 195 198 167 195 198 167
189 187 136 189 187 136 189 187 136 189 187 136 189 187 136
189 187 136 189 187 136 189 187 136 189 187 136 189 187 136
189 187 136 189 187 136 189 187 136 189 187 136 189 187 136
189 187 136 189 187 136 189 187 136 189 187 136 189 187 136
189 187 136 189 187 136 189 187 136 189 187 136 189 187 136
188 186 135 189 187 136 189 187 136 189 187 136 189 187 136
188 186 135 188 186 135 192 187 131 189 186 131 187 185 134
185 187 138 186 189 144 190 193 150 194 197 154 197 200 157
194 200 156 194 200 156 194 200 156 194 200 156 194 200 156
194 200 156 194 200 156 194 200 156 194 200 156 194 200 156
194 200 156 194 200 156 194 200 156 194 200 156 194 200 156
194 200 156 191 199 152 188 195 151 200 207 165 193 195 155
193 191 152 202 200 159 189 195 147 190 200 148 123 163 93 128 168 98
123 163 93 122 161 94 130 165 99 128 156 95 179 203 143 183 203 144
198 199 159 197 199 160 194 200 162 191 201 166 195 207 171
187 201 165 187 199 163 194 206 168 192 202 167 192 202 167
192 202 167 192 202 167 192 202 167 192 202 167 192 202 167
192 202 167 192 202 167 192 202 167 192 202 167 192 202 167
192 202 167 192 202 167 192 202 167 192 202 167 192 202 167
192 202 167 192 202 167 192 202 165 192 202 167 192 202 167
193 203 169 193 202 171 193 202 171 193 202 171 193 202 171
193 202 171 193 202 171 193 202 171 193 202 171 193 202 171
193 202 171 193 202 171 193 202 171 193 202 171 193 202 171
193 202 171 193 202 171 193 202 171 193 202 171 193 202 171
193 202 171 193 202 171 193 202 171 193 202 171 193 202 171
193 202 171 193 202 171 193 202 171 193 202 171 193 202 171
193 202 171 193 202 171 193 202 171 193 202 171 193 202 171
194 203 172 194 203 172 193 202 171 191 200 169 191 200 169
191 200 169 192 201 170 192 201 170 193 202 171 195 204 173
197 206 175 198 207 176 198 207 176 197 206 175 196 205 174
197 206 175 197 206 175 197 206 175 197 206 175 197 206 175
197 206 175 197 206 175 197 206 175 197 206 175 197 206 175
197 206 175 197 206 175 197 206 175 197 206 175 197 206 175
197 206 175 198 204 178 194 200 174 192 199 168 193 203 169
195 205 171 194 204 170 190 201 169 190 201 171 193 203 166
188 204 175 189 202 176 187 199 159 131 167 97 145 169 93 79 152 71
77 107 55 83 109 61 79 101 52 86 109 57 79 110 53 72 118 53 79 145 71
77 156 73 74 160 73 119 165 90 132 176 101 123 163 90 134 163 97
194 211 157 193 201 164 193 201 177 192 203 186 196 206 181
192 203 171 192 204 168 193 205 169 194 205 173 193 202 175
190 199 172 198 204 176 194 203 174 194 203 174 194 203 174
194 203 174 194 203 174 194 203 174 194 203 174 194 203 174
194 203 174 194 203 174 194 203 174 194 203 174 194 203 174
194 203 174 194 203 174 194 203 174 193 203 176 194 203 174
196 202 174 196 199 170 195 198 169 197 198 167 195 198 167
195 198 167 195 198 167 195 198 167 195 198 167 195 198 167
195 198 167 195 198 167 195 198 167 195 198 167 195 198 167
195 198 167 195 198 167 195 198 167 195 198 167 195 198 167
195 198 167 195 198 167 195 198 167 195 198 167 195 198 167
195 198 167 195 198 167 195 198 167 195 198 167 195 198 167
190 188 137 190 188 137 189 187 136 188 186 135 188 186 135
189 187 136 189 187 136 190 188 137 188 186 135 189 187 136
189 187 136 189 187 136 189 187 136 189 187 136 189 187 136
189 187 136 189 187 136 189 187 136 189 187 136 189 187 136
189 187 136 189 187 136 189 187 136 189 187 136 188 186 135
189 187 136 189 187 136 189 187 136 189 187 136 189 187 136
188 186 135 188 186 135 189 187 136 190 188 137 191 189 140
190 190 140 190 190 140 192 191 143 195 197 148 199 201 152
196 199 156 196 199 156 195 201 157 194 200 156 194 200 156
193 199 155 193 199 155 193 199 155 195 201 157 195 201 157
194 200 156 193 199 155 192 198 154 192 198 154 191 197 153
191 197 153 191 197 153 191 197 153 191 197 153 191 197 153
191 197 153 191 197 153 191 197 153 191 197 153 191 197 153
191 197 153 191 197 153 191 197 153 191 197 153 191 197 153
191 197 153 191 197 153 190 197 156 191 199 160 192 202 167
192 203 169 191 202 170 191 202 168 191 203 167 192 204 166
193 203 168 193 203 168 193 203 168 193 203 168 193 203 168
193 203 168 193 203 168 193 203 168 191 201 166 191 201 166
191 201 166 191 201 166 192 202 167 192 202 167 192 202 167
192 202 167 193 203 168 193 203 168 192 202 165 192 202 165
192 202 167 192 202 168 192 201 170 192 201 172 193 202 171
193 202 171 193 202 171 193 202 171 193 202 171 193 202 171
192 201 170 192 201 170 193 202 171 193 202 171 193 202 171
193 202 171 193 202 171 193 202 171 192 201 170 192 201 170
193 202 171 193 202 171 193 202 171 193 202 171 193 202 171
193 202 171 193 202 171 193 202 171 193 202 171 193 202 171
193 202 171 194 203 172 194 203 172 193 202 171 193 202 171
193 202 171 195 202 169 195 202 169 195 202 169 194 201 168
194 201 168 194 201 168 193 200 167 193 200 167 193 200 167
193 200 167 193 200 167 193 200 167 193 200 167 193 200 167
193 200 167 193 200 167 195 202 169 196 203 170 198 205 172
200 207 174 200 207 174 200 207 174 199 206 173 198 205 172
201 208 175 200 207 174 200 207 174 199 206 175 196 205 174
195 204 173 195 204 173 194 203 172 192 201 170 192 201 170
192 201 170 192 201 170 192 201 170 192 201 170 192 201 170
192 201 170 192 198 170 193 199 171 194 201 170 195 202 168
188 199 156 172 186 133 151 170 106 136 157 88 73 156 74 86 150 76
73 111 50 86 106 53 86 106 53 73 111 50 86 150 76 73 156 74
133 158 100 147 170 116 178 195 151 192 202 168 198 204 178
200 205 182 190 198 174 193 203 178 194 203 174 194 203 174
194 203 174 194 203 174 194 203 174 194 203 174 194 203 174
194 203 174 194 203 174 194 203 174 194 203 174 194 203 174
194 203 174 194 203 174 194 203 174 194 203 174 194 203 174
194 203 174 194 203 174 194 203 174 194 203 174 194 203 174
194 203 174 194 203 174 192 203 173 194 205 173 196 203 170
194 199 167 194 198 165 195 198 167 196 199 168 194 197 166
195 198 167 195 198 167 195 198 167 195 198 167 195 198 167
195 198 167 195 198 167 195 198 167 195 198 167 195 198 167
195 198 167 195 198 167 195 198 167 195 198 167 195 198 167
195 198 167 195 198 167 195 198 167 195 198 167 195 198 167
195 198 167 195 198 167 195 198 167 195 198 167 189 187 136
189 187 136 189 187 136 189 187 136 190 188 137 190 188 137
190 188 137 190 188 137 190 188 137 190 188 137 190 188 137
190 188 137 189 187 136 189 187 136 189 187 136 189 187 136
189 187 136 189 187 136 189 187 136 189 187 136 189 187 136
189 187 136 189 187 136 189 187 136 189 187 136 189 187 136
189 187 136 189 187 136 189 187 136 189 187 136 189 187 136
188 186 135 189 187 136 190 188 139 191 189 140 190 190 140
189 189 139 189 188 140 190 192 143 192 194 145 194 197 152
195 198 153 197 200 155 196 202 156 196 202 158 196 202 158
195 201 157 195 201 157 193 199 155 193 199 155 193 199 155
192 198 154 192 198 154 191 197 153 191 197 153 191 197 153
191 197 153 191 197 153 191 197 153 191 197 153 191 197 153
191 197 153 191 197 153 191 197 153 191 197 153 191 197 153
191 197 153 191 197 153 191 197 153 191 197 153 191 197 153
191 197 153 191 198 157 192 198 160 194 201 167 193 203 169
191 202 170 191 202 168 191 203 167 191 203 165 192 202 167
192 202 167 192 202 167 192 202 167 192 202 167 192 202 167
192 202 167 192 202 167 192 202 167 192 202 167 192 202 167
192 202 167 192 202 167 192 202 167 192 202 167 192 202 167
193 203 168 193 203 168 192 202 165 192 202 165 192 202 167
192 202 168 193 202 171 193 202 173 193 202 171 193 202 171
193 202 171 193 202 171 193 202 171 193 202 171 193 202 171
193 202 171 193 202 171 193 202 171 193 202 171 193 202 171
193 202 171 193 202 171 193 202 171 192 201 170 193 202 171
193 202 171 193 202 171 193 202 171 193 202 171 193 202 171
193 202 171 193 202 171 193 202 171 193 202 171 193 202 171
193 202 171 193 202 171 193 202 171 193 202 171 193 202 171
195 202 169 195 202 169 194 201 168 194 201 168 194 201 168
194 201 168 193 200 167 193 200 167 193 200 167 193 200 167
193 200 167 193 200 167 193 200 167 193 200 167 193 200 167
193 200 167 193 200 167 194 201 168 195 202 169 196 203 170
197 204 171 196 203 170 196 203 170 195 202 169 198 205 172
198 205 172 197 204 171 197 204 173 194 203 172 194 203 172
193 202 171 193 202 171 192 201 170 192 201 170 192 201 170
192 201 170 192 201 170 192 201 170 192 201 170 192 201 170
192 202 168 192 201 170 194 201 170 196 203 170 194 204 169
188 201 158 178 194 147 171 189 137 129 171 87 137 176 95 126 163 86
132 168 94 132 168 94 126 163 86 137 176 95 129 171 87 185 207 160
187 205 163 195 209 173 194 203 172 194 200 172 195 201 173
190 199 168 194 205 173 194 203 174 194 203 174 194 203 174
194 203 174 194 203 174 194 203 174 194 203 174 194 203 174
194 203 174 194 203 174 194 203 174 194 203 174 194 203 174
194 203 174 194 203 174 194 203 174 194 203 174 194 203 174
194 203 174 194 203 174 194 203 174 194 203 174 194 203 174
194 203 174 192 203 173 195 204 173 196 203 170 194 199 167
194 198 165 195 198 167 195 198 167 194 197 166 195 198 167
195 198 167 195 198 167 195 198 167 195 198 167 195 198 167
195 198 167 195 198 167 195 198 167 195 198 167 195 198 167
195 198 167 195 198 167 195 198 167 195 198 167 195 198 167
195 198 167 195 198 167 195 198 167 195 198 167 195 198 167
195 198 167 195 198 167 195 198 167 188 186 135 189 187 136
189 187 136 189 187 136 189 187 136 189 187 136 189 187 136
188 186 135 190 188 137 190 188 137 189 187 136 189 187 136
189 187 136 189 187 136 189 187 136 189 187 136 189 187 136
189 187 136 189 187 136 189 187 136 189 187 136 189 187 136
189 187 136 189 187 136 189 187 136 189 187 136 189 187 136
189 187 136 189 187 136 189 187 136 189 187 136 189 187 136
189 187 138 191 189 140 191 191 141 190 190 140 189 189 139
188 187 139 188 187 139 189 188 140 189 193 143 190 194 144
193 197 147 195 198 151 194 200 154 194 200 156 194 200 156
193 198 157 192 198 154 191 197 153 191 197 153 191 197 153
191 197 153 191 197 153 190 196 152 190 196 152 191 197 153
191 197 153 191 197 153 191 197 153 191 197 153 191 197 153
191 197 153 191 197 153 191 197 153 191 197 153 191 197 153
191 197 153 191 197 153 191 197 153 191 197 153 191 197 153
192 197 156 192 199 158 193 201 164 192 202 167 191 202 168
191 202 168 192 202 167 192 202 165 192 202 167 192 202 167
192 202 167 192 202 167 192 202 167 192 202 167 192 202 167
192 202 167 193 203 168 193 203 168 193 203 168 192 202 167
192 202 167 192 202 167 192 202 167 192 202 167 192 202 167
192 202 167 192 202 165 192 202 165 192 202 167 193 203 169
193 202 171 193 202 171 194 203 172 194 203 172 193 202 171
193 202 171 193 202 171 193 202 171 193 202 171 193 202 171
193 202 171 193 202 171 193 202 171 193 202 171 193 202 171
193 202 171 193 202 171 193 202 171 193 202 171 193 202 171
193 202 171 193 202 171 193 202 171 193 202 171 193 202 171
193 202 171 193 202 171 193 202 171 193 202 171 193 202 171
193 202 171 193 202 171 193 202 171 193 202 171 194 201 168
194 201 168 194 201 168 194 201 168 194 201 168 193 200 167
193 200 167 193 200 167 193 200 167 193 200 167 193 200 167
193 200 167 193 200 167 193 200 167 193 200 167 193 200 167
192 199 166 192 199 166 193 200 167 193 200 167 193 200 167
193 200 167 193 200 167 192 199 166 194 201 168 194 201 168
194 201 168 194 201 170 192 201 170 192 201 170 191 200 169
191 200 169 192 201 170 192 201 170 192 201 170 192 201 170
192 201 170 192 201 170 192 201 170 192 201 170 193 205 169
192 202 168 191 200 169 191 200 171 193 202 175 194 203 174
193 204 172 193 204 172 192 194 170 192 201 174 183 201 175
184 209 180 184 209 180 183 201 175 192 201 174 192 194 170
191 207 171 188 202 169 192 201 172 191 197 169 192 198 170
196 203 172 193 203 168 196 208 170 194 203 174 194 203 174
194 203 174 194 203 174 195 204 175 195 204 175 195 204 175
195 204 175 194 203 174 194 203 174 194 203 174 194 203 174
194 203 174 194 203 174 194 203 174 194 203 174 194 203 174
194 203 174 194 203 174 194 203 174 194 203 174 194 203 174
194 203 174 194 203 174 193 204 174 194 203 172 195 202 169
194 199 167 194 198 165 195 198 167 195 198 167 194 197 166
195 198 167 195 198 167 195 198 167 195 198 167 195 198 167
195 198 167 195 198 167 195 198 167 195 198 167 195 198 167
195 198 167 195 198 167 195 198 167 195 198 167 195 198 167
195 198 167 195 198 167 195 198 167 195 198 167 195 198 167
195 198 167 195 198 167 195 198 167 195 198 167 189 187 136
189 187 136 189 187 136 189 187 136 189 187 136 188 186 135
188 186 135 188 186 135 188 186 135 188 186 135 188 186 135
188 186 135 188 186 135 189 187 136 189 187 136 189 187 136
189 187 136 189 187 136 189 187 136 189 187 136 189 187 136
189 187 136 189 187 136 189 187 136 189 187 136 189 187 136
189 187 136 188 186 135 189 187 136 189 187 136 190 188 137
190 188 137 189 189 139 190 190 140 191 191 141 191 191 141
190 190 140 190 190 140 190 190 140 190 190 140 186 189 136
187 190 137 188 192 141 190 194 144 192 195 148 191 197 153
191 197 153 191 196 155 190 196 152 190 196 152 191 197 153
191 197 153 191 197 153 191 197 153 191 197 153 191 197 153
191 197 153 191 197 153 191 197 153 191 197 153 191 197 153
191 197 153 191 197 153 191 197 153 191 197 153 191 197 153
191 197 153 191 197 153 191 197 153 191 197 153 191 197 153
191 197 153 191 196 155 191 198 157 192 200 161 191 201 164
192 202 167 192 202 167 192 202 167 192 202 167 192 202 167
192 202 167 192 202 167 192 202 167 192 202 167 192 202 167
192 202 167 192 202 167 195 202 168 195 202 168 194 201 167
194 201 167 194 201 167 193 200 166 193 200 166 193 200 166
193 200 166 193 200 166 193 201 164 193 201 164 193 201 164
194 201 167 194 201 168 195 202 171 194 203 172 194 203 172
193 202 171 193 202 171 193 202 171 193 202 171 194 203 172
194 203 172 193 202 171 193 202 171 193 202 171 193 202 171
193 202 171 193 202 171 193 202 171 193 202 171 193 202 171
193 202 171 193 202 171 193 202 171 193 202 171 193 202 171
193 202 171 193 202 171 193 202 171 193 202 171 193 202 171
193 202 171 193 202 171 193 202 171 193 202 171 192 201 170
194 201 168 194 201 168 194 201 168 194 201 168 193 200 167
193 200 167 193 200 167 193 200 167 193 200 167 193 200 167
193 200 167 193 200 167 193 200 167 193 200 167 193 200 167
193 200 167 193 200 167 193 200 167 193 200 167 192 199 166
192 199 166 192 199 166 192 199 166 192 199 166 192 199 166
192 199 166 193 200 167 193 200 169 191 200 169 191 200 169
191 200 169 191 200 169 192 201 170 192 201 170 192 201 170
192 201 170 192 201 170 192 201 170 192 201 170 192 201 170
191 203 167 191 202 168 190 201 169 190 199 172 190 198 174
190 198 174 191 200 173 191 200 173 196 204 167 194 201 167
195 200 168 193 198 166 193 198 166 195 200 168 194 201 167
196 204 167 189 198 169 189 198 169 194 200 174 196 200 175
198 204 176 198 205 174 194 204 170 191 203 167 195 204 175
195 204 175 195 204 175 195 204 175 195 204 175 195 204 175
195 204 175 195 204 175 194 203 174 194 203 174 194 203 174
194 203 174 194 203 174 194 203 174 194 203 174 194 203 174
194 203 174 194 203 174 194 203 174 194 203 174 194 203 174
194 203 174 194 203 174 194 203 174 194 203 174 195 202 171
195 200 168 195 198 167 195 199 166 195 198 167 195 198 167
195 198 167 195 198 167 195 198 167 195 198 167 195 198 167
195 198 167 195 198 167 195 198 167 195 198 167 195 198 167
195 198 167 195 198 167 195 198 167 195 198 167 195 198 167
195 198 167 195 198 167 195 198 167 195 198 167 195 198 167
195 198 167 195 198 167 195 198 167 195 198 167 195 198 167
189 187 136 189 187 136 188 186 135 188 186 135 188 186 135
188 186 135 189 187 136 190 188 137 189 187 136 189 187 136
189 187 136 189 187 136 189 187 136 189 187 136 189 187 136
189 187 136 189 187 136 189 187 136 189 187 136 189 187 136
189 187 136 189 187 136 189 187 136 189 187 136 189 187 136
189 187 136 189 187 136 189 187 136 189 187 136 190 188 137
191 189 138 191 189 138 190 190 140 190 190 140 191 191 141
191 191 141 190 190 140 190 190 140 191 191 141 191 191 141
190 190 136 188 191 138 188 190 140 189 193 143 191 194 147
191 197 151 192 198 154 191 198 156 190 196 152 190 196 152
191 197 153 191 197 153 191 197 153 191 197 153 191 197 153
191 197 153 191 197 153 191 197 153 191 197 153 191 197 153
191 197 153 191 197 153 191 197 153 191 197 153 191 197 153
191 197 153 191 197 153 191 197 153 191 197 153 191 197 153
191 197 153 191 197 153 192 195 152 191 196 155 191 198 157
192 200 161 191 201 164 192 202 167 195 202 168 195 202 168
192 202 165 192 202 165 192 202 165 192 202 165 192 202 165
192 202 165 192 202 165 192 202 165 194 202 165 193 201 164
193 201 164 193 201 164 192 200 163 192 200 163 192 200 163
191 199 162 191 198 164 191 198 164 191 199 162 191 199 162
192 200 163 192 199 165 193 200 167 193 200 167 193 202 171
193 202 171 193 202 171 193 202 171 193 202 171 193 202 171
193 202 171 194 203 172 193 202 171 193 202 171 193 202 171
193 202 171 193 202 171 193 202 171 193 202 171 193 202 171
193 202 171 193 202 171 193 202 171 193 202 171 193 202 171
193 202 171 193 202 171 193 202 171 193 202 171 193 202 171
193 202 171 193 202 171 193 202 171 193 202 171 192 201 170
192 201 170 194 201 168 193 200 167 193 200 167 193 200 167
193 200 167 193 200 167 193 200 167 193 200 167 193 200 167
193 200 167 193 200 167 193 200 167 193 200 167 193 200 167
193 200 167 193 200 167 194 201 168 194 201 168 193 200 167
193 200 167 192 199 166 193 200 167 193 200 167 193 200 167
192 199 166 192 199 166 193 200 167 193 200 169 191 200 169
192 201 170 192 201 170 192 201 170 192 201 170 192 201 170
192 201 170 192 201 170 192 201 170 192 201 170 192 201 170
192 201 170 191 202 170 191 202 170 192 203 173 192 203 173
193 202 173 193 202 171 194 201 170 194 201 168 188 205 169
190 201 169 198 201 172 199 197 172 199 197 172 198 201 172
190 201 169 188 205 169 197 204 170 197 204 171 196 203 172
196 202 174 196 202 176 195 201 175 195 204 177 193 203 176
195 204 175 195 204 175 195 204 175 195 204 175 194 203 174
194 203 174 194 203 174 194 203 174 194 203 174 194 203 174
194 203 174 194 203 174 194 203 174 194 203 174 194 203 174
194 203 174 194 203 174 194 203 174 194 203 174 194 203 174
194 203 174 194 203 174 194 203 174 194 203 174 194 203 174
195 202 171 194 199 167 195 198 167 197 198 166 197 198 167
195 198 167 195 198 167 195 198 167 195 198 167 195 198 167
195 198 167 195 198 167 195 198 167 195 198 167 195 198 167
195 198 167 195 198 167 195 198 167 195 198 167 195 198 167
195 198 167 195 198 167 195 198 167 195 198 167 195 198 167
195 198 167 195 198 167 195 198 167 195 198 167 195 198 167
195 198 167 185 182 129 185 182 129 184 181 128 184 181 128
185 182 129 187 184 131 188 185 132 189 186 133 190 188 137
190 188 137 190 188 137 190 188 137 190 188 137 189 187 136
189 187 136 188 186 135 189 187 136 189 187 136 189 187 136
189 187 136 189 187 136 189 187 136 189 187 136 189 187 136
189 187 136 189 187 136 189 187 136 189 187 136 190 188 137
190 188 137 191 189 138 191 189 138 191 190 142 191 190 142
190 189 141 189 189 139 189 189 139 189 189 139 191 189 140
191 189 140 192 192 140 191 191 139 188 190 140 189 191 142
191 194 147 191 197 153 192 198 154 191 198 156 191 197 153
191 197 153 191 197 153 191 197 153 191 197 153 191 197 153
192 198 154 192 198 154 191 197 153 191 197 153 191 197 153
191 197 153 191 197 153 191 197 153 191 197 153 191 197 153
191 197 153 191 197 153 191 197 153 191 197 153 191 197 153
191 197 153 191 197 153 191 197 153 192 195 152 192 195 152
190 197 155 190 198 157 192 200 161 194 202 165 194 201 167
193 200 166 192 200 163 192 200 163 192 200 163 192 200 163
192 200 163 192 200 163 192 200 163 192 200 163 193 199 163
193 199 163 193 199 163 192 198 162 192 198 162 192 198 162
192 198 162 192 198 162 192 198 164 192 198 164 191 197 161
191 197 161 192 198 162 192 198 162 193 199 165 193 199 165
192 201 170 192 201 170 193 202 171 193 202 171 193 202 171
193 202 171 193 202 171 193 202 171 193 202 171 193 202 171
193 202 171 193 202 171 193 202 171 193 202 171 193 202 171
193 202 171 193 202 171 193 202 171 193 202 171 193 202 171
193 202 171 193 202 171 193 202 171 193 202 171 193 202 171
193 202 171 193 202 171 193 202 171 193 202 171 192 201 170
192 201 170 192 201 170 193 200 167 193 200 167 193 200 167
193 200 167 193 200 167 193 200 167 193 200 167 193 200 167
193 200 167 193 200 167 193 200 167 193 200 167 193 200 167
193 200 167 193 200 167 193 200 167 193 200 167 193 200 167
193 200 167 192 199 166 192 199 166 192 199 166 193 200 167
193 200 167 193 200 167 193 200 167 193 200 167 194 201 170
192 201 170 193 202 171 193 202 171 193 202 171 192 201 170
192 201 170 192 201 170 192 201 170 192 201 170 192 201 170
192 201 170 192 201 170 191 202 172 191 202 172 191 202 170
192 203 171 192 203 169 193 203 168 196 203 169 196 204 167
190 201 169 189 200 168 191 202 170 190 201 169 190 201 169
191 202 170 189 200 168 190 201 169 192 200 163 194 201 167
191 198 165 193 200 169 193 199 171 191 200 173 196 204 180
196 204 180 194 203 174 194 203 174 194 203 174 194 203 174
194 203 174 194 203 174 194 203 174 194 203 174 194 203 174
194 203 174 194 203 174 194 203 174 194 203 174 194 203 174
194 203 174 194 203 174 194 203 174 194 203 174 194 203 174
194 203 174 194 203 174 194 203 174 194 203 174 194 203 174
197 203 175 195 200 170 194 197 166 195 198 167 198 199 167
197 198 167 195 198 167 195 198 167 195 198 167 195 198 167
195 198 167 195 198 167 195 198 167 195 198 167 195 198 167
195 198 167 195 198 167 195 198 167 195 198 167 195 198 167
195 198 167 195 198 167 195 198 167 195 198 167 195 198 167
195 198 167 195 198 167 195 198 167 195 198 167 195 198 167
195 198 167 195 198 167 183 178 123 183 178 123 183 178 123
184 179 124 184 179 124 185 180 125 186 181 126 187 182 127
187 185 134 187 185 134 189 187 136 190 188 137 190 188 137
189 187 136 188 186 135 188 186 135 189 187 136 189 187 136
189 187 136 189 187 136 189 187 136 189 187 136 189 187 136
189 187 136 188 186 135 189 187 136 189 187 136 190 188 137
191 189 138 191 189 138 191 189 138 191 189 138 189 191 142
188 190 141 190 189 141 189 189 139 190 190 140 191 189 140
190 188 139 190 188 137 192 190 141 190 190 140 189 188 140
189 191 144 191 194 149 191 197 153 191 197 153 189 196 154
191 197 153 191 197 153 191 197 153 191 197 153 191 197 153
191 197 153 191 197 153 191 197 153 191 197 153 191 197 153
191 197 153 191 197 153 191 197 153 191 197 153 191 197 153
191 197 153 191 197 153 191 197 153 191 197 153 191 197 153
191 197 153 191 197 153 191 197 153 191 197 153 194 195 151
192 195 152 190 196 152 190 197 155 191 199 160 192 200 163
193 199 165 192 198 164 192 198 162 192 198 162 192 198 162
192 198 162 192 198 162 192 198 162 192 198 162 192 198 162
192 198 162 192 198 162 192 198 162 192 198 162 192 198 162
192 198 162 192 198 162 192 198 162 192 198 164 192 198 164
192 198 162 191 197 159 191 197 159 192 198 162 192 198 164
192 198 164 191 200 169 192 201 170 193 202 171 193 202 171
194 203 172 193 202 171 192 201 170 192 201 170 192 201 170
193 202 171 193 202 171 193 202 171 193 202 171 193 202 171
193 202 171 193 202 171 193 202 171 193 202 171 193 202 171
193 202 171 193 202 171 193 202 171 193 202 171 193 202 171
193 202 171 193 202 171 193 202 171 193 202 171 193 202 171
192 201 170 192 201 170 192 201 170 193 200 167 193 200 167
193 200 167 193 200 167 193 200 167 193 200 167 193 200 167
193 200 167 193 200 167 193 200 167 193 200 167 193 200 167
193 200 167 193 200 167 193 200 167 193 200 167 192 199 166
192 199 166 192 199 166 193 200 167 193 200 167 193 200 167
193 200 167 193 200 167 193 200 167 193 200 167 193 200 167
194 201 170 192 201 170 192 201 170 193 202 171 193 202 171
192 201 170 192 201 170 192 201 170 192 201 170 192 201 170
192 201 170 192 201 170 192 201 170 193 202 171 192 201 170
189 200 168 189 200 168 190 201 169 191 201 167 191 201 167
193 200 167 197 201 176 196 202 176 188 201 173 187 202 173
187 202 173 188 201 173 196 202 176 197 201 176 193 203 169
196 206 172 191 201 167 195 204 173 195 204 173 191 200 169
195 204 175 192 198 170 193 202 173 193 202 173 193 202 173
193 202 173 194 203 174 194 203 174 194 203 174 194 203 174
194 203 174 194 203 174 194 203 174 194 203 174 194 203 174
194 203 174 194 203 174 194 203 174 194 203 174 194 203 174
194 203 174 194 203 174 194 203 174 194 203 174 194 203 174
194 203 174 198 202 175 195 200 170 194 197 166 197 198 167
198 199 167 197 198 167 194 197 166 195 198 167 195 198 167
195 198 167 195 198 167 195 198 167 195 198 167 195 198 167
195 198 167 195 198 167 195 198 167 195 198 167 195 198 167
195 198 167 195 198 167 195 198 167 195 198 167 195 198 167
195 198 167 195 198 167 195 198 167 195 198 167 195 198 167
195 198 167 195 198 167 195 198 167 186 179 124 187 180 125
187 180 125 187 180 125 187 180 125 186 179 124 186 179 124
186 179 124 182 180 129 183 181 130 185 183 132 187 185 134
189 187 136 189 187 136 189 187 136 188 186 135 189 187 136
189 187 136 189 187 136 189 187 136 189 187 136 189 187 136
189 187 136 189 187 136 188 186 135 188 186 135 189 187 136
190 188 137 191 189 138 191 189 138 191 189 138 191 189 138
188 190 141 188 190 141 190 189 141 191 191 141 191 191 141
192 190 141 192 190 139 191 189 138 192 190 142 191 189 141
190 189 143 190 192 145 192 195 150 192 198 154 192 198 154
189 196 154 191 197 153 191 197 153 191 197 153 191 197 153
191 197 153 191 197 153 191 197 153 191 197 153 191 197 153
191 197 153 191 197 153 191 197 153 191 197 153 191 197 153
191 197 153 191 197 153 191 197 153 191 197 153 191 197 153
191 197 153 191 197 153 191 197 153 191 197 153 191 197 153
195 196 152 193 196 153 190 196 152 190 197 155 191 198 157
192 198 162 192 198 164 191 197 163 193 197 162 193 197 162
193 197 162 193 197 162 193 197 162 193 197 162 193 197 162
193 197 162 191 197 161 192 198 162 192 198 162 192 198 162
192 198 162 192 198 162 192 198 162 192 198 162 193 199 165
192 198 164 192 198 162 192 198 160 192 198 160 192 198 162
192 198 162 192 198 164 190 199 168 191 200 169 192 201 170
194 203 172 194 203 172 193 202 171 192 201 170 191 200 169
192 201 170 192 201 170 193 202 171 193 202 171 193 202 171
193 202 171 193 202 171 193 202 171 193 202 171 193 202 171
193 202 171 193 202 171 193 202 171 193 202 171 193 202 171
193 202 171 193 202 171 193 202 171 193 202 171 193 202 171
193 202 171 192 201 170 192 201 170 191 200 169 193 200 167
193 200 167 193 200 167 193 200 167 193 200 167 193 200 167
193 200 167 193 200 167 193 200 167 193 200 167 193 200 167
193 200 167 193 200 167 193 200 167 193 200 167 193 200 167
192 199 166 192 199 166 193 200 167 193 200 167 193 200 167
194 201 168 193 200 167 193 200 167 193 200 167 193 200 167
193 200 167 193 200 169 191 200 169 192 201 170 192 201 170
192 201 170 192 201 170 192 201 170 192 201 170 192 201 170
192 201 170 192 201 170 192 201 170 192 201 170 195 202 169
192 202 168 190 201 169 190 201 169 192 203 173 193 203 176
193 202 175 194 199 176 193 200 167 196 203 170 192 199 165
195 202 168 195 202 168 192 199 165 196 203 170 193 200 167
190 200 173 192 203 173 186 197 167 191 202 170 193 204 170
191 201 166 195 205 170 192 199 165 191 200 171 191 200 171
192 201 172 193 202 173 194 203 174 194 203 174 195 204 175
195 204 175 194 203 174 194 203 174 194 203 174 194 203 174
194 203 174 194 203 174 194 203 174 194 203 174 194 203 174
194 203 174 194 203 174 194 203 174 194 203 174 194 203 174
194 203 174 194 203 174 198 202 175 194 199 169 193 196 165
197 198 167 198 199 167 197 198 167 194 197 166 195 198 167
195 198 167 195 198 167 195 198 167 195 198 167 195 198 167
195 198 167 195 198 167 195 198 167 195 198 167 195 198 167
195 198 167 195 198 167 195 198 167 195 198 167 195 198 167
195 198 167 195 198 167 195 198 167 195 198 167 195 198 167
195 198 167 195 198 167 195 198 167 195 198 167 185 180 124
185 180 124 185 180 124 185 180 124 185 180 124 185 180 124
185 180 124 185 180 124 185 180 124 184 179 123 184 179 123
185 180 125 186 181 126 189 184 129 191 185 133 193 187 135
189 188 134 189 187 136 188 186 137 189 187 138 190 188 140
190 188 139 189 187 136 189 187 136 189 189 139 189 189 139
189 189 139 189 189 139 190 190 140 190 190 140 190 190 140
190 190 140 190 190 140 190 190 140 190 190 140 190 190 140
190 190 140 190 190 140 190 190 140 190 190 140 190 190 140
190 190 140 190 190 140 190 190 140 190 190 140 190 192 143
192 195 150 192 198 152 191 197 153 191 197 153 191 197 153
191 197 153 191 197 153 191 197 153 191 197 153 191 197 153
191 197 153 191 197 153 191 197 153 191 197 153 191 197 153
191 197 153 191 197 153 191 197 153 191 197 153 191 197 153
191 197 153 191 197 153 191 197 153 191 197 153 191 197 153
191 197 153 191 197 153 191 197 151 191 197 151 191 197 153
192 198 160 192 198 164 192 198 164 192 198 160 192 198 162
192 198 162 192 198 162 192 198 162 192 198 162 192 198 162
192 198 162 192 198 162 192 198 162 192 198 162 192 198 162
192 198 162 192 198 162 192 198 162 192 198 162 192 198 162
192 198 162 192 198 162 192 198 162 192 198 162 192 198 162
192 198 162 192 198 162 192 198 162 192 198 162 192 198 162
192 198 162 191 198 164 191 198 164 191 198 164 191 198 164
191 198 165 191 198 164 191 198 164 191 198 164 191 198 164
191 198 164 191 198 164 191 198 164 191 198 164 191 198 164
191 198 164 191 198 164 191 198 164 191 198 164 191 198 164
191 198 164 191 198 164 191 198 164 191 198 164 191 198 164
191 198 164 191 198 164 192 199 166 193 200 167 193 200 167
193 200 167 193 200 167 193 200 167 193 200 167 193 200 167
193 200 167 193 200 167 193 200 167 193 200 167 193 200 167
193 200 167 193 200 167 193 200 167 193 200 167 193 200 167
193 200 167 193 200 167 193 200 167 193 200 167 193 200 167
193 200 167 193 200 167 193 200 167 193 200 167 193 200 167
193 200 167 193 200 167 193 200 167 192 201 170 192 201 170
192 201 170 192 201 170 192 201 170 192 201 170 192 201 170
192 201 170 192 201 170 192 201 170 192 201 170 192 201 170
192 201 170 192 201 170 192 201 170 192 201 170 192 201 170
192 201 170 192 201 170 192 201 170 192 201 170 192 201 170
192 201 170 192 201 170 192 201 170 192 201 170 192 201 170
192 201 170 192 201 170 192 201 170 192 201 170 192 201 170
194 201 170 193 200 167 193 200 167 193 200 167 193 200 167
193 200 167 193 200 167 193 200 167 193 200 167 193 200 167
193 200 167 193 200 167 195 202 171 195 202 171 195 202 171
195 202 171 196 203 172 196 203 172 196 203 172 196 203 172
193 202 173 194 203 174 194 203 174 194 203 174 194 203 174
195 204 175 195 204 175 195 204 175 195 201 173 195 199 172
195 198 169 194 197 166 197 198 167 195 198 167 195 198 167
194 197 168 195 198 167 195 198 167 195 198 167 195 198 167
195 198 167 195 198 167 195 198 167 195 198 167 195 198 167
195 198 167 195 198 167 195 198 167 195 198 167 195 198 167
195 198 167 195 198 167 195 198 167 195 198 167 195 198 167
195 198 167 195 198 167 195 198 167 195 198 167 195 198 167
185 180 124 185 180 124 185 180 124 185 180 124 185 180 124
185 180 124 185 180 124 185 180 124 185 180 124 185 180 124
184 179 123 185 180 125 186 181 126 187 182 127 189 184 129
190 184 132 189 188 134 190 189 135 191 189 138 190 188 139
189 187 138 188 186 137 188 186 135 189 187 136 189 189 139
189 189 139 189 189 139 189 189 139 190 190 140 190 190 140
190 190 140 190 190 140 190 190 140 190 190 140 190 190 140
190 190 140 190 190 140 190 190 140 190 190 140 190 190 140
190 190 140 190 190 140 190 190 140 190 190 140 190 190 140
190 192 143 192 195 150 192 198 152 191 197 153 191 197 153
191 197 153 191 197 153 191 197 153 191 197 153 191 197 153
191 197 153 191 197 153 191 197 153 191 197 153 191 197 153
191 197 153 191 197 153 191 197 153 191 197 153 191 197 153
191 197 153 191 197 153 191 197 153 191 197 153 191 197 153
191 197 153 191 197 153 191 197 153 191 197 151 191 197 151
191 197 153 192 198 160 192 198 164 192 198 164 192 198 160
192 198 162 192 198 162 192 198 162 192 198 162 192 198 162
192 198 162 192 198 162 192 198 162 192 198 162 192 198 162
192 198 162 192 198 162 192 198 162 192 198 162 192 198 162
192 198 162 192 198 162 192 198 162 192 198 162 192 198 162
192 198 162 192 198 162 192 198 162 192 198 162 192 198 162
192 198 162 192 198 162 191 198 164 191 198 164 191 198 164
191 198 164 191 198 165 191 198 164 191 198 164 191 198 164
191 198 164 191 198 164 191 198 164 191 198 164 191 198 164
191 198 164 191 198 164 191 198 164 191 198 164 191 198 164
191 198 164 191 198 164 191 198 164 191 198 164 191 198 164
191 198 164 191 198 164 191 198 164 192 199 166 193 200 167
193 200 167 193 200 167 193 200 167 193 200 167 193 200 167
193 200 167 193 200 167 193 200 167 193 200 167 193 200 167
193 200 167 193 200 167 193 200 167 193 200 167 193 200 167
193 200 167 193 200 167 193 200 167 193 200 167 193 200 167
193 200 167 193 200 167 193 200 167 193 200 167 193 200 167
193 200 167 193 200 167 193 200 167 193 200 167 192 201 170
192 201 170 192 201 170 192 201 170 192 201 170 192 201 170
192 201 170 192 201 170 192 201 170 192 201 170 192 201 170
192 201 170 192 201 170 192 201 170 192 201 170 192 201 170
192 201 170 192 201 170 192 201 170 192 201 170 192 201 170
192 201 170 192 201 170 192 201 170 192 201 170 192 201 170
192 201 170 192 201 170 192 201 170 192 201 170 192 201 170
192 201 170 194 201 170 193 200 167 193 200 167 193 200 167
193 200 167 193 200 167 193 200 167 193 200 167 193 200 167
193 200 167 193 200 167 193 200 167 193 200 169 193 200 169
193 200 169 193 200 169 194 201 170 194 201 170 194 201 170
194 201 170 192 201 170 192 201 170 193 202 171 193 202 171
193 202 171 193 202 171 194 203 172 194 203 172 195 201 173
195 200 170 195 198 167 195 198 167 197 198 166 195 198 167
195 198 167 195 198 169 194 197 166 194 197 166 194 197 166
194 197 166 194 197 166 194 197 166 194 197 166 194 197 166
194 197 166 194 197 166 194 197 166 194 197 166 194 197 166
194 197 166 194 197 166 194 197 166 194 197 166 194 197 166
194 197 166 194 197 166 194 197 166 194 197 166 194 197 166
194 197 166 185 180 124 185 180 124 185 180 124 185 180 124
185 180 124 185 180 124 185 180 124 185 180 124 186 181 125
185 180 124 185 180 124 185 180 124 185 180 125 185 180 125
186 181 126 186 181 126 186 185 129 189 188 134 191 189 138
190 188 137 188 186 137 187 185 136 189 187 136 191 189 138
189 189 139 189 189 139 189 189 139 190 190 140 190 190 140
190 190 140 190 190 140 190 190 140 190 190 140 190 190 140
190 190 140 190 190 140 190 190 140 190 190 140 190 190 140
190 190 140 190 190 140 190 190 140 190 190 140 190 190 140
190 190 140 189 191 142 191 194 149 192 198 152 191 197 153
191 197 153 191 197 153 191 197 153 191 197 153 191 197 153
191 197 153 191 197 153 191 197 153 191 197 153 191 197 153
191 197 153 191 197 153 191 197 153 191 197 153 191 197 153
191 197 153 191 197 153 191 197 153 191 197 153 191 197 153
191 197 153 191 197 153 191 197 153 191 197 153 191 197 151
191 197 151 191 197 153 192 198 160 192 198 164 192 198 164
192 198 160 192 198 162 192 198 162 192 198 162 192 198 162
192 198 162 192 198 162 192 198 162 192 198 162 192 198 162
192 198 162 192 198 162 192 198 162 192 198 162 192 198 162
192 198 162 192 198 162 192 198 162 192 198 162 192 198 162
192 198 162 192 198 162 192 198 162 192 198 162 192 198 162
192 198 162 192 198 162 192 198 162 191 198 164 191 198 164
191 198 164 191 198 164 191 198 165 191 198 164 191 198 164
191 198 164 191 198 164 191 198 164 191 198 164 191 198 164
191 198 164 191 198 164 191 198 164 191 198 164 191 198 164
191 198 164 191 198 164 191 198 164 191 198 164 191 198 164
191 198 164 191 198 164 191 198 164 191 198 164 192 199 166
193 200 167 193 200 167 193 200 167 193 200 167 193 200 167
193 200 167 193 200 167 193 200 167 193 200 167 193 200 167
193 200 167 193 200 167 193 200 167 193 200 167 193 200 167
193 200 167 193 200 167 193 200 167 193 200 167 193 200 167
193 200 167 193 200 167 193 200 167 193 200 167 193 200 167
193 200 167 193 200 167 193 200 167 193 200 167 193 200 167
192 201 170 192 201 170 192 201 170 192 201 170 192 201 170
192 201 170 192 201 170 192 201 170 192 201 170 192 201 170
192 201 170 192 201 170 192 201 170 192 201 170 192 201 170
192 201 170 192 201 170 192 201 170 192 201 170 192 201 170
192 201 170 192 201 170 192 201 170 192 201 170 192 201 170
192 201 170 192 201 170 192 201 170 192 201 170 192 201 170
192 201 170 192 201 170 194 201 170 193 200 167 193 200 167
193 200 167 193 200 167 193 200 167 193 200 167 193 200 167
193 200 167 193 200 167 193 200 167 193 200 167 192 199 166
192 199 166 192 199 166 192 199 166 193 200 167 193 200 167
193 200 167 193 200 167 191 201 167 191 201 167 191 201 167
191 201 167 192 202 168 192 202 168 192 202 168 192 202 168
195 201 173 195 200 170 195 198 167 194 198 165 197 198 166
196 200 167 196 199 168 196 199 168 195 198 167 195 198 167
195 198 167 195 198 167 195 198 167 195 198 167 195 198 167
195 198 167 195 198 167 195 198 167 195 198 167 195 198 167
195 198 167 195 198 167 195 198 167 195 198 167 195 198 167
195 198 167 195 198 167 195 198 167 195 198 167 195 198 167
195 198 167 195 198 167 185 180 124 185 180 124 185 180 124
185 180 124 185 180 124 185 180 124 185 180 124 185 180 124
186 181 125 186 181 125 185 180 124 185 180 124 185 180 124
185 180 124 184 179 123 184 179 123 183 180 125 185 182 127
188 185 132 189 186 133 188 186 135 189 187 136 191 189 138
192 190 139 189 189 139 189 189 139 190 190 140 190 190 140
190 190 140 190 190 140 190 190 140 190 190 140 190 190 140
190 190 140 190 190 140 190 190 140 190 190 140 190 190 140
190 190 140 190 190 140 190 190 140 190 190 140 190 190 140
190 190 140 190 190 140 189 191 142 191 194 149 191 197 151
191 197 153 191 197 153 191 197 153 191 197 153 191 197 153
191 197 153 191 197 153 191 197 153 191 197 153 191 197 153
191 197 153 191 197 153 191 197 153 191 197 153 191 197 153
191 197 153 191 197 153 191 197 153 191 197 153 191 197 153
191 197 153 191 197 153 191 197 153 191 197 153 191 197 153
191 197 151 191 197 151 191 197 153 192 198 160 192 198 164
192 198 164 192 198 160 192 198 162 192 198 162 192 198 162
192 198 162 192 198 162 192 198 162 192 198 162 192 198 162
192 198 162 192 198 162 192 198 162 192 198 162 192 198 162
192 198 162 192 198 162 192 198 162 192 198 162 192 198 162
192 198 162 192 198 162 192 198 162 192 198 162 192 198 162
192 198 162 192 198 162 192 198 162 192 198 162 191 198 164
191 198 164 191 198 164 191 198 164 191 198 165 191 198 164
191 198 164 191 198 164 191 198 164 191 198 164 191 198 164
191 198 164 191 198 164 191 198 164 191 198 164 191 198 164
191 198 164 191 198 164 191 198 164 191 198 164 191 198 164
191 198 164 191 198 164 191 198 164 191 198 164 191 198 164
192 199 166 193 200 167 193 200 167 193 200 167 193 200 167
193 200 167 193 200 167 193 200 167 193 200 167 193 200 167
193 200 167 193 200 167 193 200 167 193 200 167 193 200 167
193 200 167 193 200 167 193 200 167 193 200 167 193 200 167
193 200 167 193 200 167 193 200 167 193 200 167 193 200 167
193 200 167 193 200 167 193 200 167 193 200 167 193 200 167
193 200 167 192 201 170 192 201 170 192 201 170 192 201 170
192 201 170 192 201 170 192 201 170 192 201 170 192 201 170
192 201 170 192 201 170 192 201 170 192 201 170 192 201 170
192 201 170 192 201 170 192 201 170 192 201 170 192 201 170
192 201 170 192 201 170 192 201 170 192 201 170 192 201 170
192 201 170 192 201 170 192 201 170 192 201 170 192 201 170
192 201 170 192 201 170 192 201 170 194 201 170 193 200 167
193 200 167 193 200 167 193 200 167 193 200 167 193 200 167
193 200 167 193 200 167 193 200 167 193 200 167 193 200 167
193 200 167 193 200 167 193 200 167 193 200 167 193 200 167
193 200 167 194 201 168 194 201 168 192 199 166 192 199 166
192 199 166 193 200 167 193 200 167 193 200 167 193 200 167
193 200 167 194 201 170 194 199 167 194 197 166 194 198 165
196 197 165 194 198 165 194 198 165 194 197 166 195 199 166
195 199 166 195 199 166 195 199 166 195 199 166 195 199 166
195 199 166 195 199 166 195 199 166 195 199 166 195 199 166
195 199 166 195 199 166 195 199 166 195 199 166 195 199 166
195 199 166 195 199 166 195 199 166 195 199 166 195 199 166
195 199 166 195 199 166 195 199 166 185 180 124 185 180 124
185 180 124 185 180 124 185 180 124 185 180 124 185 180 124
185 180 124 185 180 124 186 181 125 186 181 125 186 181 125
186 181 125 185 180 124 185 180 124 184 179 123 184 179 123
182 180 123 183 180 125 185 182 127 188 185 132 189 187 136
191 189 138 192 190 141 190 190 140 190 190 140 190 190 140
190 190 140 190 190 140 190 190 140 190 190 140 190 190 140
190 190 140 190 190 140 190 190 140 190 190 140 190 190 140
190 190 140 190 190 140 190 190 140 190 190 140 190 190 140
190 190 140 190 190 140 190 190 140 189 191 142 191 194 149
191 197 151 191 197 153 191 197 153 191 197 153 191 197 153
191 197 153 191 197 153 191 197 153 191 197 153 191 197 153
191 197 153 191 197 153 191 197 153 191 197 153 191 197 153
191 197 153 191 197 153 191 197 153 191 197 153 191 197 153
191 197 153 191 197 153 191 197 153 191 197 153 191 197 153
191 197 153 191 197 151 191 197 151 191 197 153 192 198 160
192 198 164 192 198 164 192 198 160 192 198 162 192 198 162
192 198 162 192 198 162 192 198 162 192 198 162 192 198 162
192 198 162 192 198 162 192 198 162 192 198 162 192 198 162
192 198 162 192 198 162 192 198 162 192 198 162 192 198 162
192 198 162 192 198 162 192 198 162 192 198 162 192 198 162
192 198 162 192 198 162 192 198 162 192 198 162 192 198 162
191 198 164 191 198 164 191 198 164 191 198 164 191 198 165
191 198 164 191 198 164 191 198 164 191 198 164 191 198 164
191 198 164 191 198 164 191 198 164 191 198 164 191 198 164
191 198 164 191 198 164 191 198 164 191 198 164 191 198 164
191 198 164 191 198 164 191 198 164 191 198 164 191 198 164
191 198 164 192 199 166 193 200 167 193 200 167 193 200 167
193 200 167 193 200 167 193 200 167 193 200 167 193 200 167
193 200 167 193 200 167 193 200 167 193 200 167 193 200 167
193 200 167 193 200 167 193 200 167 193 200 167 193 200 167
193 200 167 193 200 167 193 200 167 193 200 167 193 200 167
193 200 167 193 200 167 193 200 167 193 200 167 193 200 167
193 200 167 193 200 167 192 201 170 192 201 170 192 201 170
192 201 170 192 201 170 192 201 170 192 201 170 192 201 170
192 201 170 192 201 170 192 201 170 192 201 170 192 201 170
192 201 170 192 201 170 192 201 170 192 201 170 192 201 170
192 201 170 192 201 170 192 201 170 192 201 170 192 201 170
192 201 170 192 201 170 192 201 170 192 201 170 192 201 170
192 201 170 192 201 170 192 201 170 192 201 170 194 201 170
193 200 167 193 200 167 193 200 167 193 200 167 193 200 167
193 200 167 193 200 167 193 200 167 193 200 167 193 200 167
193 200 167 193 200 167 193 200 167 193 200 167 193 200 167
194 201 168 194 201 168 194 201 168 194 201 168 193 200 166
193 200 166 193 200 166 193 200 166 193 200 166 193 200 166
193 200 166 193 200 166 194 201 168 194 199 167 193 197 164
193 197 162 195 196 162 193 197 162 192 196 163 192 196 163
192 196 163 192 196 163 192 196 163 192 196 163 192 196 163
192 196 163 192 196 163 192 196 163 192 196 163 192 196 163
192 196 163 192 196 163 192 196 163 192 196 163 192 196 163
192 196 163 192 196 163 192 196 163 192 196 163 192 196 163
192 196 163 192 196 163 192 196 163 192 196 163 185 180 124
185 180 124 185 180 124 185 180 124 185 180 124 185 180 124
185 180 124 185 180 124 185 180 124 185 180 124 186 181 125
186 181 125 186 181 125 186 181 123 185 180 122 185 180 122
185 180 124 184 179 123 184 179 123 183 181 124 186 183 128
188 187 133 189 187 136 190 188 139 190 190 140 190 190 140
190 190 140 190 190 140 190 190 140 190 190 140 190 190 140
190 190 140 190 190 140 190 190 140 190 190 140 190 190 140
190 190 140 190 190 140 190 190 140 190 190 140 190 190 140
190 190 140 190 190 140 190 190 140 189 189 139 189 191 142
190 193 148 191 197 151 191 197 153 191 197 153 191 197 153
191 197 153 191 197 153 191 197 153 191 197 153 191 197 153
191 197 153 191 197 153 191 197 153 191 197 153 191 197 153
191 197 153 191 197 153 191 197 153 191 197 153 191 197 153
191 197 153 191 197 153 191 197 153 191 197 153 191 197 153
191 197 153 191 197 153 191 197 151 191 197 151 191 197 153
192 198 160 192 198 164 192 198 164 192 198 160 192 198 162
192 198 162 192 198 162 192 198 162 192 198 162 192 198 162
192 198 162 192 198 162 192 198 162 192 198 162 192 198 162
192 198 162 192 198 162 192 198 162 192 198 162 192 198 162
192 198 162 192 198 162 192 198 162 192 198 162 192 198 162
192 198 162 192 198 162 192 198 162 192 198 162 192 198 162
192 198 162 191 198 164 191 198 164 191 198 164 191 198 164
191 198 165 191 198 164 191 198 164 191 198 164 191 198 164
191 198 164 191 198 164 191 198 164 191 198 164 191 198 164
191 198 164 191 198 164 191 198 164 191 198 164 191 198 164
191 198 164 191 198 164 191 198 164 191 198 164 191 198 164
191 198 164 191 198 164 192 199 166 193 200 167 193 200 167
193 200 167 193 200 167 193 200 167 193 200 167 193 200 167
193 200 167 193 200 167 193 200 167 193 200 167 193 200 167
193 200 167 193 200 167 193 200 167 193 200 167 193 200 167
193 200 167 193 200 167 193 200 167 193 200 167 193 200 167
193 200 167 193 200 167 193 200 167 193 200 167 193 200 167
193 200 167 193 200 167 193 200 167 192 201 170 192 201 170
192 201 170 192 201 170 192 201 170 192 201 170 192 201 170
192 201 170 192 201 170 192 201 170 192 201 170 192 201 170
192 201 170 192 201 170 192 201 170 192 201 170 192 201 170
192 201 170 192 201 170 192 201 170 192 201 170 192 201 170
192 201 170 192 201 170 192 201 170 192 201 170 192 201 170
192 201 170 192 201 170 192 201 170 192 201 170 192 201 170
194 201 170 193 200 167 193 200 167 193 200 167 193 200 167
193 200 167 193 200 167 193 200 167 193 200 167 193 200 167
193 200 167 193 200 167 193 200 167 193 200 167 193 200 167
193 200 167 193 200 167 193 200 167 193 200 167 193 200 167
193 200 167 193 200 167 193 200 167 193 200 167 193 200 167
193 200 167 193 200 167 193 200 167 194 201 168 193 199 165
193 197 164 192 196 161 194 195 161 191 195 160 191 195 160
191 195 162 192 196 161 192 196 161 192 196 161 192 196 161
192 196 161 192 196 161 192 196 161 192 196 161 192 196 161
192 196 161 192 196 161 192 196 161 192 196 161 192 196 161
192 196 161 192 196 161 192 196 161 192 196 161 192 196 161
192 196 161 192 196 161 192 196 161 192 196 161 192 196 161
185 180 124 185 180 124 185 180 124 185 180 124 185 180 124
185 180 124 185 180 124 185 180 124 185 180 124 185 180 124
185 180 124 185 180 124 185 180 122 185 180 122 185 180 122
186 181 123 186 179 124 186 180 122 185 180 122 185 180 122
184 182 125 185 184 130 188 186 135 190 188 139 190 190 140
190 190 140 190 190 140 190 190 140 190 190 140 190 190 140
190 190 140 190 190 140 190 190 140 190 190 140 190 190 140
190 190 140 190 190 140 190 190 140 190 190 140 190 190 140
190 190 140 190 190 140 190 190 140 190 190 140 189 189 139
189 191 142 190 193 148 191 197 151 191 197 153 191 197 153
191 197 153 191 197 153 191 197 153 191 197 153 191 197 153
191 197 153 191 197 153 191 197 153 191 197 153 191 197 153
191 197 153 191 197 153 191 197 153 191 197 153 191 197 153
191 197 153 191 197 153 191 197 153 191 197 153 191 197 153
191 197 153 191 197 153 191 197 153 191 197 151 191 197 151
191 197 153 192 198 160 192 198 164 192 198 164 192 198 160
192 198 162 192 198 162 192 198 162 192 198 162 192 198 162
192 198 162 192 198 162 192 198 162 192 198 162 192 198 162
192 198 162 192 198 162 192 198 162 192 198 162 192 198 162
192 198 162 192 198 162 192 198 162 192 198 162 192 198 162
192 198 162 192 198 162 192 198 162 192 198 162 192 198 162
192 198 162 192 198 162 191 198 164 191 198 164 191 198 164
191 198 164 191 198 165 191 198 164 191 198 164 191 198 164
191 198 164 191 198 164 191 198 164 191 198 164 191 198 164
191 198 164 191 198 164 191 198 164 191 198 164 191 198 164
191 198 164 191 198 164 191 198 164 191 198 164 191 198 164
191 198 164 191 198 164 191 198 164 192 199 166 193 200 167
193 200 167 193 200 167 193 200 167 193 200 167 193 200 167
193 200 167 193 200 167 193 200 167 193 200 167 193 200 167
193 200 167 193 200 167 193 200 167 193 200 167 193 200 167
193 200 167 193 200 167 193 200 167 193 200 167 193 200 167
193 200 167 193 200 167 193 200 167 193 200 167 193 200 167
193 200 167 193 200 167 193 200 167 193 200 167 192 201 170
192 201 170 192 201 170 192 201 170 192 201 170 192 201 170
192 201 170 192 201 170 192 201 170 192 201 170 192 201 170
192 201 170 192 201 170 192 201 170 192 201 170 192 201 170
192 201 170 192 201 170 192 201 170 192 201 170 192 201 170
192 201 170 192 201 170 192 201 170 192 201 170 192 201 170
192 201 170 192 201 170 192 201 170 192 201 170 192 201 170
192 201 170 194 201 170 193 200 167 193 200 167 193 200 167
193 200 167 193 200 167 193 200 167 193 200 167 193 200 167
193 200 167 193 200 167 193 200 167 193 200 166 193 200 166
193 200 166 193 200 166 193 200 166 193 200 166 193 200 166
193 200 166 193 200 167 193 200 167 193 200 167 193 200 167
193 200 167 193 200 167 193 200 167 193 200 167 193 200 167
193 199 165 192 196 161 192 196 159 194 196 159 192 196 159
191 195 160 191 195 160 193 197 162 193 197 162 193 197 162
193 197 162 193 197 162 193 197 162 193 197 162 193 197 162
193 197 162 193 197 162 193 197 162 193 197 162 193 197 162
193 197 162 193 197 162 193 197 162 193 197 162 193 197 162
193 197 162 193 197 162 193 197 162 193 197 162 193 197 162
193 197 162 185 180 124 185 180 124 185 180 124 185 180 124
185 180 124 185 180 124 185 180 124 185 180 124 185 180 124
185 180 124 185 180 124 185 180 124 185 180 122 185 180 122
185 180 122 185 181 120 186 180 122 187 181 123 186 181 123
185 180 122 183 181 124 184 183 127 188 186 135 192 190 141
190 190 140 190 190 140 190 190 140 190 190 140 190 190 140
190 190 140 190 190 140 190 190 140 190 190 140 190 190 140
190 190 140 190 190 140 190 190 140 190 190 140 190 190 140
190 190 140 190 190 140 190 190 140 190 190 140 190 190 140
189 189 139 188 190 141 190 193 148 190 196 150 191 197 153
191 197 153 191 197 153 191 197 153 191 197 153 191 197 153
191 197 153 191 197 153 191 197 153 191 197 153 191 197 153
191 197 153 191 197 153 191 197 153 191 197 153 191 197 153
191 197 153 191 197 153 191 197 153 191 197 153 191 197 153
191 197 153 191 197 153 191 197 153 191 197 153 191 197 151
191 197 151 191 197 153 192 198 160 192 198 164 192 198 164
192 198 160 192 198 162 192 198 162 192 198 162 192 198 162
192 198 162 192 198 162 192 198 162 192 198 162 192 198 162
192 198 162 192 198 162 192 198 162 192 198 162 192 198 162
192 198 162 192 198 162 192 198 162 192 198 162 192 198 162
192 198 162 192 198 162 192 198 162 192 198 162 192 198 162
192 198 162 192 198 162 192 198 162 191 198 164 191 198 164
191 198 164 191 198 164 191 198 165 191 198 164 191 198 164
191 198 164 191 198 164 191 198 164 191 198 164 191 198 164
191 198 164 191 198 164 191 198 164 191 198 164 191 198 164
191 198 164 191 198 164 191 198 164 191 198 164 191 198 164
191 198 164 191 198 164 191 198 164 191 198 164 192 199 166
193 200 167 193 200 167 193 200 167 193 200 167 193 200 167
193 200 167 193 200 167 193 200 167 193 200 167 193 200 167
193 200 167 193 200 167 193 200 167 193 200 167 193 200 167
193 200 167 193 200 167 193 200 167 193 200 167 193 200 167
193 200 167 193 200 167 193 200 167 193 200 167 193 200 167
193 200 167 193 200 167 193 200 167 193 200 167 193 200 167
192 201 170 192 201 170 192 201 170 192 201 170 192 201 170
192 201 170 192 201 170 192 201 170 192 201 170 192 201 170
192 201 170 192 201 170 192 201 170 192 201 170 192 201 170
192 201 170 192 201 170 192 201 170 192 201 170 192 201 170
192 201 170 192 201 170 192 201 170 192 201 170 192 201 170
192 201 170 192 201 170 192 201 170 192 201 170 192 201 170
192 201 170 192 201 170 194 201 170 193 200 167 193 200 167
193 200 167 193 200 167 193 200 167 193 200 167 193 200 167
193 200 167 193 200 167 193 200 167 193 200 167 193 200 166
193 200 166 193 200 166 193 200 166 193 200 166 193 200 166
193 200 166 193 200 166 194 199 169 194 199 169 194 199 169
194 199 169 194 199 169 194 199 169 194 199 169 194 199 169
193 200 166 193 199 165 192 196 161 192 196 159 194 196 159
192 196 159 192 196 161 192 196 161 192 196 161 192 196 161
192 196 161 192 196 161 192 196 161 192 196 161 192 196 161
192 196 161 192 196 161 192 196 161 192 196 161 192 196 161
192 196 161 192 196 161 192 196 161 192 196 161 192 196 161
192 196 161 192 196 161 192 196 161 192 196 161 192 196 161
192 196 161 192 196 161 185 180 124 185 180 124 185 180 124
185 180 124 185 180 124 185 180 124 185 180 124 185 180 124
185 180 124 185 180 124 185 180 124 185 180 124 185 180 124
185 180 124 185 180 124 185 180 124 185 180 125 186 181 125
184 179 123 185 178 123 186 181 125 186 181 126 187 184 129
194 193 139 190 190 140 190 190 140 190 190 140 190 190 140
190 190 140 190 190 140 190 190 140 190 190 140 190 190 140
190 190 140 190 190 140 190 190 140 190 190 140 190 190 140
190 190 140 190 190 140 190 190 140 190 190 140 190 190 140
190 190 140 190 190 140 190 190 140 190 190 140 190 190 140
190 197 155 189 196 154 190 197 153 190 197 153 191 198 154
191 197 153 190 196 152 190 196 152 191 197 153 191 197 153
191 197 153 191 197 153 191 197 153 191 197 153 191 197 153
191 197 153 191 197 153 191 197 153 191 197 153 191 197 153
191 197 153 191 197 153 191 197 153 191 197 153 191 197 153
191 197 151 191 197 151 191 197 153 192 198 160 192 198 164
192 198 164 192 198 160 192 198 162 192 198 162 192 198 162
192 198 162 192 198 162 192 198 162 192 198 162 192 198 162
192 198 162 192 198 162 192 198 162 192 198 162 192 198 162
192 198 162 192 198 162 192 198 162 192 198 162 192 198 162
192 198 162 192 198 162 192 198 162 192 198 162 192 198 162
192 198 162 192 198 162 192 198 162 192 198 162 191 198 164
191 198 164 191 198 164 191 198 164 191 198 165 191 198 164
191 198 164 191 198 164 191 198 164 191 198 164 191 198 164
191 198 164 191 198 164 191 198 164 191 198 164 191 198 164
191 198 164 191 198 164 191 198 164 191 198 164 191 198 164
191 198 164 191 198 164 191 198 164 191 198 164 191 198 164
191 198 164 191 198 164 192 199 165 193 200 167 193 200 167
193 200 167 193 200 167 193 200 167 193 200 167 193 200 167
193 200 167 193 200 167 193 200 167 193 200 167 193 200 167
193 200 167 193 200 167 193 200 167 193 200 167 193 200 167
193 200 167 193 200 167 193 200 167 193 200 167 193 200 167
193 200 167 193 200 167 193 200 167 193 200 167 193 200 167
193 200 167 191 200 169 192 201 170 192 201 170 192 201 170
192 201 170 192 201 170 192 201 170 192 201 170 192 201 170
192 201 170 192 201 170 192 201 170 192 201 170 192 201 170
192 201 170 192 201 170 192 201 170 192 201 170 192 201 170
192 201 170 192 201 170 192 201 170 192 201 170 192 201 170
192 201 170 192 201 170 192 201 170 192 201 170 192 201 170
192 201 170 192 201 170 191 200 169 193 200 167 193 200 167
193 200 167 193 200 167 193 200 167 193 200 167 193 200 167
193 200 167 193 200 167 193 200 167 193 200 167 193 200 167
193 200 167 193 200 167 193 200 167 193 200 167 193 200 167
193 200 167 193 200 167 193 200 167 193 200 167 193 200 167
193 200 167 193 200 167 193 200 167 193 200 167 193 200 167
193 200 167 194 201 168 192 199 165 192 198 164 192 196 161
192 196 161 192 196 161 192 196 161 191 197 163 192 196 161
192 196 161 192 196 161 192 196 161 192 196 161 192 196 161
192 196 161 192 196 161 192 196 161 192 196 161 192 196 161
192 196 161 192 196 161 192 196 161 192 196 161 192 196 161
192 196 161 192 196 161 192 196 161 192 196 161 192 196 161
192 196 161 192 196 161 192 196 161 185 180 124 185 180 124
185 180 124 185 180 124 185 180 124 185 180 124 185 180 124
185 180 124 185 180 124 185 180 124 185 180 124 185 180 124
185 180 124 185 180 124 185 180 124 185 180 124 184 179 124
186 181 125 185 180 124 185 178 123 186 181 125 185 180 125
185 182 127 191 190 136 190 190 140 190 190 140 190 190 140
190 190 140 190 190 140 190 190 140 190 190 140 190 190 140
190 190 140 190 190 140 190 190 140 190 190 140 190 190 140
190 190 140 190 190 140 190 190 140 190 190 140 190 190 140
190 190 140 190 190 140 190 190 140 190 190 140 190 190 140
190 190 140 190 197 155 190 197 153 190 197 153 191 197 153
191 197 153 191 197 153 191 197 153 190 196 152 191 197 153
191 197 153 191 197 153 191 197 153 191 197 153 191 197 153
191 197 153 191 197 153 191 197 153 191 197 153 191 197 153
191 197 153 191 197 153 191 197 153 191 197 153 191 197 153
191 197 153 191 197 151 191 197 151 191 197 153 192 198 160
192 198 164 192 198 164 192 198 160 192 198 162 192 198 162
192 198 162 192 198 162 192 198 162 192 198 162 192 198 162
192 198 162 192 198 162 192 198 162 192 198 162 192 198 162
192 198 162 192 198 162 192 198 162 192 198 162 192 198 162
192 198 162 192 198 162 192 198 162 192 198 162 192 198 162
192 198 162 192 198 162 192 198 162 192 198 162 192 198 162
191 198 164 191 198 164 191 198 164 191 198 164 191 198 165
191 198 164 191 198 164 191 198 164 191 198 164 191 198 164
191 198 164 191 198 164 191 198 164 191 198 164 191 198 164
191 198 164 191 198 164 191 198 164 191 198 164 191 198 164
191 198 164 191 198 164 191 198 164 191 198 164 191 198 164
191 198 164 191 198 164 191 198 164 192 199 165 193 200 167
193 200 167 193 200 167 193 200 167 193 200 167 193 200 167
193 200 167 193 200 167 193 200 167 193 200 167 193 200 167
193 200 167 193 200 167 193 200 167 193 200 167 193 200 167
193 200 167 193 200 167 193 200 167 193 200 167 193 200 167
193 200 167 193 200 167 193 200 167 193 200 167 193 200 167
193 200 167 193 200 167 191 200 169 192 201 170 192 201 170
192 201 170 192 201 170 192 201 170 192 201 170 192 201 170
192 201 170 192 201 170 192 201 170 192 201 170 192 201 170
192 201 170 192 201 170 192 201 170 192 201 170 192 201 170
192 201 170 192 201 170 192 201 170 192 201 170 192 201 170
192 201 170 192 201 170 192 201 170 192 201 170 192 201 170
192 201 170 192 201 170 192 201 170 191 200 169 193 200 167
193 200 167 193 200 167 193 200 167 193 200 167 193 200 167
193 200 167 193 200 167 193 200 167 193 200 167 193 200 167
193 200 167 193 200 167 193 200 167 193 200 167 193 200 167
193 200 167 193 200 167 193 200 167 193 200 167 193 200 167
193 200 167 193 200 167 193 200 167 193 200 167 193 200 167
193 200 167 193 200 167 194 201 168 192 199 165 192 198 164
192 196 161 192 196 161 192 196 161 192 196 161 191 197 163
192 196 161 192 196 161 192 196 161 192 196 161 192 196 161
192 196 161 192 196 161 192 196 161 192 196 161 192 196 161
192 196 161 192 196 161 192 196 161 192 196 161 192 196 161
192 196 161 192 196 161 192 196 161 192 196 161 192 196 161
192 196 161 192 196 161 192 196 161 192 196 161 185 180 124
185 180 124 185 180 124 185 180 124 185 180 124 185 180 124
185 180 124 185 180 124 185 180 124 185 180 124 185 180 124
185 180 124 185 180 124 185 180 124 185 180 124 185 180 124
184 179 124 186 181 125 185 180 124 186 179 124 186 181 125
185 180 125 184 181 126 189 188 134 190 190 140 190 190 140
190 190 140 190 190 140 190 190 140 190 190 140 190 190 140
190 190 140 190 190 140 190 190 140 190 190 140 190 190 140
190 190 140 190 190 140 190 190 140 190 190 140 190 190 140
190 190 140 190 190 140 190 190 140 190 190 140 190 190 140
190 190 140 190 190 140 192 198 154 191 197 153 191 197 153
191 197 153 191 197 153 191 197 153 191 197 153 191 197 153
191 197 153 191 197 153 191 197 153 191 197 153 191 197 153
191 197 153 191 197 153 191 197 153 191 197 153 191 197 153
191 197 153 191 197 153 191 197 153 191 197 153 191 197 153
191 197 153 191 197 153 191 197 151 191 197 151 191 197 153
192 198 160 192 198 164 192 198 164 192 198 160 192 198 162
192 198 162 192 198 162 192 198 162 192 198 162 192 198 162
192 198 162 192 198 162 192 198 162 192 198 162 192 198 162
192 198 162 192 198 162 192 198 162 192 198 162 192 198 162
192 198 162 192 198 162 192 198 162 192 198 162 192 198 162
192 198 162 192 198 162 192 198 162 192 198 162 192 198 162
192 198 162 191 198 164 191 198 164 191 198 164 191 198 164
191 198 165 191 198 164 191 198 164 191 198 164 191 198 164
191 198 164 191 198 164 191 198 164 191 198 164 191 198 164
191 198 164 191 198 164 191 198 164 191 198 164 191 198 164
191 198 164 191 198 164 191 198 164 191 198 164 191 198 164
191 198 164 191 198 164 191 198 164 191 198 164 192 199 165
193 200 167 193 200 167 193 200 167 193 200 167 193 200 167
193 200 167 193 200 167 193 200 167 193 200 167 193 200 167
193 200 167 193 200 167 193 200 167 193 200 167 193 200 167
193 200 167 193 200 167 193 200 167 193 200 167 193 200 167
193 200 167 193 200 167 193 200 167 193 200 167 193 200 167
193 200 167 193 200 167 193 200 167 191 200 169 192 201 170
192 201 170 192 201 170 192 201 170 192 201 170 192 201 170
192 201 170 192 201 170 192 201 170 192 201 170 192 201 170
192 201 170 192 201 170 192 201 170 192 201 170 192 201 170
192 201 170 192 201 170 192 201 170 192 201 170 192 201 170
192 201 170 192 201 170 192 201 170 192 201 170 192 201 170
192 201 170 192 201 170 192 201 170 192 201 170 191 200 169
193 200 167 193 200 167 193 200 167 193 200 167 193 200 167
193 200 167 193 200 167 193 200 167 193 200 167 193 200 167
193 200 167 193 200 167 193 200 167 193 200 167 193 200 167
193 200 167 193 200 167 193 200 167 193 200 167 193 200 167
193 200 167 193 200 167 193 200 167 193 200 167 193 200 167
193 200 167 193 200 167 193 200 167 194 201 168 192 199 165
192 198 164 192 196 161 192 196 161 192 196 161 192 196 161
191 197 163 192 196 161 192 196 161 192 196 161 192 196 161
192 196 161 192 196 161 192 196 161 192 196 161 192 196 161
192 196 161 192 196 161 192 196 161 192 196 161 192 196 161
192 196 161 192 196 161 192 196 161 192 196 161 192 196 161
192 196 161 192 196 161 192 196 161 192 196 161 192 196 161
185 180 124 185 180 124 185 180 124 185 180 124 185 180 124
185 180 124 185 180 124 185 180 124 185 180 124 185 180 124
185 180 124 185 180 124 185 180 124 185 180 124 185 180 124
185 180 124 184 179 124 186 181 125 185 180 124 186 179 124
186 181 125 184 179 124 184 181 126 189 188 134 190 190 140
190 190 140 190 190 140 190 190 140 190 190 140 190 190 140
190 190 140 190 190 140 190 190 140 190 190 140 190 190 140
190 190 140 190 190 140 190 190 140 190 190 140 190 190 140
190 190 140 190 190 140 190 190 140 190 190 140 190 190 140
190 190 140 190 190 140 190 190 140 193 196 151 191 197 151
192 198 154 191 197 153 191 197 153 191 197 153 191 197 153
190 197 153 191 197 153 191 197 153 191 197 153 191 197 153
191 197 153 191 197 153 191 197 153 191 197 153 191 197 153
191 197 153 191 197 153 191 197 153 191 197 153 191 197 153
191 197 153 191 197 153 191 197 153 191 197 151 191 197 151
191 197 153 192 198 160 192 198 164 192 198 164 192 198 160
192 198 162 192 198 162 192 198 162 192 198 162 192 198 162
192 198 162 192 198 162 192 198 162 192 198 162 192 198 162
192 198 162 192 198 162 192 198 162 192 198 162 192 198 162
192 198 162 192 198 162 192 198 162 192 198 162 192 198 162
192 198 162 192 198 162 192 198 162 192 198 162 192 198 162
192 198 162 192 198 162 191 198 164 191 198 164 191 198 164
191 198 164 191 198 165 191 198 164 191 198 164 191 198 164
191 198 164 191 198 164 191 198 164 191 198 164 191 198 164
191 198 164 191 198 164 191 198 164 191 198 164 191 198 164
191 198 164 191 198 164 191 198 164 191 198 164 191 198 164
191 198 164 191 198 164 191 198 164 191 198 164 191 198 164
192 199 165 193 200 167 193 200 167 193 200 167 193 200 167
193 200 167 193 200 167 193 200 167 193 200 167 193 200 167
193 200 167 193 200 167 193 200 167 193 200 167 193 200 167
193 200 167 193 200 167 193 200 167 193 200 167 193 200 167
193 200 167 193 200 167 193 200 167 193 200 167 193 200 167
193 200 167 193 200 167 193 200 167 193 200 167 191 200 169
192 201 170 192 201 170 192 201 170 192 201 170 192 201 170
192 201 170 192 201 170 192 201 170 192 201 170 192 201 170
192 201 170 192 201 170 192 201 170 192 201 170 192 201 170
192 201 170 192 201 170 192 201 170 192 201 170 192 201 170
192 201 170 192 201 170 192 201 170 192 201 170 192 201 170
192 201 170 192 201 170 192 201 170 192 201 170 192 201 170
191 200 169 193 200 167 193 200 167 193 200 167 193 200 167
193 200 167 193 200 167 193 200 167 193 200 167 193 200 167
193 200 167 193 200 167 193 200 167 193 200 167 193 200 167
193 200 167 193 200 167 193 200 167 193 200 167 193 200 167
193 200 167 193 200 167 193 200 167 193 200 167 193 200 167
193 200 167 193 200 167 193 200 167 193 200 167 194 201 168
192 199 165 192 198 164 192 196 161 192 196 161 192 196 161
192 196 161 191 197 163 192 196 161 192 196 161 192 196 161
192 196 161 192 196 161 192 196 161 192 196 161 192 196 161
192 196 161 192 196 161 192 196 161 192 196 161 192 196 161
192 196 161 192 196 161 192 196 161 192 196 161 192 196 161
192 196 161 192 196 161 192 196 161 192 196 161 192 196 161
192 196 161 185 180 124 185 180 124 185 180 124 185 180 124
185 180 124 185 180 124 185 180 124 185 180 124 185 180 124
185 180 124 185 180 124 185 180 124 185 180 124 185 180 124
185 180 124 185 180 124 184 179 124 186 181 125 185 180 124
185 178 123 186 181 125 185 180 125 185 182 127 190 189 135
190 190 140 190 190 140 190 190 140 190 190 140 190 190 140
190 190 140 190 190 140 190 190 140 190 190 140 190 190 140
190 190 140 190 190 140 190 190 140 190 190 140 190 190 140
190 190 140 190 190 140 190 190 140 190 190 140 190 190 140
190 190 140 190 190 140 190 190 140 190 190 140 192 195 148
193 196 149 193 196 151 191 197 153 191 196 155 190 196 152
191 197 153 191 199 152 191 197 153 191 197 153 191 197 153
191 197 153 191 197 153 191 197 153 191 197 153 191 197 153
191 197 153 191 197 153 191 197 153 191 197 153 191 197 153
191 197 153 191 197 153 191 197 153 191 197 153 191 197 151
191 197 151 191 197 153 192 198 160 192 198 164 192 198 164
192 198 160 192 198 162 192 198 162 192 198 162 192 198 162
192 198 162 192 198 162 192 198 162 192 198 162 192 198 162
192 198 162 192 198 162 192 198 162 192 198 162 192 198 162
192 198 162 192 198 162 192 198 162 192 198 162 192 198 162
192 198 162 192 198 162 192 198 162 192 198 162 192 198 162
192 198 162 192 198 162 192 198 162 191 198 164 191 198 164
191 198 164 191 198 164 191 198 165 191 198 164 191 198 164
191 198 164 191 198 164 191 198 164 191 198 164 191 198 164
191 198 164 191 198 164 191 198 164 191 198 164 191 198 164
191 198 164 191 198 164 191 198 164 191 198 164 191 198 164
191 198 164 191 198 164 191 198 164 191 198 164 191 198 164
191 198 164 192 199 165 193 200 167 193 200 167 193 200 167
193 200 167 193 200 167 193 200 167 193 200 167 193 200 167
193 200 167 193 200 167 193 200 167 193 200 167 193 200 167
193 200 167 193 200 167 193 200 167 193 200 167 193 200 167
193 200 167 193 200 167 193 200 167 193 200 167 193 200 167
193 200 167 193 200 167 193 200 167 193 200 167 193 200 167
191 200 169 192 201 170 192 201 170 192 201 170 192 201 170
192 201 170 192 201 170 192 201 170 192 201 170 192 201 170
192 201 170 192 201 170 192 201 170 192 201 170 192 201 170
192 201 170 192 201 170 192 201 170 192 201 170 192 201 170
192 201 170 192 201 170 192 201 170 192 201 170 192 201 170
192 201 170 192 201 170 192 201 170 192 201 170 192 201 170
192 201 170 191 200 169 193 200 167 193 200 167 193 200 167
193 200 167 193 200 167 193 200 167 193 200 167 193 200 167
193 200 167 193 200 167 193 200 167 193 200 167 193 200 167
193 200 167 193 200 167 193 200 167 193 200 167 193 200 167
193 200 167 193 200 167 193 200 167 193 200 167 193 200 167
193 200 167 193 200 167 193 200 167 193 200 167 193 200 167
194 201 168 192 199 165 192 198 164 192 196 161 192 196 161
192 196 161 192 196 161 191 197 163 192 196 161 192 196 161
192 196 161 192 196 161 192 196 161 192 196 161 192 196 161
192 196 161 192 196 161 192 196 161 192 196 161 192 196 161
192 196 161 192 196 161 192 196 161 192 196 161 192 196 161
192 196 161 192 196 161 192 196 161 192 196 161 192 196 161
192 196 161 192 196 161 185 180 124 185 180 124 185 180 124
185 180 124 185 180 124 185 180 124 185 180 124 185 180 124
185 180 124 185 180 124 185 180 124 185 180 124 185 180 124
185 180 124 185 180 124 185 180 124 185 180 125 186 181 125
185 180 124 185 178 123 185 180 124 185 180 125 185 182 127
190 189 135 190 190 140 190 190 140 190 190 140 190 190 140
190 190 140 190 190 140 190 190 140 190 190 140 190 190 140
190 190 140 190 190 140 190 190 140 190 190 140 190 190 140
190 190 140 190 190 140 190 190 140 190 190 140 190 190 140
190 190 140 190 190 140 190 190 140 190 190 140 190 190 140
190 192 142 192 194 147 193 196 151 193 196 153 191 196 155
190 195 154 190 197 153 191 199 152 191 197 153 191 197 153
191 197 153 191 197 153 191 197 153 191 197 153 191 197 153
191 197 153 191 197 153 191 197 153 191 197 153 191 197 153
191 197 153 191 197 153 191 197 153 191 197 153 191 197 153
191 197 151 191 197 151 191 197 153 192 198 160 192 198 164
192 198 164 192 198 160 192 198 162 192 198 162 192 198 162
192 198 162 192 198 162 192 198 162 192 198 162 192 198 162
192 198 162 192 198 162 192 198 162 192 198 162 192 198 162
192 198 162 192 198 162 192 198 162 192 198 162 192 198 162
192 198 162 192 198 162 192 198 162 192 198 162 192 198 162
192 198 162 192 198 162 192 198 162 192 198 162 191 198 164
191 198 164 191 198 164 191 198 164 191 198 165 191 198 164
191 198 164 191 198 164 191 198 164 191 198 164 191 198 164
191 198 164 191 198 164 191 198 164 191 198 164 191 198 164
191 198 164 191 198 164 191 198 164 191 198 164 191 198 164
191 198 164 191 198 164 191 198 164 191 198 164 191 198 164
191 198 164 191 198 164 192 199 165 193 200 167 193 200 167
193 200 167 193 200 167 193 200 167 193 200 167 193 200 167
193 200 167 193 200 167 193 200 167 193 200 167 193 200 167
193 200 167 193 200 167 193 200 167 193 200 167 193 200 167
193 200 167 193 200 167 193 200 167 193 200 167 193 200 167
193 200 167 193 200 167 193 200 167 193 200 167 193 200 167
193 200 167 191 200 169 192 201 170 192 201 170 192 201 170
192 201 170 192 201 170 192 201 170 192 201 170 192 201 170
192 201 170 192 201 170 192 201 170 192 201 170 192 201 170
192 201 170 192 201 170 192 201 170 192 201 170 192 201 170
192 201 170 192 201 170 192 201 170 192 201 170 192 201 170
192 201 170 192 201 170 192 201 170 192 201 170 192 201 170
192 201 170 192 201 170 191 200 169 193 200 167 193 200 167
193 200 167 193 200 167 193 200 167 193 200 167 193 200 167
193 200 167 193 200 167 193 200 167 193 200 167 193 200 167
193 200 167 193 200 167 193 200 167 193 200 167 193 200 167
193 200 167 193 200 167 193 200 167 193 200 167 193 200 167
193 200 167 193 200 167 193 200 167 193 200 167 193 200 167
193 200 167 194 201 168 192 199 165 192 198 164 192 196 161
192 196 161 192 196 161 192 196 161 191 197 163 192 196 161
192 196 161 192 196 161 192 196 161 192 196 161 192 196 161
192 196 161 192 196 161 192 196 161 192 196 161 192 196 161
192 196 161 192 196 161 192 196 161 192 196 161 192 196 161
192 196 161 192 196 161 192 196 161 192 196 161 192 196 161
192 196 161 192 196 161 192 196 161 185 180 124 185 180 124
185 180 124 185 180 124 185 180 124 185 180 124 185 180 124
185 180 124 185 180 124 185 180 124 185 180 124 185 180 124
185 180 124 185 180 124 185 180 124 185 180 124 184 179 124
186 181 125 185 180 124 185 178 123 185 180 124 184 179 124
183 180 125 188 187 133 190 190 140 190 190 140 190 190 140
190 190 140 190 190 140 190 190 140 190 190 140 190 190 140
190 190 140 190 190 140 190 190 140 190 190 140 190 190 140
190 190 140 190 190 140 190 190 140 190 190 140 190 190 140
190 190 140 190 190 140 190 190 140 190 190 140 190 190 140
190 190 140 188 190 140 190 192 143 193 194 150 194 196 156
191 196 155 190 195 154 190 197 153 191 199 152 191 197 153
191 197 153 191 197 153 191 197 153 191 197 153 191 197 153
191 197 153 191 197 153 191 197 153 191 197 153 191 197 153
191 197 153 191 197 153 191 197 153 191 197 153 191 197 153
191 197 153 191 197 151 191 197 151 191 197 153 192 198 160
192 198 164 192 198 164 192 198 160 192 198 162 192 198 162
192 198 162 192 198 162 192 198 162 192 198 162 192 198 162
192 198 162 192 198 162 192 198 162 192 198 162 192 198 162
192 198 162 192 198 162 192 198 162 192 198 162 192 198 162
192 198 162 192 198 162 192 198 162 192 198 162 192 198 162
192 198 162 192 198 162 192 198 162 192 198 162 192 198 162
191 198 164 191 198 164 191 198 164 191 198 164 191 198 165
191 198 164 191 198 164 191 198 164 191 198 164 191 198 164
191 198 164 191 198 164 191 198 164 191 198 164 191 198 164
191 198 164 191 198 164 191 198 164 191 198 164 191 198 164
191 198 164 191 198 164 191 198 164 191 198 164 191 198 164
191 198 164 191 198 164 191 198 164 192 199 165 193 200 167
193 200 167 193 200 167 193 200 167 193 200 167 193 200 167
193 200 167 193 200 167 193 200 167 193 200 167 193 200 167
193 200 167 193 200 167 193 200 167 193 200 167 193 200 167
193 200 167 193 200 167 193 200 167 193 200 167 193 200 167
193 200 167 193 200 167 193 200 167 193 200 167 193 200 167
193 200 167 193 200 167 191 200 169 192 201 170 192 201 170
192 201 170 192 201 170 192 201 170 192 201 170 192 201 170
192 201 170 192 201 170 192 201 170 192 201 170 192 201 170
192 201 170 192 201 170 192 201 170 192 201 170 192 201 170
192 201 170 192 201 170 192 201 170 192 201 170 192 201 170
192 201 170 192 201 170 192 201 170 192 201 170 192 201 170
192 201 170 192 201 170 192 201 170 191 200 169 193 200 167
193 200 167 193 200 167 193 200 167 193 200 167 193 200 167
193 200 167 193 200 167 193 200 167 193 200 167 193 200 167
193 200 167 193 200 167 193 200 167 193 200 167 193 200 167
193 200 167 193 200 167 193 200 167 193 200 167 193 200 167
193 200 167 193 200 167 193 200 167 193 200 167 193 200 167
193 200 167 193 200 167 194 201 168 192 199 165 192 198 164
192 196 161 192 196 161 192 196 161 192 196 161 191 197 163
192 196 161 192 196 161 192 196 161 192 196 161 192 196 161
192 196 161 192 196 161 192 196 161 192 196 161 192 196 161
192 196 161 192 196 161 192 196 161 192 196 161 192 196 161
192 196 161 192 196 161 192 196 161 192 196 161 192 196 161
192 196 161 192 196 161 192 196 161 192 196 161 185 180 124
185 180 124 185 180 124 185 180 124 185 180 124 185 180 124
185 180 124 185 180 124 185 180 124 185 180 124 185 180 124
185 180 124 185 180 124 185 180 124 185 180 124 185 180 124
183 178 123 186 181 125 185 180 124 186 179 124 186 181 125
183 178 123 181 178 123 185 184 130 190 190 140 190 190 140
190 190 140 190 190 140 190 190 140 190 190 140 190 190 140
190 190 140 190 190 140 190 190 140 190 190 140 190 190 140
190 190 140 190 190 140 190 190 140 190 190 140 190 190 140
190 190 140 190 190 140 190 190 140 190 190 140 190 190 140
190 190 140 190 190 140 186 189 136 189 191 142 193 194 150
194 196 156 191 196 155 190 195 154 190 197 153 190 198 151
191 197 153 191 197 153 191 197 153 191 197 153 191 197 153
191 197 153 191 197 153 191 197 153 191 197 153 191 197 153
191 197 153 191 197 153 191 197 153 191 197 153 191 197 153
191 197 153 191 197 153 191 197 151 191 197 151 191 197 153
192 198 160 192 198 164 192 198 164 192 198 160 192 198 162
192 198 162 192 198 162 192 198 162 192 198 162 192 198 162
192 198 162 192 198 162 192 198 162 192 198 162 192 198 162
192 198 162 192 198 162 192 198 162 192 198 162 192 198 162
192 198 162 192 198 162 192 198 162 192 198 162 192 198 162
192 198 162 192 198 162 192 198 162 192 198 162 192 198 162
192 198 162 191 198 164 191 198 164 191 198 164 191 198 164
191 198 165 191 198 164 191 198 164 191 198 164 191 198 164
191 198 164 191 198 164 191 198 164 191 198 164 191 198 164
191 198 164 191 198 164 191 198 164 191 198 164 191 198 164
191 198 164 191 198 164 191 198 164 191 198 164 191 198 164
191 198 164 191 198 164 191 198 164 191 198 164 192 199 165
193 200 167 193 200 167 193 200 167 193 200 167 193 200 167
193 200 167 193 200 167 193 200 167 193 200 167 193 200 167
193 200 167 193 200 167 193 200 167 193 200 167 193 200 167
193 200 167 193 200 167 193 200 167 193 200 167 193 200 167
193 200 167 193 200 167 193 200 167 193 200 167 193 200 167
193 200 167 193 200 167 193 200 167 191 200 169 192 201 170
192 201 170 192 201 170 192 201 170 192 201 170 192 201 170
192 201 170 192 201 170 192 201 170 192 201 170 192 201 170
192 201 170 192 201 170 192 201 170 192 201 170 192 201 170
192 201 170 192 201 170 192 201 170 192 201 170 192 201 170
192 201 170 192 201 170 192 201 170 192 201 170 192 201 170
192 201 170 192 201 170 192 201 170 192 201 170 191 200 169
193 200 167 193 200 167 193 200 167 193 200 167 193 200 167
193 200 167 193 200 167 193 200 167 193 200 167 193 200 167
193 200 167 193 200 167 193 200 167 193 200 167 193 200 167
193 200 167 193 200 167 193 200 167 193 200 167 193 200 167
193 200 167 193 200 167 193 200 167 193 200 167 193 200 167
193 200 167 193 200 167 193 200 167 194 201 168 192 199 165
192 198 164 192 196 161 192 196 161 192 196 161 192 196 161
191 197 163 192 196 161 192 196 161 192 196 161 192 196 161
192 196 161 192 196 161 192 196 161 192 196 161 192 196 161
192 196 161 192 196 161 192 196 161 192 196 161 192 196 161
192 196 161 192 196 161 192 196 161 192 196 161 192 196 161
192 196 161 192 196 161 192 196 161 192 196 161 192 196 161
185 180 124 185 180 124 185 180 124 185 180 124 185 180 124
185 180 124 185 180 124 185 180 124 185 180 124 185 180 124
185 180 124 185 180 124 185 180 124 185 180 124 185 180 124
185 180 124 187 182 124 185 180 122 185 180 122 186 181 123
185 180 124 181 178 123 185 182 129 192 189 138 190 190 140
188 188 138 188 188 138 191 191 141 191 191 141 190 190 140
189 189 139 190 190 140 190 190 140 190 190 140 190 190 140
190 190 140 190 190 140 190 190 140 190 190 140 190 190 140
190 190 140 190 190 140 190 190 140 190 190 140 190 190 140
190 190 140 190 190 140 190 190 140 190 190 140 190 192 143
191 194 147 191 197 151 192 198 154 191 197 153 191 197 153
191 197 153 191 197 153 191 197 153 191 197 153 191 197 153
191 197 153 191 197 153 191 197 153 191 197 153 191 197 153
191 197 153 191 197 153 191 197 153 191 197 153 191 197 153
191 197 153 191 197 153 191 197 153 191 196 155 192 197 157
192 196 159 192 198 162 192 198 162 192 198 162 192 198 162
192 198 162 192 198 162 192 198 162 192 198 162 192 198 162
192 198 162 192 198 162 192 198 162 192 198 162 192 198 162
192 198 162 192 198 162 192 198 162 192 198 162 192 198 162
192 198 162 192 198 162 192 198 162 192 198 162 192 198 162
192 198 162 192 198 162 192 198 162 192 198 162 191 198 164
191 198 164 191 198 164 191 198 164 191 198 164 191 198 164
191 198 164 191 198 164 191 198 164 191 198 164 191 198 164
191 198 164 191 198 164 191 198 164 191 198 164 191 198 164
191 198 164 191 198 164 191 198 164 191 198 164 191 198 164
191 198 164 191 198 164 191 198 164 191 198 164 191 198 164
191 198 164 191 198 164 191 198 164 191 198 164 191 198 164
191 198 164 193 200 167 193 200 167 193 200 167 193 200 167
193 200 167 193 200 167 193 200 167 193 200 167 193 200 167
193 200 167 193 200 167 193 200 167 193 200 167 193 200 167
193 200 167 193 200 167 193 200 167 193 200 167 193 200 167
193 200 167 193 200 167 193 200 167 193 200 167 193 200 167
193 200 167 193 200 167 193 200 167 193 200 167 191 200 169
191 200 169 192 201 170 192 201 170 192 201 170 192 201 170
192 201 170 192 201 170 192 201 170 192 201 170 192 201 170
192 201 170 192 201 170 192 201 170 192 201 170 192 201 170
192 201 170 192 201 170 192 201 170 192 201 170 192 201 170
192 201 170 192 201 170 192 201 170 192 201 170 192 201 170
192 201 170 192 201 170 194 201 168 193 200 167 193 200 167
193 200 167 193 200 167 193 200 167 193 200 167 193 200 167
193 200 167 193 200 167 193 200 167 193 200 167 193 200 167
193 200 167 193 200 167 193 200 167 193 200 167 193 200 167
193 200 167 193 200 167 193 200 167 193 200 167 193 200 167
193 200 167 193 200 167 193 200 167 193 200 167 193 200 167
193 200 167 193 200 167 193 200 167 193 200 167 193 200 167
193 199 165 193 197 162 192 196 159 194 196 159 192 196 159
192 196 161 191 195 160 192 196 161 192 196 161 192 196 161
192 196 161 192 196 161 192 196 161 192 196 161 192 196 161
192 196 161 192 196 161 192 196 161 192 196 161 192 196 161
192 196 161 192 196 161 192 196 161 192 196 161 192 196 161
192 196 161 192 196 161 192 196 161 192 196 161 192 196 161
192 196 161 185 180 124 185 180 124 185 180 124 185 180 124
185 180 124 185 180 124 185 180 124 185 180 124 185 180 124
185 180 124 185 180 124 185 180 124 185 180 124 185 180 124
185 180 124 185 180 124 186 181 123 184 179 121 184 179 121
186 181 123 185 180 124 181 178 123 185 182 129 192 189 136
191 191 141 189 189 139 189 189 139 191 191 141 191 191 141
190 190 140 189 189 139 191 191 141 190 190 140 190 190 140
190 190 140 190 190 140 190 190 140 190 190 140 190 190 140
190 190 140 190 190 140 190 190 140 190 190 140 190 190 140
190 190 140 190 190 140 190 190 140 190 190 140 190 190 140
190 192 143 191 194 147 191 197 151 192 198 154 191 197 153
191 197 153 191 197 153 191 197 153 191 197 153 191 197 153
191 197 153 191 197 153 191 197 153 191 197 153 191 197 153
191 197 153 191 197 153 191 197 153 191 197 153 191 197 153
191 197 153 191 197 153 191 197 153 191 197 153 191 196 155
192 197 157 192 196 159 192 198 162 192 198 162 192 198 162
192 198 162 192 198 162 192 198 162 192 198 162 192 198 162
192 198 162 192 198 162 192 198 162 192 198 162 192 198 162
192 198 162 192 198 162 192 198 162 192 198 162 192 198 162
192 198 162 192 198 162 192 198 162 192 198 162 192 198 162
192 198 162 192 198 162 192 198 162 192 198 162 192 198 162
191 198 164 191 198 164 191 198 164 191 198 164 191 198 164
191 198 164 191 198 164 191 198 164 191 198 164 191 198 164
191 198 164 191 198 164 191 198 164 191 198 164 191 198 164
191 198 164 191 198 164 191 198 164 191 198 164 191 198 164
191 198 164 191 198 164 191 198 164 191 198 164 191 198 164
191 198 164 191 198 164 191 198 164 191 198 164 191 198 164
191 198 164 191 198 164 193 200 167 193 200 167 193 200 167
193 200 167 193 200 167 193 200 167 193 200 167 193 200 167
193 200 167 193 200 167 193 200 167 193 200 167 193 200 167
193 200 167 193 200 167 193 200 167 193 200 167 193 200 167
193 200 167 193 200 167 193 200 167 193 200 167 193 200 167
193 200 167 193 200 167 193 200 167 193 200 167 193 200 167
191 200 169 191 200 169 192 201 170 192 201 170 192 201 170
192 201 170 192 201 170 192 201 170 192 201 170 192 201 170
192 201 170 192 201 170 192 201 170 192 201 170 192 201 170
192 201 170 192 201 170 192 201 170 192 201 170 192 201 170
192 201 170 192 201 170 192 201 170 192 201 170 192 201 170
192 201 170 192 201 170 192 201 170 194 201 168 193 200 167
193 200 167 193 200 167 193 200 167 193 200 167 193 200 167
193 200 167 193 200 167 193 200 167 193 200 167 193 200 167
193 200 167 193 200 167 193 200 167 193 200 167 193 200 167
193 200 167 193 200 167 193 200 167 193 200 167 193 200 167
193 200 167 193 200 167 193 200 167 193 200 167 193 200 167
193 200 167 193 200 167 193 200 167 193 200 167 193 200 167
193 200 167 193 199 165 193 197 162 192 196 159 194 196 159
192 196 159 192 196 161 191 195 160 192 196 161 192 196 161
192 196 161 192 196 161 192 196 161 192 196 161 192 196 161
192 196 161 192 196 161 192 196 161 192 196 161 192 196 161
192 196 161 192 196 161 192 196 161 192 196 161 192 196 161
192 196 161 192 196 161 192 196 161 192 196 161 192 196 161
192 196 161 192 196 161 185 180 124 185 180 124 185 180 124
185 180 124 185 180 124 185 180 124 185 180 124 185 180 124
185 180 124 185 180 124 185 180 124 185 180 124 185 180 124
185 180 124 185 180 124 185 180 124 185 180 124 184 179 121
184 179 121 186 181 123 185 180 124 182 180 123 186 183 130
191 188 135 191 191 141 190 190 140 190 190 140 190 190 140
190 190 140 190 190 140 190 190 140 191 191 141 190 190 140
190 190 140 190 190 140 190 190 140 190 190 140 190 190 140
190 190 140 190 190 140 190 190 140 190 190 140 190 190 140
190 190 140 190 190 140 190 190 140 190 190 140 190 190 140
190 190 140 190 192 143 191 194 147 191 197 151 191 197 153
191 197 153 191 197 153 191 197 153 191 197 153 191 197 153
191 197 153 191 197 153 191 197 153 191 197 153 191 197 153
191 197 153 191 197 153 191 197 153 191 197 153 191 197 153
191 197 153 191 197 153 191 197 153 191 197 153 191 197 153
191 196 155 192 197 157 192 196 159 192 198 162 192 198 162
192 198 162 192 198 162 192 198 162 192 198 162 192 198 162
192 198 162 192 198 162 192 198 162 192 198 162 192 198 162
192 198 162 192 198 162 192 198 162 192 198 162 192 198 162
192 198 162 192 198 162 192 198 162 192 198 162 192 198 162
192 198 162 192 198 162 192 198 162 192 198 162 192 198 162
192 198 162 191 198 164 191 198 164 191 198 164 191 198 164
191 198 164 191 198 164 191 198 164 191 198 164 191 198 164
191 198 164 191 198 164 191 198 164 191 198 164 191 198 164
191 198 164 191 198 164 191 198 164 191 198 164 191 198 164
191 198 164 191 198 164 191 198 164 191 198 164 191 198 164
191 198 164 191 198 164 191 198 164 191 198 164 191 198 164
191 198 164 191 198 164 191 198 164 193 200 167 193 200 167
193 200 167 193 200 167 193 200 167 193 200 167 193 200 167
193 200 167 193 200 167 193 200 167 193 200 167 193 200 167
193 200 167 193 200 167 193 200 167 193 200 167 193 200 167
193 200 167 193 200 167 193 200 167 193 200 167 193 200 167
193 200 167 193 200 167 193 200 167 193 200 167 193 200 167
193 200 167 191 200 169 191 200 169 192 201 170 192 201 170
192 201 170 192 201 170 192 201 170 192 201 170 192 201 170
192 201 170 192 201 170 192 201 170 192 201 170 192 201 170
192 201 170 192 201 170 192 201 170 192 201 170 192 201 170
192 201 170 192 201 170 192 201 170 192 201 170 192 201 170
192 201 170 192 201 170 192 201 170 192 201 170 194 201 168
193 200 167 193 200 167 193 200 167 193 200 167 193 200 167
193 200 167 193 200 167 193 200 167 193 200 167 193 200 167
193 200 167 193 200 167 193 200 167 193 200 167 193 200 167
193 200 167 193 200 167 193 200 167 193 200 167 193 200 167
193 200 167 193 200 167 193 200 167 193 200 167 193 200 167
193 200 167 193 200 167 193 200 167 193 200 167 193 200 167
193 200 167 193 200 167 193 199 165 193 197 162 192 196 159
194 196 159 192 196 159 192 196 161 191 195 160 192 196 161
192 196 161 192 196 161 192 196 161 192 196 161 192 196 161
192 196 161 192 196 161 192 196 161 192 196 161 192 196 161
192 196 161 192 196 161 192 196 161 192 196 161 192 196 161
192 196 161 192 196 161 192 196 161 192 196 161 192 196 161
192 196 161 192 196 161 192 196 161 185 180 124 185 180 124
185 180 124 185 180 124 185 180 124 185 180 124 185 180 124
185 180 124 185 180 124 185 180 124 185 180 124 185 180 124
185 180 124 185 180 124 185 180 124 185 180 124 185 180 124
184 179 123 185 180 122 186 181 123 185 180 122 182 180 123
185 182 127 189 186 133 191 191 141 191 191 141 191 191 141
190 190 140 190 190 140 190 190 140 190 190 140 191 191 141
190 190 140 190 190 140 190 190 140 190 190 140 190 190 140
190 190 140 190 190 140 190 190 140 190 190 140 190 190 140
190 190 140 190 190 140 190 190 140 190 190 140 190 190 140
190 190 140 190 190 140 190 192 143 191 194 147 191 197 151
191 197 153 191 197 153 191 197 153 191 197 153 191 197 153
191 197 153 191 197 153 191 197 153 191 197 153 191 197 153
191 197 153 191 197 153 191 197 153 191 197 153 191 197 153
191 197 153 191 197 153 191 197 153 191 197 153 191 197 153
191 197 153 191 196 155 192 197 157 192 196 159 192 198 162
192 198 162 192 198 162 192 198 162 192 198 162 192 198 162
192 198 162 192 198 162 192 198 162 192 198 162 192 198 162
192 198 162 192 198 162 192 198 162 192 198 162 192 198 162
192 198 162 192 198 162 192 198 162 192 198 162 192 198 162
192 198 162 192 198 162 192 198 162 192 198 162 192 198 162
192 198 162 192 198 162 191 198 164 191 198 164 191 198 164
191 198 164 191 198 164 191 198 164 191 198 164 191 198 164
191 198 164 191 198 164 191 198 164 191 198 164 191 198 164
191 198 164 191 198 164 191 198 164 191 198 164 191 198 164
191 198 164 191 198 164 191 198 164 191 198 164 191 198 164
191 198 164 191 198 164 191 198 164 191 198 164 191 198 164
191 198 164 191 198 164 191 198 164 191 198 164 192 199 166
193 200 167 193 200 167 193 200 167 193 200 167 193 200 167
193 200 167 193 200 167 193 200 167 193 200 167 193 200 167
193 200 167 193 200 167 193 200 167 193 200 167 193 200 167
193 200 167 193 200 167 193 200 167 193 200 167 193 200 167
193 200 167 193 200 167 193 200 167 193 200 167 193 200 167
193 200 167 193 200 167 191 200 169 191 200 169 192 201 170
192 201 170 192 201 170 192 201 170 192 201 170 192 201 170
192 201 170 192 201 170 192 201 170 192 201 170 192 201 170
192 201 170 192 201 170 192 201 170 192 201 170 192 201 170
192 201 170 192 201 170 192 201 170 192 201 170 192 201 170
192 201 170 192 201 170 192 201 170 192 201 170 192 201 170
194 201 168 193 200 167 193 200 167 193 200 167 193 200 167
193 200 167 193 200 167 193 200 167 193 200 167 193 200 167
193 200 167 193 200 167 193 200 167 193 200 167 193 200 167
193 200 167 193 200 167 193 200 167 193 200 167 193 200 167
193 200 167 193 200 167 193 200 167 193 200 167 193 200 167
193 200 167 193 200 167 193 200 167 193 200 167 193 200 167
193 200 167 193 200 167 193 200 167 193 199 165 192 196 161
192 196 159 194 196 159 192 196 159 192 196 161 192 196 161
192 196 161 192 196 161 192 196 161 192 196 161 192 196 161
192 196 161 192 196 161 192 196 161 192 196 161 192 196 161
192 196 161 192 196 161 192 196 161 192 196 161 192 196 161
192 196 161 192 196 161 192 196 161 192 196 161 192 196 161
192 196 161 192 196 161 192 196 161 192 196 161 185 180 124
185 180 124 185 180 124 185 180 124 185 180 124 185 180 124
185 180 124 185 180 124 185 180 124 185 180 124 185 180 124
185 180 124 185 180 124 185 180 124 185 180 124 185 180 124
186 181 125 185 180 124 185 180 122 186 181 123 185 180 122
182 180 123 183 180 125 186 183 128 189 189 139 190 190 140
191 191 141 190 190 140 190 190 140 190 190 140 191 191 141
191 191 141 190 190 140 190 190 140 190 190 140 190 190 140
190 190 140 190 190 140 190 190 140 190 190 140 190 190 140
190 190 140 190 190 140 190 190 140 190 190 140 190 190 140
190 190 140 190 190 140 189 189 139 189 191 142 191 194 147
191 197 151 191 197 153 191 197 153 191 197 153 191 197 153
191 197 153 191 197 153 191 197 153 191 197 153 191 197 153
191 197 153 191 197 153 191 197 153 191 197 153 191 197 153
191 197 153 191 197 153 191 197 153 191 197 153 191 197 153
191 197 153 191 197 153 191 196 155 192 197 157 192 196 159
192 198 162 192 198 162 192 198 162 192 198 162 192 198 162
192 198 162 192 198 162 192 198 162 192 198 162 192 198 162
192 198 162 192 198 162 192 198 162 192 198 162 192 198 162
192 198 162 192 198 162 192 198 162 192 198 162 192 198 162
192 198 162 192 198 162 192 198 162 192 198 162 192 198 162
192 198 162 192 198 162 192 198 162 191 198 164 191 198 164
191 198 164 191 198 164 191 198 164 191 198 164 191 198 164
191 198 164 191 198 164 191 198 164 191 198 164 191 198 164
191 198 164 191 198 164 191 198 164 191 198 164 191 198 164
191 198 164 191 198 164 191 198 164 191 198 164 191 198 164
191 198 164 191 198 164 191 198 164 191 198 164 191 198 164
191 198 164 191 198 164 191 198 164 191 198 164 191 198 164
192 199 166 192 199 166 193 200 167 193 200 167 193 200 167
193 200 167 193 200 167 193 200 167 193 200 167 193 200 167
193 200 167 193 200 167 193 200 167 193 200 167 193 200 167
193 200 167 193 200 167 193 200 167 193 200 167 193 200 167
193 200 167 193 200 167 193 200 167 193 200 167 193 200 167
193 200 167 193 200 167 193 200 167 191 200 169 191 200 169
192 201 170 192 201 170 192 201 170 192 201 170 192 201 170
192 201 170 192 201 170 192 201 170 192 201 170 192 201 170
192 201 170 192 201 170 192 201 170 192 201 170 192 201 170
192 201 170 192 201 170 192 201 170 192 201 170 192 201 170
192 201 170 192 201 170 192 201 170 192 201 170 192 201 170
192 201 170 194 201 168 193 200 167 193 200 167 193 200 167
193 200 167 193 200 167 193 200 167 193 200 167 193 200 167
193 200 167 193 200 167 193 200 167 193 200 167 193 200 167
193 200 167 193 200 167 193 200 167 193 200 167 193 200 167
193 200 167 193 200 167 193 200 167 193 200 167 193 200 167
193 200 167 193 200 167 193 200 167 193 200 167 193 200 167
193 200 167 193 200 167 193 200 167 192 199 166 192 198 164
192 196 161 192 196 159 194 196 159 192 196 159 192 196 161
192 196 161 192 196 161 192 196 161 192 196 161 192 196 161
192 196 161 192 196 161 192 196 161 192 196 161 192 196 161
192 196 161 192 196 161 192 196 161 192 196 161 192 196 161
192 196 161 192 196 161 192 196 161 192 196 161 192 196 161
192 196 161 192 196 161 192 196 161 192 196 161 192 196 161
185 180 124 185 180 124 185 180 124 185 180 124 185 180 124
185 180 124 185 180 124 185 180 124 185 180 124 185 180 124
185 180 124 185 180 124 185 180 124 185 180 124 185 180 124
185 180 124 186 181 126 186 181 125 186 181 125 186 181 123
185 180 122 182 180 123 183 180 125 183 180 125 187 187 137
190 190 140 191 191 141 190 190 140 189 189 139 190 190 140
191 191 141 191 191 141 190 190 140 190 190 140 190 190 140
190 190 140 190 190 140 190 190 140 190 190 140 190 190 140
190 190 140 190 190 140 190 190 140 190 190 140 190 190 140
190 190 140 190 190 140 190 190 140 189 189 139 189 191 142
191 194 147 191 197 151 191 197 153 191 197 153 191 197 153
191 197 153 191 197 153 191 197 153 191 197 153 191 197 153
191 197 153 191 197 153 191 197 153 191 197 153 191 197 153
191 197 153 191 197 153 191 197 153 191 197 153 191 197 153
191 197 153 191 197 153 191 197 153 191 196 155 192 197 157
192 196 159 192 198 162 192 198 162 192 198 162 192 198 162
192 198 162 192 198 162 192 198 162 192 198 162 192 198 162
192 198 162 192 198 162 192 198 162 192 198 162 192 198 162
192 198 162 192 198 162 192 198 162 192 198 162 192 198 162
192 198 162 192 198 162 192 198 162 192 198 162 192 198 162
192 198 162 192 198 162 192 198 162 192 198 162 191 198 164
191 198 164 191 198 164 191 198 164 191 198 164 191 198 164
191 198 164 191 198 164 191 198 164 191 198 164 191 198 164
191 198 164 191 198 164 191 198 164 191 198 164 191 198 164
191 198 164 191 198 164 191 198 164 191 198 164 191 198 164
191 198 164 191 198 164 191 198 164 191 198 164 191 198 164
191 198 164 191 198 164 191 198 164 191 198 164 191 198 164
191 198 164 192 199 166 192 199 166 193 200 167 193 200 167
193 200 167 193 200 167 193 200 167 193 200 167 193 200 167
193 200 167 193 200 167 193 200 167 193 200 167 193 200 167
193 200 167 193 200 167 193 200 167 193 200 167 193 200 167
193 200 167 193 200 167 193 200 167 193 200 167 193 200 167
193 200 167 193 200 167 193 200 167 193 200 167 191 200 169
191 200 169 192 201 170 192 201 170 192 201 170 192 201 170
192 201 170 192 201 170 192 201 170 192 201 170 192 201 170
192 201 170 192 201 170 192 201 170 192 201 170 192 201 170
192 201 170 192 201 170 192 201 170 192 201 170 192 201 170
192 201 170 192 201 170 192 201 170 192 201 170 192 201 170
192 201 170 192 201 170 194 201 168 193 200 167 193 200 167
193 200 167 193 200 167 193 200 167 193 200 167 193 200 167
193 200 167 193 200 167 193 200 167 193 200 167 193 200 167
193 200 167 193 200 167 193 200 167 193 200 167 193 200 167
193 200 167 193 200 167 193 200 167 193 200 167 193 200 167
193 200 167 193 200 167 193 200 167 193 200 167 193 200 167
193 200 167 193 200 167 193 200 167 193 200 167 192 199 166
192 198 164 192 196 161 191 195 158 194 196 159 192 196 159
192 196 161 192 196 161 192 196 161 192 196 161 192 196 161
192 196 161 192 196 161 192 196 161 192 196 161 192 196 161
192 196 161 192 196 161 192 196 161 192 196 161 192 196 161
192 196 161 192 196 161 192 196 161 192 196 161 192 196 161
192 196 161 192 196 161 192 196 161 192 196 161 192 196 161
192 196 161 185 180 124 185 180 124 185 180 124 185 180 124
185 180 124 185 180 124 185 180 124 185 180 124 185 180 124
185 180 124 185 180 124 185 180 124 185 180 124 185 180 124
185 180 124 185 180 124 185 180 125 185 180 125 186 181 125
185 180 122 185 180 122 183 181 124 183 181 124 183 180 125
185 185 135 188 188 138 191 191 141 190 190 140 189 189 139
190 190 140 191 191 141 190 190 140 190 190 140 190 190 140
190 190 140 190 190 140 190 190 140 190 190 140 190 190 140
190 190 140 190 190 140 190 190 140 190 190 140 190 190 140
190 190 140 190 190 140 190 190 140 190 190 140 189 189 139
189 191 142 191 194 147 190 196 150 191 197 153 191 197 153
191 197 153 191 197 153 191 197 153 191 197 153 191 197 153
191 197 153 191 197 153 191 197 153 191 197 153 191 197 153
191 197 153 191 197 153 191 197 153 191 197 153 191 197 153
191 197 153 191 197 153 191 197 153 191 197 153 191 196 155
192 197 157 192 196 159 192 198 162 192 198 162 192 198 162
192 198 162 192 198 162 192 198 162 192 198 162 192 198 162
192 198 162 192 198 162 192 198 162 192 198 162 192 198 162
192 198 162 192 198 162 192 198 162 192 198 162 192 198 162
192 198 162 192 198 162 192 198 162 192 198 162 192 198 162
192 198 162 192 198 162 192 198 162 192 198 162 192 198 162
191 198 164 191 198 164 191 198 164 191 198 164 191 198 164
191 198 164 191 198 164 191 198 164 191 198 164 191 198 164
191 198 164 191 198 164 191 198 164 191 198 164 191 198 164
191 198 164 191 198 164 191 198 164 191 198 164 191 198 164
191 198 164 191 198 164 191 198 164 191 198 164 191 198 164
191 198 164 191 198 164 191 198 164 191 198 164 191 198 164
191 198 164 191 198 164 192 199 166 192 199 166 193 200 167
193 200 167 193 200 167 194 201 168 193 200 167 193 200 167
193 200 167 193 200 167 193 200 167 193 200 167 193 200 167
193 200 167 193 200 167 193 200 167 193 200 167 193 200 167
193 200 167 193 200 167 193 200 167 193 200 167 193 200 167
193 200 167 193 200 167 193 200 167 193 200 167 193 200 167
191 200 169 191 200 169 192 201 170 192 201 170 192 201 170
192 201 170 192 201 170 192 201 170 192 201 170 192 201 170
192 201 170 192 201 170 192 201 170 192 201 170 192 201 170
192 201 170 192 201 170 192 201 170 192 201 170 192 201 170
192 201 170 192 201 170 192 201 170 192 201 170 192 201 170
192 201 170 192 201 170 192 201 170 194 201 168 193 200 167
193 200 167 193 200 167 193 200 167 193 200 167 193 200 167
193 200 167 193 200 167 193 200 167 193 200 167 193 200 167
193 200 167 193 200 167 193 200 167 193 200 167 193 200 167
193 200 167 193 200 167 193 200 167 193 200 167 193 200 167
193 200 167 193 200 167 193 200 167 193 200 167 193 200 167
193 200 167 193 200 167 193 200 167 193 200 167 193 200 167
192 199 166 192 198 164 192 196 161 191 195 158 194 196 159
192 196 159 192 196 161 192 196 161 192 196 161 192 196 161
192 196 161 192 196 161 192 196 161 192 196 161 192 196 161
192 196 161 192 196 161 192 196 161 192 196 161 192 196 161
192 196 161 192 196 161 192 196 161 192 196 161 192 196 161
192 196 161 192 196 161 192 196 161 192 196 161 192 196 161
192 196 161 192 196 161 185 180 124 185 180 124 185 180 124
185 180 124 185 180 124 185 180 124 185 180 124 185 180 124
185 180 124 185 180 124 185 180 124 185 180 124 185 180 124
185 180 124 185 180 124 185 180 124 184 179 124 185 180 125
185 180 124 185 180 122 185 180 122 183 181 124 183 181 124
183 180 125 183 183 133 188 188 138 191 191 141 190 190 140
189 189 139 190 190 140 191 191 141 190 190 140 190 190 140
190 190 140 190 190 140 190 190 140 190 190 140 190 190 140
190 190 140 190 190 140 190 190 140 190 190 140 190 190 140
190 190 140 190 190 140 190 190 140 190 190 140 190 190 140
189 189 139 189 191 142 191 194 147 190 196 150 191 197 153
191 197 153 191 197 153 191 197 153 191 197 153 191 197 153
191 197 153 191 197 153 191 197 153 191 197 153 191 197 153
191 197 153 191 197 153 191 197 153 191 197 153 191 197 153
191 197 153 191 197 153 191 197 153 191 197 153 191 197 153
191 196 155 192 197 157 192 196 159 192 198 162 192 198 162
192 198 162 192 198 162 192 198 162 192 198 162 192 198 162
192 198 162 192 198 162 192 198 162 192 198 162 192 198 162
192 198 162 192 198 162 192 198 162 192 198 162 192 198 162
192 198 162 192 198 162 192 198 162 192 198 162 192 198 162
192 198 162 192 198 162 192 198 162 192 198 162 192 198 162
192 198 162 191 198 164 191 198 164 191 198 164 191 198 164
191 198 164 191 198 164 191 198 164 191 198 164 191 198 164
191 198 164 191 198 164 191 198 164 191 198 164 191 198 164
191 198 164 191 198 164 191 198 164 191 198 164 191 198 164
191 198 164 191 198 164 191 198 164 191 198 164 191 198 164
191 198 164 191 198 164 191 198 164 191 198 164 191 198 164
191 198 164 191 198 164 191 198 164 192 199 166 192 199 166
193 200 167 193 200 167 193 200 167 194 201 168 194 201 168
193 200 167 193 200 167 193 200 167 193 200 167 193 200 167
193 200 167 193 200 167 193 200 167 193 200 167 193 200 167
193 200 167 193 200 167 193 200 167 193 200 167 193 200 167
193 200 167 193 200 167 193 200 167 193 200 167 193 200 167
193 200 167 191 200 169 191 200 169 192 201 170 192 201 170
192 201 170 192 201 170 192 201 170 192 201 170 192 201 170
192 201 170 192 201 170 192 201 170 192 201 170 192 201 170
192 201 170 192 201 170 192 201 170 192 201 170 192 201 170
192 201 170 192 201 170 192 201 170 192 201 170 192 201 170
192 201 170 192 201 170 192 201 170 192 201 170 194 201 168
193 200 167 193 200 167 193 200 167 193 200 167 193 200 167
193 200 167 193 200 167 193 200 167 193 200 167 193 200 167
193 200 167 193 200 167 193 200 167 193 200 167 193 200 167
193 200 167 193 200 167 193 200 167 193 200 167 193 200 167
193 200 167 193 200 167 193 200 167 193 200 167 193 200 167
193 200 167 193 200 167 193 200 167 193 200 167 193 200 167
193 200 167 192 199 166 192 198 164 192 196 161 191 195 158
194 196 159 192 196 159 192 196 161 192 196 161 192 196 161
192 196 161 192 196 161 192 196 161 192 196 161 192 196 161
192 196 161 192 196 161 192 196 161 192 196 161 192 196 161
192 196 161 192 196 161 192 196 161 192 196 161 192 196 161
192 196 161 192 196 161 192 196 161 192 196 161 192 196 161
192 196 161 192 196 161 192 196 161 185 180 124 185 180 124
185 180 124 185 180 124 185 180 124 185 180 124 185 180 124
185 180 124 185 180 124 185 180 124 185 180 124 185 180 124
185 180 124 185 180 124 185 180 124 185 180 124 185 180 124
185 180 124 185 180 124 185 180 124 185 180 124 185 180 124
185 180 124 185 180 124 186 180 128 190 187 134 192 190 139
189 189 139 187 189 139 189 191 141 192 192 140 190 190 138
190 190 140 190 190 140 190 190 140 190 190 140 190 190 140
190 190 140 190 190 140 190 190 140 190 190 140 190 190 140
190 190 140 190 190 140 190 190 140 190 190 140 190 190 140
190 190 140 192 190 139 189 189 139 191 190 144 194 195 151
195 197 157 192 197 156 191 196 155 191 197 153 191 197 153
191 197 153 191 197 153 191 197 153 191 197 153 191 197 153
191 197 153 191 197 153 191 197 153 191 197 153 191 197 153
191 197 153 191 197 153 191 197 153 191 197 153 191 197 153
191 197 153 191 196 155 192 197 157 193 197 160 192 198 162
192 198 164 192 198 162 192 198 162 192 198 162 192 198 162
192 198 162 192 198 162 192 198 162 192 198 162 192 198 162
192 198 162 192 198 162 192 198 162 192 198 162 192 198 162
192 198 162 192 198 162 192 198 162 192 198 162 192 198 162
192 198 162 192 198 162 192 198 162 192 198 162 192 198 162
192 198 162 192 198 162 191 198 164 191 198 164 191 198 164
191 198 164 191 198 164 191 198 164 191 198 164 191 198 164
191 198 164 191 198 164 191 198 164 191 198 164 191 198 164
191 198 164 191 198 164 191 198 164 191 198 164 191 198 164
191 198 164 191 198 164 191 198 164 191 198 164 191 198 164
191 198 164 191 198 164 191 198 164 191 198 164 191 198 164
191 198 164 191 198 164 191 198 164 191 198 164 191 198 164
192 199 165 193 200 166 193 200 166 193 200 167 193 200 167
193 200 167 193 200 167 193 200 167 193 200 167 193 200 167
193 200 167 193 200 167 193 200 167 193 200 167 193 200 167
193 200 167 193 200 167 193 200 167 193 200 167 193 200 167
193 200 167 193 200 167 193 200 167 194 199 167 193 200 167
193 200 167 193 200 167 193 200 169 191 200 169 192 201 170
192 201 170 192 201 170 192 201 170 192 201 170 192 201 170
192 201 170 192 201 170 192 201 170 192 201 170 192 201 170
192 201 170 192 201 170 192 201 170 192 201 170 192 201 170
192 201 170 192 201 170 192 201 170 192 201 170 192 201 170
192 201 170 192 201 170 192 201 170 192 201 170 192 201 170
193 200 167 193 200 167 193 200 167 193 200 167 193 200 167
193 200 167 193 200 167 193 200 167 193 200 167 193 200 167
193 200 167 193 200 167 193 200 167 193 200 167 193 200 167
193 200 167 193 200 167 193 200 167 193 200 167 193 200 167
193 200 167 193 200 167 193 200 167 193 200 167 193 200 167
193 200 167 193 200 167 193 200 167 193 200 167 193 200 167
193 200 167 193 200 167 193 200 167 192 198 164 191 195 160
192 196 159 195 197 160 192 196 159 192 196 161 193 197 162
192 196 161 192 196 161 192 196 161 192 196 161 192 196 161
192 196 161 192 196 161 192 196 161 192 196 161 192 196 161
192 196 161 192 196 161 192 196 161 192 196 161 192 196 161
192 196 161 192 196 161 192 196 161 192 196 161 192 196 161
192 196 161 192 196 161 192 196 161 192 196 161 185 180 124
185 180 124 185 180 124 185 180 124 185 180 124 185 180 124
185 180 124 185 180 124 185 180 124 185 180 124 185 180 124
185 180 124 185 180 124 185 180 124 185 180 124 185 180 124
185 180 124 185 180 124 185 180 124 185 180 124 185 180 124
185 180 124 185 180 124 185 180 124 186 180 128 190 187 134
192 190 139 190 190 140 187 189 139 189 191 141 191 191 139
189 189 137 190 190 140 190 190 140 190 190 140 190 190 140
190 190 140 190 190 140 190 190 140 190 190 140 190 190 140
190 190 140 190 190 140 190 190 140 190 190 140 190 190 140
190 190 140 190 190 140 192 190 139 189 189 139 190 189 143
192 193 149 194 197 154 192 197 156 191 196 155 192 197 156
191 197 153 191 197 153 191 197 153 191 197 153 191 197 153
191 197 153 191 197 153 191 197 153 191 197 153 191 197 153
191 197 153 191 197 153 191 197 153 191 197 153 191 197 153
191 197 153 191 197 153 191 196 155 192 197 157 193 197 160
192 198 162 192 198 164 192 198 162 192 198 162 192 198 162
192 198 162 192 198 162 192 198 162 192 198 162 192 198 162
192 198 162 192 198 162 192 198 162 192 198 162 192 198 162
192 198 162 192 198 162 192 198 162 192 198 162 192 198 162
192 198 162 192 198 162 192 198 162 192 198 162 192 198 162
192 198 162 192 198 162 192 198 162 191 198 164 191 198 164
191 198 164 191 198 164 191 198 164 191 198 164 191 198 164
191 198 164 191 198 164 191 198 164 191 198 164 191 198 164
191 198 164 191 198 164 191 198 164 191 198 164 191 198 164
191 198 164 191 198 164 191 198 164 191 198 164 191 198 164
191 198 164 191 198 164 191 198 164 191 198 164 191 198 164
191 198 164 191 198 164 191 198 164 191 198 164 191 198 164
191 198 164 192 199 165 193 200 166 193 200 166 193 200 167
193 200 167 193 200 167 193 200 167 193 200 167 193 200 167
193 200 167 193 200 167 193 200 167 193 200 167 193 200 167
193 200 167 193 200 167 193 200 167 193 200 167 193 200 167
193 200 167 193 200 167 193 200 167 193 200 167 194 199 167
193 200 167 193 200 167 193 200 167 193 200 169 191 200 169
192 201 170 192 201 170 192 201 170 192 201 170 192 201 170
192 201 170 192 201 170 192 201 170 192 201 170 192 201 170
192 201 170 192 201 170 192 201 170 192 201 170 192 201 170
192 201 170 192 201 170 192 201 170 192 201 170 192 201 170
192 201 170 192 201 170 192 201 170 192 201 170 192 201 170
192 201 170 193 200 167 193 200 167 193 200 167 193 200 167
193 200 167 193 200 167 193 200 167 193 200 167 193 200 167
193 200 167 193 200 167 193 200 167 193 200 167 193 200 167
193 200 167 193 200 167 193 200 167 193 200 167 193 200 167
193 200 167 193 200 167 193 200 167 193 200 167 193 200 167
193 200 167 193 200 167 193 200 167 193 200 167 193 200 167
193 200 167 193 200 167 193 200 167 193 200 167 192 198 164
191 195 160 192 196 159 195 197 160 192 196 159 192 196 161
193 197 162 192 196 161 192 196 161 192 196 161 192 196 161
192 196 161 192 196 161 192 196 161 192 196 161 192 196 161
192 196 161 192 196 161 192 196 161 192 196 161 192 196 161
192 196 161 192 196 161 192 196 161 192 196 161 192 196 161
192 196 161 192 196 161 192 196 161 192 196 161 192 196 161
185 180 124 185 180 124 185 180 124 185 180 124 185 180 124
185 180 124 185 180 124 185 180 124 185 180 124 185 180 124
185 180 124 185 180 124 185 180 124 185 180 124 185 180 124
185 180 124 185 180 124 185 180 124 185 180 124 185 180 124
185 180 124 185 180 124 185 180 124 185 180 124 187 182 127
190 187 134 192 190 139 190 190 140 187 189 139 188 190 140
190 190 138 189 189 137 190 190 140 190 190 140 190 190 140
190 190 140 190 190 140 190 190 140 190 190 140 190 190 140
190 190 140 190 190 140 190 190 140 190 190 140 190 190 140
190 190 140 190 190 140 190 190 140 192 190 139 189 189 139
189 188 140 190 191 147 192 195 152 191 197 153 191 196 155
192 197 156 191 197 153 191 197 153 191 197 153 191 197 153
191 197 153 191 197 153 191 197 153 191 197 153 191 197 153
191 197 153 191 197 153 191 197 153 191 197 153 191 197 153
191 197 153 191 197 153 191 197 153 191 196 155 192 197 157
193 197 160 192 198 162 192 198 164 192 198 162 192 198 162
192 198 162 192 198 162 192 198 162 192 198 162 192 198 162
192 198 162 192 198 162 192 198 162 192 198 162 192 198 162
192 198 162 192 198 162 192 198 162 192 198 162 192 198 162
192 198 162 192 198 162 192 198 162 192 198 162 192 198 162
192 198 162 192 198 162 192 198 162 192 198 162 191 198 164
191 198 164 191 198 164 191 198 164 191 198 164 191 198 164
191 198 164 191 198 164 191 198 164 191 198 164 191 198 164
191 198 164 191 198 164 191 198 164 191 198 164 191 198 164
191 198 164 191 198 164 191 198 164 191 198 164 191 198 164
191 198 164 191 198 164 191 198 164 191 198 164 191 198 164
191 198 164 191 198 164 191 198 164 191 198 164 191 198 164
191 198 164 191 198 164 192 199 165 193 200 166 193 200 166
193 200 167 193 200 167 193 200 167 193 200 167 193 200 167
193 200 167 193 200 167 193 200 167 193 200 167 193 200 167
193 200 167 193 200 167 193 200 167 193 200 167 193 200 167
193 200 167 193 200 167 193 200 167 193 200 167 193 200 167
194 199 167 193 200 167 193 200 167 193 200 167 193 200 169
191 200 169 192 201 170 192 201 170 192 201 170 192 201 170
192 201 170 192 201 170 192 201 170 192 201 170 192 201 170
192 201 170 192 201 170 192 201 170 192 201 170 192 201 170
192 201 170 192 201 170 192 201 170 192 201 170 192 201 170
192 201 170 192 201 170 192 201 170 192 201 170 192 201 170
192 201 170 192 201 170 193 200 167 193 200 167 193 200 167
193 200 167 193 200 167 193 200 167 193 200 167 193 200 167
193 200 167 193 200 167 193 200 167 193 200 167 193 200 167
193 200 167 193 200 167 193 200 167 193 200 167 193 200 167
193 200 167 193 200 167 193 200 167 193 200 167 193 200 167
193 200 167 193 200 167 193 200 167 193 200 167 193 200 167
193 200 167 193 200 167 193 200 167 193 200 167 193 200 167
192 198 164 191 195 160 192 196 159 195 197 160 192 196 159
192 196 161 193 197 162 192 196 161 192 196 161 192 196 161
192 196 161 192 196 161 192 196 161 192 196 161 192 196 161
192 196 161 192 196 161 192 196 161 192 196 161 192 196 161
192 196 161 192 196 161 192 196 161 192 196 161 192 196 161
192 196 161 192 196 161 192 196 161 192 196 161 192 196 161
192 196 161 185 180 124 185 180 124 185 180 124 185 180 124
185 180 124 185 180 124 185 180 124 185 180 124 185 180 124
185 180 124 185 180 124 185 180 124 185 180 124 185 180 124
185 180 124 185 180 124 185 180 124 185 180 124 185 180 124
185 180 124 185 180 124 185 180 124 185 180 124 185 180 124
186 181 126 189 186 133 191 189 138 190 190 140 187 189 139
188 190 140 190 190 140 189 189 139 190 190 140 190 190 140
190 190 140 190 190 140 190 190 140 190 190 140 190 190 140
190 190 140 190 190 140 190 190 140 190 190 140 190 190 140
190 190 140 190 190 140 190 190 140 190 190 140 191 189 138
189 189 139 190 189 141 190 192 145 192 195 150 191 197 153
191 196 155 191 196 155 191 197 153 191 197 153 191 197 153
191 197 153 191 197 153 191 197 153 191 197 153 191 197 153
191 197 153 191 197 153 191 197 153 191 197 153 191 197 153
191 197 153 191 197 153 191 197 153 191 197 153 191 196 155
192 197 157 193 197 160 192 198 162 192 198 164 192 198 162
192 198 162 192 198 162 192 198 162 192 198 162 192 198 162
192 198 162 192 198 162 192 198 162 192 198 162 192 198 162
192 198 162 192 198 162 192 198 162 192 198 162 192 198 162
192 198 162 192 198 162 192 198 162 192 198 162 192 198 162
192 198 162 192 198 162 192 198 162 192 198 162 192 198 162
191 198 164 191 198 164 191 198 164 191 198 164 191 198 164
191 198 164 191 198 164 191 198 164 191 198 164 191 198 164
191 198 164 191 198 164 191 198 164 191 198 164 191 198 164
191 198 164 191 198 164 191 198 164 191 198 164 191 198 164
191 198 164 191 198 164 191 198 164 191 198 164 191 198 164
191 198 164 191 198 164 191 198 164 191 198 164 191 198 164
191 198 164 191 198 164 191 198 164 192 199 165 193 200 166
193 200 166 193 200 167 193 200 167 193 200 167 193 200 167
193 200 167 193 200 167 193 200 167 193 200 167 193 200 167
193 200 167 193 200 167 193 200 167 193 200 167 193 200 167
193 200 167 193 200 167 193 200 167 193 200 167 193 200 167
193 200 167 194 199 167 193 200 167 193 200 167 193 200 167
193 200 169 191 200 169 192 201 170 192 201 170 192 201 170
192 201 170 192 201 170 192 201 170 192 201 170 192 201 170
192 201 170 192 201 170 192 201 170 192 201 170 192 201 170
192 201 170 192 201 170 192 201 170 192 201 170 192 201 170
192 201 170 192 201 170 192 201 170 192 201 170 192 201 170
192 201 170 192 201 170 192 201 170 193 200 167 193 200 167
193 200 167 193 200 167 193 200 167 193 200 167 193 200 167
193 200 167 193 200 167 193 200 167 193 200 167 193 200 167
193 200 167 193 200 167 193 200 167 193 200 167 193 200 167
193 200 167 193 200 167 193 200 167 193 200 167 193 200 167
193 200 167 193 200 167 193 200 167 193 200 167 193 200 167
193 200 167 193 200 167 193 200 167 193 200 167 193 200 167
193 200 167 192 198 164 191 195 160 192 196 159 195 197 160
192 196 159 192 196 161 193 197 162 192 196 161 192 196 161
192 196 161 192 196 161 192 196 161 192 196 161 192 196 161
192 196 161 192 196 161 192 196 161 192 196 161 192 196 161
192 196 161 192 196 161 192 196 161 192 196 161 192 196 161
192 196 161 192 196 161 192 196 161 192 196 161 192 196 161
192 196 161 192 196 161 185 180 124 185 180 124 185 180 124
185 180 124 185 180 124 185 180 124 185 180 124 185 180 124
185 180 124 185 180 124 185 180 124 185 180 124 185 180 124
185 180 124 185 180 124 185 180 124 185 180 124 185 180 124
185 180 124 185 180 124 185 180 124 185 180 124 185 180 124
185 180 124 184 179 124 187 184 129 190 188 137 190 190 140
188 190 140 188 190 140 191 191 141 190 190 140 190 190 140
190 190 140 190 190 140 190 190 140 190 190 140 190 190 140
190 190 140 190 190 140 190 190 140 190 190 140 190 190 140
190 190 140 190 190 140 190 190 140 190 190 140 190 190 140
191 189 138 190 190 140 191 191 141 191 193 144 192 195 148
192 198 152 192 198 154 190 195 154 191 197 153 191 197 153
191 197 153 191 197 153 191 197 153 191 197 153 191 197 153
191 197 153 191 197 153 191 197 153 191 197 153 191 197 153
191 197 153 191 197 153 191 197 153 191 197 153 191 197 153
191 196 155 192 197 157 193 197 160 192 198 162 192 198 164
192 198 162 192 198 162 192 198 162 192 198 162 192 198 162
192 198 162 192 198 162 192 198 162 192 198 162 192 198 162
192 198 162 192 198 162 192 198 162 192 198 162 192 198 162
192 198 162 192 198 162 192 198 162 192 198 162 192 198 162
192 198 162 192 198 162 192 198 162 192 198 162 192 198 162
192 198 162 191 198 164 191 198 164 191 198 164 191 198 164
191 198 164 191 198 164 191 198 164 191 198 164 191 198 164
191 198 164 191 198 164 191 198 164 191 198 164 191 198 164
191 198 164 191 198 164 191 198 164 191 198 164 191 198 164
191 198 164 191 198 164 191 198 164 191 198 164 191 198 164
191 198 164 191 198 164 191 198 164 191 198 164 191 198 164
191 198 164 191 198 164 191 198 164 191 198 164 192 199 165
193 200 166 193 200 166 193 200 167 193 200 167 193 200 167
193 200 167 193 200 167 193 200 167 193 200 167 193 200 167
193 200 167 193 200 167 193 200 167 193 200 167 193 200 167
193 200 167 193 200 167 193 200 167 193 200 167 193 200 167
193 200 167 193 200 167 194 199 167 193 200 167 193 200 167
193 200 167 193 200 169 191 200 169 192 201 170 192 201 170
192 201 170 192 201 170 192 201 170 192 201 170 192 201 170
192 201 170 192 201 170 192 201 170 192 201 170 192 201 170
192 201 170 192 201 170 192 201 170 192 201 170 192 201 170
192 201 170 192 201 170 192 201 170 192 201 170 192 201 170
192 201 170 192 201 170 192 201 170 192 201 170 193 200 167
193 200 167 193 200 167 193 200 167 193 200 167 193 200 167
193 200 167 193 200 167 193 200 167 193 200 167 193 200 167
193 200 167 193 200 167 193 200 167 193 200 167 193 200 167
193 200 167 193 200 167 193 200 167 193 200 167 193 200 167
193 200 167 193 200 167 193 200 167 193 200 167 193 200 167
193 200 167 193 200 167 193 200 167 193 200 167 193 200 167
193 200 167 193 200 167 192 198 164 191 195 160 192 196 159
195 197 160 192 196 159 192 196 161 193 197 162 192 196 161
192 196 161 192 196 161 192 196 161 192 196 161 192 196 161
192 196 161 192 196 161 192 196 161 192 196 161 192 196 161
192 196 161 192 196 161 192 196 161 192 196 161 192 196 161
192 196 161 192 196 161 192 196 161 192 196 161 192 196 161
192 196 161 192 196 161 192 196 161 185 180 124 185 180 124
185 180 124 185 180 124 185 180 124 185 180 124 185 180 124
185 180 124 185 180 124 185 180 124 185 180 124 185 180 124
185 180 124 185 180 124 185 180 124 185 180 124 185 180 124
185 180 124 185 180 124 185 180 124 185 180 124 185 180 124
185 180 124 185 180 124 183 178 122 186 183 128 189 188 134
191 191 141 188 190 140 188 190 141 190 190 140 191 191 141
190 190 140 190 190 140 190 190 140 190 190 140 190 190 140
190 190 140 190 190 140 190 190 140 190 190 140 190 190 140
190 190 140 190 190 140 190 190 140 190 190 140 190 190 140
190 190 140 190 188 139 190 190 140 191 191 141 190 192 143
192 195 148 192 198 152 192 198 154 190 195 154 191 197 153
191 197 153 191 197 153 191 197 153 191 197 153 191 197 153
191 197 153 191 197 153 191 197 153 191 197 153 191 197 153
191 197 153 191 197 153 191 197 153 191 197 153 191 197 153
191 197 153 191 196 155 192 197 157 193 197 160 192 198 162
192 198 164 192 198 162 192 198 162 192 198 162 192 198 162
192 198 162 192 198 162 192 198 162 192 198 162 192 198 162
192 198 162 192 198 162 192 198 162 192 198 162 192 198 162
192 198 162 192 198 162 192 198 162 192 198 162 192 198 162
192 198 162 192 198 162 192 198 162 192 198 162 192 198 162
192 198 162 192 198 162 191 198 164 191 198 164 191 198 164
191 198 164 191 198 164 191 198 164 191 198 164 191 198 164
191 198 164 191 198 164 191 198 164 191 198 164 191 198 164
191 198 164 191 198 164 191 198 164 191 198 164 191 198 164
191 198 164 191 198 164 191 198 164 191 198 164 191 198 164
191 198 164 191 198 164 191 198 164 191 198 164 191 198 164
191 198 164 191 198 164 191 198 164 191 198 164 191 198 164
192 199 165 193 200 166 193 200 166 193 200 167 193 200 167
193 200 167 193 200 167 193 200 167 193 200 167 193 200 167
193 200 167 193 200 167 193 200 167 193 200 167 193 200 167
193 200 167 193 200 167 193 200 167 193 200 167 193 200 167
193 200 167 193 200 167 193 200 167 194 199 167 193 200 167
193 200 167 193 200 167 193 200 169 191 200 169 192 201 170
192 201 170 192 201 170 192 201 170 192 201 170 192 201 170
192 201 170 192 201 170 192 201 170 192 201 170 192 201 170
192 201 170 192 201 170 192 201 170 192 201 170 192 201 170
192 201 170 192 201 170 192 201 170 192 201 170 192 201 170
192 201 170 192 201 170 192 201 170 192 201 170 192 201 170
193 200 167 193 200 167 193 200 167 193 200 167 193 200 167
193 200 167 193 200 167 193 200 167 193 200 167 193 200 167
193 200 167 193 200 167 193 200 167 193 200 167 193 200 167
193 200 167 193 200 167 193 200 167 193 200 167 193 200 167
193 200 167 193 200 167 193 200 167 193 200 167 193 200 167
193 200 167 193 200 167 193 200 167 193 200 167 193 200 167
193 200 167 193 200 167 193 200 167 192 198 164 191 195 160
192 196 159 195 197 160 192 196 159 192 196 161 193 197 162
192 196 161 192 196 161 192 196 161 192 196 161 192 196 161
192 196 161 192 196 161 192 196 161 192 196 161 192 196 161
192 196 161 192 196 161 192 196 161 192 196 161 192 196 161
192 196 161 192 196 161 192 196 161 192 196 161 192 196 161
192 196 161 192 196 161 192 196 161 192 196 161 185 180 124
185 180 124 185 180 124 185 180 124 185 180 124 185 180 124
185 180 124 185 180 124 185 180 124 185 180 124 185 180 124
185 180 124 185 180 124 185 180 124 185 180 124 185 180 124
185 180 124 185 180 124 185 180 124 185 180 124 185 180 124
185 180 124 185 180 124 185 180 124 184 179 123 185 182 127
189 188 134 191 191 141 189 191 141 188 190 141 190 189 141
190 189 141 190 190 140 190 190 140 190 190 140 190 190 140
190 190 140 190 190 140 190 190 140 190 190 140 190 190 140
190 190 140 190 190 140 190 190 140 190 190 140 190 190 140
190 190 140 190 190 140 190 188 139 190 190 140 190 190 140
189 191 141 190 194 144 192 198 152 192 198 154 190 195 154
191 197 153 191 197 153 191 197 153 191 197 153 191 197 153
191 197 153 191 197 153 191 197 153 191 197 153 191 197 153
191 197 153 191 197 153 191 197 153 191 197 153 191 197 153
191 197 153 191 197 153 191 196 155 192 197 157 193 197 160
192 198 162 192 198 164 192 198 162 192 198 162 192 198 162
192 198 162 192 198 162 192 198 162 192 198 162 192 198 162
192 198 162 192 198 162 192 198 162 192 198 162 192 198 162
192 198 162 192 198 162 192 198 162 192 198 162 192 198 162
192 198 162 192 198 162 192 198 162 192 198 162 192 198 162
192 198 162 192 198 162 192 198 162 191 198 164 191 198 164
191 198 164 191 198 164 191 198 164 191 198 164 191 198 164
191 198 164 191 198 164 191 198 164 191 198 164 191 198 164
191 198 164 191 198 164 191 198 164 191 198 164 191 198 164
191 198 164 191 198 164 191 198 164 191 198 164 191 198 164
191 198 164 191 198 164 191 198 164 191 198 164 191 198 164
191 198 164 191 198 164 191 198 164 191 198 164 191 198 164
191 198 164 192 199 165 193 200 166 193 200 166 193 200 167
193 200 167 193 200 167 193 200 167 193 200 167 193 200 167
193 200 167 193 200 167 193 200 167 193 200 167 193 200 167
193 200 167 193 200 167 193 200 167 193 200 167 193 200 167
193 200 167 193 200 167 193 200 167 193 200 167 194 199 167
193 200 167 193 200 167 193 200 167 193 200 169 191 200 169
192 201 170 192 201 170 192 201 170 192 201 170 192 201 170
192 201 170 192 201 170 192 201 170 192 201 170 192 201 170
192 201 170 192 201 170 192 201 170 192 201 170 192 201 170
192 201 170 192 201 170 192 201 170 192 201 170 192 201 170
192 201 170 192 201 170 192 201 170 192 201 170 192 201 170
192 201 170 193 200 167 193 200 167 193 200 167 193 200 167
193 200 167 193 200 167 193 200 167 193 200 167 193 200 167
193 200 167 193 200 167 193 200 167 193 200 167 193 200 167
193 200 167 193 200 167 193 200 167 193 200 167 193 200 167
193 200 167 193 200 167 193 200 167 193 200 167 193 200 167
193 200 167 193 200 167 193 200 167 193 200 167 193 200 167
193 200 167 193 200 167 193 200 167 193 200 167 192 198 164
191 195 160 192 196 159 195 197 160 192 196 159 192 196 161
193 197 162 192 196 161 192 196 161 192 196 161 192 196 161
192 196 161 192 196 161 192 196 161 192 196 161 192 196 161
192 196 161 192 196 161 192 196 161 192 196 161 192 196 161
192 196 161 192 196 161 192 196 161 192 196 161 192 196 161
192 196 161 192 196 161 192 196 161 192 196 161 192 196 161
185 180 124 185 180 124 185 180 124 185 180 124 185 180 124
185 180 124 185 180 124 185 180 124 185 180 124 185 180 124
185 180 124 185 180 124 185 180 124 185 180 124 185 180 124
185 180 124 185 180 124 185 180 124 185 180 124 185 180 124
185 180 124 185 180 124 185 180 124 185 180 124 184 179 123
186 183 128 189 188 134 191 191 139 189 191 141 187 189 140
189 188 140 190 189 141 190 190 140 190 190 140 190 190 140
190 190 140 190 190 140 190 190 140 190 190 140 190 190 140
190 190 140 190 190 140 190 190 140 190 190 140 190 190 140
190 190 140 190 190 140 190 190 140 190 188 139 190 190 140
189 189 137 187 189 139 188 192 142 191 197 151 192 198 154
190 195 154 191 197 153 191 197 153 191 197 153 191 197 153
191 197 153 191 197 153 191 197 153 191 197 153 191 197 153
191 197 153 191 197 153 191 197 153 191 197 153 191 197 153
191 197 153 191 197 153 191 197 153 191 196 155 192 197 157
193 197 160 192 198 162 192 198 164 192 198 162 192 198 162
192 198 162 192 198 162 192 198 162 192 198 162 192 198 162
192 198 162 192 198 162 192 198 162 192 198 162 192 198 162
192 198 162 192 198 162 192 198 162 192 198 162 192 198 162
192 198 162 192 198 162 192 198 162 192 198 162 192 198 162
192 198 162 192 198 162 192 198 162 192 198 162 191 198 164
191 198 164 191 198 164 191 198 164 191 198 164 191 198 164
191 198 164 191 198 164 191 198 164 191 198 164 191 198 164
191 198 164 191 198 164 191 198 164 191 198 164 191 198 164
191 198 164 191 198 164 191 198 164 191 198 164 191 198 164
191 198 164 191 198 164 191 198 164 191 198 164 191 198 164
191 198 164 191 198 164 191 198 164 191 198 164 191 198 164
191 198 164 191 198 164 192 199 165 193 200 166 193 200 166
193 200 167 193 200 167 193 200 167 193 200 167 193 200 167
193 200 167 193 200 167 193 200 167 193 200 167 193 200 167
193 200 167 193 200 167 193 200 167 193 200 167 193 200 167
193 200 167 193 200 167 193 200 167 193 200 167 193 200 167
194 199 167 193 200 167 193 200 167 193 200 167 193 200 169
191 200 169 192 201 170 192 201 170 192 201 170 192 201 170
192 201 170 192 201 170 192 201 170 192 201 170 192 201 170
192 201 170 192 201 170 192 201 170 192 201 170 192 201 170
192 201 170 192 201 170 192 201 170 192 201 170 192 201 170
192 201 170 192 201 170 192 201 170 192 201 170 192 201 170
192 201 170 192 201 170 193 200 167 193 200 167 193 200 167
193 200 167 193 200 167 193 200 167 193 200 167 193 200 167
193 200 167 193 200 167 193 200 167 193 200 167 193 200 167
193 200 167 193 200 167 193 200 167 193 200 167 193 200 167
193 200 167 193 200 167 193 200 167 193 200 167 193 200 167
193 200 167 193 200 167 193 200 167 193 200 167 193 200 167
193 200 167 193 200 167 193 200 167 193 200 167 193 200 167
192 198 164 191 195 160 192 196 159 195 197 160 192 196 159
192 196 161 193 197 162 192 196 161 192 196 161 192 196 161
192 196 161 192 196 161 192 196 161 192 196 161 192 196 161
192 196 161 192 196 161 192 196 161 192 196 161 192 196 161
192 196 161 192 196 161 192 196 161 192 196 161 192 196 161
192 196 161 192 196 161 192 196 161 192 196 161 192 196 161
192 196 161
